; generated by PrusaSlicer 2.6.0+MacOS-x64 on 2023-08-18 at 14:42:47 UTC

; 

; external perimeters extrusion width = 0.45mm
; perimeters extrusion width = 0.40mm
; infill extrusion width = 0.45mm
; solid infill extrusion width = 0.50mm
; top infill extrusion width = 0.45mm
; support material extrusion width = 0.42mm
; first layer extrusion width = 0.56mm

M201 X2500 Y2500 Z800 E2500 ; sets maximum accelerations, mm/sec^2
M203 X300 Y250 Z8 E80 ; sets maximum feedrates, mm / sec
M204 S2500 T2500 ; sets acceleration (S) and retract acceleration (R), mm/sec^2
M205 X15.00 Y10.00 Z2.00 E10.00 ; sets the jerk limits, mm/sec
M205 S0 T0 ; sets the minimum extruding and travel feed rate, mm/sec
;TYPE:Custom
G90 ; use absolute coordinates
M83 ; extruder relative mode
M104 S215 ; set extruder temp
M140 S65 ; set bed temp
M190 S65 ; wait for bed temp
M109 S215 ; wait for extruder temp
G28                                        ; move X/Y/Z to min endstops
G1 Z0.28                                   ; lift nozzle a bit
 
G0 Y235      ; move to max Y (within soft-limit)


G92 E0 
G1 Y3 F1800                                    ; zero the extruded length 
G1 X60  E25 F500                       ; Extrude 25mm of filament in a 5cm line. 
G92 E0                                     ; zero the extruded length again 
G1 E-2 F500                                ; Retract a little 
G1 X70 F4000                              ; Quickly wipe away from the filament line

M211 S0      ; disable software endstop
G0 Y245 X80       ; push forward past the endstop to the nozzle wiper

G0 X90       ; move X to the nozzle wiper
G0 X80       ; move X to wipe the nozzle


M117

G28          ; home all
M211 S1      ; enable software endstop
G21 ; set units to millimeters
G90 ; use absolute coordinates
M82 ; use absolute distances for extrusion
G92 E0
M107
;LAYER_CHANGE
;Z:0.28
;HEIGHT:0.28
; BEFORE_LAYER_CHANGE 0 @ 0.28mm
G1 E-2 F4800
G92 E0
G1 Z.28 F7200
; AFTER_LAYER_CHANGE 0 @ 0.28mm
G1 X104.515 Y109.277
G1 E2 F4800
M204 S2000
;TYPE:Support material
;WIDTH:0.56
G1 F3000
G1 X100.583 Y109.277 E2.22882
G1 X100.583 Y97.706 E2.90219
G1 X104.515 Y97.706 E3.13101
G1 X104.515 Y109.202 E3.80002
M204 S2500
G1 X103.891 Y109.052 F7200
M204 S2000
G1 F3000
G1 X103.891 Y98.156 E4.43411
G1 X103.335 Y98.156 E4.46647
G1 X103.335 Y108.827 E5.08747
G1 X102.78 Y108.827 E5.11977
G1 X102.78 Y98.156 E5.74077
G1 X102.224 Y98.156 E5.77313
G1 X102.224 Y108.827 E6.39413
G1 X101.669 Y108.827 E6.42643
G1 X101.669 Y98.156 E7.04743
G1 X101.114 Y98.156 E7.07973
G1 X101.114 Y109.052 E7.71382
M204 S2500
G1 E6.31382 F4800
;WIPE_START
G1 F5760
G1 X101.114 Y108.294 E5.71382
;WIPE_END
G92 E0
G1 X124.6 Y134.318 F7200
G1 E2 F4800
M204 S2000
;TYPE:External perimeter
G1 F3000
G1 X105.4 Y134.318 E3.11734
G1 X105.4 Y95.542 E5.37391
G1 X124.6 Y95.542 E6.49125
G1 X124.6 Y134.258 E8.74433
M204 S2500
G1 X124.227 Y134.173 F7200
G1 X124.1 Y133.818
M204 S2000
;TYPE:Perimeter
G1 F3000
G1 X105.9 Y133.818 E9.80348
G1 X105.9 Y96.042 E12.00185
G1 X124.1 Y96.042 E13.061
G1 X124.1 Y133.758 E15.25588
M204 S2500
G1 X123.6 Y133.318 F7200
M204 S2000
G1 F3000
G1 X106.4 Y133.318 E16.25683
G1 X106.4 Y96.542 E18.39701
G1 X123.6 Y96.542 E19.39796
G1 X123.6 Y133.258 E21.53465
M204 S2500
G1 E20.13465 F4800
;WIPE_START
G1 F5760
G1 X122.842 Y133.261 E19.53465
;WIPE_END
G92 E0
G1 X113.003 Y107.195 F7200
G1 E2 F4800
M204 S2000
;TYPE:External perimeter
G1 F3000
G1 X113.037 Y106.752 E2.02586
G1 X113.15 Y106.376 E2.04871
G1 X113.335 Y106.03 E2.07154
G1 X113.584 Y105.727 E2.09436
G1 X113.888 Y105.478 E2.11723
G1 X114.234 Y105.293 E2.14006
G1 X114.609 Y105.179 E2.16287
G1 X114.991 Y105.141 E2.18521
G1 X115.39 Y105.178 E2.20853
G1 X115.766 Y105.293 E2.23141
G1 X116.112 Y105.478 E2.25424
G1 X116.416 Y105.727 E2.27711
G1 X116.665 Y106.03 E2.29993
G1 X116.85 Y106.376 E2.32276
G1 X116.963 Y106.752 E2.34561
G1 X117.002 Y107.142 E2.36842
G1 X116.963 Y107.533 E2.39129
G1 X116.85 Y107.908 E2.41408
G1 X116.665 Y108.254 E2.43691
G1 X116.416 Y108.558 E2.45978
G1 X116.112 Y108.807 E2.48265
G1 X115.766 Y108.992 E2.50548
G1 X115.391 Y109.106 E2.52829
G1 X115 Y109.144 E2.55115
G1 X114.609 Y109.106 E2.57401
G1 X114.234 Y108.992 E2.59682
G1 X113.888 Y108.807 E2.61965
G1 X113.584 Y108.558 E2.64252
G1 X113.335 Y108.254 E2.66539
G1 X113.15 Y107.908 E2.68822
G1 X113.037 Y107.533 E2.71101
G1 X113.009 Y107.255 E2.72727
M204 S2500
G1 X112.653 Y107.001 F7200
G1 X112.5 Y107.183
M204 S2000
;TYPE:Perimeter
G1 F3000
G1 X112.544 Y106.654 E2.75816
G1 X112.686 Y106.184 E2.78673
G1 X112.918 Y105.751 E2.81532
G1 X113.229 Y105.371 E2.8439
G1 X113.609 Y105.06 E2.87248
G1 X114.042 Y104.828 E2.90107
G1 X114.511 Y104.686 E2.92959
G1 X114.99 Y104.638 E2.9576
G1 X115.487 Y104.686 E2.98666
G1 X115.958 Y104.829 E3.01531
G1 X116.391 Y105.06 E3.04387
G1 X116.771 Y105.371 E3.07245
G1 X117.082 Y105.751 E3.10103
G1 X117.314 Y106.184 E3.12962
G1 X117.456 Y106.654 E3.15819
G1 X117.504 Y107.142 E3.18673
G1 X117.456 Y107.631 E3.21532
G1 X117.314 Y108.1 E3.24384
G1 X117.082 Y108.533 E3.27243
G1 X116.771 Y108.913 E3.30101
G1 X116.391 Y109.224 E3.32959
G1 X115.958 Y109.456 E3.35818
G1 X115.489 Y109.598 E3.3867
G1 X115 Y109.646 E3.41529
G1 X114.511 Y109.598 E3.44388
G1 X114.042 Y109.456 E3.4724
G1 X113.609 Y109.224 E3.50099
G1 X113.229 Y108.913 E3.52957
G1 X112.918 Y108.533 E3.55815
G1 X112.686 Y108.101 E3.58669
G1 X112.544 Y107.631 E3.61526
G1 X112.506 Y107.243 E3.63795
M204 S2500
G1 X112.002 Y107.225 F7200
M204 S2000
G1 F3000
G1 X111.993 Y107.142 E3.64281
G1 X112.051 Y106.556 E3.67708
G1 X112.222 Y105.992 E3.71138
G1 X112.5 Y105.472 E3.74569
G1 X112.874 Y105.016 E3.78001
G1 X113.33 Y104.642 E3.81433
G1 X113.849 Y104.364 E3.84859
G1 X114.412 Y104.194 E3.88281
G1 X114.988 Y104.136 E3.9165
G1 X115.584 Y104.193 E3.95134
G1 X116.151 Y104.364 E3.9858
G1 X116.67 Y104.642 E4.02006
G1 X117.126 Y105.016 E4.05438
G1 X117.5 Y105.472 E4.0887
G1 X117.778 Y105.992 E4.12301
G1 X117.949 Y106.556 E4.15731
G1 X118.007 Y107.142 E4.19158
G1 X117.949 Y107.729 E4.22591
G1 X117.778 Y108.293 E4.26021
G1 X117.5 Y108.813 E4.29452
G1 X117.126 Y109.268 E4.3288
G1 X116.67 Y109.642 E4.36312
G1 X116.151 Y109.92 E4.39738
G1 X115.587 Y110.091 E4.43168
G1 X115 Y110.149 E4.46601
G1 X114.413 Y110.091 E4.50034
G1 X113.849 Y109.92 E4.53464
G1 X113.33 Y109.642 E4.5689
G1 X112.874 Y109.268 E4.60322
G1 X112.5 Y108.813 E4.6375
G1 X112.222 Y108.293 E4.67181
G1 X112.051 Y107.729 E4.70611
G1 X112.007 Y107.285 E4.73208
M204 S2500
G1 E3.33208 F4800
;WIPE_START
G1 F5760
G1 X111.993 Y107.142 E3.21833
G1 X112.051 Y106.556 E2.75215
G1 X112.058 Y106.532 E2.73208
;WIPE_END
G92 E0
G1 X123.4 Y97.758 F7200
G1 E2 F4800
M204 S2000
;TYPE:Solid infill
;WIDTH:0.562384
G1 F3000
G1 X122.61 Y96.967 E2.06537
G1 X121.899 Y96.967 E2.10694
G1 X123.175 Y98.243 E2.21246
G1 X123.175 Y98.953 E2.25398
G1 X121.189 Y96.967 E2.41821
G1 X120.479 Y96.967 E2.45973
G1 X123.175 Y99.664 E2.68271
G1 X123.175 Y100.374 E2.72423
G1 X119.768 Y96.967 E3.00596
G1 X119.058 Y96.967 E3.04748
G1 X123.175 Y101.084 E3.38793
G1 X123.175 Y101.795 E3.4295
G1 X118.347 Y96.967 E3.82874
G1 X117.637 Y96.967 E3.87026
G1 X123.175 Y102.505 E4.32821
G1 X123.175 Y103.215 E4.36973
G1 X116.927 Y96.967 E4.88639
G1 X116.216 Y96.967 E4.92796
G1 X123.175 Y103.926 E5.50342
G1 X123.175 Y104.636 E5.54494
G1 X115.506 Y96.967 E6.17911
G1 X114.796 Y96.967 E6.22063
G1 X123.175 Y105.346 E6.91351
G1 X123.175 Y106.057 E6.95508
G1 X114.085 Y96.967 E7.70676
G1 X113.375 Y96.967 E7.74828
G1 X123.175 Y106.767 E8.55867
G1 X123.175 Y107.478 E8.60024
G1 X112.665 Y96.967 E9.46938
G1 X111.954 Y96.967 E9.51095
G1 X123.175 Y108.188 E10.43884
G1 X123.175 Y108.898 E10.48036
G1 X111.244 Y96.967 E11.46697
G1 X110.534 Y96.967 E11.50849
G1 X123.175 Y109.609 E12.55385
G1 X123.175 Y110.319 E12.59537
G1 X109.823 Y96.967 E13.69948
G1 X109.113 Y96.967 E13.741
G1 X116.03 Y103.884 E14.31298
G1 X116.314 Y103.97 E14.33033
G1 X116.908 Y104.287 E14.3697
G1 X117.428 Y104.714 E14.40904
G1 X117.855 Y105.235 E14.44843
G1 X118.172 Y105.828 E14.48775
G1 X118.258 Y106.113 E14.50516
G1 X123.175 Y111.029 E14.91172
G1 X123.175 Y111.74 E14.95329
G1 X118.418 Y106.982 E15.3467
G1 X118.434 Y107.142 E15.3561
G1 X118.383 Y107.658 E15.38642
G1 X123.175 Y112.45 E15.78268
G1 X123.175 Y113.16 E15.8242
G1 X118.242 Y108.227 E16.23212
G1 X118.172 Y108.456 E16.24612
G1 X118.029 Y108.724 E16.26388
G1 X123.175 Y113.871 E16.68946
G1 X123.175 Y114.581 E16.73098
G1 X117.76 Y109.166 E17.17876
G1 X117.44 Y109.556 E17.20826
G1 X123.175 Y115.291 E17.6825
G1 X123.175 Y116.002 E17.72407
G1 X117.052 Y109.879 E18.2304
G1 X116.908 Y109.997 E18.24129
G1 X116.616 Y110.153 E18.26065
G1 X123.175 Y116.712 E18.80303
G1 X123.175 Y117.422 E18.84455
G1 X116.125 Y110.372 E19.42753
G1 X115.67 Y110.51 E19.45533
G1 X115.563 Y110.52 E19.46161
G1 X123.175 Y118.133 E20.09111
G1 X123.175 Y118.843 E20.13263
G1 X114.647 Y110.315 E20.83783
M204 S2500
G1 E19.43783 F4800
;WIPE_START
G1 F5760
G1 X115.183 Y110.851 E18.83783
;WIPE_END
G92 E0
G1 X115.411 Y103.975 F7200
G1 E2 F4800
M204 S2000
G1 F3000
G1 X108.402 Y96.967 E2.57955
G1 X107.692 Y96.967 E2.62107
G1 X114.485 Y103.759 E3.18276
G1 X114.329 Y103.775 E3.19193
G1 X113.915 Y103.9 E3.21722
G1 X106.982 Y96.967 E3.79053
G1 X106.825 Y96.967 E3.79971
G1 X106.825 Y97.52 E3.83205
G1 X113.418 Y104.113 E4.37724
G1 X113.092 Y104.287 E4.39885
G1 X112.977 Y104.382 E4.40757
G1 X106.825 Y98.231 E4.91625
G1 X106.825 Y98.941 E4.95777
G1 X112.586 Y104.703 E5.4342
G1 X112.264 Y105.09 E5.46364
G1 X106.825 Y99.651 E5.91341
G1 X106.825 Y100.362 E5.95498
G1 X111.989 Y105.526 E6.382
G1 X111.828 Y105.828 E6.40201
G1 X111.77 Y106.018 E6.41363
G1 X106.825 Y101.072 E6.82259
G1 X106.825 Y101.782 E6.86411
G1 X111.622 Y106.579 E7.26079
G1 X111.566 Y107.142 E7.29387
G1 X111.577 Y107.244 E7.29987
G1 X106.825 Y102.493 E7.69278
G1 X106.825 Y103.203 E7.7343
G1 X111.719 Y108.097 E8.139
G1 X111.828 Y108.456 E8.16094
G1 X112.145 Y109.05 E8.20031
G1 X112.572 Y109.57 E8.23965
G1 X113.092 Y109.997 E8.27899
G1 X113.686 Y110.314 E8.31836
G1 X114.045 Y110.423 E8.3403
G1 X123.175 Y119.554 E9.09532
G1 X123.175 Y120.264 E9.13684
G1 X106.825 Y103.913 E10.48891
G1 X106.825 Y104.624 E10.53048
G1 X123.175 Y120.974 E11.8825
G1 X123.175 Y121.685 E11.92407
G1 X106.825 Y105.334 E13.27614
G1 X106.825 Y106.044 E13.31766
G1 X123.175 Y122.395 E14.66973
G1 X123.175 Y123.105 E14.71125
G1 X106.825 Y106.755 E16.06327
G1 X106.825 Y107.465 E16.10479
G1 X123.175 Y123.816 E17.45686
G1 X123.175 Y124.526 E17.49838
G1 X106.825 Y108.176 E18.8504
G1 X106.825 Y108.886 E18.89192
G1 X123.175 Y125.236 E20.24394
G1 X123.175 Y125.947 E20.28551
G1 X106.825 Y109.596 E21.63758
G1 X106.825 Y110.307 E21.67915
G1 X123.175 Y126.657 E23.03117
G1 X123.175 Y127.367 E23.07269
G1 X106.825 Y111.017 E24.42471
G1 X106.825 Y111.727 E24.46623
G1 X123.175 Y128.078 E25.8183
G1 X123.175 Y128.788 E25.85982
G1 X106.825 Y112.438 E27.21184
G1 X106.825 Y113.148 E27.25336
G1 X123.175 Y129.498 E28.60538
G1 X123.175 Y130.209 E28.64695
G1 X106.825 Y113.858 E29.99902
G1 X106.825 Y114.569 E30.04059
G1 X123.175 Y130.919 E31.39261
G1 X123.175 Y131.63 E31.43418
G1 X106.825 Y115.279 E32.78625
G1 X106.825 Y115.989 E32.82777
G1 X123.175 Y132.34 E34.17984
G1 X123.175 Y132.893 E34.21218
G1 X123.018 Y132.893 E34.22136
G1 X106.825 Y116.7 E35.5604
G1 X106.825 Y117.41 E35.60192
G1 X122.308 Y132.893 E36.88225
G1 X121.597 Y132.893 E36.92382
G1 X106.825 Y118.12 E38.1454
G1 X106.825 Y118.831 E38.18697
G1 X120.887 Y132.893 E39.34979
G1 X120.177 Y132.893 E39.39131
G1 X106.825 Y119.541 E40.49542
G1 X106.825 Y120.252 E40.53699
G1 X119.466 Y132.893 E41.58231
G1 X118.756 Y132.893 E41.62383
G1 X106.825 Y120.962 E42.61044
G1 X106.825 Y121.672 E42.65196
G1 X118.046 Y132.893 E43.57985
G1 X117.335 Y132.893 E43.62142
G1 X106.825 Y122.383 E44.49052
G1 X106.825 Y123.093 E44.53204
G1 X116.625 Y132.893 E45.34243
G1 X115.915 Y132.893 E45.38395
G1 X106.825 Y123.803 E46.13563
G1 X106.825 Y124.514 E46.1772
G1 X115.204 Y132.893 E46.87008
G1 X114.494 Y132.893 E46.9116
G1 X106.825 Y125.224 E47.54577
G1 X106.825 Y125.934 E47.58729
G1 X113.784 Y132.893 E48.16275
G1 X113.073 Y132.893 E48.20432
G1 X106.825 Y126.645 E48.72098
G1 X106.825 Y127.355 E48.7625
G1 X112.363 Y132.893 E49.22045
G1 X111.652 Y132.893 E49.26202
G1 X106.825 Y128.065 E49.66122
G1 X106.825 Y128.776 E49.70279
G1 X110.942 Y132.893 E50.04324
G1 X110.232 Y132.893 E50.08476
G1 X106.825 Y129.486 E50.36649
G1 X106.825 Y130.196 E50.40801
G1 X109.521 Y132.893 E50.63099
G1 X108.811 Y132.893 E50.67251
G1 X106.825 Y130.907 E50.83674
G1 X106.825 Y131.617 E50.87826
G1 X108.101 Y132.893 E50.98378
G1 X107.39 Y132.893 E51.02535
G1 X106.6 Y132.103 E51.09068
M204 S2500
;LAYER_CHANGE
;Z:0.48
;HEIGHT:0.2
; BEFORE_LAYER_CHANGE 1 @ 0.48mm
G1 E49.69068 F4800
;WIPE_START
G1 F5760
G1 X107.136 Y132.639 E49.09068
;WIPE_END
G92 E0
G1 Z.48 F7200
; AFTER_LAYER_CHANGE 1 @ 0.48mm
M104 S195 ; set temperature
G1 X124.755 Y134.233
G1 E2 F4800
;TYPE:External perimeter
;WIDTH:0.45
G1 X105.245 Y134.233 E2.66039
G1 X105.245 Y95.387 E3.97528
G1 X124.755 Y95.387 E4.63567
G1 X124.755 Y134.173 E5.94853
G1 X124.382 Y134.089 F7200
G1 X124.373 Y133.851
;TYPE:Perimeter
;WIDTH:0.4
G1 F9000
G1 X105.627 Y133.851 E6.50512
G1 X105.627 Y95.769 E7.63582
G1 X124.373 Y95.769 E8.19241
G1 X124.373 Y133.791 E9.32133
G1 X124.016 Y133.494 F7200
G1 F9000
G1 X105.984 Y133.494 E9.85672
G1 X105.984 Y96.126 E10.96622
G1 X124.016 Y96.126 E11.50161
G1 X124.016 Y133.434 E12.60933
G1 E11.20933 F4800
;WIPE_START
G1 F5760
G1 X123.258 Y133.437 E10.60933
;WIPE_END
G92 E0
G1 X113.157 Y107.169 F7200
G1 E2 F4800
;TYPE:External perimeter
;WIDTH:0.45
G1 F4860
G1 X113.189 Y106.782 E2.01314
G1 X113.294 Y106.436 E2.02538
G1 X113.465 Y106.116 E2.03766
G1 X113.695 Y105.837 E2.0499
G1 X113.974 Y105.607 E2.06214
G1 X114.293 Y105.436 E2.07439
G1 X114.639 Y105.332 E2.08662
G1 X114.976 Y105.297 E2.09809
G1 X115.359 Y105.331 E2.11111
G1 X115.707 Y105.436 E2.12341
G1 X116.026 Y105.607 E2.13566
G1 X116.305 Y105.837 E2.1479
G1 X116.535 Y106.116 E2.16014
G1 X116.706 Y106.436 E2.17242
G1 X116.811 Y106.782 E2.18466
G1 X116.846 Y107.142 E2.1969
G1 X116.811 Y107.502 E2.20914
G1 X116.706 Y107.849 E2.22141
G1 X116.535 Y108.168 E2.23366
G1 X116.305 Y108.448 E2.24593
G1 X116.026 Y108.677 E2.25815
G1 X115.706 Y108.848 E2.27043
G1 X115.36 Y108.953 E2.28267
G1 X115 Y108.988 E2.29491
G1 X114.64 Y108.953 E2.30715
G1 X114.294 Y108.848 E2.31939
G1 X113.974 Y108.677 E2.33167
G1 X113.695 Y108.448 E2.34389
G1 X113.465 Y108.168 E2.35616
G1 X113.294 Y107.849 E2.36841
G1 X113.189 Y107.502 E2.38068
G1 X113.162 Y107.229 E2.38997
G1 X112.818 Y106.979 F7200
G1 X112.773 Y107.177
;TYPE:Perimeter
;WIDTH:0.4
G1 F4860
G1 X112.813 Y106.707 E2.40398
G1 X112.94 Y106.289 E2.41695
G1 X113.146 Y105.903 E2.42994
G1 X113.423 Y105.565 E2.44292
G1 X113.761 Y105.288 E2.4559
G1 X114.147 Y105.082 E2.46889
G1 X114.563 Y104.955 E2.4818
G1 X114.974 Y104.913 E2.49407
G1 X115.432 Y104.954 E2.50772
G1 X115.853 Y105.082 E2.52079
G1 X116.239 Y105.288 E2.53378
G1 X116.577 Y105.565 E2.54676
G1 X116.854 Y105.903 E2.55974
G1 X117.06 Y106.289 E2.57273
G1 X117.187 Y106.707 E2.5857
G1 X117.23 Y107.142 E2.59868
G1 X117.187 Y107.577 E2.61166
G1 X117.06 Y107.996 E2.62466
G1 X116.854 Y108.381 E2.63762
G1 X116.577 Y108.719 E2.6506
G1 X116.239 Y108.996 E2.66358
G1 X115.853 Y109.202 E2.67657
G1 X115.435 Y109.329 E2.68954
G1 X115 Y109.372 E2.70252
G1 X114.565 Y109.329 E2.7155
G1 X114.147 Y109.202 E2.72847
G1 X113.761 Y108.996 E2.74146
G1 X113.423 Y108.719 E2.75444
G1 X113.146 Y108.381 E2.76742
G1 X112.94 Y107.996 E2.78038
G1 X112.813 Y107.577 E2.79338
G1 X112.779 Y107.236 E2.80355
G1 X112.417 Y107.207 F7200
G1 F4860
G1 X112.461 Y106.637 E2.82052
G1 X112.608 Y106.151 E2.8356
G1 X112.847 Y105.704 E2.85065
G1 X113.169 Y105.311 E2.86574
G1 X113.562 Y104.99 E2.88081
G1 X114.009 Y104.75 E2.89587
G1 X114.493 Y104.604 E2.91088
G1 X114.971 Y104.554 E2.92515
G1 X115.501 Y104.602 E2.94095
G1 X115.991 Y104.75 E2.95615
G1 X116.438 Y104.99 E2.97121
G1 X116.831 Y105.311 E2.98628
G1 X117.153 Y105.704 E3.00137
G1 X117.392 Y106.151 E3.01642
G1 X117.539 Y106.637 E3.0315
