; generated by PrusaSlicer 2.6.0+MacOS-x64 on 2023-08-18 at 20:51:22 UTC

; 

; external perimeters extrusion width = 0.45mm
; perimeters extrusion width = 0.40mm
; infill extrusion width = 0.45mm
; solid infill extrusion width = 0.50mm
; top infill extrusion width = 0.45mm
; support material extrusion width = 0.42mm
; first layer extrusion width = 0.56mm

M201 X2500 Y2500 Z800 E2500 ; sets maximum accelerations, mm/sec^2
M203 X300 Y250 Z8 E80 ; sets maximum feedrates, mm / sec
M204 S2500 T2500 ; sets acceleration (S) and retract acceleration (R), mm/sec^2
M205 X15.00 Y10.00 Z2.00 E10.00 ; sets the jerk limits, mm/sec
M205 S0 T0 ; sets the minimum extruding and travel feed rate, mm/sec
;TYPE:Custom
G90 ; use absolute coordinates
M83 ; extruder relative mode
M104 S215 ; set extruder temp
M140 S65 ; set bed temp
M190 S65 ; wait for bed temp
M109 S215 ; wait for extruder temp
G28                                        ; move X/Y/Z to min endstops
G1 Z0.28                                   ; lift nozzle a bit
 
G0 Y235      ; move to max Y (within soft-limit)


G92 E0 
G1 Y3 F1800                                    ; zero the extruded length 
G1 X60  E25 F500                       ; Extrude 25mm of filament in a 5cm line. 
G92 E0                                     ; zero the extruded length again 
G1 E-2 F500                                ; Retract a little 
G1 X70 F4000                              ; Quickly wipe away from the filament line

M211 S0      ; disable software endstop
G0 Y245 X80       ; push forward past the endstop to the nozzle wiper

G0 X90       ; move X to the nozzle wiper
G0 X80       ; move X to wipe the nozzle


M117

G28          ; home all
M211 S1      ; enable software endstop
G21 ; set units to millimeters
G90 ; use absolute coordinates
M82 ; use absolute distances for extrusion
G92 E0
M107
;LAYER_CHANGE
;Z:0.28
;HEIGHT:0.28
; BEFORE_LAYER_CHANGE 0 @ 0.28mm
G1 E-2 F4800
G92 E0
G1 Z.28 F7200
; AFTER_LAYER_CHANGE 0 @ 0.28mm
G1 X104.515 Y117.908
G1 E2 F4800
M204 S2000
;TYPE:Support material
;WIDTH:0.56
G1 F3000
G1 X100.583 Y117.908 E2.22882
G1 X100.583 Y97.706 E3.40447
G1 X104.515 Y97.706 E3.63329
G1 X104.515 Y117.833 E4.80458
M204 S2500
G1 X103.891 Y117.683 F7200
M204 S2000
G1 F3000
G1 X103.891 Y98.156 E5.94095
G1 X103.335 Y98.156 E5.97331
G1 X103.335 Y117.459 E7.09665
G1 X102.78 Y117.459 E7.12895
G1 X102.78 Y98.156 E8.25229
G1 X102.224 Y98.156 E8.28465
G1 X102.224 Y117.459 E9.40799
G1 X101.669 Y117.459 E9.44029
G1 X101.669 Y98.156 E10.56363
G1 X101.114 Y98.156 E10.59593
G1 X101.114 Y117.683 E11.7323
M204 S2500
G1 E10.3323 F4800
;WIPE_START
G1 F5760
G1 X101.114 Y116.925 E9.7323
;WIPE_END
G92 E0
G1 X129.417 Y117.908 F7200
G1 E2 F4800
M204 S2000
G1 F3000
G1 X125.485 Y117.908 E2.22882
G1 X125.485 Y97.706 E3.40447
G1 X129.417 Y97.706 E3.63329
G1 X129.417 Y117.833 E4.80458
M204 S2500
G1 X128.886 Y117.683 F7200
M204 S2000
G1 F3000
G1 X128.886 Y98.156 E5.94095
G1 X128.331 Y98.156 E5.97325
G1 X128.331 Y117.459 E7.09659
G1 X127.776 Y117.459 E7.12889
G1 X127.776 Y98.156 E8.25223
G1 X127.22 Y98.156 E8.28459
G1 X127.22 Y117.459 E9.40793
G1 X126.665 Y117.459 E9.44023
G1 X126.665 Y98.156 E10.56357
G1 X126.109 Y98.156 E10.59593
G1 X126.109 Y117.683 E11.7323
M204 S2500
G1 E10.3323 F4800
;WIPE_START
G1 F5760
G1 X126.109 Y116.925 E9.7323
;WIPE_END
G92 E0
G1 X124.6 Y134.318 F7200
G1 E2 F4800
M204 S2000
;TYPE:External perimeter
G1 F3000
G1 X105.4 Y134.318 E3.11734
G1 X105.4 Y95.542 E5.37391
G1 X124.6 Y95.542 E6.49125
G1 X124.6 Y134.258 E8.74433
M204 S2500
G1 X124.227 Y134.173 F7200
G1 X124.1 Y133.818
M204 S2000
;TYPE:Perimeter
G1 F3000
G1 X105.9 Y133.818 E9.80348
G1 X105.9 Y96.042 E12.00185
G1 X124.1 Y96.042 E13.061
G1 X124.1 Y133.758 E15.25588
M204 S2500
G1 X123.6 Y133.318 F7200
M204 S2000
G1 F3000
G1 X106.4 Y133.318 E16.25683
G1 X106.4 Y96.542 E18.39701
G1 X123.6 Y96.542 E19.39796
G1 X123.6 Y133.258 E21.53465
M204 S2500
G1 E20.13465 F4800
;WIPE_START
G1 F5760
G1 X122.842 Y133.261 E19.53465
;WIPE_END
G92 E0
G1 X122.385 Y96.742 F7200
G1 E2 F4800
M204 S2000
;TYPE:Solid infill
;WIDTH:0.562384
G1 F3000
G1 X123.175 Y97.533 E2.06537
G1 X123.175 Y98.243 E2.10689
G1 X121.899 Y96.967 E2.21241
G1 X121.189 Y96.967 E2.25393
G1 X123.175 Y98.953 E2.41816
G1 X123.175 Y99.664 E2.45973
G1 X120.479 Y96.967 E2.68271
G1 X119.768 Y96.967 E2.72428
G1 X123.175 Y100.374 E3.00601
G1 X123.175 Y101.084 E3.04753
G1 X119.058 Y96.967 E3.38798
G1 X118.347 Y96.967 E3.42955
G1 X123.175 Y101.795 E3.82879
G1 X123.175 Y102.505 E3.87031
G1 X117.637 Y96.967 E4.32826
G1 X116.927 Y96.967 E4.36978
G1 X123.175 Y103.215 E4.88644
G1 X123.175 Y103.926 E4.92801
G1 X116.216 Y96.967 E5.50347
G1 X115.506 Y96.967 E5.54499
G1 X123.175 Y104.636 E6.17916
G1 X123.175 Y105.346 E6.22068
G1 X114.796 Y96.967 E6.91356
G1 X114.085 Y96.967 E6.95513
G1 X123.175 Y106.057 E7.70681
G1 X123.175 Y106.767 E7.74833
G1 X113.375 Y96.967 E8.55872
G1 X112.665 Y96.967 E8.60024
G1 X123.175 Y107.478 E9.46938
G1 X123.175 Y108.188 E9.5109
G1 X111.954 Y96.967 E10.43879
G1 X111.244 Y96.967 E10.48031
G1 X123.175 Y108.898 E11.46692
G1 X123.175 Y109.609 E11.50849
G1 X110.534 Y96.967 E12.55385
G1 X109.823 Y96.967 E12.59542
G1 X123.175 Y110.319 E13.69953
G1 X123.175 Y111.029 E13.74105
G1 X109.113 Y96.967 E14.90387
G1 X108.402 Y96.967 E14.94544
G1 X123.175 Y111.74 E16.16706
G1 X123.175 Y112.45 E16.20858
G1 X107.692 Y96.967 E17.48891
G1 X106.982 Y96.967 E17.53043
G1 X123.175 Y113.16 E18.86947
G1 X123.175 Y113.871 E18.91104
G1 X106.825 Y97.52 E20.26311
G1 X106.825 Y98.231 E20.30468
G1 X123.175 Y114.581 E21.6567
G1 X123.175 Y115.291 E21.69822
G1 X106.825 Y98.941 E23.05024
G1 X106.825 Y99.651 E23.09176
G1 X123.175 Y116.002 E24.44383
G1 X123.175 Y116.712 E24.48535
G1 X106.825 Y100.362 E25.83737
G1 X106.825 Y101.072 E25.87889
G1 X123.175 Y117.422 E27.23091
G1 X123.175 Y118.133 E27.27248
G1 X106.825 Y101.782 E28.62455
G1 X106.825 Y102.493 E28.66612
G1 X123.175 Y118.843 E30.01814
G1 X123.175 Y119.554 E30.05971
G1 X106.825 Y103.203 E31.41178
G1 X106.825 Y103.913 E31.4533
G1 X123.175 Y120.264 E32.80537
G1 X123.175 Y120.974 E32.84689
G1 X106.825 Y104.624 E34.19891
G1 X106.825 Y105.334 E34.24043
G1 X123.175 Y121.685 E35.5925
G1 X123.175 Y122.395 E35.63402
G1 X106.825 Y106.044 E36.98609
G1 X106.825 Y106.755 E37.02766
G1 X123.175 Y123.105 E38.37968
G1 X123.175 Y123.816 E38.42125
G1 X106.825 Y107.465 E39.77332
G1 X106.825 Y108.176 E39.81489
G1 X123.175 Y124.526 E41.16691
G1 X123.175 Y125.236 E41.20843
G1 X106.825 Y108.886 E42.56045
G1 X106.825 Y109.596 E42.60197
G1 X123.175 Y125.947 E43.95404
G1 X123.175 Y126.657 E43.99556
G1 X106.825 Y110.307 E45.34758
G1 X106.825 Y111.017 E45.3891
G1 X123.175 Y127.367 E46.74112
G1 X123.175 Y128.078 E46.78269
G1 X106.825 Y111.727 E48.13476
G1 X106.825 Y112.438 E48.17633
G1 X123.175 Y128.788 E49.52835
G1 X123.175 Y129.498 E49.56987
G1 X106.825 Y113.148 E50.92189
G1 X106.825 Y113.858 E50.96341
G1 X123.175 Y130.209 E52.31548
G1 X123.175 Y130.919 E52.357
G1 X106.825 Y114.569 E53.70902
G1 X106.825 Y115.279 E53.75054
G1 X123.175 Y131.63 E55.10261
G1 X123.175 Y132.34 E55.14413
G1 X106.825 Y115.989 E56.4962
G1 X106.825 Y116.7 E56.53777
G1 X123.018 Y132.893 E57.87681
G1 X122.308 Y132.893 E57.91833
G1 X106.825 Y117.41 E59.19866
G1 X106.825 Y118.12 E59.24018
G1 X121.597 Y132.893 E60.46176
G1 X120.887 Y132.893 E60.50328
G1 X106.825 Y118.831 E61.6661
G1 X106.825 Y119.541 E61.70762
G1 X120.177 Y132.893 E62.81173
G1 X119.466 Y132.893 E62.8533
G1 X106.825 Y120.252 E63.89862
G1 X106.825 Y120.962 E63.94014
G1 X118.756 Y132.893 E64.92675
G1 X118.046 Y132.893 E64.96827
G1 X106.825 Y121.672 E65.89616
G1 X106.825 Y122.383 E65.93773
G1 X117.335 Y132.893 E66.80683
G1 X116.625 Y132.893 E66.84835
G1 X106.825 Y123.093 E67.65874
G1 X106.825 Y123.803 E67.70026
G1 X115.915 Y132.893 E68.45194
G1 X115.204 Y132.893 E68.49351
G1 X106.825 Y124.514 E69.18639
G1 X106.825 Y125.224 E69.22791
G1 X114.494 Y132.893 E69.86208
G1 X113.784 Y132.893 E69.9036
G1 X106.825 Y125.934 E70.47906
G1 X106.825 Y126.645 E70.52063
G1 X113.073 Y132.893 E71.03729
G1 X112.363 Y132.893 E71.07881
G1 X106.825 Y127.355 E71.53676
G1 X106.825 Y128.065 E71.57828
G1 X111.652 Y132.893 E71.97748
G1 X110.942 Y132.893 E72.019
G1 X106.825 Y128.776 E72.35945
G1 X106.825 Y129.486 E72.40097
G1 X110.232 Y132.893 E72.6827
G1 X109.521 Y132.893 E72.72427
G1 X106.825 Y130.196 E72.94725
G1 X106.825 Y130.907 E72.98882
G1 X108.811 Y132.893 E73.15305
G1 X108.101 Y132.893 E73.19457
G1 X106.825 Y131.617 E73.30009
G1 X106.825 Y132.328 E73.34166
G1 X107.615 Y133.118 E73.40699
M204 S2500
;LAYER_CHANGE
;Z:0.48
;HEIGHT:0.2
; BEFORE_LAYER_CHANGE 1 @ 0.48mm
G1 E72.00699 F4800
;WIPE_START
G1 F5760
G1 X107.079 Y132.582 E71.40699
;WIPE_END
G92 E0
G1 Z.48 F7200
; AFTER_LAYER_CHANGE 1 @ 0.48mm
M104 S195 ; set temperature
G1 X124.755 Y134.233
G1 E2 F4800
;TYPE:External perimeter
;WIDTH:0.45
G1 X105.245 Y134.233 E2.66039
G1 X105.245 Y95.387 E3.97528
G1 X124.755 Y95.387 E4.63567
G1 X124.755 Y134.173 E5.94853
G1 X124.382 Y134.089 F7200
G1 X124.373 Y133.851
;TYPE:Perimeter
;WIDTH:0.4
G1 F9000
G1 X105.627 Y133.851 E6.50512
G1 X105.627 Y95.769 E7.63582
G1 X124.373 Y95.769 E8.19241
G1 X124.373 Y133.791 E9.32133
G1 X124.016 Y133.494 F7200
G1 F9000
G1 X105.984 Y133.494 E9.85672
G1 X105.984 Y96.126 E10.96622
G1 X124.016 Y96.126 E11.50161
G1 X124.016 Y133.434 E12.60933
G1 E11.20933 F4800
;WIPE_START
G1 F5760
G1 X123.258 Y133.437 E10.60933
;WIPE_END
G92 E0
G1 X106.454 Y96.509 F7200
G1 E2 F4800
;TYPE:Solid infill
;WIDTH:0.610898
G1 F9000
G1 X106.404 Y96.459 E2.00334
G1 X106.335 Y96.478 E2.00672
G1 X106.317 Y96.546 E2.01004
G1 X106.367 Y96.596 E2.01338
G1 X106.436 Y96.578 E2.01675
;WIDTH:0.499999
G1 X107.166 Y96.472 E2.04479
G1 X106.33 Y97.308 E2.08972
G1 X106.33 Y97.954 E2.11427
G1 X107.812 Y96.472 E2.19393
G1 X108.459 Y96.472 E2.21852
G1 X106.33 Y98.601 E2.33295
G1 X106.33 Y99.247 E2.3575
G1 X109.105 Y96.472 E2.50665
G1 X109.752 Y96.472 E2.53124
G1 X106.33 Y99.894 E2.71517
G1 X106.33 Y100.54 E2.73972
G1 X110.398 Y96.472 E2.95837
G1 X111.044 Y96.472 E2.98292
G1 X106.33 Y101.186 E3.23629
G1 X106.33 Y101.833 E3.26088
G1 X111.691 Y96.472 E3.54903
G1 X112.337 Y96.472 E3.57358
G1 X106.33 Y102.479 E3.89645
G1 X106.33 Y103.126 E3.92104
G1 X112.984 Y96.472 E4.27869
G1 X113.63 Y96.472 E4.30324
G1 X106.33 Y103.772 E4.69561
G1 X106.33 Y104.419 E4.7202
G1 X114.276 Y96.472 E5.14732
G1 X114.923 Y96.472 E5.17191
G1 X106.33 Y105.065 E5.63378
G1 X106.33 Y105.711 E5.65833
G1 X115.569 Y96.472 E6.15492
G1 X116.216 Y96.472 E6.17951
G1 X106.33 Y106.358 E6.71087
G1 X106.33 Y107.004 E6.73542
G1 X116.862 Y96.472 E7.3015
G1 X117.508 Y96.472 E7.32605
G1 X106.33 Y107.651 E7.92688
G1 X106.33 Y108.297 E7.95143
G1 X118.155 Y96.472 E8.58701
G1 X118.801 Y96.472 E8.61156
G1 X106.33 Y108.943 E9.28186
G1 X106.33 Y109.59 E9.30645
G1 X119.448 Y96.472 E10.01153
G1 X120.094 Y96.472 E10.03608
G1 X106.33 Y110.236 E10.77588
G1 X106.33 Y110.883 E10.80047
G1 X120.74 Y96.472 E11.57502
G1 X121.387 Y96.472 E11.59961
G1 X106.33 Y111.529 E12.40891
G1 X106.33 Y112.175 E12.43346
G1 X122.033 Y96.472 E13.27748
G1 X122.68 Y96.472 E13.30207
G1 X106.33 Y112.822 E14.18087
G1 X106.33 Y113.468 E14.20542
G1 X123.326 Y96.472 E15.11894
G1 X123.806 Y96.366 E15.13762
;WIDTH:0.38292
G1 X123.735 Y96.347 E15.1397
G1 X123.754 Y96.418 E15.14178
G1 X123.795 Y96.407 E15.14298
;WIDTH:0.421947
G1 X123.753 Y96.53 E15.14708
;WIDTH:0.460973
G1 X123.712 Y96.652 E15.15155
;WIDTH:0.499999
G1 X123.67 Y96.775 E15.15649
G1 X106.33 Y114.115 E16.0885
G1 X106.33 Y114.761 E16.11305
G1 X123.67 Y97.421 E17.04506
G1 X123.67 Y98.068 E17.06965
G1 X106.33 Y115.407 E18.00163
G1 X106.33 Y116.054 E18.02622
G1 X123.67 Y98.714 E18.95823
G1 X123.67 Y99.361 E18.98282
G1 X106.33 Y116.7 E19.9148
G1 X106.33 Y117.347 E19.93939
G1 X123.67 Y100.007 E20.8714
G1 X123.67 Y100.653 E20.89595
G1 X106.33 Y117.993 E21.82796
G1 X106.33 Y118.639 E21.85251
G1 X123.67 Y101.3 E22.78449
G1 X123.67 Y101.946 E22.80904
G1 X106.33 Y119.286 E23.74105
G1 X106.33 Y119.932 E23.7656
G1 X123.67 Y102.593 E24.69758
G1 X123.67 Y103.239 E24.72213
G1 X106.33 Y120.579 E25.65414
G1 X106.33 Y121.225 E25.67869
G1 X123.67 Y103.885 E26.6107
G1 X123.67 Y104.532 E26.63529
G1 X106.33 Y121.872 E27.5673
G1 X106.33 Y122.518 E27.59185
G1 X123.67 Y105.178 E28.52386
G1 X123.67 Y105.825 E28.54845
G1 X106.33 Y123.164 E29.48043
G1 X106.33 Y123.811 E29.50502
G1 X123.67 Y106.471 E30.43703
G1 X123.67 Y107.117 E30.46158
G1 X106.33 Y124.457 E31.39359
G1 X106.33 Y125.104 E31.41818
G1 X123.67 Y107.764 E32.35019
G1 X123.67 Y108.41 E32.37474
G1 X106.33 Y125.75 E33.30675
G1 X106.33 Y126.396 E33.3313
G1 X123.67 Y109.057 E34.26328
G1 X123.67 Y109.703 E34.28783
G1 X106.33 Y127.043 E35.21984
G1 X106.33 Y127.689 E35.24439
G1 X123.67 Y110.35 E36.17637
G1 X123.67 Y110.996 E36.20092
G1 X106.33 Y128.336 E37.13293
G1 X106.33 Y128.982 E37.15748
G1 X123.67 Y111.642 E38.08949
G1 X123.67 Y112.289 E38.11408
G1 X106.33 Y129.628 E39.04606
G1 X106.33 Y130.275 E39.07065
G1 X123.67 Y112.935 E40.00266
G1 X123.67 Y113.582 E40.02725
G1 X106.33 Y130.921 E40.95923
G1 X106.33 Y131.568 E40.98382
G1 X123.67 Y114.228 E41.91583
G1 X123.67 Y114.874 E41.94038
G1 X106.33 Y132.214 E42.87239
G1 E41.47239 F4800
;WIPE_START
G1 F5760
G1 X106.866 Y131.678 E40.87239
;WIPE_END
G92 E0
G1 X106.264 Y133.274 F7200
G1 E2 F4800
;WIDTH:0.38292
G1 F9000
G1 X106.223 Y133.285 E2.0012
G1 X106.204 Y133.214 E2.00328
G1 X106.275 Y133.233 E2.00536
;WIDTH:0.421947
G1 X106.293 Y133.109 E2.00931
;WIDTH:0.460973
G1 X106.312 Y132.985 E2.01367
;WIDTH:0.499999
G1 X106.33 Y132.86 E2.01847
G1 X123.67 Y115.521 E2.95045
G1 X123.67 Y116.167 E2.975
G1 X106.689 Y133.148 E3.88771
G1 X107.336 Y133.148 E3.9123
G1 X123.67 Y116.814 E4.79024
G1 X123.67 Y117.46 E4.81479
G1 X107.982 Y133.148 E5.658
G1 X108.629 Y133.148 E5.68259
G1 X123.67 Y118.106 E6.49106
G1 X123.67 Y118.753 E6.51565
G1 X109.275 Y133.148 E7.28937
G1 X109.921 Y133.148 E7.31392
G1 X123.67 Y119.399 E8.05291
G1 X123.67 Y120.046 E8.0775
G1 X110.568 Y133.148 E8.78172
G1 X111.214 Y133.148 E8.80627
G1 X123.67 Y120.692 E9.47577
G1 X123.67 Y121.338 E9.50032
G1 X111.861 Y133.148 E10.13507
G1 X112.507 Y133.148 E10.15962
G1 X123.67 Y121.985 E10.75962
G1 X123.67 Y122.631 E10.78417
G1 X113.153 Y133.148 E11.34945
G1 X113.8 Y133.148 E11.37404
G1 X123.67 Y123.278 E11.90454
G1 X123.67 Y123.924 E11.92909
G1 X114.446 Y133.148 E12.42487
G1 X115.093 Y133.148 E12.44946
G1 X123.67 Y124.57 E12.91049
G1 X123.67 Y125.217 E12.93508
G1 X115.739 Y133.148 E13.36136
G1 X116.385 Y133.148 E13.38591
G1 X123.67 Y125.863 E13.77747
G1 X123.67 Y126.51 E13.80206
G1 X117.032 Y133.148 E14.15885
G1 X117.678 Y133.148 E14.1834
G1 X123.67 Y127.156 E14.50546
G1 X123.67 Y127.803 E14.53005
G1 X118.325 Y133.148 E14.81734
G1 X118.971 Y133.148 E14.84189
G1 X123.67 Y128.449 E15.09446
G1 X123.67 Y129.095 E15.11901
G1 X119.617 Y133.148 E15.33685
G1 X120.264 Y133.148 E15.36144
G1 X123.67 Y129.742 E15.54451
G1 X123.67 Y130.388 E15.56906
G1 X120.91 Y133.148 E15.71741
G1 X121.557 Y133.148 E15.742
G1 X123.67 Y131.035 E15.85557
G1 X123.67 Y131.681 E15.88012
G1 X122.203 Y133.148 E15.95897
G1 X122.85 Y133.148 E15.98356
G1 X123.67 Y132.327 E16.02766
G1 X123.686 Y133.079 E16.05625
;WIDTH:0.601864
G1 X123.637 Y133.029 E16.0595
G1 X123.569 Y133.047 E16.06277
G1 X123.551 Y133.115 E16.06604
G1 X123.601 Y133.164 E16.06929
G1 X123.668 Y133.146 E16.07251
M106 S255
;LAYER_CHANGE
;Z:0.54
;HEIGHT:0.06
; BEFORE_LAYER_CHANGE 2 @ 0.54mm
G1 E14.67251 F4800
;WIPE_START
G1 F5760
G1 X123.601 Y133.164 E14.61759
G1 X123.551 Y133.115 E14.56217
G1 X123.569 Y133.047 E14.50648
G1 X123.637 Y133.029 E14.45079
G1 X123.686 Y133.079 E14.39537
G1 X123.677 Y132.671 E14.07251
;WIPE_END
G92 E0
G1 Z.54 F7200
; AFTER_LAYER_CHANGE 2 @ 0.54mm
G1 X126.487 Y114.979
G1 E2 F4800
;TYPE:Support material
;WIDTH:0.42
;HEIGHT:0.26
G1 F6000
G1 X125.415 Y114.979 E2.0422
G1 X125.415 Y100.636 E2.60687
G1 X126.487 Y100.636 E2.64907
G1 X126.487 Y114.924 E3.21157
G1 X126.322 Y112.123 F7200
G1 F6000
G1 X125.749 Y112.123 E3.23413
G1 X125.749 Y109.246 E3.34739
G1 X126.153 Y109.246 E3.36329
G1 X126.153 Y106.369 E3.47655
G1 X125.749 Y106.369 E3.49245
