; generated by PrusaSlicer 2.6.0+MacOS-x64 on 2023-08-18 at 01:44:07 UTC

; 

; external perimeters extrusion width = 0.45mm
; perimeters extrusion width = 0.40mm
; infill extrusion width = 0.45mm
; solid infill extrusion width = 0.50mm
; top infill extrusion width = 0.45mm
; support material extrusion width = 0.42mm
; first layer extrusion width = 0.56mm

M201 X2500 Y2500 Z800 E2500 ; sets maximum accelerations, mm/sec^2
M203 X300 Y250 Z8 E80 ; sets maximum feedrates, mm / sec
M204 S2500 T2500 ; sets acceleration (S) and retract acceleration (R), mm/sec^2
M205 X15.00 Y10.00 Z2.00 E10.00 ; sets the jerk limits, mm/sec
M205 S0 T0 ; sets the minimum extruding and travel feed rate, mm/sec
;TYPE:Custom
G90 ; use absolute coordinates
M83 ; extruder relative mode
M104 S215 ; set extruder temp
M140 S65 ; set bed temp
M190 S65 ; wait for bed temp
M109 S215 ; wait for extruder temp
G28                                        ; move X/Y/Z to min endstops
G1 Z0.28                                   ; lift nozzle a bit
 
G0 Y235      ; move to max Y (within soft-limit)


G92 E0 
G1 Y3 F1800                                    ; zero the extruded length 
G1 X60  E25 F500                       ; Extrude 25mm of filament in a 5cm line. 
G92 E0                                     ; zero the extruded length again 
G1 E-2 F500                                ; Retract a little 
G1 X70 F4000                              ; Quickly wipe away from the filament line

M211 S0      ; disable software endstop
G0 Y245 X80       ; push forward past the endstop to the nozzle wiper

G0 X90       ; move X to the nozzle wiper
G0 X80       ; move X to wipe the nozzle


M117

G28          ; home all
M211 S1      ; enable software endstop
G21 ; set units to millimeters
G90 ; use absolute coordinates
M82 ; use absolute distances for extrusion
G92 E0
M107
;LAYER_CHANGE
;Z:0.28
;HEIGHT:0.28
; BEFORE_LAYER_CHANGE 0 @ 0.28mm
G1 E-2 F4800
G92 E0
G1 Z.28 F7200
; AFTER_LAYER_CHANGE 0 @ 0.28mm
G1 X97.015 Y117.908
G1 E2 F4800
M204 S2000
;TYPE:Support material
;WIDTH:0.56
G1 F3000
G1 X91.952 Y117.908 E2.29464
G1 X91.952 Y97.706 E3.47029
G1 X97.015 Y97.706 E3.76493
G1 X97.015 Y117.833 E4.93622
M204 S2500
G1 X96.114 Y117.683 F7200
M204 S2000
G1 F3000
G1 X96.114 Y98.156 E6.07259
G1 X95.559 Y98.156 E6.10489
G1 X95.559 Y117.459 E7.22823
G1 X95.004 Y117.459 E7.26053
G1 X95.004 Y98.156 E8.38387
G1 X94.448 Y98.156 E8.41623
G1 X94.448 Y117.459 E9.53957
G1 X93.893 Y117.459 E9.57187
G1 X93.893 Y98.156 E10.69521
G1 X93.337 Y98.156 E10.72757
G1 X93.337 Y117.459 E11.85091
G1 X92.782 Y117.459 E11.88321
G1 X92.782 Y97.931 E13.01964
M204 S2500
G1 E11.61964 F4800
;WIPE_START
G1 F5760
G1 X92.782 Y98.689 E11.01964
;WIPE_END
G92 E0
G1 X115.218 Y106.051 F7200
G1 E2 F4800
M204 S2000
G1 F3000
G1 X115.426 Y106.114 E2.01265
G1 X115.618 Y106.217 E2.02533
G1 X115.787 Y106.355 E2.03803
G1 X115.925 Y106.524 E2.05073
G1 X116.028 Y106.716 E2.06341
G1 X116.091 Y106.925 E2.07611
G1 X116.113 Y107.142 E2.0888
G1 X116.091 Y107.359 E2.10149
G1 X116.028 Y107.568 E2.11419
G1 X115.925 Y107.76 E2.12687
G1 X115.787 Y107.929 E2.13957
G1 X115.618 Y108.067 E2.15227
G1 X115.426 Y108.17 E2.16495
G1 X115.217 Y108.233 E2.17765
G1 X115 Y108.255 E2.19034
G1 X114.783 Y108.233 E2.20303
G1 X114.574 Y108.17 E2.21573
G1 X114.382 Y108.067 E2.22841
G1 X114.213 Y107.929 E2.24111
G1 X114.075 Y107.76 E2.25381
G1 X113.972 Y107.568 E2.26649
G1 X113.909 Y107.359 E2.27919
G1 X113.887 Y107.142 E2.29188
G1 X113.909 Y106.925 E2.30457
G1 X113.972 Y106.716 E2.31727
G1 X114.075 Y106.524 E2.32995
G1 X114.213 Y106.355 E2.34265
G1 X114.382 Y106.217 E2.35535
G1 X114.574 Y106.114 E2.36803
G1 X114.783 Y106.051 E2.38073
G1 X114.993 Y106.03 E2.39301
G1 X115.143 Y106.044 E2.40178
M204 S2500
G1 X115.555 Y107.828 F7200
M204 S2000
G1 F3000
G1 X115.555 Y106.787 E2.46236
G1 X115.467 Y106.675 E2.47065
G1 X115.367 Y106.593 E2.47818
G1 X115.253 Y106.532 E2.4857
G1 X115.13 Y106.495 E2.49317
G1 X115 Y106.482 E2.50077
G1 X115 Y107.803 E2.57765
G1 X114.871 Y107.79 E2.5852
G1 X114.747 Y107.752 E2.59275
G1 X114.633 Y107.691 E2.60027
G1 X114.533 Y107.609 E2.6078
G1 X114.451 Y107.509 E2.61533
G1 X114.445 Y106.457 E2.67655
M204 S2500
G1 E1.27655 F4800
;WIPE_START
G1 F5760
G1 X114.449 Y107.215 E.67655
;WIPE_END
G92 E0
G1 X138.048 Y117.908 F7200
G1 E2 F4800
M204 S2000
G1 F3000
G1 X132.985 Y117.908 E2.29464
G1 X132.985 Y97.706 E3.47029
G1 X138.048 Y97.706 E3.76493
G1 X138.048 Y117.833 E4.93622
M204 S2500
G1 X137.218 Y117.683 F7200
M204 S2000
G1 F3000
G1 X137.218 Y98.156 E6.07259
G1 X136.663 Y98.156 E6.10489
G1 X136.663 Y117.459 E7.22823
G1 X136.107 Y117.459 E7.26059
G1 X136.107 Y98.156 E8.38393
G1 X135.552 Y98.156 E8.41623
G1 X135.552 Y117.459 E9.53957
G1 X134.996 Y117.459 E9.57193
G1 X134.996 Y98.156 E10.69527
G1 X134.441 Y98.156 E10.72757
G1 X134.441 Y117.459 E11.85091
G1 X133.886 Y117.459 E11.88321
G1 X133.886 Y97.931 E13.01964
M204 S2500
G1 E11.61964 F4800
;WIPE_START
G1 F5760
G1 X133.886 Y98.689 E11.01964
;WIPE_END
G92 E0
G1 X132.1 Y134.318 F7200
G1 E2 F4800
M204 S2000
;TYPE:External perimeter
G1 F3000
G1 X97.9 Y134.318 E3.99027
G1 X97.9 Y95.542 E6.24684
G1 X132.1 Y95.542 E8.23711
G1 X132.1 Y134.258 E10.49019
M204 S2500
G1 X131.716 Y134.206 F7200
G1 X131.6 Y133.818
M204 S2000
;TYPE:Perimeter
G1 F3000
G1 X98.4 Y133.818 E12.42226
G1 X98.4 Y96.042 E14.62063
G1 X131.6 Y96.042 E16.5527
G1 X131.6 Y133.758 E18.74758
M204 S2500
G1 X131.1 Y133.318 F7200
M204 S2000
G1 F3000
G1 X98.9 Y133.318 E20.62146
G1 X98.9 Y96.542 E22.76164
G1 X131.1 Y96.542 E24.63552
G1 X131.1 Y133.258 E26.77221
M204 S2500
G1 E25.37221 F4800
;WIPE_START
G1 F5760
G1 X130.342 Y133.259 E24.77221
;WIPE_END
G92 E0
G1 X113.006 Y107.218 F7200
G1 E2 F4800
M204 S2000
;TYPE:External perimeter
G1 F3000
G1 X112.998 Y107.142 E2.00445
G1 X113.037 Y106.752 E2.02726
G1 X113.15 Y106.376 E2.05011
G1 X113.335 Y106.03 E2.07294
G1 X113.584 Y105.727 E2.09576
G1 X113.888 Y105.478 E2.11863
G1 X114.234 Y105.293 E2.14146
G1 X114.609 Y105.179 E2.16427
G1 X114.991 Y105.141 E2.18661
G1 X115.39 Y105.178 E2.20993
G1 X115.766 Y105.293 E2.23281
G1 X116.112 Y105.478 E2.25564
G1 X116.416 Y105.727 E2.27851
G1 X116.665 Y106.03 E2.30133
G1 X116.85 Y106.376 E2.32416
G1 X116.963 Y106.752 E2.34701
G1 X117.002 Y107.142 E2.36982
G1 X116.963 Y107.533 E2.39269
G1 X116.85 Y107.908 E2.41548
G1 X116.665 Y108.254 E2.43831
G1 X116.416 Y108.558 E2.46118
G1 X116.112 Y108.807 E2.48405
G1 X115.766 Y108.992 E2.50688
G1 X115.391 Y109.106 E2.52969
G1 X115 Y109.144 E2.55255
G1 X114.609 Y109.106 E2.57541
G1 X114.234 Y108.992 E2.59822
G1 X113.888 Y108.807 E2.62105
G1 X113.584 Y108.558 E2.64392
G1 X113.335 Y108.254 E2.66679
G1 X113.15 Y107.908 E2.68962
G1 X113.037 Y107.533 E2.71241
G1 X113.011 Y107.278 E2.72733
M204 S2500
G1 X112.935 Y107.189 F7200
G1 X112.5 Y107.181
M204 S2000
;TYPE:Perimeter
G1 F3000
G1 X112.544 Y106.654 E2.75811
G1 X112.686 Y106.184 E2.78668
G1 X112.918 Y105.751 E2.81527
G1 X113.229 Y105.371 E2.84385
G1 X113.609 Y105.06 E2.87243
G1 X114.042 Y104.828 E2.90102
G1 X114.511 Y104.686 E2.92954
G1 X114.99 Y104.638 E2.95755
G1 X115.487 Y104.686 E2.98661
G1 X115.958 Y104.829 E3.01526
G1 X116.391 Y105.06 E3.04382
G1 X116.771 Y105.371 E3.0724
G1 X117.082 Y105.751 E3.10098
G1 X117.314 Y106.184 E3.12957
G1 X117.456 Y106.654 E3.15814
G1 X117.504 Y107.142 E3.18668
G1 X117.456 Y107.631 E3.21527
G1 X117.314 Y108.1 E3.24379
G1 X117.082 Y108.533 E3.27238
G1 X116.771 Y108.913 E3.30096
G1 X116.391 Y109.224 E3.32954
G1 X115.958 Y109.456 E3.35813
G1 X115.489 Y109.598 E3.38665
G1 X115 Y109.646 E3.41524
G1 X114.511 Y109.598 E3.44383
G1 X114.042 Y109.456 E3.47235
G1 X113.609 Y109.224 E3.50094
G1 X113.229 Y108.913 E3.52952
G1 X112.918 Y108.533 E3.5581
G1 X112.686 Y108.101 E3.58664
G1 X112.544 Y107.631 E3.61521
G1 X112.505 Y107.241 E3.63802
M204 S2500
G1 X112.001 Y107.223 F7200
M204 S2000
G1 F3000
G1 X111.993 Y107.142 E3.64276
G1 X112.051 Y106.556 E3.67703
G1 X112.222 Y105.992 E3.71133
G1 X112.5 Y105.472 E3.74564
G1 X112.874 Y105.016 E3.77996
G1 X113.33 Y104.642 E3.81428
G1 X113.849 Y104.364 E3.84854
G1 X114.412 Y104.194 E3.88276
G1 X114.988 Y104.136 E3.91645
G1 X115.584 Y104.193 E3.95129
G1 X116.151 Y104.364 E3.98575
G1 X116.67 Y104.642 E4.02001
G1 X117.126 Y105.016 E4.05433
G1 X117.5 Y105.472 E4.08865
G1 X117.778 Y105.992 E4.12296
G1 X117.949 Y106.556 E4.15726
G1 X118.007 Y107.142 E4.19153
G1 X117.949 Y107.729 E4.22586
G1 X117.778 Y108.293 E4.26016
G1 X117.5 Y108.813 E4.29447
G1 X117.126 Y109.268 E4.32875
G1 X116.67 Y109.642 E4.36307
G1 X116.151 Y109.92 E4.39733
G1 X115.587 Y110.091 E4.43163
G1 X115 Y110.149 E4.46596
G1 X114.413 Y110.091 E4.50029
G1 X113.849 Y109.92 E4.53459
G1 X113.33 Y109.642 E4.56885
G1 X112.874 Y109.268 E4.60317
G1 X112.5 Y108.813 E4.63745
G1 X112.222 Y108.293 E4.67176
G1 X112.051 Y107.729 E4.70606
G1 X112.007 Y107.283 E4.73214
M204 S2500
G1 E3.33214 F4800
;WIPE_START
G1 F5760
G1 X111.993 Y107.142 E3.21997
G1 X112.051 Y106.556 E2.75379
G1 X112.059 Y106.53 E2.73214
;WIPE_END
G92 E0
G1 X129.883 Y96.742 F7200
G1 E2 F4800
M204 S2000
;TYPE:Solid infill
;WIDTH:0.562993
G1 F3000
G1 X130.675 Y97.534 E2.06557
G1 X130.675 Y98.245 E2.10719
G1 X129.397 Y96.967 E2.213
G1 X128.686 Y96.967 E2.25462
G1 X130.675 Y98.956 E2.41929
G1 X130.675 Y99.668 E2.46097
G1 X127.975 Y96.967 E2.68455
G1 X127.263 Y96.967 E2.72623
G1 X130.675 Y100.379 E3.00872
G1 X130.675 Y101.09 E3.05034
G1 X126.552 Y96.967 E3.39169
G1 X125.841 Y96.967 E3.43331
G1 X130.675 Y101.801 E3.83353
G1 X130.675 Y102.512 E3.87515
G1 X125.13 Y96.967 E4.33424
G1 X124.419 Y96.967 E4.37586
G1 X130.675 Y103.224 E4.89385
G1 X130.675 Y103.935 E4.93547
G1 X123.707 Y96.967 E5.51237
G1 X122.996 Y96.967 E5.55399
G1 X130.675 Y104.646 E6.18976
G1 X130.675 Y105.357 E6.23138
G1 X122.285 Y96.967 E6.92601
G1 X121.574 Y96.967 E6.96763
G1 X130.675 Y106.068 E7.72113
G1 X130.675 Y106.78 E7.76281
G1 X120.862 Y96.967 E8.57525
G1 X120.151 Y96.967 E8.61687
G1 X130.675 Y107.491 E9.48818
G1 X130.675 Y108.202 E9.5298
G1 X119.44 Y96.967 E10.45998
G1 X118.729 Y96.967 E10.5016
G1 X130.675 Y108.913 E11.49064
G1 X130.675 Y109.624 E11.53226
G1 X118.018 Y96.967 E12.58017
G1 X117.306 Y96.967 E12.62185
G1 X130.675 Y110.336 E13.72871
G1 X130.675 Y111.047 E13.77033
G1 X116.595 Y96.967 E14.93605
G1 X115.884 Y96.967 E14.97767
G1 X130.675 Y111.758 E16.20226
G1 X130.675 Y112.469 E16.24388
G1 X115.173 Y96.967 E17.52733
G1 X114.462 Y96.967 E17.56895
G1 X130.675 Y113.181 E18.91131
G1 X130.675 Y113.892 E18.95293
G1 X113.75 Y96.967 E20.3542
G1 X113.039 Y96.967 E20.39582
G1 X130.675 Y114.603 E21.85595
G1 X130.675 Y115.314 E21.89757
G1 X112.328 Y96.967 E23.41657
G1 X111.617 Y96.967 E23.45819
G1 X130.675 Y116.025 E25.03605
G1 X130.675 Y116.737 E25.07773
G1 X110.906 Y96.967 E26.7145
G1 X110.194 Y96.967 E26.75618
G1 X130.675 Y117.448 E28.45186
G1 X130.675 Y118.159 E28.49348
G1 X109.483 Y96.967 E30.24802
G1 X108.772 Y96.967 E30.28964
G1 X115.569 Y103.764 E30.85238
G1 X114.987 Y103.709 E30.8866
G1 X114.82 Y103.726 E30.89643
G1 X108.061 Y96.967 E31.45603
G1 X107.349 Y96.967 E31.49771
G1 X114.197 Y103.815 E32.06467
G1 X113.657 Y103.986 E32.09783
G1 X106.638 Y96.967 E32.67895
G1 X105.927 Y96.967 E32.72057
G1 X113.193 Y104.233 E33.32214
G1 X113.092 Y104.287 E33.32884
G1 X112.787 Y104.538 E33.35196
G1 X105.216 Y96.967 E33.97878
G1 X104.505 Y96.967 E34.0204
G1 X112.428 Y104.89 E34.67637
G1 X112.116 Y105.289 E34.70602
G1 X103.793 Y96.967 E35.39506
G1 X103.082 Y96.967 E35.43668
G1 X111.868 Y105.753 E36.1641
G1 X111.828 Y105.828 E36.16908
G1 X111.689 Y106.285 E36.19704
G1 X102.371 Y96.967 E36.9685
G1 X101.66 Y96.967 E37.01012
G1 X111.591 Y106.898 E37.83233
G1 X111.566 Y107.142 E37.84669
G1 X111.615 Y107.633 E37.87558
G1 X100.724 Y96.742 E38.77728
M204 S2500
G1 E37.37728 F4800
;WIPE_START
G1 F5760
G1 X101.26 Y97.278 E36.77728
;WIPE_END
G92 E0
G1 X118.069 Y106.265 F7200
G1 E2 F4800
M204 S2000
G1 F3000
G1 X130.675 Y118.87 E3.04364
G1 X130.675 Y119.581 E3.08526
G1 X118.416 Y107.322 E4.10022
G1 X118.368 Y107.812 E4.12904
G1 X118.327 Y107.945 E4.13719
G1 X130.675 Y120.293 E5.15951
G1 X130.675 Y121.004 E5.20113
G1 X118.157 Y108.485 E6.23757
G1 X117.909 Y108.949 E6.26837
G1 X130.675 Y121.715 E7.3253
G1 X130.675 Y122.426 E7.36692
G1 X117.604 Y109.355 E8.4491
G1 X117.428 Y109.57 E8.46537
G1 X117.252 Y109.714 E8.47868
G1 X130.675 Y123.138 E9.59005
G1 X130.675 Y123.849 E9.63167
G1 X116.853 Y110.026 E10.77607
G1 X116.389 Y110.274 E10.80687
G1 X130.675 Y124.56 E11.98965
G1 X130.675 Y125.271 E12.03127
G1 X115.857 Y110.453 E13.25809
G1 X115.67 Y110.51 E13.26953
G1 X115.244 Y110.552 E13.29459
G1 X130.675 Y125.982 E14.57212
G1 X130.675 Y126.694 E14.6138
G1 X114.224 Y110.242 E15.97586
M204 S2500
G1 E14.57586 F4800
;WIPE_START
G1 F5760
G1 X114.76 Y110.778 E13.97586
;WIPE_END
G92 E0
G1 X100.012 Y96.742 F7200
G1 E2 F4800
M204 S2000
G1 F3000
G1 X130.675 Y127.405 E4.53867
G1 X130.675 Y128.116 E4.58029
G1 X99.526 Y96.967 E7.1592
G1 X99.325 Y96.967 E7.17097
G1 X99.325 Y97.477 E7.20083
G1 X130.675 Y128.827 E9.79638
G1 X130.675 Y129.538 E9.838
G1 X99.325 Y98.188 E12.43355
G1 X99.325 Y98.899 E12.47517
G1 X130.675 Y130.25 E15.07076
G1 X130.675 Y130.961 E15.11238
G1 X99.325 Y99.61 E17.70797
G1 X99.325 Y100.322 E17.74965
G1 X130.675 Y131.672 E20.3452
G1 X130.675 Y132.383 E20.38682
G1 X99.325 Y101.033 E22.98237
G1 X99.325 Y101.744 E23.02399
G1 X130.474 Y132.893 E25.6029
G1 X129.763 Y132.893 E25.64452
G1 X99.325 Y102.455 E28.16456
G1 X99.325 Y103.166 E28.20618
G1 X129.051 Y132.893 E30.66732
G1 X128.34 Y132.893 E30.70894
G1 X99.325 Y103.878 E33.11117
G1 X99.325 Y104.589 E33.15279
G1 X127.629 Y132.893 E35.49616
G1 X126.918 Y132.893 E35.53778
G1 X99.325 Y105.3 E37.82228
G1 X99.325 Y106.011 E37.8639
G1 X126.207 Y132.893 E40.08953
G1 X125.495 Y132.893 E40.13121
G1 X99.325 Y106.723 E42.2979
G1 X99.325 Y107.434 E42.33952
G1 X124.784 Y132.893 E44.44734
G1 X124.073 Y132.893 E44.48896
G1 X99.325 Y108.145 E46.53791
G1 X99.325 Y108.856 E46.57953
G1 X123.362 Y132.893 E48.56962
G1 X122.65 Y132.893 E48.6113
G1 X99.325 Y109.567 E50.54248
G1 X99.325 Y110.279 E50.58416
G1 X121.939 Y132.893 E52.45643
G1 X121.228 Y132.893 E52.49805
G1 X99.325 Y110.99 E54.31146
G1 X99.325 Y111.701 E54.35308
G1 X120.517 Y132.893 E56.10762
G1 X119.806 Y132.893 E56.14924
G1 X99.325 Y112.412 E57.84492
G1 X99.325 Y113.123 E57.88654
G1 X119.094 Y132.893 E59.52331
G1 X118.383 Y132.893 E59.56493
G1 X99.325 Y113.835 E61.14279
G1 X99.325 Y114.546 E61.18441
G1 X117.672 Y132.893 E62.70341
G1 X116.961 Y132.893 E62.74503
G1 X99.325 Y115.257 E64.20516
G1 X99.325 Y115.968 E64.24678
G1 X116.25 Y132.893 E65.64805
G1 X115.538 Y132.893 E65.68973
G1 X99.325 Y116.68 E67.03205
G1 X99.325 Y117.391 E67.07367
G1 X114.827 Y132.893 E68.35712
G1 X114.116 Y132.893 E68.39874
G1 X99.325 Y118.102 E69.62333
G1 X99.325 Y118.813 E69.66495
G1 X113.405 Y132.893 E70.83067
G1 X112.693 Y132.893 E70.87235
G1 X99.325 Y119.524 E71.97916
G1 X99.325 Y120.236 E72.02084
G1 X111.982 Y132.893 E73.06875
G1 X111.271 Y132.893 E73.11037
G1 X99.325 Y120.947 E74.09941
G1 X99.325 Y121.658 E74.14103
G1 X110.56 Y132.893 E75.07121
G1 X109.849 Y132.893 E75.11283
G1 X99.325 Y122.369 E75.98414
G1 X99.325 Y123.08 E76.02576
G1 X109.137 Y132.893 E76.83816
G1 X108.426 Y132.893 E76.87978
G1 X99.325 Y123.792 E77.63328
G1 X99.325 Y124.503 E77.6749
G1 X107.715 Y132.893 E78.36953
G1 X107.004 Y132.893 E78.41115
G1 X99.325 Y125.214 E79.04692
G1 X99.325 Y125.925 E79.08854
G1 X106.293 Y132.893 E79.66544
G1 X105.581 Y132.893 E79.70712
G1 X99.325 Y126.637 E80.22507
G1 X99.325 Y127.348 E80.26669
G1 X104.87 Y132.893 E80.72578
G1 X104.159 Y132.893 E80.7674
G1 X99.325 Y128.059 E81.16762
G1 X99.325 Y128.77 E81.20924
G1 X103.448 Y132.893 E81.55059
G1 X102.736 Y132.893 E81.59227
G1 X99.325 Y129.481 E81.87472
G1 X99.325 Y130.193 E81.9164
G1 X102.025 Y132.893 E82.13994
G1 X101.314 Y132.893 E82.18156
G1 X99.325 Y130.904 E82.34623
G1 X99.325 Y131.615 E82.38785
G1 X100.603 Y132.893 E82.49366
G1 X99.892 Y132.893 E82.53528
G1 X99.1 Y132.101 E82.60085
M204 S2500
;LAYER_CHANGE
;Z:0.48
;HEIGHT:0.2
; BEFORE_LAYER_CHANGE 1 @ 0.48mm
G1 E81.20085 F4800
;WIPE_START
G1 F5760
G1 X99.636 Y132.637 E80.60085
