; generated by PrusaSlicer 2.6.0+MacOS-x64 on 2023-07-28 at 03:29:08 UTC

; 

; external perimeters extrusion width = 0.45mm
; perimeters extrusion width = 0.45mm
; infill extrusion width = 0.45mm
; solid infill extrusion width = 0.45mm
; top infill extrusion width = 0.40mm
; support material extrusion width = 0.40mm
; first layer extrusion width = 0.60mm

M201 X2500 Y2500 Z800 E2500 ; sets maximum accelerations, mm/sec^2
M203 X300 Y250 Z8 E80 ; sets maximum feedrates, mm / sec
M204 S2500 T2500 ; sets acceleration (S) and retract acceleration (R), mm/sec^2
M205 X15.00 Y10.00 Z2.00 E10.00 ; sets the jerk limits, mm/sec
M205 S0 T0 ; sets the minimum extruding and travel feed rate, mm/sec
;TYPE:Custom
G90 ; use absolute coordinates
M83 ; extruder relative mode
M104 S215 ; set extruder temp
M140 S60 ; set bed temp
M190 S60 ; wait for bed temp
M109 S215 ; wait for extruder temp
G28                                        ; move X/Y/Z to min endstops
G1 Z0.28                                   ; lift nozzle a bit 
G92 E0 
G1 Y3 F1800                                    ; zero the extruded length 
G1 X60  E25 F500                       ; Extrude 25mm of filament in a 5cm line. 
G92 E0                                     ; zero the extruded length again 
G1 E-2 F500                                ; Retract a little 
G1 X70 F4000                              ; Quickly wipe away from the filament line
M117
G21 ; set units to millimeters
G90 ; use absolute coordinates
M82 ; use absolute distances for extrusion
G92 E0
M107
;LAYER_CHANGE
;Z:0.3
;HEIGHT:0.3
; BEFORE_LAYER_CHANGE 0 @ 0.3mm
G1 E-2 F4800
G92 E0
G1 Z.3 F9000
; AFTER_LAYER_CHANGE 0 @ 0.3mm
G1 X179.2 Y106.7 F15000
G1 E2 F4800
M204 S1000
;TYPE:External perimeter
;WIDTH:0.6
G1 X179.2 Y123.3 E3.10897
G1 X187.817 Y123.3 E3.68463
G1 X187.817 Y129.7 E4.11218
G1 X35.2 Y129.7 E14.30782
G1 X35.2 Y144.7 E15.3099
G1 X34.8 Y144.7 E15.33662
G1 X34.8 Y85.3 E19.30486
G1 X35.2 Y85.3 E19.33158
G1 X35.2 Y100.3 E20.33366
G1 X187.817 Y100.3 E30.5293
G1 X187.817 Y106.7 E30.95685
G1 X179.26 Y106.7 E31.5285
M204 S2500
G1 X178.809 Y106.785 F15000
G1 X178.664 Y106.164
M204 S1000
;TYPE:Perimeter
G1 F4799.936
G1 X178.664 Y110.582 Z.3 E31.82365
G1 X178.664 Y115 Z.3 E32.1188
G1 X178.664 Y119.418 Z.3 E32.41394
G1 X178.664 Y123.836 Z.3 E32.70909
G1 X182.973 Y123.836 Z.3 E32.99692
G1 X187.281 Y123.836 Z.3 E33.28475
G1 X187.281 Y129.164 E33.64069
G1 X182.384 Y129.164 Z.3 E33.96784
G1 X177.487 Y129.164 Z.3 E34.29499
G1 X172.59 Y129.164 Z.3 E34.62214
G1 X167.693 Y129.164 Z.3 E34.94929
G1 X162.796 Y129.164 Z.3 E35.27644
G1 X157.899 Y129.164 Z.3 E35.60359
G1 X35.336 Y129.164 Z.3 E43.79144
G1 X35.336 Y100.836 E45.6839
G1 X40.233 Y100.836 Z.3 E46.01105
G1 X45.13 Y100.836 Z.3 E46.3382
G1 X50.027 Y100.836 Z.3 E46.66536
G1 X54.924 Y100.836 Z.3 E46.9925
G1 X59.821 Y100.836 Z.3 E47.31966
G1 X64.718 Y100.836 Z.3 E47.64681
G1 F4800
G1 X187.281 Y100.836 Z.3 E55.83465
G1 F4799.962
G1 X187.281 Y103.5 Z.3 E56.01262
G1 X187.281 Y106.164 Z.3 E56.19059
G1 X178.724 Y106.164 E56.76224
M204 S2500
G1 E55.36224 F4800
;WIPE_START
G1 F12000
G1 X178.719 Y107.743 E54.76224
;WIPE_END
G92 E0
G1 X42.2 Y106.7 F15000
G1 E2 F4800
M204 S1000
;TYPE:External perimeter
G1 X175.8 Y106.7 E10.9252
G1 X175.8 Y123.3 E12.03417
G1 X42.2 Y123.3 E20.95937
G1 X42.2 Y106.76 E22.06433
M204 S2500
G1 X42.014 Y106.346 F15000
G1 X41.664 Y106.7
M204 S1000
;TYPE:Perimeter
G1 F4799.584
G1 X41.664 Y106.164 E22.10014
G1 X176.336 Y106.164 E31.09696
G1 X176.336 Y110.582 Z.3 E31.39211
G1 X176.336 Y115 Z.3 E31.68726
G1 X176.336 Y119.418 Z.3 E31.9824
G1 X176.336 Y123.836 Z.3 E32.27755
G1 X41.664 Y123.836 E41.27437
G1 X41.664 Y119.567 Z.3 E41.55956
G1 X41.664 Y115.298 Z.3 E41.84475
G1 X41.664 Y111.029 Z.3 E42.12994
G1 F4800
G1 X41.664 Y106.76 Z.3 E42.41514
M204 S2500
G1 E41.01514
;WIPE_START
G1 F12000
G1 X41.664 Y106.164 E40.78866
G1 X42.647 Y106.164 E40.41514
;WIPE_END
G92 E0
G1 X185.927 Y101.103 F15000
G1 E2 F4800
M204 S1000
;TYPE:Solid infill
;WIDTH:0.601633
G1 F4792.825
G1 X186.772 Y101.949 E2.08012
G1 F4799.849
G1 X186.772 Y102.708 E2.13098
G1 X185.409 Y101.344 E2.26019
G1 X184.649 Y101.344 E2.31112
G1 X186.772 Y103.468 E2.51235
G1 X186.772 Y104.228 E2.56328
G1 X183.889 Y101.344 E2.83654
G1 X183.129 Y101.344 E2.88747
G1 X184.951 Y103.166 Z.3 E3.06011
G1 X186.772 Y104.988 Z.3 E3.23275
G1 F4797.96
G1 X186.772 Y105.656 E3.27751
G1 X186.68 Y105.656 E3.28367
G1 F4796.766
G1 X184.525 Y103.5 Z.3 E3.48796
G1 F4799.977
G1 X182.369 Y101.344 Z.3 E3.69225
G1 X181.61 Y101.344 E3.74311
G1 X183.766 Y103.5 Z.3 E3.9474
G1 F4800
G1 X185.921 Y105.656 Z.3 E4.15169
G1 F4799.771
G1 X185.161 Y105.656 E4.20262
G1 X180.85 Y101.344 E4.6112
G1 X180.09 Y101.344 E4.66213
G1 X184.401 Y105.656 E5.07071
G1 X183.641 Y105.656 E5.12164
G1 X179.33 Y101.344 E5.53022
G1 X178.57 Y101.344 E5.58115
G1 X182.882 Y105.656 E5.98978
G1 X182.122 Y105.656 E6.04071
G1 X177.811 Y101.344 E6.44929
G1 X177.051 Y101.344 E6.50022
G1 X181.362 Y105.656 E6.9088
G1 X180.602 Y105.656 E6.95973
G1 X176.291 Y101.344 E7.36831
G1 X175.531 Y101.344 E7.41924
G1 X179.842 Y105.656 E7.82782
G1 X179.083 Y105.656 E7.87868
G1 X174.771 Y101.344 E8.28731
G1 X174.012 Y101.344 E8.33817
G1 X178.323 Y105.656 E8.74675
G1 X178.156 Y105.656 E8.75794
G1 X178.156 Y106.248 E8.79761
G1 X173.252 Y101.344 E9.26234
G1 X172.492 Y101.344 E9.31327
G1 X175.445 Y104.297 Z.3 E9.59307
G1 X178.397 Y107.249 Z.3 E9.87286
M204 S2500
G1 E8.47286 F4800
;WIPE_START
G1 F12000
G1 X177.281 Y106.133 E7.87286
;WIPE_END
G92 E0
G1 X176.603 Y106.216 F15000
G1 E2 F4800
M204 S1000
G1 X178.156 Y107.768 E2.14712
G1 F4799.868
G1 X178.156 Y108.527 E2.19798
G1 X176.844 Y107.216 E2.32226
G1 X176.844 Y107.976 E2.37319
G1 X178.156 Y109.287 E2.49747
G1 X178.156 Y110.047 E2.5484
G1 X176.844 Y108.736 E2.67268
G1 X176.844 Y109.496 E2.72361
G1 X178.156 Y110.807 E2.84789
G1 X178.156 Y111.567 E2.89882
G1 X176.844 Y110.256 E3.0231
G1 X176.844 Y111.015 E3.07396
G1 X178.156 Y112.326 E3.19824
G1 X178.156 Y113.086 E3.24917
G1 X176.844 Y111.775 E3.37345
G1 X176.844 Y112.535 E3.42438
G1 X178.156 Y113.846 E3.54866
G1 X178.156 Y114.606 E3.59959
G1 X176.844 Y113.295 E3.72387
G1 X176.844 Y114.054 E3.77473
G1 X178.156 Y115.366 E3.89906
G1 X178.156 Y116.125 E3.94992
G1 X176.844 Y114.814 E4.0742
G1 X176.844 Y115.574 E4.12513
G1 X178.156 Y116.885 E4.24941
G1 X178.156 Y117.645 E4.30034
G1 X176.844 Y116.334 E4.42462
G1 X176.844 Y117.094 E4.47555
G1 X178.156 Y118.405 E4.59983
G1 X178.156 Y119.164 E4.65069
G1 X176.844 Y117.853 E4.77497
G1 X176.844 Y118.613 E4.8259
G1 X178.156 Y119.924 E4.95018
G1 X178.156 Y120.684 E5.00111
G1 X176.844 Y119.373 E5.12539
G1 X176.844 Y120.133 E5.17632
G1 X178.156 Y121.444 E5.3006
G1 X178.156 Y122.204 E5.35153
G1 X176.844 Y120.893 E5.47581
G1 X176.844 Y121.652 E5.52667
G1 X178.397 Y123.204 E5.67379
M204 S2500
G1 E4.27379 F4800
;WIPE_START
G1 F12000
G1 X177.28 Y122.088 E3.67379
;WIPE_END
G92 E0
G1 X186.134 Y124.103 F15000
G1 E2 F4800
M204 S1000
G1 F4799.852
G1 X186.772 Y124.742 E2.06051
G1 X186.772 Y125.502 E2.11144
G1 X185.615 Y124.344 E2.22113
G1 X184.855 Y124.344 E2.27206
G1 X186.772 Y126.262 E2.45377
G1 X186.772 Y127.022 E2.5047
G1 X184.095 Y124.344 E2.75843
G1 X183.336 Y124.344 E2.80929
G1 X186.772 Y127.781 E3.13495
G1 X186.772 Y128.541 E3.18588
G1 X182.576 Y124.344 E3.58356
G1 X181.816 Y124.344 E3.63449
G1 X186.127 Y128.656 E4.04307
G1 X185.367 Y128.656 E4.094
G1 X181.056 Y124.344 E4.50258
G1 X180.296 Y124.344 E4.55351
G1 X184.607 Y128.656 E4.96209
G1 X183.848 Y128.656 E5.01295
G1 X181.572 Y126.38 Z.3 E5.22866
G1 X179.296 Y124.103 Z.3 E5.44437
M204 S2500
G1 E4.04437 F4800
;WIPE_START
G1 F12000
G1 X180.412 Y125.22 E3.44437
;WIPE_END
G92 E0
G1 X176.603 Y122.171 F15000
G1 E2 F4800
M204 S1000
G1 F4799.896
G1 X178.156 Y123.723 E2.14712
G1 X178.156 Y124.344 E2.18873
G1 X178.777 Y124.344 E2.23034
G1 X180.932 Y126.5 Z.3 E2.43463
G1 F4800
G1 X183.088 Y128.656 Z.3 E2.63892
G1 F4799.655
G1 X182.328 Y128.656 E2.68985
G1 X176.844 Y123.172 E3.20954
G1 X176.844 Y123.932 E3.26047
G1 X181.568 Y128.656 E3.70814
G1 X180.808 Y128.656 E3.75907
G1 X176.497 Y124.344 E4.16765
G1 X175.738 Y124.344 E4.21851
G1 X180.049 Y128.656 E4.62709
G1 X179.289 Y128.656 E4.67802
G1 X174.978 Y124.344 E5.0866
G1 X174.218 Y124.344 E5.13753
G1 X178.529 Y128.656 E5.54611
G1 X177.769 Y128.656 E5.59704
G1 X173.458 Y124.344 E6.00562
G1 X172.698 Y124.344 E6.05655
G1 X177.01 Y128.656 E6.46518
G1 X176.25 Y128.656 E6.51611
G1 X171.939 Y124.344 E6.92469
G1 X171.179 Y124.344 E6.97562
G1 X175.49 Y128.656 E7.3842
G1 X174.73 Y128.656 E7.43513
G1 X170.419 Y124.344 E7.84371
G1 X169.659 Y124.344 E7.89464
G1 X173.97 Y128.656 E8.30322
G1 X173.211 Y128.656 E8.35408
G1 X168.9 Y124.344 E8.76266
G1 X168.14 Y124.344 E8.81359
G1 X172.451 Y128.656 E9.22217
G1 X171.691 Y128.656 E9.2731
G1 X167.38 Y124.344 E9.68168
G1 X166.62 Y124.344 E9.73261
G1 X170.931 Y128.656 E10.14119
G1 X170.171 Y128.656 E10.19212
G1 X168.016 Y126.5 Z.3 E10.39641
G1 X165.86 Y124.344 Z.3 E10.6007
G1 X165.101 Y124.344 E10.65156
G1 X167.257 Y126.5 Z.3 E10.85585
G1 F4800
G1 X169.412 Y128.656 Z.3 E11.06014
G1 F4799.771
G1 X168.652 Y128.656 E11.11107
G1 X164.341 Y124.344 E11.51965
G1 X163.581 Y124.344 E11.57058
G1 X167.892 Y128.656 E11.97916
G1 X167.132 Y128.656 E12.03009
G1 X162.821 Y124.344 E12.43867
G1 X162.061 Y124.344 E12.4896
G1 X166.372 Y128.656 E12.89818
G1 X165.613 Y128.656 E12.94904
G1 X161.302 Y124.344 E13.35762
G1 X160.542 Y124.344 E13.40855
G1 X164.853 Y128.656 E13.81713
G1 X164.093 Y128.656 E13.86806
G1 X159.782 Y124.344 E14.27664
G1 X159.022 Y124.344 E14.32757
G1 X163.333 Y128.656 E14.73615
G1 X162.574 Y128.656 E14.78701
G1 X158.262 Y124.344 E15.19564
G1 X157.503 Y124.344 E15.2465
G1 X161.814 Y128.656 E15.65508
G1 X161.054 Y128.656 E15.70601
G1 X156.743 Y124.344 E16.11459
G1 X155.983 Y124.344 E16.16552
G1 X160.294 Y128.656 E16.5741
G1 X159.534 Y128.656 E16.62503
G1 X155.223 Y124.344 E17.03361
G1 X154.464 Y124.344 E17.08447
G1 X158.775 Y128.656 E17.49305
G1 X158.015 Y128.656 E17.54398
G1 X153.704 Y124.344 E17.95256
G1 X152.944 Y124.344 E18.00349
G1 X157.255 Y128.656 E18.41207
G1 X156.495 Y128.656 E18.463
G1 X152.184 Y124.344 E18.87158
G1 X151.424 Y124.344 E18.92251
G1 X153.579 Y126.5 Z.3 E19.1268
G1 X155.735 Y128.656 Z.3 E19.33109
G1 X154.976 Y128.656 E19.38195
G1 X152.82 Y126.5 Z.3 E19.58624
G1 F4800
G1 X150.665 Y124.344 Z.3 E19.79053
G1 F4799.665
G1 X149.905 Y124.344 E19.84146
G1 X154.216 Y128.656 E20.25004
G1 X153.456 Y128.656 E20.30097
G1 X149.145 Y124.344 E20.70955
G1 X148.385 Y124.344 E20.76048
G1 X150.54 Y126.5 Z.3 E20.96477
G1 X152.696 Y128.656 Z.3 E21.16906
G1 X151.937 Y128.656 E21.21992
G1 X149.781 Y126.5 Z.3 E21.42423
G1 F4800
G1 X147.625 Y124.344 Z.3 E21.62855
G1 F4799.888
G1 X146.866 Y124.344 E21.67941
G1 X151.177 Y128.656 E22.08799
G1 X150.417 Y128.656 E22.13892
G1 X146.106 Y124.344 E22.5475
G1 X145.346 Y124.344 E22.59843
G1 X149.657 Y128.656 E23.00701
G1 X148.897 Y128.656 E23.05794
G1 X144.586 Y124.344 E23.46652
G1 X143.826 Y124.344 E23.51745
G1 X148.138 Y128.656 E23.92608
G1 X147.378 Y128.656 E23.97701
G1 X143.067 Y124.344 E24.38559
G1 X142.307 Y124.344 E24.43652
G1 X146.618 Y128.656 E24.8451
G1 X145.858 Y128.656 E24.89603
G1 X141.547 Y124.344 E25.30461
G1 X140.787 Y124.344 E25.35554
G1 X142.943 Y126.5 Z.3 E25.55983
G1 X145.098 Y128.656 Z.3 E25.76412
G1 X144.339 Y128.656 E25.81498
G1 X142.184 Y126.5 Z.3 E26.01927
G1 F4800
G1 X140.028 Y124.344 Z.3 E26.22356
G1 F4799.669
G1 X139.268 Y124.344 E26.27449
G1 X143.579 Y128.656 E26.68307
G1 X142.819 Y128.656 E26.734
G1 X138.508 Y124.344 E27.14258
G1 X137.748 Y124.344 E27.19351
G1 X142.059 Y128.656 E27.60209
G1 X141.299 Y128.656 E27.65302
G1 X139.143 Y126.5 Z.3 E27.85731
G1 X136.988 Y124.344 Z.3 E28.0616
G1 X136.229 Y124.344 E28.11246
G1 X138.384 Y126.5 Z.3 E28.31675
G1 F4800
G1 X140.54 Y128.656 Z.3 E28.52104
G1 F4799.681
G1 X139.78 Y128.656 E28.57197
G1 X135.469 Y124.344 E28.98055
G1 X134.709 Y124.344 E29.03148
G1 X139.02 Y128.656 E29.44006
G1 X138.26 Y128.656 E29.49099
G1 X133.949 Y124.344 E29.89957
G1 X133.189 Y124.344 E29.9505
G1 X137.501 Y128.656 E30.35913
G1 X136.741 Y128.656 E30.41006
G1 X132.43 Y124.344 E30.81864
G1 X131.67 Y124.344 E30.86957
G1 X135.981 Y128.656 E31.27815
G1 X135.221 Y128.656 E31.32908
G1 X130.91 Y124.344 E31.73766
G1 X130.15 Y124.344 E31.78859
G1 X134.461 Y128.656 E32.19717
G1 X133.702 Y128.656 E32.24803
G1 X129.39 Y124.344 E32.65666
G1 X128.631 Y124.344 E32.70752
G1 X132.942 Y128.656 E33.1161
G1 X132.182 Y128.656 E33.16703
G1 X127.871 Y124.344 E33.57561
G1 X127.111 Y124.344 E33.62654
G1 X131.422 Y128.656 E34.03512
G1 X130.662 Y128.656 E34.08605
G1 X126.351 Y124.344 E34.49463
G1 X125.592 Y124.344 E34.54549
G1 X129.903 Y128.656 E34.95407
G1 X129.143 Y128.656 E35.005
G1 X124.832 Y124.344 E35.41358
G1 X124.072 Y124.344 E35.46451
G1 X128.383 Y128.656 E35.87309
G1 X127.623 Y128.656 E35.92402
G1 X123.312 Y124.344 E36.3326
G1 X122.552 Y124.344 E36.38353
G1 X126.863 Y128.656 E36.79211
G1 X126.104 Y128.656 E36.84297
G1 X121.793 Y124.344 E37.25155
G1 X121.033 Y124.344 E37.30248
G1 X125.344 Y128.656 E37.71106
G1 X124.584 Y128.656 E37.76199
G1 X120.273 Y124.344 E38.17057
G1 X119.513 Y124.344 E38.2215
G1 X121.669 Y126.5 Z.3 E38.42579
G1 X123.824 Y128.656 Z.3 E38.63008
G1 X123.065 Y128.656 E38.68094
G1 X120.909 Y126.5 Z.3 E38.88525
G1 F4800
G1 X118.753 Y124.344 Z.3 E39.08957
G1 F4799.851
G1 X117.994 Y124.344 E39.14043
G1 X122.305 Y128.656 E39.54901
G1 X121.545 Y128.656 E39.59994
G1 X117.234 Y124.344 E40.00852
G1 X116.474 Y124.344 E40.05945
G1 X120.785 Y128.656 E40.46803
G1 X120.025 Y128.656 E40.51896
G1 X115.714 Y124.344 E40.92754
G1 X114.954 Y124.344 E40.97847
G1 X119.266 Y128.656 E41.3871
G1 X118.506 Y128.656 E41.43803
G1 X114.195 Y124.344 E41.84661
G1 X113.435 Y124.344 E41.89754
G1 X117.746 Y128.656 E42.30612
G1 X116.986 Y128.656 E42.35705
G1 X112.675 Y124.344 E42.76563
G1 X111.915 Y124.344 E42.81656
G1 X116.226 Y128.656 E43.22514
G1 X115.467 Y128.656 E43.276
G1 X111.156 Y124.344 E43.68458
G1 X110.396 Y124.344 E43.73551
G1 X114.707 Y128.656 E44.14409
G1 X113.947 Y128.656 E44.19502
G1 X109.636 Y124.344 E44.6036
G1 X108.876 Y124.344 E44.65453
G1 X113.187 Y128.656 E45.06311
G1 X112.427 Y128.656 E45.11404
G1 X110.271 Y126.5 Z.3 E45.31833
G1 X108.116 Y124.344 Z.3 E45.52262
G1 X107.357 Y124.344 E45.57348
G1 X109.512 Y126.5 Z.3 E45.77777
G1 F4800
G1 X111.668 Y128.656 Z.3 E45.98206
G1 F4799.729
G1 X110.908 Y128.656 E46.03299
G1 X106.597 Y124.344 E46.44157
G1 X105.837 Y124.344 E46.4925
G1 X110.148 Y128.656 E46.90108
G1 X109.388 Y128.656 E46.95201
G1 X107.232 Y126.5 Z.3 E47.1563
G1 X105.077 Y124.344 Z.3 E47.36059
G1 X104.317 Y124.344 E47.41152
G1 X106.473 Y126.5 Z.3 E47.61583
G1 F4800
G1 X108.629 Y128.656 Z.3 E47.82015
G1 F4799.691
G1 X107.869 Y128.656 E47.87108
G1 X103.558 Y124.344 E48.27966
G1 X102.798 Y124.344 E48.33059
G1 X107.109 Y128.656 E48.73917
G1 X106.349 Y128.656 E48.7901
G1 X102.038 Y124.344 E49.19868
G1 X101.278 Y124.344 E49.24961
G1 X103.434 Y126.5 Z.3 E49.4539
G1 X105.589 Y128.656 Z.3 E49.65819
G1 X104.83 Y128.656 E49.70905
G1 X102.674 Y126.5 Z.3 E49.91336
G1 F4800
G1 X100.518 Y124.344 Z.3 E50.11768
G1 F4799.851
G1 X99.759 Y124.344 E50.16854
G1 X104.07 Y128.656 E50.57712
G1 X103.31 Y128.656 E50.62805
G1 X98.999 Y124.344 E51.03663
G1 X98.239 Y124.344 E51.08756
G1 X102.55 Y128.656 E51.49614
G1 X101.79 Y128.656 E51.54707
G1 X97.479 Y124.344 E51.95565
G1 X96.72 Y124.344 E52.00651
G1 X101.031 Y128.656 E52.41509
G1 X100.271 Y128.656 E52.46602
G1 X95.96 Y124.344 E52.8746
G1 X95.2 Y124.344 E52.92553
G1 X99.511 Y128.656 E53.33411
G1 X98.751 Y128.656 E53.38504
G1 X94.44 Y124.344 E53.79362
G1 X93.68 Y124.344 E53.84455
G1 X95.835 Y126.5 Z.3 E54.04884
G1 X97.991 Y128.656 Z.3 E54.25313
G1 X97.232 Y128.656 E54.30399
G1 X95.076 Y126.5 Z.3 E54.50828
G1 F4800
G1 X92.921 Y124.344 Z.3 E54.71257
G1 F4799.678
G1 X92.161 Y124.344 E54.7635
G1 X96.472 Y128.656 E55.17208
G1 X95.712 Y128.656 E55.22301
G1 X91.401 Y124.344 E55.63159
G1 X90.641 Y124.344 E55.68252
G1 X94.952 Y128.656 E56.0911
G1 X94.193 Y128.656 E56.14196
G1 X89.881 Y124.344 E56.55059
G1 X89.122 Y124.344 E56.60145
