; generated by PrusaSlicer 2.6.0+MacOS-x64 on 2023-07-09 at 16:09:00 UTC

; 

; external perimeters extrusion width = 0.45mm
; perimeters extrusion width = 0.45mm
; infill extrusion width = 0.45mm
; solid infill extrusion width = 0.45mm
; top infill extrusion width = 0.40mm
; support material extrusion width = 0.40mm
; first layer extrusion width = 0.60mm

; external perimeters extrusion width = 0.45mm
; perimeters extrusion width = 0.45mm
; infill extrusion width = 0.45mm
; solid infill extrusion width = 0.45mm
; top infill extrusion width = 0.40mm
; support material extrusion width = 0.40mm
; first layer extrusion width = 0.60mm

M201 X3000 Y3000 Z800 E2500 ; sets maximum accelerations, mm/sec^2
M203 X300 Y250 Z8 E80 ; sets maximum feedrates, mm / sec
M204 S3000 T3000 ; sets acceleration (S) and retract acceleration (R), mm/sec^2
M205 X15.00 Y10.00 Z2.00 E10.00 ; sets the jerk limits, mm/sec
M205 S0 T0 ; sets the minimum extruding and travel feed rate, mm/sec
;TYPE:Custom
G90 ; use absolute coordinates
M83 ; extruder relative mode
M104 S215 ; set extruder temp
M140 S65 ; set bed temp
M190 S65 ; wait for bed temp
M109 S215 ; wait for extruder temp
G28                                        ; move X/Y/Z to min endstops
G1 Z0.28                                   ; lift nozzle a bit 
G92 E0 
G1 Y3 F1800                                    ; zero the extruded length 
G1 X60  E25 F500                       ; Extrude 25mm of filament in a 5cm line. 
G92 E0                                     ; zero the extruded length again 
G1 E-2 F500                                ; Retract a little 
G1 X70 F4000                              ; Quickly wipe away from the filament line
M117
G21 ; set units to millimeters
G90 ; use absolute coordinates
M82 ; use absolute distances for extrusion
G92 E0
M107
;LAYER_CHANGE
;Z:0.3
;HEIGHT:0.3
; BEFORE_LAYER_CHANGE 0 @ 0.3mm
G1 E-2 F4800
G92 E0
G1 Z.3 F9000
; AFTER_LAYER_CHANGE 0 @ 0.3mm
G1 X158.18 Y107.3
G1 E2 F4800
;TYPE:External perimeter
;WIDTH:0.6
G1 F3000
G1 X155.293 Y102.3 E2.38571
G1 X164.7 Y102.3 E3.01415
G1 X164.7 Y111.7 E3.64212
G1 X65.3 Y111.7 E10.28258
G1 X65.3 Y107.3 E10.57652
G1 X74.18 Y107.3 E11.16975
G1 X71.293 Y102.3 E11.55546
G1 X86.707 Y102.3 E12.5852
G1 X83.82 Y107.3 E12.97091
G1 X102.18 Y107.3 E14.19746
G1 X99.293 Y102.3 E14.58317
G1 X114.707 Y102.3 E15.61291
G1 X111.82 Y107.3 E15.99862
G1 X130.18 Y107.3 E17.22517
G1 X127.293 Y102.3 E17.61088
G1 X142.707 Y102.3 E18.64062
G1 X139.82 Y107.3 E19.02633
G1 X158.12 Y107.3 E20.24887
G1 X158.568 Y107.203 F9000
G1 E18.84887 F4800
;WIPE_START
G1 F7200
G1 X157.654 Y106.475 E18.24887
;WIPE_END
G92 E0
G1 X159.108 Y107.836 F9000
G1 E2 F4800
;TYPE:Perimeter
G1 F3000
G1 X156.221 Y102.836 E2.38571
G1 F2999.984
G1 X160.193 Y102.836 Z.3 E2.65103
G1 F3000
G1 X164.164 Y102.836 Z.3 E2.91635
G1 F2999.993
G1 X164.164 Y107 Z.3 E3.19453
G1 X164.164 Y111.164 Z.3 E3.47271
G1 X65.836 Y111.164 E10.04155
G1 X65.836 Y107.836 E10.26388
G1 X75.108 Y107.836 E10.8833
G1 X73.665 Y105.336 Z.3 E11.07615
G1 F3000
G1 X72.221 Y102.836 Z.3 E11.26901
G1 F2999.993
G1 X76.74 Y102.836 Z.3 E11.57093
G1 X81.26 Y102.836 Z.3 E11.87284
G1 X85.779 Y102.836 Z.3 E12.17476
G1 X82.892 Y107.836 E12.56047
G1 X86.935 Y107.836 Z.3 E12.83058
G1 X90.978 Y107.836 Z.3 E13.10069
G1 X95.022 Y107.836 Z.3 E13.37079
G1 X99.065 Y107.836 Z.3 E13.6409
G1 X103.108 Y107.836 Z.3 E13.91101
G1 X100.221 Y102.836 E14.29672
G1 X104.74 Y102.836 Z.3 E14.59864
G1 X109.26 Y102.836 Z.3 E14.90055
G1 X113.779 Y102.836 Z.3 E15.20247
G1 X110.892 Y107.836 E15.58818
G1 X114.935 Y107.836 Z.3 E15.85829
G1 X118.978 Y107.836 Z.3 E16.1284
G1 X123.022 Y107.836 Z.3 E16.3985
G1 X127.065 Y107.836 Z.3 E16.66861
G1 X131.108 Y107.836 Z.3 E16.93872
G1 X128.221 Y102.836 E17.32443
G1 X132.74 Y102.836 Z.3 E17.62635
G1 X137.26 Y102.836 Z.3 E17.92826
G1 X141.779 Y102.836 Z.3 E18.23018
G1 F3000
G1 X140.336 Y105.336 Z.3 E18.42303
G1 F2999.998
G1 X138.892 Y107.836 Z.3 E18.61589
G1 X159.048 Y107.836 E19.96242
G1 E18.56242 F4800
;WIPE_START
G1 F7200
G1 X158.582 Y107.011 E17.96242
;WIPE_END
G92 E0
G1 X162.663 Y110.897 F9000
G1 E2 F4800
;TYPE:Solid infill
;WIDTH:0.609206
G1 F2952.928
G1 X158.27 Y110.513 Z.3 E2.29969
G1 F2960.17
G1 X153.876 Y110.128 Z.3 E2.59938
G1 F2967.412
G1 X149.483 Y109.744 Z.3 E2.89907
G1 F2974.654
G1 X145.089 Y109.359 Z.3 E3.19876
G1 F2981.896
G1 X140.696 Y108.975 Z.3 E3.49845
G1 F2989.137
G1 X136.302 Y108.59 Z.3 E3.79814
G1 F3000
G1 X131.909 Y108.206 Z.3 E4.09783
G1 F2999.726
G1 X131.989 Y108.344 E4.10867
G1 X127.241 Y108.344 E4.43131
G1 X131.644 Y108.729 Z.3 E4.73163
G1 X136.046 Y109.115 Z.3 E5.03195
G1 X140.449 Y109.5 Z.3 E5.33227
G1 X144.852 Y109.885 Z.3 E5.63259
G1 X149.254 Y110.271 Z.3 E5.93291
G1 F3000
G1 X153.657 Y110.656 Z.3 E6.23323
G1 F2999.975
G1 X150.531 Y110.656 Z.3 E6.44562
G1 X147.406 Y110.656 Z.3 E6.65801
G1 X120.99 Y108.344 E8.45993
G1 X117.865 Y108.344 Z.3 E8.67232
G1 X114.739 Y108.344 Z.3 E8.88471
G1 X141.155 Y110.656 E10.68663
G1 X138.029 Y110.656 Z.3 E10.89906
G1 X134.903 Y110.656 Z.3 E11.11148
G1 X130.453 Y110.267 Z.3 E11.41506
G1 X126.002 Y109.877 Z.3 E11.71864
G1 X121.552 Y109.488 Z.3 E12.02222
G1 X117.101 Y109.098 Z.3 E12.32579
G1 X112.651 Y108.709 Z.3 E12.62937
G1 X108.2 Y108.319 Z.3 E12.93295
G1 X103.75 Y107.93 Z.3 E13.23653
G1 X103.417 Y107.354 E13.28174
G1 X106.827 Y107.652 Z.3 E13.51438
G1 F3000
G1 X110.238 Y107.951 Z.3 E13.74702
G1 F2999.757
G1 X110.539 Y107.43 E13.78791
G1 X103.084 Y106.778 E14.29644
G1 X102.752 Y106.202 E14.34162
G1 X106.796 Y106.556 Z.3 E14.61748
G1 X110.84 Y106.91 Z.3 E14.89333
G1 X111.14 Y106.389 E14.93418
G1 X106.779 Y106.007 Z.3 E15.23162
G1 F3000
G1 X102.419 Y105.626 Z.3 E15.52907
G1 F2999.808
G1 X102.087 Y105.05 E15.57425
G1 X106.764 Y105.459 Z.3 E15.89328
G1 X111.441 Y105.868 Z.3 E16.21231
G1 X111.741 Y105.348 E16.2531
G1 X108.412 Y105.057 Z.3 E16.48018
G1 X105.083 Y104.765 Z.3 E16.70727
G1 F3000
G1 X101.754 Y104.474 Z.3 E16.93435
G1 F2999.748
G1 X101.422 Y103.898 E16.97953
G1 X104.962 Y104.208 Z.3 E17.221
G1 X108.502 Y104.517 Z.3 E17.46248
G1 X112.042 Y104.827 Z.3 E17.70395
G1 X112.342 Y104.306 E17.7448
G1 X108.677 Y103.985 Z.3 E17.9948
G1 X105.012 Y103.665 Z.3 E18.2448
G1 F3000
G1 X101.347 Y103.344 Z.3 E18.4948
G1 F2999.963
G1 X104.473 Y103.344 Z.3 E18.70719
G1 X107.598 Y103.344 Z.3 E18.91958
G1 X112.908 Y103.809 E19.28179
G1 E17.88179 F4800
;WIPE_START
G1 F7200
G1 X111.964 Y103.726 E17.28179
;WIPE_END
G92 E0
G1 X85.052 Y103.56 F9000
G1 E2 F4800
G1 F2999.99
G1 X82.593 Y103.344 E2.16774
G1 X79.467 Y103.344 Z.3 E2.38013
G1 X76.342 Y103.344 Z.3 E2.59252
G1 X80.414 Y103.701 Z.3 E2.87029
G1 X84.486 Y104.057 Z.3 E3.14805
G1 X84.186 Y104.578 E3.1889
G1 X80.545 Y104.259 Z.3 E3.43729
G1 X76.903 Y103.941 Z.3 E3.68567
G1 X73.262 Y103.622 Z.3 E3.93406
G1 X73.595 Y104.198 E3.97927
G1 X77.025 Y104.498 Z.3 E4.21324
G1 X80.455 Y104.798 Z.3 E4.44721
G1 X83.885 Y105.098 Z.3 E4.68118
G1 X83.585 Y105.619 E4.72203
G1 X78.756 Y105.197 Z.3 E5.05143
G1 X73.927 Y104.774 Z.3 E5.38083
G1 X74.26 Y105.35 E5.42604
G1 X78.772 Y105.744 Z.3 E5.73382
G1 X83.284 Y106.139 Z.3 E6.04159
G1 X82.984 Y106.66 E6.08244
G1 X78.788 Y106.293 Z.3 E6.36863
G1 F3000
G1 X74.593 Y105.926 Z.3 E6.65482
G1 F2999.855
G1 X74.925 Y106.502 E6.7
G1 X82.683 Y107.181 E7.2292
G1 X82.382 Y107.701 E7.27003
G1 X75.258 Y107.078 E7.75598
G1 X75.59 Y107.654 E7.80116
G1 X109.899 Y110.656 E10.14149
G1 X113.025 Y110.656 Z.3 E10.35388
G1 X116.15 Y110.656 Z.3 E10.56627
G1 X89.734 Y108.344 E12.36819
G1 X92.859 Y108.344 Z.3 E12.58058
G1 X95.985 Y108.344 Z.3 E12.79297
G1 X122.401 Y110.656 E14.59489
G1 X125.526 Y110.656 Z.3 E14.80728
G1 X128.652 Y110.656 Z.3 E15.01967
G1 X99.481 Y108.103 E17.00952
G1 E15.60952 F4800
;WIPE_START
G1 F7200
G1 X100.425 Y108.186 E15.00952
;WIPE_END
G92 E0
G1 X106.403 Y110.897 F9000
G1 E2 F4800
G1 F2999.961
G1 X102.049 Y110.516 Z.3 E2.29702
G1 X97.694 Y110.135 Z.3 E2.59404
G1 X93.34 Y109.754 Z.3 E2.89106
G1 X88.986 Y109.373 Z.3 E3.18808
G1 X84.632 Y108.992 Z.3 E3.4851
G1 X80.277 Y108.611 Z.3 E3.78212
G1 X75.923 Y108.23 Z.3 E4.07914
G1 X75.989 Y108.344 E4.08809
G1 X73.485 Y108.344 Z.3 E4.25824
G1 F3000
G1 X70.981 Y108.344 Z.3 E4.4284
G1 F2999.985
G1 X75.383 Y108.729 Z.3 E4.72871
G1 X79.786 Y109.115 Z.3 E5.02902
G1 X84.189 Y109.5 Z.3 E5.32933
G1 X88.591 Y109.885 Z.3 E5.62964
G1 X92.993 Y110.271 Z.3 E5.92995
G1 F3000
G1 X97.396 Y110.656 Z.3 E6.23026
G1 F2999.995
G1 X94.271 Y110.656 Z.3 E6.44265
G1 X91.145 Y110.656 Z.3 E6.65504
G1 X86.185 Y110.222 Z.3 E6.99339
G1 X81.225 Y109.788 Z.3 E7.33174
G1 X76.264 Y109.354 Z.3 E7.6701
G1 X71.304 Y108.92 Z.3 E8.00845
G1 X66.344 Y108.486 Z.3 E8.3468
G1 X66.344 Y109.033 E8.38397
G1 X84.894 Y110.656 E9.64932
G1 X81.768 Y110.656 Z.3 E9.86171
G1 X78.643 Y110.656 Z.3 E10.0741
G1 X74.543 Y110.297 Z.3 E10.35375
G1 X70.444 Y109.939 Z.3 E10.6334
G1 X66.344 Y109.58 Z.3 E10.91305
G1 X66.344 Y110.126 E10.95015
G1 X70.745 Y110.512 Z.3 E11.25039
G1 X75.147 Y110.897 Z.3 E11.55064
G1 E10.15064 F4800
;WIPE_START
G1 F7200
G1 X74.203 Y110.814 E9.55064
;WIPE_END
G92 E0
G1 X141.064 Y103.538 F9000
G1 E2 F4800
G1 F3000
G1 X138.854 Y103.344 E2.15075
G1 F2999.905
G1 X135.728 Y103.344 Z.3 E2.36317
G1 X132.602 Y103.344 Z.3 E2.5756
G1 X140.499 Y104.035 E3.11428
G1 X140.198 Y104.556 E3.15517
G1 X129.249 Y103.598 E3.90204
G1 X129.581 Y104.174 E3.94722
G1 X139.898 Y105.077 E4.65098
G1 X139.597 Y105.597 E4.69181
G1 X129.914 Y104.75 E5.35232
G1 X130.246 Y105.326 E5.3975
G1 X139.297 Y106.118 E6.0149
G1 X138.996 Y106.638 E6.05573
G1 X130.579 Y105.902 E6.62988
G1 X130.911 Y106.478 E6.67506
G1 X138.696 Y107.159 E7.2061
G1 X138.395 Y107.68 E7.24699
G1 X131.244 Y107.054 E7.73478
G1 X131.576 Y107.63 E7.77996
G1 X163.656 Y110.437 E9.96824
G1 F3000
G1 X163.656 Y109.89 E10.00541
G1 F2999.997
G1 X159.241 Y109.504 Z.3 E10.30659
G1 X154.826 Y109.117 Z.3 E10.60777
G1 X150.41 Y108.73 Z.3 E10.90895
G1 F3000
G1 X145.995 Y108.344 Z.3 E11.21013
G1 F2999.994
G1 X149.12 Y108.344 Z.3 E11.42252
G1 F3000
G1 X152.246 Y108.344 Z.3 E11.63491
G1 F2999.989
G1 X156.049 Y108.677 Z.3 E11.89435
G1 X159.853 Y109.01 Z.3 E12.15379
G1 X163.656 Y109.343 Z.3 E12.41323
G1 X163.656 Y108.796 E12.4504
G1 X161.077 Y108.57 Z.3 E12.62636
G1 F3000
G1 X158.497 Y108.344 Z.3 E12.80232
G1 F2999.762
G1 X159.989 Y108.344 E12.90371
G1 X159.736 Y107.906 E12.93808
G1 X163.656 Y108.249 E13.20548
G1 X163.656 Y107.702 E13.24265
G1 X159.403 Y107.33 E13.53276
G1 X159.071 Y106.754 E13.57794
G1 X163.656 Y107.155 E13.8907
G1 X163.656 Y106.608 E13.92787
G1 X158.738 Y106.178 E14.26334
G1 X158.406 Y105.602 E14.30852
G1 X161.031 Y105.831 Z.3 E14.48758
G1 X163.656 Y106.061 Z.3 E14.66664
G1 X163.656 Y105.514 E14.70381
G1 X160.865 Y105.27 Z.3 E14.89422
G1 X158.073 Y105.026 Z.3 E15.08464
G1 X157.74 Y104.45 E15.12985
G1 X160.698 Y104.708 Z.3 E15.33162
G1 X163.656 Y104.967 Z.3 E15.5334
G1 X163.656 Y104.421 E15.5705
G1 X160.532 Y104.147 Z.3 E15.7836
G1 F3000
G1 X157.408 Y103.874 Z.3 E15.9967
G1 F2999.91
G1 X157.102 Y103.344 E16.03829
G1 X157.607 Y103.344 E16.07261
G1 F2987.339
G1 X160.752 Y103.619 Z.3 E16.28714
G1 F2949.355
G1 X163.897 Y103.895 Z.3 E16.50167
G1 E15.10167 F4800
;WIPE_START
G1 F7200
G1 X162.953 Y103.812 E14.50167
;WIPE_END
G92 E0
G1 X144.08 Y122.7 F9000
G1 E2 F4800
;TYPE:External perimeter
;WIDTH:0.6
G1 F3000
G1 X125.72 Y122.7 E3.22655
G1 X128.607 Y127.7 E3.61226
G1 X113.193 Y127.7 E4.642
G1 X116.08 Y122.7 E5.02771
G1 X97.72 Y122.7 E6.25426
G1 X100.607 Y127.7 E6.63997
G1 X85.193 Y127.7 E7.66971
G1 X88.08 Y122.7 E8.05542
G1 X69.72 Y122.7 E9.28197
G1 X72.607 Y127.7 E9.66768
G1 X65.3 Y127.7 E10.15583
G1 X65.3 Y118.3 E10.7838
G1 X164.7 Y118.3 E17.42426
G1 X164.7 Y122.7 E17.7182
G1 X153.72 Y122.7 E18.45172
G1 X156.607 Y127.7 E18.83743
G1 X141.193 Y127.7 E19.86717
G1 X144.05 Y122.752 E20.24887
G1 X143.925 Y122.331 F9000
G1 E18.84887 F4800
;WIPE_START
G1 F7200
G1 X143.103 Y122.749 E18.24887
;WIPE_END
G92 E0
G1 X145.008 Y122.164 F9000
G1 E2 F4800
;TYPE:Perimeter
G1 F3000
G1 X140.965 Y122.164 Z.3 E2.27011
G1 X136.922 Y122.164 Z.3 E2.54022
G1 X132.878 Y122.164 Z.3 E2.81032
G1 F2999.999
G1 X128.835 Y122.164 Z.3 E3.08043
G1 X124.792 Y122.164 Z.3 E3.35054
G1 X127.679 Y127.164 E3.73625
G1 X123.16 Y127.164 Z.3 E4.03817
G1 X118.64 Y127.164 Z.3 E4.34008
G1 X114.121 Y127.164 Z.3 E4.642
G1 X117.008 Y122.164 E5.02771
G1 X112.965 Y122.164 Z.3 E5.29782
G1 X108.922 Y122.164 Z.3 E5.56793
G1 X104.878 Y122.164 Z.3 E5.83803
G1 X100.835 Y122.164 Z.3 E6.10814
G1 X96.792 Y122.164 Z.3 E6.37825
G1 X99.679 Y127.164 E6.76396
G1 X95.16 Y127.164 Z.3 E7.06588
G1 X90.64 Y127.164 Z.3 E7.36779
G1 X86.121 Y127.164 Z.3 E7.66971
G1 X89.008 Y122.164 E8.05542
G1 X84.965 Y122.164 Z.3 E8.32553
G1 X80.922 Y122.164 Z.3 E8.59564
G1 X76.878 Y122.164 Z.3 E8.86574
G1 X72.835 Y122.164 Z.3 E9.13585
G1 X68.792 Y122.164 Z.3 E9.40596
G1 X70.236 Y124.664 Z.3 E9.59881
G1 X71.679 Y127.164 Z.3 E9.79167
G1 X65.836 Y127.164 E10.18201
G1 X65.836 Y123 Z.3 E10.46019
G1 X65.836 Y118.836 Z.3 E10.73837
G1 F3000
G1 X130.688 Y118.836 Z.3 E15.07082
G1 X135.47 Y118.836 Z.3 E15.39031
G1 F2999.999
G1 X140.252 Y118.836 Z.3 E15.70979
G1 X145.035 Y118.836 Z.3 E16.02928
G1 X149.817 Y118.836 Z.3 E16.34876
G1 X154.599 Y118.836 Z.3 E16.66824
G1 X159.382 Y118.836 Z.3 E16.98773
G1 X164.164 Y118.836 Z.3 E17.30721
G1 X164.164 Y122.164 E17.52954
G1 X160.373 Y122.164 Z.3 E17.78278
G1 X156.583 Y122.164 Z.3 E18.03601
G1 F3000
G1 X152.792 Y122.164 Z.3 E18.28925
G1 F2999.996
G1 X154.236 Y124.664 Z.3 E18.48211
G1 F3000
G1 X155.679 Y127.164 Z.3 E18.67496
G1 F2999.996
G1 X151.16 Y127.164 Z.3 E18.97688
G1 X146.64 Y127.164 Z.3 E19.27879
G1 F3000
G1 X142.121 Y127.164 Z.3 E19.58071
G1 F2999.995
G1 X143.549 Y124.69 Z.3 E19.77156
G1 F3000
G1 X144.978 Y122.216 Z.3 E19.96241
G1 E18.56241 F4800
;WIPE_START
G1 F7200
G1 X144.031 Y122.214 E17.96241
;WIPE_END
G92 E0
G1 X142.949 Y126.266 F9000
G1 E2 F4800
;TYPE:Solid infill
;WIDTH:0.609206
G1 F2974.638
G1 X147.406 Y126.656 E2.30403
G1 F2999.996
G1 X150.531 Y126.656 Z.3 E2.51642
G1 X153.657 Y126.656 Z.3 E2.72881
G1 X143.514 Y125.768 E3.4207
G1 X143.815 Y125.248 E3.46153
G1 X147.385 Y125.56 Z.3 E3.70507
G1 X150.956 Y125.873 Z.3 E3.94862
G1 X154.526 Y126.185 Z.3 E4.19216
G1 X154.193 Y125.609 E4.23737
G1 X150.834 Y125.315 Z.3 E4.4665
G1 X147.475 Y125.021 Z.3 E4.69563
G1 X144.116 Y124.727 Z.3 E4.92476
G1 X144.416 Y124.206 E4.96561
G1 X149.138 Y124.619 Z.3 E5.28775
G1 X153.861 Y125.033 Z.3 E5.60989
G1 X153.528 Y124.457 E5.6551
G1 X149.122 Y124.072 Z.3 E5.95562
G1 X144.717 Y123.686 Z.3 E6.25613
G1 X145.017 Y123.165 E6.29698
G1 X149.107 Y123.523 Z.3 E6.57594
G1 X153.196 Y123.881 Z.3 E6.8549
G1 X152.863 Y123.305 E6.90011
G1 X149.09 Y122.975 Z.3 E7.15744
G1 F3000
G1 X145.318 Y122.645 Z.3 E7.41478
G1 F2999.847
G1 X145.619 Y122.124 E7.45567
G1 X149.221 Y122.439 Z.3 E7.70141
G1 X152.824 Y122.754 Z.3 E7.94714
G1 E6.54714 F4800
;WIPE_START
G1 F7200
G1 X151.88 Y122.671 E5.94714
;WIPE_END
G92 E0
G1 X163.897 Y119.895 F9000
G1 E2 F4800
G1 F3000
G1 X157.607 Y119.344 E2.42906
G1 F2999.954
G1 X154.482 Y119.344 Z.3 E2.64145
G1 X151.356 Y119.344 Z.3 E2.85384
G1 X155.456 Y119.703 Z.3 E3.13352
G1 X159.556 Y120.062 Z.3 E3.41319
G1 X163.656 Y120.421 Z.3 E3.69287
G1 X163.656 Y120.967 E3.72997
G1 X159.018 Y120.561 Z.3 E4.04632
G1 X154.38 Y120.156 Z.3 E4.36268
G1 X149.743 Y119.75 Z.3 E4.67904
G1 F3000
G1 X145.105 Y119.344 Z.3 E4.99539
G1 F2999.975
G1 X141.979 Y119.344 Z.3 E5.20778
G1 X138.854 Y119.344 Z.3 E5.42017
G1 X163.656 Y121.514 E7.11199
G1 X163.656 Y121.656 E7.12164
G1 X159.018 Y121.656 E7.43681
G1 X132.602 Y119.344 E9.23873
G1 X129.477 Y119.344 Z.3 E9.45112
G1 X126.351 Y119.344 Z.3 E9.66351
G1 X152.767 Y121.656 E11.46543
G1 X151.911 Y121.656 E11.5236
G1 X152.198 Y122.153 E11.5626
G1 X120.1 Y119.344 E13.75211
G1 X116.975 Y119.344 Z.3 E13.9645
G1 X113.849 Y119.344 Z.3 E14.17689
G1 X140.265 Y121.656 E15.97881
G1 X137.139 Y121.656 Z.3 E16.1912
G1 X134.014 Y121.656 Z.3 E16.40359
G1 X107.598 Y119.344 E18.20551
G1 X104.473 Y119.344 Z.3 E18.4179
G1 X101.347 Y119.344 Z.3 E18.63029
G1 X127.762 Y121.656 E20.43215
G1 X123.911 Y121.656 E20.69384
G1 X124.039 Y121.877 E20.71119
G1 X119.215 Y121.455 Z.3 E21.04025
