(Exported by FreeCAD)
(Post Processor: grbl_post)
(Output Time:2024-01-23 18:23:11.279107)
(Begin preamble)
G17 G90
G21
(Begin operation: Fixture)
(Path: Fixture)
G54
(Finish operation: Fixture)
(Begin operation: TC: 1.4mm_endmill)
(Path: TC: 1.4mm_endmill)
(TC: 1.4mm_endmill)
(Begin toolchange)
( M6 T4 )
M3 S12000
(Finish operation: TC: 1.4mm_endmill)
(Begin operation: Pocket_Shape)
(Path: Pocket_Shape)
(Pocket_Shape)
G0 Z5.000
G0 X0.000 Y0.000
G0 X13.679 Y13.287
G0 X13.679 Y13.287 Z3.000
G1 X13.679 Y13.287 Z-0.700 F2000.000
G1 X12.993 Y13.974 Z-0.700 F2000.000
G1 X12.993 Y13.287 Z-0.700 F2000.000
G1 X13.679 Y13.287 Z-0.700 F2000.000
G3 X15.504 Y13.442 Z-0.700 I0.296 J7.339 K0.000 F2000.000
G1 X12.993 Y15.954 Z-0.700 F2000.000
G1 X12.993 Y17.934 Z-0.700 F2000.000
G1 X16.850 Y14.076 Z-0.700 F2000.000
G3 X17.726 Y15.180 Z-0.700 I-1.780 J2.311 K0.000 F2000.000
G1 X12.993 Y19.913 Z-0.700 F2000.000
G1 X12.993 Y21.893 Z-0.700 F2000.000
G1 X18.178 Y16.708 Z-0.700 F2000.000
G3 X18.275 Y18.591 Z-0.700 I-7.882 J1.352 K0.000 F2000.000
G1 X14.104 Y22.762 Z-0.700 F2000.000
G2 X15.045 Y22.694 Z-0.700 I-0.033 J-7.030 K0.000 F2000.000
G2 X17.191 Y21.655 Z-0.700 I-0.387 J-3.534 K0.000 F2000.000
G1 X17.191 Y21.655 Z-1.400 F2000.000
G3 X15.045 Y22.694 Z-1.400 I-2.533 J-2.495 K0.000 F2000.000
G3 X14.104 Y22.762 Z-1.400 I-0.974 J-6.962 K0.000 F2000.000
G1 X18.275 Y18.591 Z-1.400 F2000.000
G2 X18.178 Y16.708 Z-1.400 I-7.980 J-0.531 K0.000 F2000.000
G1 X12.993 Y21.893 Z-1.400 F2000.000
G1 X12.993 Y19.913 Z-1.400 F2000.000
G1 X17.726 Y15.180 Z-1.400 F2000.000
G2 X16.850 Y14.076 Z-1.400 I-2.656 J1.207 K0.000 F2000.000
G1 X12.993 Y17.934 Z-1.400 F2000.000
G1 X12.993 Y15.954 Z-1.400 F2000.000
G1 X15.504 Y13.442 Z-1.400 F2000.000
G2 X13.679 Y13.287 Z-1.400 I-1.529 J7.184 K0.000 F2000.000
G1 X12.993 Y13.287 Z-1.400 F2000.000
G1 X12.993 Y13.974 Z-1.400 F2000.000
G1 X13.679 Y13.287 Z-1.400 F2000.000
G1 X13.679 Y13.287 Z-2.100 F2000.000
G1 X12.993 Y13.974 Z-2.100 F2000.000
G1 X12.993 Y13.287 Z-2.100 F2000.000
G1 X13.679 Y13.287 Z-2.100 F2000.000
G3 X15.504 Y13.442 Z-2.100 I0.296 J7.339 K0.000 F2000.000
G1 X12.993 Y15.954 Z-2.100 F2000.000
G1 X12.993 Y17.934 Z-2.100 F2000.000
G1 X16.850 Y14.076 Z-2.100 F2000.000
G3 X17.726 Y15.180 Z-2.100 I-1.780 J2.311 K0.000 F2000.000
G1 X12.993 Y19.913 Z-2.100 F2000.000
G1 X12.993 Y21.893 Z-2.100 F2000.000
G1 X18.178 Y16.708 Z-2.100 F2000.000
G3 X18.275 Y18.591 Z-2.100 I-7.882 J1.352 K0.000 F2000.000
G1 X14.104 Y22.762 Z-2.100 F2000.000
G2 X15.045 Y22.694 Z-2.100 I-0.033 J-7.030 K0.000 F2000.000
G2 X17.191 Y21.655 Z-2.100 I-0.387 J-3.534 K0.000 F2000.000
G1 X17.191 Y21.655 Z-2.800 F2000.000
G3 X15.045 Y22.694 Z-2.800 I-2.533 J-2.495 K0.000 F2000.000
G3 X14.104 Y22.762 Z-2.800 I-0.974 J-6.962 K0.000 F2000.000
G1 X18.275 Y18.591 Z-2.800 F2000.000
G2 X18.178 Y16.708 Z-2.800 I-7.980 J-0.531 K0.000 F2000.000
G1 X12.993 Y21.893 Z-2.800 F2000.000
G1 X12.993 Y19.913 Z-2.800 F2000.000
G1 X17.726 Y15.180 Z-2.800 F2000.000
G2 X16.850 Y14.076 Z-2.800 I-2.656 J1.207 K0.000 F2000.000
G1 X12.993 Y17.934 Z-2.800 F2000.000
G1 X12.993 Y15.954 Z-2.800 F2000.000
G1 X15.504 Y13.442 Z-2.800 F2000.000
G2 X13.679 Y13.287 Z-2.800 I-1.529 J7.184 K0.000 F2000.000
G1 X12.993 Y13.287 Z-2.800 F2000.000
G1 X12.993 Y13.974 Z-2.800 F2000.000
G1 X13.679 Y13.287 Z-2.800 F2000.000
G1 X13.679 Y13.287 Z-3.033 F2000.000
G1 X12.993 Y13.974 Z-3.033 F2000.000
G1 X12.993 Y13.287 Z-3.033 F2000.000
G1 X13.679 Y13.287 Z-3.033 F2000.000
G3 X15.504 Y13.442 Z-3.033 I0.296 J7.339 K0.000 F2000.000
G1 X12.993 Y15.954 Z-3.033 F2000.000
G1 X12.993 Y17.934 Z-3.033 F2000.000
G1 X16.850 Y14.076 Z-3.033 F2000.000
G3 X17.726 Y15.180 Z-3.033 I-1.780 J2.311 K0.000 F2000.000
G1 X12.993 Y19.913 Z-3.033 F2000.000
G1 X12.993 Y21.893 Z-3.033 F2000.000
G1 X18.178 Y16.708 Z-3.033 F2000.000
G3 X18.275 Y18.591 Z-3.033 I-7.882 J1.352 K0.000 F2000.000
G1 X14.104 Y22.762 Z-3.033 F2000.000
G2 X15.045 Y22.694 Z-3.033 I-0.033 J-7.030 K0.000 F2000.000
G2 X17.191 Y21.655 Z-3.033 I-0.387 J-3.534 K0.000 F2000.000
G0 Z5.000
G0 Z5.000
G0 X17.191 Y21.655
G0 X30.005 Y23.389
G0 X30.005 Y23.389 Z3.000
G1 X30.005 Y23.389 Z-0.700 F2000.000
G1 X31.511 Y21.882 Z-0.700 F2000.000
G2 X30.523 Y21.222 Z-0.700 I-4.680 J5.937 K0.000 F2000.000
G2 X29.788 Y22.635 Z-0.700 I2.884 J2.398 K0.000 F2000.000
G2 X30.005 Y23.389 Z-0.700 I0.761 J0.189 K0.000 F2000.000
G2 X30.594 Y23.633 Z-0.700 I0.643 J-0.718 K0.000 F2000.000
G2 X31.962 Y23.412 Z-0.700 I0.405 J-1.829 K0.000 F2000.000
G1 X31.962 Y23.412 Z-1.400 F2000.000
G3 X30.594 Y23.633 Z-1.400 I-0.962 J-1.608 K0.000 F2000.000
G3 X30.005 Y23.389 Z-1.400 I0.053 J-0.963 K0.000 F2000.000
G3 X29.788 Y22.635 Z-1.400 I0.544 J-0.565 K0.000 F2000.000
G3 X30.523 Y21.222 Z-1.400 I3.619 J0.985 K0.000 F2000.000
G3 X31.511 Y21.882 Z-1.400 I-3.691 J6.598 K0.000 F2000.000
G1 X30.005 Y23.389 Z-1.400 F2000.000
G1 X30.005 Y23.389 Z-2.100 F2000.000
G1 X31.511 Y21.882 Z-2.100 F2000.000
G2 X30.523 Y21.222 Z-2.100 I-4.680 J5.937 K0.000 F2000.000
G2 X29.788 Y22.635 Z-2.100 I2.884 J2.398 K0.000 F2000.000
G2 X30.005 Y23.389 Z-2.100 I0.761 J0.189 K0.000 F2000.000
G2 X30.594 Y23.633 Z-2.100 I0.643 J-0.718 K0.000 F2000.000
G2 X31.962 Y23.412 Z-2.100 I0.405 J-1.829 K0.000 F2000.000
G1 X31.962 Y23.412 Z-2.800 F2000.000
G3 X30.594 Y23.633 Z-2.800 I-0.962 J-1.608 K0.000 F2000.000
G3 X30.005 Y23.389 Z-2.800 I0.053 J-0.963 K0.000 F2000.000
G3 X29.788 Y22.635 Z-2.800 I0.544 J-0.565 K0.000 F2000.000
G3 X30.523 Y21.222 Z-2.800 I3.619 J0.985 K0.000 F2000.000
G3 X31.511 Y21.882 Z-2.800 I-3.691 J6.598 K0.000 F2000.000
G1 X30.005 Y23.389 Z-2.800 F2000.000
G1 X30.005 Y23.389 Z-3.033 F2000.000
G1 X31.511 Y21.882 Z-3.033 F2000.000
G2 X30.523 Y21.222 Z-3.033 I-4.680 J5.937 K0.000 F2000.000
G2 X29.788 Y22.635 Z-3.033 I2.884 J2.398 K0.000 F2000.000
G2 X30.005 Y23.389 Z-3.033 I0.761 J0.189 K0.000 F2000.000
G2 X30.594 Y23.633 Z-3.033 I0.643 J-0.718 K0.000 F2000.000
G2 X31.962 Y23.412 Z-3.033 I0.405 J-1.829 K0.000 F2000.000
G0 Z5.000
G0 Z5.000
G0 X31.962 Y23.412
G0 X32.134 Y13.233
G0 X32.134 Y13.233 Z3.000
G1 X32.134 Y13.233 Z-0.700 F2000.000
G2 X31.088 Y14.167 Z-0.700 I10.485 J12.795 K0.000 F2000.000
G1 X29.913 Y12.992 Z-0.700 F2000.000
G2 X28.683 Y13.674 Z-0.700 I0.184 J1.784 K0.000 F2000.000
G1 X28.659 Y13.717 Z-0.700 F2000.000
G2 X28.422 Y14.288 Z-0.700 I1.205 J0.835 K0.000 F2000.000
G2 X29.157 Y16.086 Z-0.700 I1.791 J0.317 K0.000 F2000.000
G3 X30.077 Y15.135 Z-0.700 I10.549 J9.277 K0.000 F2000.000
G1 X28.659 Y13.717 Z-0.700 F2000.000
G1 X28.659 Y13.717 Z-1.400 F2000.000
G1 X30.077 Y15.135 Z-1.400 F2000.000
G2 X29.157 Y16.086 Z-1.400 I9.630 J10.228 K0.000 F2000.000
G3 X28.422 Y14.288 Z-1.400 I1.056 J-1.481 K0.000 F2000.000
G3 X28.659 Y13.717 Z-1.400 I1.442 J0.263 K0.000 F2000.000
G1 X28.683 Y13.674 Z-1.400 F2000.000
G3 X29.913 Y12.992 Z-1.400 I1.415 J1.102 K0.000 F2000.000
G1 X31.088 Y14.167 Z-1.400 F2000.000
G3 X32.134 Y13.233 Z-1.400 I11.531 J11.861 K0.000 F2000.000
G1 X32.134 Y13.233 Z-2.100 F2000.000
G2 X31.088 Y14.167 Z-2.100 I10.485 J12.795 K0.000 F2000.000
G1 X29.913 Y12.992 Z-2.100 F2000.000
G2 X28.683 Y13.674 Z-2.100 I0.184 J1.784 K0.000 F2000.000
G1 X28.659 Y13.717 Z-2.100 F2000.000
G2 X28.422 Y14.288 Z-2.100 I1.205 J0.835 K0.000 F2000.000
G2 X29.157 Y16.086 Z-2.100 I1.791 J0.317 K0.000 F2000.000
G3 X30.077 Y15.135 Z-2.100 I10.549 J9.277 K0.000 F2000.000
G1 X28.659 Y13.717 Z-2.100 F2000.000
G1 X28.659 Y13.717 Z-2.800 F2000.000
G1 X30.077 Y15.135 Z-2.800 F2000.000
G2 X29.157 Y16.086 Z-2.800 I9.630 J10.228 K0.000 F2000.000
G3 X28.422 Y14.288 Z-2.800 I1.056 J-1.481 K0.000 F2000.000
G3 X28.659 Y13.717 Z-2.800 I1.442 J0.263 K0.000 F2000.000
G1 X28.683 Y13.674 Z-2.800 F2000.000
G3 X29.913 Y12.992 Z-2.800 I1.415 J1.102 K0.000 F2000.000
G1 X31.088 Y14.167 Z-2.800 F2000.000
G3 X32.134 Y13.233 Z-2.800 I11.531 J11.861 K0.000 F2000.000
G1 X32.134 Y13.233 Z-3.033 F2000.000
G2 X31.088 Y14.167 Z-3.033 I10.485 J12.795 K0.000 F2000.000
G1 X29.913 Y12.992 Z-3.033 F2000.000
G2 X28.683 Y13.674 Z-3.033 I0.184 J1.784 K0.000 F2000.000
G1 X28.659 Y13.717 Z-3.033 F2000.000
G2 X28.422 Y14.288 Z-3.033 I1.205 J0.835 K0.000 F2000.000
G2 X29.157 Y16.086 Z-3.033 I1.791 J0.317 K0.000 F2000.000
G3 X30.077 Y15.135 Z-3.033 I10.549 J9.277 K0.000 F2000.000
G1 X28.659 Y13.717 Z-3.033 F2000.000
G0 Z5.000
G0 Z5.000
G0 X28.659 Y13.717
G0 X46.853 Y18.793
G0 X46.853 Y18.793 Z3.000
G1 X46.853 Y18.793 Z-0.700 F2000.000
G3 X46.867 Y18.779 Z-0.700 I0.007 J-0.007 K0.000 F2000.000
G1 X46.853 Y18.793 Z-0.700 F2000.000
G1 X46.853 Y20.773 Z-0.700 F2000.000
G1 X48.676 Y18.950 Z-0.700 F2000.000
G3 X49.619 Y19.987 Z-0.700 I-0.519 J1.420 K0.000 F2000.000
G1 X46.853 Y22.753 Z-0.700 F2000.000
G1 X46.853 Y22.765 Z-0.700 F2000.000
G2 X47.985 Y22.750 Z-0.700 I0.337 J-16.924 K0.000 F2000.000
G2 X49.323 Y22.262 Z-0.700 I0.101 J-1.802 K0.000 F2000.000
G1 X49.323 Y22.262 Z-1.400 F2000.000
G3 X47.985 Y22.750 Z-1.400 I-1.237 J-1.314 K0.000 F2000.000
G3 X46.853 Y22.765 Z-1.400 I-0.795 J-16.909 K0.000 F2000.000
G1 X46.853 Y22.753 Z-1.400 F2000.000
G1 X49.619 Y19.987 Z-1.400 F2000.000
G2 X48.676 Y18.950 Z-1.400 I-1.462 J0.383 K0.000 F2000.000
G1 X46.853 Y20.773 Z-1.400 F2000.000
G1 X46.853 Y18.793 Z-1.400 F2000.000
G1 X46.867 Y18.779 Z-1.400 F2000.000
G2 X46.853 Y18.793 Z-1.400 I-0.007 J0.007 K0.000 F2000.000
G1 X46.853 Y18.793 Z-2.100 F2000.000
G3 X46.867 Y18.779 Z-2.100 I0.007 J-0.007 K0.000 F2000.000
G1 X46.853 Y18.793 Z-2.100 F2000.000
G1 X46.853 Y20.773 Z-2.100 F2000.000
G1 X48.676 Y18.950 Z-2.100 F2000.000
G3 X49.619 Y19.987 Z-2.100 I-0.519 J1.420 K0.000 F2000.000
G1 X46.853 Y22.753 Z-2.100 F2000.000
G1 X46.853 Y22.765 Z-2.100 F2000.000
G2 X47.985 Y22.750 Z-2.100 I0.337 J-16.924 K0.000 F2000.000
G2 X49.323 Y22.262 Z-2.100 I0.101 J-1.802 K0.000 F2000.000
G1 X49.323 Y22.262 Z-2.800 F2000.000
G3 X47.985 Y22.750 Z-2.800 I-1.237 J-1.314 K0.000 F2000.000
G3 X46.853 Y22.765 Z-2.800 I-0.795 J-16.909 K0.000 F2000.000
G1 X46.853 Y22.753 Z-2.800 F2000.000
G1 X49.619 Y19.987 Z-2.800 F2000.000
G2 X48.676 Y18.950 Z-2.800 I-1.462 J0.383 K0.000 F2000.000
G1 X46.853 Y20.773 Z-2.800 F2000.000
G1 X46.853 Y18.793 Z-2.800 F2000.000
G1 X46.867 Y18.779 Z-2.800 F2000.000
G2 X46.853 Y18.793 Z-2.800 I-0.007 J0.007 K0.000 F2000.000
G1 X46.853 Y18.793 Z-3.033 F2000.000
G3 X46.867 Y18.779 Z-3.033 I0.007 J-0.007 K0.000 F2000.000
G1 X46.853 Y18.793 Z-3.033 F2000.000
G1 X46.853 Y20.773 Z-3.033 F2000.000
G1 X48.676 Y18.950 Z-3.033 F2000.000
G3 X49.619 Y19.987 Z-3.033 I-0.519 J1.420 K0.000 F2000.000
G1 X46.853 Y22.753 Z-3.033 F2000.000
G1 X46.853 Y22.765 Z-3.033 F2000.000
G2 X47.985 Y22.750 Z-3.033 I0.337 J-16.924 K0.000 F2000.000
G2 X49.323 Y22.262 Z-3.033 I0.101 J-1.802 K0.000 F2000.000
G0 Z5.000
G0 Z5.000
G0 X49.323 Y22.262
G0 X54.425 Y19.664
G0 X54.425 Y19.664 Z3.000
G1 X54.425 Y19.664 Z-0.700 F2000.000
G1 X56.300 Y21.539 Z-0.700 F2000.000
G1 X56.300 Y23.519 Z-0.700 F2000.000
G1 X54.531 Y21.750 Z-0.700 F2000.000
G3 X54.158 Y23.357 Z-0.700 I-4.978 J-0.309 K0.000 F2000.000
G1 X56.300 Y25.499 Z-0.700 F2000.000
G1 X56.300 Y27.479 Z-0.700 F2000.000
G1 X53.431 Y24.610 Z-0.700 F2000.000
G3 X52.391 Y25.549 Z-0.700 I-3.671 J-3.020 K0.000 F2000.000
G1 X56.300 Y29.459 Z-0.700 F2000.000
G1 X56.300 Y30.100 Z-0.700 F2000.000
G1 X54.961 Y30.100 Z-0.700 F2000.000
G1 X51.077 Y26.216 Z-0.700 F2000.000
G3 X49.468 Y26.587 Z-0.700 I-2.533 J-7.327 K0.000 F2000.000
G1 X52.981 Y30.100 Z-0.700 F2000.000
G1 X51.002 Y30.100 Z-0.700 F2000.000
G1 X47.602 Y26.700 Z-0.700 F2000.000
G1 X45.622 Y26.700 Z-0.700 F2000.000
G1 X49.022 Y30.100 Z-0.700 F2000.000
G1 X47.042 Y30.100 Z-0.700 F2000.000
G1 X43.601 Y26.660 Z-0.700 F2000.000
G3 X42.244 Y25.302 Z-0.700 I0.257 J-1.614 K0.000 F2000.000
G1 X36.342 Y19.400 Z-0.700 F2000.000
G3 X35.457 Y18.515 Z-0.700 I0.160 J-1.045 K0.000 F2000.000
G1 X34.236 Y17.295 Z-0.700 F2000.000
G2 X33.247 Y18.285 Z-0.700 I11.299 J12.279 K0.000 F2000.000
G1 X33.186 Y18.351 Z-0.700 F2000.000
G1 X33.470 Y18.508 Z-0.700 F2000.000
G1 X33.247 Y18.285 Z-0.700 F2000.000
G0 Z5.000
G0 X34.236 Y17.295 Z5.000
G0 X34.236 Y17.295 Z3.000
G1 X34.236 Y17.295 Z-0.700 F2000.000
G1 X35.457 Y18.515 Z-0.700 F2000.000
G3 X35.440 Y18.339 Z-0.700 I3.121 J-0.390 K0.000 F2000.000
G2 X35.173 Y16.408 Z-0.700 I-5.814 J-0.181 K0.000 F2000.000
G2 X34.236 Y17.295 Z-0.700 I13.941 J15.666 K0.000 F2000.000
G1 X34.236 Y17.295 Z-1.400 F2000.000
G1 X35.457 Y18.515 Z-1.400 F2000.000
G3 X35.440 Y18.339 Z-1.400 I3.121 J-0.390 K0.000 F2000.000
G2 X35.173 Y16.408 Z-1.400 I-5.814 J-0.181 K0.000 F2000.000
G2 X34.236 Y17.295 Z-1.400 I13.941 J15.666 K0.000 F2000.000
G1 X34.236 Y17.295 Z-2.100 F2000.000
G1 X35.457 Y18.515 Z-2.100 F2000.000
G3 X35.440 Y18.339 Z-2.100 I3.121 J-0.390 K0.000 F2000.000
G2 X35.173 Y16.408 Z-2.100 I-5.814 J-0.181 K0.000 F2000.000
G2 X34.236 Y17.295 Z-2.100 I13.941 J15.666 K0.000 F2000.000
G1 X34.236 Y17.295 Z-2.800 F2000.000
G1 X35.457 Y18.515 Z-2.800 F2000.000
G3 X35.440 Y18.339 Z-2.800 I3.121 J-0.390 K0.000 F2000.000
G2 X35.173 Y16.408 Z-2.800 I-5.814 J-0.181 K0.000 F2000.000
G2 X34.236 Y17.295 Z-2.800 I13.941 J15.666 K0.000 F2000.000
G1 X34.236 Y17.295 Z-3.033 F2000.000
G1 X35.457 Y18.515 Z-3.033 F2000.000
G3 X35.440 Y18.339 Z-3.033 I3.121 J-0.390 K0.000 F2000.000
G2 X35.173 Y16.408 Z-3.033 I-5.814 J-0.181 K0.000 F2000.000
G2 X34.236 Y17.295 Z-3.033 I13.941 J15.666 K0.000 F2000.000
G0 Z5.000
G0 X36.342 Y19.400 Z5.000
G0 X36.342 Y19.400 Z3.000
G1 X36.342 Y19.400 Z-0.700 F2000.000
G1 X42.244 Y25.302 Z-0.700 F2000.000
G3 X42.218 Y25.163 Z-0.700 I4.222 J-0.851 K0.000 F2000.000
G3 X42.198 Y23.277 Z-0.700 I14.443 J-1.096 K0.000 F2000.000
G1 X38.414 Y19.492 Z-0.700 F2000.000
G2 X39.664 Y18.763 Z-0.700 I0.040 J-1.368 K0.000 F2000.000
G1 X42.198 Y21.297 Z-0.700 F2000.000
G1 X42.198 Y19.317 Z-0.700 F2000.000
G1 X39.686 Y16.805 Z-0.700 F2000.000
G2 X38.871 Y14.010 Z-0.700 I-8.339 J0.915 K0.000 F2000.000
G1 X42.198 Y17.337 Z-0.700 F2000.000
G1 X42.198 Y15.357 Z-0.700 F2000.000
G1 X39.865 Y13.023 Z-0.700 F2000.000
G2 X40.905 Y12.084 Z-0.700 I0.046 J-0.995 K0.000 F2000.000
G1 X42.198 Y13.377 Z-0.700 F2000.000
G1 X42.198 Y11.397 Z-0.700 F2000.000
G1 X40.877 Y10.076 Z-0.700 F2000.000
G1 X40.877 Y10.076 Z-1.400 F2000.000
G1 X42.198 Y11.397 Z-1.400 F2000.000
G1 X42.198 Y13.377 Z-1.400 F2000.000
G1 X40.905 Y12.084 Z-1.400 F2000.000
G3 X39.865 Y13.023 Z-1.400 I-0.995 J-0.055 K0.000 F2000.000
G1 X42.198 Y15.357 Z-1.400 F2000.000
G1 X42.198 Y17.337 Z-1.400 F2000.000
G1 X38.871 Y14.010 Z-1.400 F2000.000
G3 X39.686 Y16.805 Z-1.400 I-7.524 J3.709 K0.000 F2000.000
G1 X42.198 Y19.317 Z-1.400 F2000.000
G1 X42.198 Y21.297 Z-1.400 F2000.000
G1 X39.664 Y18.763 Z-1.400 F2000.000
G3 X38.414 Y19.492 Z-1.400 I-1.211 J-0.639 K0.000 F2000.000
G1 X42.198 Y23.277 Z-1.400 F2000.000
G2 X42.218 Y25.163 Z-1.400 I14.463 J0.791 K0.000 F2000.000
G2 X42.244 Y25.302 Z-1.400 I4.248 J-0.712 K0.000 F2000.000
G1 X36.342 Y19.400 Z-1.400 F2000.000
G1 X36.342 Y19.400 Z-2.100 F2000.000
G1 X42.244 Y25.302 Z-2.100 F2000.000
G3 X42.218 Y25.163 Z-2.100 I4.222 J-0.851 K0.000 F2000.000
G3 X42.198 Y23.277 Z-2.100 I14.443 J-1.096 K0.000 F2000.000
G1 X38.414 Y19.492 Z-2.100 F2000.000
G2 X39.664 Y18.763 Z-2.100 I0.040 J-1.368 K0.000 F2000.000
G1 X42.198 Y21.297 Z-2.100 F2000.000
G1 X42.198 Y19.317 Z-2.100 F2000.000
G1 X39.686 Y16.805 Z-2.100 F2000.000
G2 X38.871 Y14.010 Z-2.100 I-8.339 J0.915 K0.000 F2000.000
G1 X42.198 Y17.337 Z-2.100 F2000.000
G1 X42.198 Y15.357 Z-2.100 F2000.000
G1 X39.865 Y13.023 Z-2.100 F2000.000
G2 X40.905 Y12.084 Z-2.100 I0.046 J-0.995 K0.000 F2000.000
G1 X42.198 Y13.377 Z-2.100 F2000.000
G1 X42.198 Y11.397 Z-2.100 F2000.000
G1 X40.877 Y10.076 Z-2.100 F2000.000
G1 X40.877 Y10.076 Z-2.800 F2000.000
G1 X42.198 Y11.397 Z-2.800 F2000.000
G1 X42.198 Y13.377 Z-2.800 F2000.000
G1 X40.905 Y12.084 Z-2.800 F2000.000
G3 X39.865 Y13.023 Z-2.800 I-0.995 J-0.055 K0.000 F2000.000
G1 X42.198 Y15.357 Z-2.800 F2000.000
G1 X42.198 Y17.337 Z-2.800 F2000.000
G1 X38.871 Y14.010 Z-2.800 F2000.000
G3 X39.686 Y16.805 Z-2.800 I-7.524 J3.709 K0.000 F2000.000
G1 X42.198 Y19.317 Z-2.800 F2000.000
G1 X42.198 Y21.297 Z-2.800 F2000.000
G1 X39.664 Y18.763 Z-2.800 F2000.000
G3 X38.414 Y19.492 Z-2.800 I-1.211 J-0.639 K0.000 F2000.000
G1 X42.198 Y23.277 Z-2.800 F2000.000
G2 X42.218 Y25.163 Z-2.800 I14.463 J0.791 K0.000 F2000.000
G2 X42.244 Y25.302 Z-2.800 I4.248 J-0.712 K0.000 F2000.000
G1 X36.342 Y19.400 Z-2.800 F2000.000
G1 X36.342 Y19.400 Z-3.033 F2000.000
G1 X42.244 Y25.302 Z-3.033 F2000.000
G3 X42.218 Y25.163 Z-3.033 I4.222 J-0.851 K0.000 F2000.000
G3 X42.198 Y23.277 Z-3.033 I14.443 J-1.096 K0.000 F2000.000
G1 X38.414 Y19.492 Z-3.033 F2000.000
G2 X39.664 Y18.763 Z-3.033 I0.040 J-1.368 K0.000 F2000.000
G1 X42.198 Y21.297 Z-3.033 F2000.000
G1 X42.198 Y19.317 Z-3.033 F2000.000
G1 X39.686 Y16.805 Z-3.033 F2000.000
G2 X38.871 Y14.010 Z-3.033 I-8.339 J0.915 K0.000 F2000.000
G1 X42.198 Y17.337 Z-3.033 F2000.000
G1 X42.198 Y15.357 Z-3.033 F2000.000
G1 X39.865 Y13.023 Z-3.033 F2000.000
G2 X40.905 Y12.084 Z-3.033 I0.046 J-0.995 K0.000 F2000.000
G1 X42.198 Y13.377 Z-3.033 F2000.000
G1 X42.198 Y11.397 Z-3.033 F2000.000
G1 X40.877 Y10.076 Z-3.033 F2000.000
G0 Z5.000
G0 X46.258 Y9.517 Z5.000
G0 X46.258 Y9.517 Z3.000
G1 X46.258 Y9.517 Z-0.700 F2000.000
G1 X42.441 Y5.700 Z-0.700 F2000.000
G1 X40.461 Y5.700 Z-0.700 F2000.000
G1 X44.030 Y9.270 Z-0.700 F2000.000
G2 X42.640 Y9.609 Z-0.700 I-0.103 J2.601 K0.000 F2000.000
G2 X42.505 Y9.724 Z-0.700 I1.129 J1.462 K0.000 F2000.000
G1 X38.481 Y5.700 Z-0.700 F2000.000
G1 X36.501 Y5.700 Z-0.700 F2000.000
G1 X39.962 Y9.161 Z-0.700 F2000.000
G2 X38.045 Y9.224 Z-0.700 I-0.864 J2.923 K0.000 F2000.000
G1 X34.521 Y5.700 Z-0.700 F2000.000
G1 X32.541 Y5.700 Z-0.700 F2000.000
G1 X36.740 Y9.898 Z-0.700 F2000.000
G2 X35.765 Y10.560 Z-0.700 I3.510 J6.219 K0.000 F2000.000
G2 X34.972 Y10.110 Z-0.700 I-4.400 J6.841 K0.000 F2000.000
G1 X30.561 Y5.700 Z-0.700 F2000.000
G1 X28.581 Y5.700 Z-0.700 F2000.000
G1 X32.045 Y9.164 Z-0.700 F2000.000
G2 X29.952 Y9.050 Z-0.700 I-1.589 J9.962 K0.000 F2000.000
G1 X26.602 Y5.700 Z-0.700 F2000.000
G1 X24.622 Y5.700 Z-0.700 F2000.000
G1 X28.192 Y9.270 Z-0.700 F2000.000
G2 X26.700 Y9.759 Z-0.700 I1.015 J5.623 K0.000 F2000.000
G1 X22.642 Y5.700 Z-0.700 F2000.000
G1 X20.662 Y5.700 Z-0.700 F2000.000
G1 X25.457 Y10.495 Z-0.700 F2000.000
G2 X24.500 Y11.518 Z-0.700 I2.420 J3.226 K0.000 F2000.000
G1 X18.682 Y5.700 Z-0.700 F2000.000
G1 X16.702 Y5.700 Z-0.700 F2000.000
G1 X23.852 Y12.850 Z-0.700 F2000.000
G2 X23.628 Y14.606 Z-0.700 I4.960 J1.523 K0.000 F2000.000
G1 X21.588 Y12.566 Z-0.700 F2000.000
G3 X22.848 Y15.806 Z-0.700 I-6.787 J4.505 K0.000 F2000.000
G1 X26.372 Y19.329 Z-0.700 F2000.000
G2 X25.630 Y20.568 Z-0.700 I6.894 J4.970 K0.000 F2000.000
G1 X23.045 Y17.983 Z-0.700 F2000.000
G3 X22.943 Y19.860 Z-0.700 I-9.800 J0.407 K0.000 F2000.000
G1 X25.137 Y22.055 Z-0.700 F2000.000
G2 X25.349 Y24.246 Z-0.700 I4.799 J0.643 K0.000 F2000.000
G1 X22.588 Y21.486 Z-0.700 F2000.000
G1 X22.588 Y21.486 Z-1.400 F2000.000
G1 X25.349 Y24.246 Z-1.400 F2000.000
G3 X25.137 Y22.055 Z-1.400 I4.587 J-1.549 K0.000 F2000.000
G1 X22.943 Y19.860 Z-1.400 F2000.000
G2 X23.045 Y17.983 Z-1.400 I-9.697 J-1.471 K0.000 F2000.000
G1 X25.630 Y20.568 Z-1.400 F2000.000
G3 X26.372 Y19.329 Z-1.400 I7.636 J3.732 K0.000 F2000.000
G1 X22.848 Y15.806 Z-1.400 F2000.000
G2 X21.588 Y12.566 Z-1.400 I-8.047 J1.265 K0.000 F2000.000
G1 X23.628 Y14.606 Z-1.400 F2000.000
G3 X23.852 Y12.850 Z-1.400 I5.183 J-0.234 K0.000 F2000.000
G1 X16.702 Y5.700 Z-1.400 F2000.000
G1 X18.682 Y5.700 Z-1.400 F2000.000
G1 X24.500 Y11.518 Z-1.400 F2000.000
G3 X25.457 Y10.495 Z-1.400 I3.378 J2.204 K0.000 F2000.000
G1 X20.662 Y5.700 Z-1.400 F2000.000
G1 X22.642 Y5.700 Z-1.400 F2000.000
G1 X26.700 Y9.759 Z-1.400 F2000.000
G3 X28.192 Y9.270 Z-1.400 I2.507 J5.134 K0.000 F2000.000
G1 X24.622 Y5.700 Z-1.400 F2000.000
G1 X26.602 Y5.700 Z-1.400 F2000.000
G1 X29.952 Y9.050 Z-1.400 F2000.000
G3 X32.045 Y9.164 Z-1.400 I0.504 J10.075 K0.000 F2000.000
G1 X28.581 Y5.700 Z-1.400 F2000.000
G1 X30.561 Y5.700 Z-1.400 F2000.000
G1 X34.972 Y10.110 Z-1.400 F2000.000
G3 X35.765 Y10.560 Z-1.400 I-3.606 J7.290 K0.000 F2000.000
G3 X36.740 Y9.898 Z-1.400 I4.485 J5.557 K0.000 F2000.000
G1 X32.541 Y5.700 Z-1.400 F2000.000
G1 X34.521 Y5.700 Z-1.400 F2000.000
G1 X38.045 Y9.224 Z-1.400 F2000.000
G3 X39.962 Y9.161 Z-1.400 I1.053 J2.860 K0.000 F2000.000
G1 X36.501 Y5.700 Z-1.400 F2000.000
G1 X38.481 Y5.700 Z-1.400 F2000.000
G1 X42.505 Y9.724 Z-1.400 F2000.000
G3 X42.640 Y9.609 Z-1.400 I1.264 J1.347 K0.000 F2000.000
G3 X44.030 Y9.270 Z-1.400 I1.288 J2.262 K0.000 F2000.000
G1 X40.461 Y5.700 Z-1.400 F2000.000
G1 X42.441 Y5.700 Z-1.400 F2000.000
G1 X46.258 Y9.517 Z-1.400 F2000.000
G1 X46.258 Y9.517 Z-2.100 F2000.000
G1 X42.441 Y5.700 Z-2.100 F2000.000
G1 X40.461 Y5.700 Z-2.100 F2000.000
G1 X44.030 Y9.270 Z-2.100 F2000.000
G2 X42.640 Y9.609 Z-2.100 I-0.103 J2.601 K0.000 F2000.000
G2 X42.505 Y9.724 Z-2.100 I1.129 J1.462 K0.000 F2000.000
G1 X38.481 Y5.700 Z-2.100 F2000.000
G1 X36.501 Y5.700 Z-2.100 F2000.000
G1 X39.962 Y9.161 Z-2.100 F2000.000
G2 X38.045 Y9.224 Z-2.100 I-0.864 J2.923 K0.000 F2000.000
G1 X34.521 Y5.700 Z-2.100 F2000.000
G1 X32.541 Y5.700 Z-2.100 F2000.000
G1 X36.740 Y9.898 Z-2.100 F2000.000
G2 X35.765 Y10.560 Z-2.100 I3.510 J6.219 K0.000 F2000.000
G2 X34.972 Y10.110 Z-2.100 I-4.400 J6.841 K0.000 F2000.000
G1 X30.561 Y5.700 Z-2.100 F2000.000
G1 X28.581 Y5.700 Z-2.100 F2000.000
G1 X32.045 Y9.164 Z-2.100 F2000.000
G2 X29.952 Y9.050 Z-2.100 I-1.589 J9.962 K0.000 F2000.000
G1 X26.602 Y5.700 Z-2.100 F2000.000
G1 X24.622 Y5.700 Z-2.100 F2000.000
G1 X28.192 Y9.270 Z-2.100 F2000.000
G2 X26.700 Y9.759 Z-2.100 I1.015 J5.623 K0.000 F2000.000
G1 X22.642 Y5.700 Z-2.100 F2000.000
G1 X20.662 Y5.700 Z-2.100 F2000.000
G1 X25.457 Y10.495 Z-2.100 F2000.000
G2 X24.500 Y11.518 Z-2.100 I2.420 J3.226 K0.000 F2000.000
G1 X18.682 Y5.700 Z-2.100 F2000.000
G1 X16.702 Y5.700 Z-2.100 F2000.000
G1 X23.852 Y12.850 Z-2.100 F2000.000
G2 X23.628 Y14.606 Z-2.100 I4.960 J1.523 K0.000 F2000.000
G1 X21.588 Y12.566 Z-2.100 F2000.000
G3 X22.848 Y15.806 Z-2.100 I-6.787 J4.505 K0.000 F2000.000
G1 X26.372 Y19.329 Z-2.100 F2000.000
G2 X25.630 Y20.568 Z-2.100 I6.894 J4.970 K0.000 F2000.000
G1 X23.045 Y17.983 Z-2.100 F2000.000
G3 X22.943 Y19.860 Z-2.100 I-9.800 J0.407 K0.000 F2000.000
G1 X25.137 Y22.055 Z-2.100 F2000.000
G2 X25.349 Y24.246 Z-2.100 I4.799 J0.643 K0.000 F2000.000
G1 X22.588 Y21.486 Z-2.100 F2000.000
G1 X22.588 Y21.486 Z-2.800 F2000.000
G1 X25.349 Y24.246 Z-2.800 F2000.000
G3 X25.137 Y22.055 Z-2.800 I4.587 J-1.549 K0.000 F2000.000
G1 X22.943 Y19.860 Z-2.800 F2000.000
G2 X23.045 Y17.983 Z-2.800 I-9.697 J-1.471 K0.000 F2000.000
G1 X25.630 Y20.568 Z-2.800 F2000.000
G3 X26.372 Y19.329 Z-2.800 I7.636 J3.732 K0.000 F2000.000
G1 X22.848 Y15.806 Z-2.800 F2000.000
G2 X21.588 Y12.566 Z-2.800 I-8.047 J1.265 K0.000 F2000.000
G1 X23.628 Y14.606 Z-2.800 F2000.000
G3 X23.852 Y12.850 Z-2.800 I5.183 J-0.234 K0.000 F2000.000
G1 X16.702 Y5.700 Z-2.800 F2000.000
G1 X18.682 Y5.700 Z-2.800 F2000.000
G1 X24.500 Y11.518 Z-2.800 F2000.000
G3 X25.457 Y10.495 Z-2.800 I3.378 J2.204 K0.000 F2000.000
G1 X20.662 Y5.700 Z-2.800 F2000.000
G1 X22.642 Y5.700 Z-2.800 F2000.000
G1 X26.700 Y9.759 Z-2.800 F2000.000
G3 X28.192 Y9.270 Z-2.800 I2.507 J5.134 K0.000 F2000.000
G1 X24.622 Y5.700 Z-2.800 F2000.000
G1 X26.602 Y5.700 Z-2.800 F2000.000
G1 X29.952 Y9.050 Z-2.800 F2000.000
G3 X32.045 Y9.164 Z-2.800 I0.504 J10.075 K0.000 F2000.000
G1 X28.581 Y5.700 Z-2.800 F2000.000
G1 X30.561 Y5.700 Z-2.800 F2000.000
G1 X34.972 Y10.110 Z-2.800 F2000.000
G3 X35.765 Y10.560 Z-2.800 I-3.606 J7.290 K0.000 F2000.000
G3 X36.740 Y9.898 Z-2.800 I4.485 J5.557 K0.000 F2000.000
G1 X32.541 Y5.700 Z-2.800 F2000.000
G1 X34.521 Y5.700 Z-2.800 F2000.000
G1 X38.045 Y9.224 Z-2.800 F2000.000
G3 X39.962 Y9.161 Z-2.800 I1.053 J2.860 K0.000 F2000.000
G1 X36.501 Y5.700 Z-2.800 F2000.000
G1 X38.481 Y5.700 Z-2.800 F2000.000
G1 X42.505 Y9.724 Z-2.800 F2000.000
G3 X42.640 Y9.609 Z-2.800 I1.264 J1.347 K0.000 F2000.000
G3 X44.030 Y9.270 Z-2.800 I1.288 J2.262 K0.000 F2000.000
G1 X40.461 Y5.700 Z-2.800 F2000.000
G1 X42.441 Y5.700 Z-2.800 F2000.000
G1 X46.258 Y9.517 Z-2.800 F2000.000
G1 X46.258 Y9.517 Z-3.033 F2000.000
G1 X42.441 Y5.700 Z-3.033 F2000.000
G1 X40.461 Y5.700 Z-3.033 F2000.000
G1 X44.030 Y9.270 Z-3.033 F2000.000
G2 X42.640 Y9.609 Z-3.033 I-0.103 J2.601 K0.000 F2000.000
G2 X42.505 Y9.724 Z-3.033 I1.129 J1.462 K0.000 F2000.000
G1 X38.481 Y5.700 Z-3.033 F2000.000
G1 X36.501 Y5.700 Z-3.033 F2000.000
G1 X39.962 Y9.161 Z-3.033 F2000.000
G2 X38.045 Y9.224 Z-3.033 I-0.864 J2.923 K0.000 F2000.000
G1 X34.521 Y5.700 Z-3.033 F2000.000
G1 X32.541 Y5.700 Z-3.033 F2000.000
G1 X36.740 Y9.898 Z-3.033 F2000.000
G2 X35.765 Y10.560 Z-3.033 I3.510 J6.219 K0.000 F2000.000
G2 X34.972 Y10.110 Z-3.033 I-4.400 J6.841 K0.000 F2000.000
G1 X30.561 Y5.700 Z-3.033 F2000.000
G1 X28.581 Y5.700 Z-3.033 F2000.000
G1 X32.045 Y9.164 Z-3.033 F2000.000
G2 X29.952 Y9.050 Z-3.033 I-1.589 J9.962 K0.000 F2000.000
G1 X26.602 Y5.700 Z-3.033 F2000.000
G1 X24.622 Y5.700 Z-3.033 F2000.000
G1 X28.192 Y9.270 Z-3.033 F2000.000
G2 X26.700 Y9.759 Z-3.033 I1.015 J5.623 K0.000 F2000.000
G1 X22.642 Y5.700 Z-3.033 F2000.000
G1 X20.662 Y5.700 Z-3.033 F2000.000
G1 X25.457 Y10.495 Z-3.033 F2000.000
G2 X24.500 Y11.518 Z-3.033 I2.420 J3.226 K0.000 F2000.000
G1 X18.682 Y5.700 Z-3.033 F2000.000
G1 X16.702 Y5.700 Z-3.033 F2000.000
G1 X23.852 Y12.850 Z-3.033 F2000.000
G2 X23.628 Y14.606 Z-3.033 I4.960 J1.523 K0.000 F2000.000
G1 X21.588 Y12.566 Z-3.033 F2000.000
G3 X22.848 Y15.806 Z-3.033 I-6.787 J4.505 K0.000 F2000.000
G1 X26.372 Y19.329 Z-3.033 F2000.000
G2 X25.630 Y20.568 Z-3.033 I6.894 J4.970 K0.000 F2000.000
G1 X23.045 Y17.983 Z-3.033 F2000.000
G3 X22.943 Y19.860 Z-3.033 I-9.800 J0.407 K0.000 F2000.000
G1 X25.137 Y22.055 Z-3.033 F2000.000
G2 X25.349 Y24.246 Z-3.033 I4.799 J0.643 K0.000 F2000.000
G1 X22.588 Y21.486 Z-3.033 F2000.000
G0 Z5.000
G0 X19.787 Y10.765 Z5.000
G0 X19.787 Y10.765 Z3.000
G1 X19.787 Y10.765 Z-0.700 F2000.000
G1 X14.722 Y5.700 Z-0.700 F2000.000
G1 X12.742 Y5.700 Z-0.700 F2000.000
G1 X16.575 Y9.533 Z-0.700 F2000.000
G2 X14.380 Y9.317 Z-0.700 I-2.264 J11.766 K0.000 F2000.000
G1 X10.762 Y5.700 Z-0.700 F2000.000
G1 X8.782 Y5.700 Z-0.700 F2000.000
G1 X12.382 Y9.300 Z-0.700 F2000.000
G1 X10.403 Y9.300 Z-0.700 F2000.000
G1 X6.803 Y5.700 Z-0.700 F2000.000
G1 X5.700 Y5.700 Z-0.700 F2000.000
G1 X5.700 Y6.577 Z-0.700 F2000.000
G1 X8.851 Y9.729 Z-0.700 F2000.000
G2 X8.350 Y11.026 Z-0.700 I1.197 J1.208 K0.000 F2000.000
G1 X8.350 Y11.207 Z-0.700 F2000.000
G1 X5.700 Y8.557 Z-0.700 F2000.000
G1 X5.700 Y10.537 Z-0.700 F2000.000
G1 X8.350 Y13.187 Z-0.700 F2000.000
G1 X8.350 Y15.167 Z-0.700 F2000.000
G1 X5.700 Y12.517 Z-0.700 F2000.000
G1 X5.700 Y14.497 Z-0.700 F2000.000
G1 X8.350 Y17.147 Z-0.700 F2000.000
G1 X8.350 Y19.127 Z-0.700 F2000.000
G1 X5.700 Y16.477 Z-0.700 F2000.000
G1 X5.700 Y18.457 Z-0.700 F2000.000
G1 X8.350 Y21.107 Z-0.700 F2000.000
G1 X8.350 Y23.087 Z-0.700 F2000.000
G1 X5.700 Y20.437 Z-0.700 F2000.000
G1 X5.700 Y22.417 Z-0.700 F2000.000
G1 X8.353 Y25.070 Z-0.700 F2000.000
G2 X9.983 Y26.699 Z-0.700 I1.580 J0.050 K0.000 F2000.000
G1 X13.383 Y30.100 Z-0.700 F2000.000
G1 X11.404 Y30.100 Z-0.700 F2000.000
G1 X5.700 Y24.396 Z-0.700 F2000.000
G1 X5.700 Y26.376 Z-0.700 F2000.000
G1 X9.424 Y30.100 Z-0.700 F2000.000
G1 X7.444 Y30.100 Z-0.700 F2000.000
G1 X5.700 Y30.100 Z-0.700 F2000.000
G1 X5.700 Y28.356 Z-0.700 F2000.000
G1 X7.444 Y30.100 Z-0.700 F2000.000
G1 X7.444 Y30.100 Z-1.400 F2000.000
G1 X5.700 Y28.356 Z-1.400 F2000.000
G1 X5.700 Y30.100 Z-1.400 F2000.000
G1 X7.444 Y30.100 Z-1.400 F2000.000
G1 X9.424 Y30.100 Z-1.400 F2000.000
G1 X5.700 Y26.376 Z-1.400 F2000.000
G1 X5.700 Y24.396 Z-1.400 F2000.000
G1 X11.404 Y30.100 Z-1.400 F2000.000
G1 X13.383 Y30.100 Z-1.400 F2000.000
G1 X9.983 Y26.699 Z-1.400 F2000.000
G3 X8.353 Y25.070 Z-1.400 I-0.050 J-1.580 K0.000 F2000.000
G1 X5.700 Y22.417 Z-1.400 F2000.000
G1 X5.700 Y20.437 Z-1.400 F2000.000
G1 X8.350 Y23.087 Z-1.400 F2000.000
G1 X8.350 Y21.107 Z-1.400 F2000.000
G1 X5.700 Y18.457 Z-1.400 F2000.000
G1 X5.700 Y16.477 Z-1.400 F2000.000
G1 X8.350 Y19.127 Z-1.400 F2000.000
G1 X8.350 Y17.147 Z-1.400 F2000.000
G1 X5.700 Y14.497 Z-1.400 F2000.000
G1 X5.700 Y12.517 Z-1.400 F2000.000
G1 X8.350 Y15.167 Z-1.400 F2000.000
G1 X8.350 Y13.187 Z-1.400 F2000.000
G1 X5.700 Y10.537 Z-1.400 F2000.000
G1 X5.700 Y8.557 Z-1.400 F2000.000
G1 X8.350 Y11.207 Z-1.400 F2000.000
G1 X8.350 Y11.026 Z-1.400 F2000.000
G3 X8.851 Y9.729 Z-1.400 I1.699 J-0.089 K0.000 F2000.000
G1 X5.700 Y6.577 Z-1.400 F2000.000
G1 X5.700 Y5.700 Z-1.400 F2000.000
G1 X6.803 Y5.700 Z-1.400 F2000.000
G1 X10.403 Y9.300 Z-1.400 F2000.000
G1 X12.382 Y9.300 Z-1.400 F2000.000
G1 X8.782 Y5.700 Z-1.400 F2000.000
G1 X10.762 Y5.700 Z-1.400 F2000.000
G1 X14.380 Y9.317 Z-1.400 F2000.000
G3 X16.575 Y9.533 Z-1.400 I-0.068 J11.982 K0.000 F2000.000
G1 X12.742 Y5.700 Z-1.400 F2000.000
G1 X14.722 Y5.700 Z-1.400 F2000.000
G1 X19.787 Y10.765 Z-1.400 F2000.000
G1 X19.787 Y10.765 Z-2.100 F2000.000
G1 X14.722 Y5.700 Z-2.100 F2000.000
G1 X12.742 Y5.700 Z-2.100 F2000.000
G1 X16.575 Y9.533 Z-2.100 F2000.000
G2 X14.380 Y9.317 Z-2.100 I-2.264 J11.766 K0.000 F2000.000
G1 X10.762 Y5.700 Z-2.100 F2000.000
G1 X8.782 Y5.700 Z-2.100 F2000.000
G1 X12.382 Y9.300 Z-2.100 F2000.000
G1 X10.403 Y9.300 Z-2.100 F2000.000
G1 X6.803 Y5.700 Z-2.100 F2000.000
G1 X5.700 Y5.700 Z-2.100 F2000.000
G1 X5.700 Y6.577 Z-2.100 F2000.000
G1 X8.851 Y9.729 Z-2.100 F2000.000
G2 X8.350 Y11.026 Z-2.100 I1.197 J1.208 K0.000 F2000.000
G1 X8.350 Y11.207 Z-2.100 F2000.000
G1 X5.700 Y8.557 Z-2.100 F2000.000
G1 X5.700 Y10.537 Z-2.100 F2000.000
G1 X8.350 Y13.187 Z-2.100 F2000.000
G1 X8.350 Y15.167 Z-2.100 F2000.000
G1 X5.700 Y12.517 Z-2.100 F2000.000
G1 X5.700 Y14.497 Z-2.100 F2000.000
G1 X8.350 Y17.147 Z-2.100 F2000.000
G1 X8.350 Y19.127 Z-2.100 F2000.000
G1 X5.700 Y16.477 Z-2.100 F2000.000
G1 X5.700 Y18.457 Z-2.100 F2000.000
G1 X8.350 Y21.107 Z-2.100 F2000.000
G1 X8.350 Y23.087 Z-2.100 F2000.000
G1 X5.700 Y20.437 Z-2.100 F2000.000
G1 X5.700 Y22.417 Z-2.100 F2000.000
G1 X8.353 Y25.070 Z-2.100 F2000.000
G2 X9.983 Y26.699 Z-2.100 I1.580 J0.050 K0.000 F2000.000
G1 X13.383 Y30.100 Z-2.100 F2000.000
G1 X11.404 Y30.100 Z-2.100 F2000.000
G1 X5.700 Y24.396 Z-2.100 F2000.000
G1 X5.700 Y26.376 Z-2.100 F2000.000
G1 X9.424 Y30.100 Z-2.100 F2000.000
G1 X7.444 Y30.100 Z-2.100 F2000.000
G1 X5.700 Y30.100 Z-2.100 F2000.000
G1 X5.700 Y28.356 Z-2.100 F2000.000
G1 X7.444 Y30.100 Z-2.100 F2000.000
G1 X7.444 Y30.100 Z-2.800 F2000.000
G1 X5.700 Y28.356 Z-2.800 F2000.000
G1 X5.700 Y30.100 Z-2.800 F2000.000
G1 X7.444 Y30.100 Z-2.800 F2000.000
G1 X9.424 Y30.100 Z-2.800 F2000.000
G1 X5.700 Y26.376 Z-2.800 F2000.000
G1 X5.700 Y24.396 Z-2.800 F2000.000
G1 X11.404 Y30.100 Z-2.800 F2000.000
G1 X13.383 Y30.100 Z-2.800 F2000.000
G1 X9.983 Y26.699 Z-2.800 F2000.000
G3 X8.353 Y25.070 Z-2.800 I-0.050 J-1.580 K0.000 F2000.000
G1 X5.700 Y22.417 Z-2.800 F2000.000
G1 X5.700 Y20.437 Z-2.800 F2000.000
G1 X8.350 Y23.087 Z-2.800 F2000.000
G1 X8.350 Y21.107 Z-2.800 F2000.000
G1 X5.700 Y18.457 Z-2.800 F2000.000
G1 X5.700 Y16.477 Z-2.800 F2000.000
G1 X8.350 Y19.127 Z-2.800 F2000.000
G1 X8.350 Y17.147 Z-2.800 F2000.000
G1 X5.700 Y14.497 Z-2.800 F2000.000
G1 X5.700 Y12.517 Z-2.800 F2000.000
G1 X8.350 Y15.167 Z-2.800 F2000.000
G1 X8.350 Y13.187 Z-2.800 F2000.000
G1 X5.700 Y10.537 Z-2.800 F2000.000
G1 X5.700 Y8.557 Z-2.800 F2000.000
G1 X8.350 Y11.207 Z-2.800 F2000.000
G1 X8.350 Y11.026 Z-2.800 F2000.000
G3 X8.851 Y9.729 Z-2.800 I1.699 J-0.089 K0.000 F2000.000
G1 X5.700 Y6.577 Z-2.800 F2000.000
G1 X5.700 Y5.700 Z-2.800 F2000.000
G1 X6.803 Y5.700 Z-2.800 F2000.000
G1 X10.403 Y9.300 Z-2.800 F2000.000
G1 X12.382 Y9.300 Z-2.800 F2000.000
G1 X8.782 Y5.700 Z-2.800 F2000.000
G1 X10.762 Y5.700 Z-2.800 F2000.000
G1 X14.380 Y9.317 Z-2.800 F2000.000
G3 X16.575 Y9.533 Z-2.800 I-0.068 J11.982 K0.000 F2000.000
G1 X12.742 Y5.700 Z-2.800 F2000.000
G1 X14.722 Y5.700 Z-2.800 F2000.000
G1 X19.787 Y10.765 Z-2.800 F2000.000
G1 X19.787 Y10.765 Z-3.033 F2000.000
G1 X14.722 Y5.700 Z-3.033 F2000.000
G1 X12.742 Y5.700 Z-3.033 F2000.000
G1 X16.575 Y9.533 Z-3.033 F2000.000
G2 X14.380 Y9.317 Z-3.033 I-2.264 J11.766 K0.000 F2000.000
G1 X10.762 Y5.700 Z-3.033 F2000.000
G1 X8.782 Y5.700 Z-3.033 F2000.000
G1 X12.382 Y9.300 Z-3.033 F2000.000
G1 X10.403 Y9.300 Z-3.033 F2000.000
G1 X6.803 Y5.700 Z-3.033 F2000.000
G1 X5.700 Y5.700 Z-3.033 F2000.000
G1 X5.700 Y6.577 Z-3.033 F2000.000
G1 X8.851 Y9.729 Z-3.033 F2000.000
G2 X8.350 Y11.026 Z-3.033 I1.197 J1.208 K0.000 F2000.000
G1 X8.350 Y11.207 Z-3.033 F2000.000
G1 X5.700 Y8.557 Z-3.033 F2000.000
G1 X5.700 Y10.537 Z-3.033 F2000.000
G1 X8.350 Y13.187 Z-3.033 F2000.000
G1 X8.350 Y15.167 Z-3.033 F2000.000
G1 X5.700 Y12.517 Z-3.033 F2000.000
G1 X5.700 Y14.497 Z-3.033 F2000.000
G1 X8.350 Y17.147 Z-3.033 F2000.000
G1 X8.350 Y19.127 Z-3.033 F2000.000
G1 X5.700 Y16.477 Z-3.033 F2000.000
G1 X5.700 Y18.457 Z-3.033 F2000.000
G1 X8.350 Y21.107 Z-3.033 F2000.000
G1 X8.350 Y23.087 Z-3.033 F2000.000
G1 X5.700 Y20.437 Z-3.033 F2000.000
G1 X5.700 Y22.417 Z-3.033 F2000.000
G1 X8.353 Y25.070 Z-3.033 F2000.000
G2 X9.983 Y26.699 Z-3.033 I1.580 J0.050 K0.000 F2000.000
G1 X13.383 Y30.100 Z-3.033 F2000.000
G1 X11.404 Y30.100 Z-3.033 F2000.000
G1 X5.700 Y24.396 Z-3.033 F2000.000
G1 X5.700 Y26.376 Z-3.033 F2000.000
G1 X9.424 Y30.100 Z-3.033 F2000.000
G1 X7.444 Y30.100 Z-3.033 F2000.000
G1 X5.700 Y30.100 Z-3.033 F2000.000
G1 X5.700 Y28.356 Z-3.033 F2000.000
G1 X7.444 Y30.100 Z-3.033 F2000.000
G0 Z5.000
G0 X13.383 Z5.000
G0 X13.383 Z3.000
G1 X13.383 Y30.100 Z-0.700 F2000.000
G1 X9.983 Y26.699 Z-0.700 F2000.000
G2 X11.963 Y26.700 Z-0.700 I1.000 J-21.462 K0.000 F2000.000
G1 X15.363 Y30.100 Z-0.700 F2000.000
G1 X17.343 Y30.100 Z-0.700 F2000.000
G1 X13.943 Y26.700 Z-0.700 F2000.000
G2 X15.829 Y26.606 Z-0.700 I0.060 J-17.730 K0.000 F2000.000
G1 X19.323 Y30.100 Z-0.700 F2000.000
G1 X21.303 Y30.100 Z-0.700 F2000.000
G1 X17.502 Y26.299 Z-0.700 F2000.000
G2 X18.944 Y25.762 Z-0.700 I-1.661 J-6.657 K0.000 F2000.000
G1 X23.283 Y30.100 Z-0.700 F2000.000
G1 X25.263 Y30.100 Z-0.700 F2000.000
G1 X20.176 Y25.013 Z-0.700 F2000.000
G2 X21.193 Y24.050 Z-0.700 I-3.813 J-5.044 K0.000 F2000.000
G1 X27.243 Y30.100 Z-0.700 F2000.000
G1 X29.223 Y30.100 Z-0.700 F2000.000
G1 X21.997 Y22.874 Z-0.700 F2000.000
G2 X22.588 Y21.486 Z-0.700 I-5.526 J-3.176 K0.000 F2000.000
G1 X25.349 Y24.246 Z-0.700 F2000.000
G2 X28.055 Y26.952 Z-0.700 I4.166 J-1.459 K0.000 F2000.000
G1 X31.203 Y30.100 Z-0.700 F2000.000
G1 X33.182 Y30.100 Z-0.700 F2000.000
G1 X30.555 Y27.473 Z-0.700 F2000.000
G2 X32.484 Y27.421 Z-0.700 I0.663 J-11.261 K0.000 F2000.000
G1 X35.162 Y30.100 Z-0.700 F2000.000
G1 X37.142 Y30.100 Z-0.700 F2000.000
G1 X34.106 Y27.064 Z-0.700 F2000.000
G2 X35.409 Y26.387 Z-0.700 I-1.438 J-4.358 K0.000 F2000.000
G1 X39.122 Y30.100 Z-0.700 F2000.000
G1 X41.102 Y30.100 Z-0.700 F2000.000
G1 X36.335 Y25.333 Z-0.700 F2000.000
G2 X36.825 Y23.844 Z-0.700 I-3.170 J-1.870 K0.000 F2000.000
G1 X43.082 Y30.100 Z-0.700 F2000.000
G1 X45.062 Y30.100 Z-0.700 F2000.000
G1 X36.546 Y21.584 Z-0.700 F2000.000
G1 X36.546 Y21.584 Z-1.400 F2000.000
G1 X45.062 Y30.100 Z-1.400 F2000.000
G1 X43.082 Y30.100 Z-1.400 F2000.000
G1 X36.825 Y23.844 Z-1.400 F2000.000
G3 X36.335 Y25.333 Z-1.400 I-3.661 J-0.380 K0.000 F2000.000
G1 X41.102 Y30.100 Z-1.400 F2000.000
G1 X39.122 Y30.100 Z-1.400 F2000.000
G1 X35.409 Y26.387 Z-1.400 F2000.000
G3 X34.106 Y27.064 Z-1.400 I-2.741 J-3.681 K0.000 F2000.000
G1 X37.142 Y30.100 Z-1.400 F2000.000
G1 X35.162 Y30.100 Z-1.400 F2000.000
G1 X32.484 Y27.421 Z-1.400 F2000.000
G3 X30.555 Y27.473 Z-1.400 I-1.265 J-11.209 K0.000 F2000.000
G1 X33.182 Y30.100 Z-1.400 F2000.000
G1 X31.203 Y30.100 Z-1.400 F2000.000
G1 X28.055 Y26.952 Z-1.400 F2000.000
G3 X25.349 Y24.246 Z-1.400 I1.459 J-4.166 K0.000 F2000.000
G1 X22.588 Y21.486 Z-1.400 F2000.000
G3 X21.997 Y22.874 Z-1.400 I-6.118 J-1.788 K0.000 F2000.000
G1 X29.223 Y30.100 Z-1.400 F2000.000
G1 X27.243 Y30.100 Z-1.400 F2000.000
G1 X21.193 Y24.050 Z-1.400 F2000.000
G3 X20.176 Y25.013 Z-1.400 I-4.830 J-4.081 K0.000 F2000.000
G1 X25.263 Y30.100 Z-1.400 F2000.000
G1 X23.283 Y30.100 Z-1.400 F2000.000
G1 X18.944 Y25.762 Z-1.400 F2000.000
G3 X17.502 Y26.299 Z-1.400 I-3.103 J-6.119 K0.000 F2000.000
G1 X21.303 Y30.100 Z-1.400 F2000.000
G1 X19.323 Y30.100 Z-1.400 F2000.000
G1 X15.829 Y26.606 Z-1.400 F2000.000
G3 X13.943 Y26.700 Z-1.400 I-1.826 J-17.635 K0.000 F2000.000
G1 X17.343 Y30.100 Z-1.400 F2000.000
G1 X15.363 Y30.100 Z-1.400 F2000.000
G1 X11.963 Y26.700 Z-1.400 F2000.000
G3 X9.983 Y26.699 Z-1.400 I-0.981 J-21.463 K0.000 F2000.000
G1 X13.383 Y30.100 Z-1.400 F2000.000
G1 X13.383 Y30.100 Z-2.100 F2000.000
G1 X9.983 Y26.699 Z-2.100 F2000.000
G2 X11.963 Y26.700 Z-2.100 I1.000 J-21.462 K0.000 F2000.000
G1 X15.363 Y30.100 Z-2.100 F2000.000
G1 X17.343 Y30.100 Z-2.100 F2000.000
G1 X13.943 Y26.700 Z-2.100 F2000.000
G2 X15.829 Y26.606 Z-2.100 I0.060 J-17.730 K0.000 F2000.000
G1 X19.323 Y30.100 Z-2.100 F2000.000
G1 X21.303 Y30.100 Z-2.100 F2000.000
G1 X17.502 Y26.299 Z-2.100 F2000.000
G2 X18.944 Y25.762 Z-2.100 I-1.661 J-6.657 K0.000 F2000.000
G1 X23.283 Y30.100 Z-2.100 F2000.000
G1 X25.263 Y30.100 Z-2.100 F2000.000
G1 X20.176 Y25.013 Z-2.100 F2000.000
G2 X21.193 Y24.050 Z-2.100 I-3.813 J-5.044 K0.000 F2000.000
G1 X27.243 Y30.100 Z-2.100 F2000.000
G1 X29.223 Y30.100 Z-2.100 F2000.000
G1 X21.997 Y22.874 Z-2.100 F2000.000
G2 X22.588 Y21.486 Z-2.100 I-5.526 J-3.176 K0.000 F2000.000
G1 X25.349 Y24.246 Z-2.100 F2000.000
G2 X28.055 Y26.952 Z-2.100 I4.166 J-1.459 K0.000 F2000.000
G1 X31.203 Y30.100 Z-2.100 F2000.000
G1 X33.182 Y30.100 Z-2.100 F2000.000
G1 X30.555 Y27.473 Z-2.100 F2000.000
G2 X32.484 Y27.421 Z-2.100 I0.663 J-11.261 K0.000 F2000.000
G1 X35.162 Y30.100 Z-2.100 F2000.000
G1 X37.142 Y30.100 Z-2.100 F2000.000
G1 X34.106 Y27.064 Z-2.100 F2000.000
G2 X35.409 Y26.387 Z-2.100 I-1.438 J-4.358 K0.000 F2000.000
G1 X39.122 Y30.100 Z-2.100 F2000.000
G1 X41.102 Y30.100 Z-2.100 F2000.000
G1 X36.335 Y25.333 Z-2.100 F2000.000
G2 X36.825 Y23.844 Z-2.100 I-3.170 J-1.870 K0.000 F2000.000
G1 X43.082 Y30.100 Z-2.100 F2000.000
G1 X45.062 Y30.100 Z-2.100 F2000.000
G1 X36.546 Y21.584 Z-2.100 F2000.000
G1 X36.546 Y21.584 Z-2.800 F2000.000
G1 X45.062 Y30.100 Z-2.800 F2000.000
G1 X43.082 Y30.100 Z-2.800 F2000.000
G1 X36.825 Y23.844 Z-2.800 F2000.000
G3 X36.335 Y25.333 Z-2.800 I-3.661 J-0.380 K0.000 F2000.000
G1 X41.102 Y30.100 Z-2.800 F2000.000
G1 X39.122 Y30.100 Z-2.800 F2000.000
G1 X35.409 Y26.387 Z-2.800 F2000.000
G3 X34.106 Y27.064 Z-2.800 I-2.741 J-3.681 K0.000 F2000.000
G1 X37.142 Y30.100 Z-2.800 F2000.000
G1 X35.162 Y30.100 Z-2.800 F2000.000
G1 X32.484 Y27.421 Z-2.800 F2000.000
G3 X30.555 Y27.473 Z-2.800 I-1.265 J-11.209 K0.000 F2000.000
G1 X33.182 Y30.100 Z-2.800 F2000.000
G1 X31.203 Y30.100 Z-2.800 F2000.000
G1 X28.055 Y26.952 Z-2.800 F2000.000
G3 X25.349 Y24.246 Z-2.800 I1.459 J-4.166 K0.000 F2000.000
G1 X22.588 Y21.486 Z-2.800 F2000.000
G3 X21.997 Y22.874 Z-2.800 I-6.118 J-1.788 K0.000 F2000.000
G1 X29.223 Y30.100 Z-2.800 F2000.000
G1 X27.243 Y30.100 Z-2.800 F2000.000
G1 X21.193 Y24.050 Z-2.800 F2000.000
G3 X20.176 Y25.013 Z-2.800 I-4.830 J-4.081 K0.000 F2000.000
G1 X25.263 Y30.100 Z-2.800 F2000.000
G1 X23.283 Y30.100 Z-2.800 F2000.000
G1 X18.944 Y25.762 Z-2.800 F2000.000
G3 X17.502 Y26.299 Z-2.800 I-3.103 J-6.119 K0.000 F2000.000
G1 X21.303 Y30.100 Z-2.800 F2000.000
G1 X19.323 Y30.100 Z-2.800 F2000.000
G1 X15.829 Y26.606 Z-2.800 F2000.000
G3 X13.943 Y26.700 Z-2.800 I-1.826 J-17.635 K0.000 F2000.000
G1 X17.343 Y30.100 Z-2.800 F2000.000
G1 X15.363 Y30.100 Z-2.800 F2000.000
G1 X11.963 Y26.700 Z-2.800 F2000.000
G3 X9.983 Y26.699 Z-2.800 I-0.981 J-21.463 K0.000 F2000.000
G1 X13.383 Y30.100 Z-2.800 F2000.000
G1 X13.383 Y30.100 Z-3.033 F2000.000
G1 X9.983 Y26.699 Z-3.033 F2000.000
G2 X11.963 Y26.700 Z-3.033 I1.000 J-21.462 K0.000 F2000.000
G1 X15.363 Y30.100 Z-3.033 F2000.000
G1 X17.343 Y30.100 Z-3.033 F2000.000
G1 X13.943 Y26.700 Z-3.033 F2000.000
G2 X15.829 Y26.606 Z-3.033 I0.060 J-17.730 K0.000 F2000.000
G1 X19.323 Y30.100 Z-3.033 F2000.000
G1 X21.303 Y30.100 Z-3.033 F2000.000
G1 X17.502 Y26.299 Z-3.033 F2000.000
G2 X18.944 Y25.762 Z-3.033 I-1.661 J-6.657 K0.000 F2000.000
G1 X23.283 Y30.100 Z-3.033 F2000.000
G1 X25.263 Y30.100 Z-3.033 F2000.000
G1 X20.176 Y25.013 Z-3.033 F2000.000
G2 X21.193 Y24.050 Z-3.033 I-3.813 J-5.044 K0.000 F2000.000
G1 X27.243 Y30.100 Z-3.033 F2000.000
G1 X29.223 Y30.100 Z-3.033 F2000.000
G1 X21.997 Y22.874 Z-3.033 F2000.000
G2 X22.588 Y21.486 Z-3.033 I-5.526 J-3.176 K0.000 F2000.000
G1 X25.349 Y24.246 Z-3.033 F2000.000
G2 X28.055 Y26.952 Z-3.033 I4.166 J-1.459 K0.000 F2000.000
G1 X31.203 Y30.100 Z-3.033 F2000.000
G1 X33.182 Y30.100 Z-3.033 F2000.000
G1 X30.555 Y27.473 Z-3.033 F2000.000
G2 X32.484 Y27.421 Z-3.033 I0.663 J-11.261 K0.000 F2000.000
G1 X35.162 Y30.100 Z-3.033 F2000.000
G1 X37.142 Y30.100 Z-3.033 F2000.000
G1 X34.106 Y27.064 Z-3.033 F2000.000
G2 X35.409 Y26.387 Z-3.033 I-1.438 J-4.358 K0.000 F2000.000
G1 X39.122 Y30.100 Z-3.033 F2000.000
G1 X41.102 Y30.100 Z-3.033 F2000.000
G1 X36.335 Y25.333 Z-3.033 F2000.000
G2 X36.825 Y23.844 Z-3.033 I-3.170 J-1.870 K0.000 F2000.000
G1 X43.082 Y30.100 Z-3.033 F2000.000
G1 X45.062 Y30.100 Z-3.033 F2000.000
G1 X36.546 Y21.584 Z-3.033 F2000.000
G0 Z5.000
G0 X47.630 Y14.850 Z5.000
G0 X47.630 Y14.850 Z3.000
G1 X47.630 Y14.850 Z-0.700 F2000.000
G2 X46.853 Y14.845 Z-0.700 I-0.454 J10.257 K0.000 F2000.000
G1 X46.853 Y14.072 Z-0.700 F2000.000
G1 X47.630 Y14.850 Z-0.700 F2000.000
G3 X49.846 Y15.085 Z-0.700 I0.031 J10.229 K0.000 F2000.000
G1 X46.853 Y12.092 Z-0.700 F2000.000
G1 X46.853 Y10.464 Z-0.700 F2000.000
G2 X46.734 Y9.994 Z-0.700 I-1.034 J0.011 K0.000 F2000.000
G1 X56.300 Y19.559 Z-0.700 F2000.000
G1 X56.300 Y17.579 Z-0.700 F2000.000
G1 X44.421 Y5.700 Z-0.700 F2000.000
G1 X46.401 Y5.700 Z-0.700 F2000.000
G1 X56.300 Y15.599 Z-0.700 F2000.000
G1 X56.300 Y13.620 Z-0.700 F2000.000
G1 X48.380 Y5.700 Z-0.700 F2000.000
G1 X50.360 Y5.700 Z-0.700 F2000.000
G1 X56.300 Y11.640 Z-0.700 F2000.000
G1 X56.300 Y9.660 Z-0.700 F2000.000
G1 X52.340 Y5.700 Z-0.700 F2000.000
G1 X54.320 Y5.700 Z-0.700 F2000.000
G1 X56.300 Y7.680 Z-0.700 F2000.000
G1 X56.300 Y5.700 Z-0.700 F2000.000
G1 X56.300 Y5.700 Z-1.400 F2000.000
G1 X56.300 Y7.680 Z-1.400 F2000.000
G1 X54.320 Y5.700 Z-1.400 F2000.000
G1 X52.340 Y5.700 Z-1.400 F2000.000
G1 X56.300 Y9.660 Z-1.400 F2000.000
G1 X56.300 Y11.640 Z-1.400 F2000.000
G1 X50.360 Y5.700 Z-1.400 F2000.000
G1 X48.380 Y5.700 Z-1.400 F2000.000
G1 X56.300 Y13.620 Z-1.400 F2000.000
G1 X56.300 Y15.599 Z-1.400 F2000.000
G1 X46.401 Y5.700 Z-1.400 F2000.000
G1 X44.421 Y5.700 Z-1.400 F2000.000
G1 X56.300 Y17.579 Z-1.400 F2000.000
G1 X56.300 Y19.559 Z-1.400 F2000.000
G1 X46.734 Y9.994 Z-1.400 F2000.000
G3 X46.853 Y10.464 Z-1.400 I-0.915 J0.481 K0.000 F2000.000
G1 X46.853 Y12.092 Z-1.400 F2000.000
G1 X49.846 Y15.085 Z-1.400 F2000.000
G2 X47.630 Y14.850 Z-1.400 I-2.184 J9.994 K0.000 F2000.000
G1 X46.853 Y14.072 Z-1.400 F2000.000
G1 X46.853 Y14.845 Z-1.400 F2000.000
G3 X47.630 Y14.850 Z-1.400 I0.323 J10.262 K0.000 F2000.000
G1 X47.630 Y14.850 Z-2.100 F2000.000
G2 X46.853 Y14.845 Z-2.100 I-0.454 J10.257 K0.000 F2000.000
G1 X46.853 Y14.072 Z-2.100 F2000.000
G1 X47.630 Y14.850 Z-2.100 F2000.000
G3 X49.846 Y15.085 Z-2.100 I0.031 J10.229 K0.000 F2000.000
G1 X46.853 Y12.092 Z-2.100 F2000.000
G1 X46.853 Y10.464 Z-2.100 F2000.000
G2 X46.734 Y9.994 Z-2.100 I-1.034 J0.011 K0.000 F2000.000
G1 X56.300 Y19.559 Z-2.100 F2000.000
G1 X56.300 Y17.579 Z-2.100 F2000.000
G1 X44.421 Y5.700 Z-2.100 F2000.000
G1 X46.401 Y5.700 Z-2.100 F2000.000
G1 X56.300 Y15.599 Z-2.100 F2000.000
G1 X56.300 Y13.620 Z-2.100 F2000.000
G1 X48.380 Y5.700 Z-2.100 F2000.000
G1 X50.360 Y5.700 Z-2.100 F2000.000
G1 X56.300 Y11.640 Z-2.100 F2000.000
G1 X56.300 Y9.660 Z-2.100 F2000.000
G1 X52.340 Y5.700 Z-2.100 F2000.000
G1 X54.320 Y5.700 Z-2.100 F2000.000
G1 X56.300 Y7.680 Z-2.100 F2000.000
G1 X56.300 Y5.700 Z-2.100 F2000.000
G1 X56.300 Y5.700 Z-2.800 F2000.000
G1 X56.300 Y7.680 Z-2.800 F2000.000
G1 X54.320 Y5.700 Z-2.800 F2000.000
G1 X52.340 Y5.700 Z-2.800 F2000.000
G1 X56.300 Y9.660 Z-2.800 F2000.000
G1 X56.300 Y11.640 Z-2.800 F2000.000
G1 X50.360 Y5.700 Z-2.800 F2000.000
G1 X48.380 Y5.700 Z-2.800 F2000.000
G1 X56.300 Y13.620 Z-2.800 F2000.000
G1 X56.300 Y15.599 Z-2.800 F2000.000
G1 X46.401 Y5.700 Z-2.800 F2000.000
G1 X44.421 Y5.700 Z-2.800 F2000.000
G1 X56.300 Y17.579 Z-2.800 F2000.000
G1 X56.300 Y19.559 Z-2.800 F2000.000
G1 X46.734 Y9.994 Z-2.800 F2000.000
G3 X46.853 Y10.464 Z-2.800 I-0.915 J0.481 K0.000 F2000.000
G1 X46.853 Y12.092 Z-2.800 F2000.000
G1 X49.846 Y15.085 Z-2.800 F2000.000
G2 X47.630 Y14.850 Z-2.800 I-2.184 J9.994 K0.000 F2000.000
G1 X46.853 Y14.072 Z-2.800 F2000.000
G1 X46.853 Y14.845 Z-2.800 F2000.000
G3 X47.630 Y14.850 Z-2.800 I0.323 J10.262 K0.000 F2000.000
G1 X47.630 Y14.850 Z-3.033 F2000.000
G2 X46.853 Y14.845 Z-3.033 I-0.454 J10.257 K0.000 F2000.000
G1 X46.853 Y14.072 Z-3.033 F2000.000
G1 X47.630 Y14.850 Z-3.033 F2000.000
G3 X49.846 Y15.085 Z-3.033 I0.031 J10.229 K0.000 F2000.000
G1 X46.853 Y12.092 Z-3.033 F2000.000
G1 X46.853 Y10.464 Z-3.033 F2000.000
G2 X46.734 Y9.994 Z-3.033 I-1.034 J0.011 K0.000 F2000.000
G1 X56.300 Y19.559 Z-3.033 F2000.000
G1 X56.300 Y17.579 Z-3.033 F2000.000
G1 X44.421 Y5.700 Z-3.033 F2000.000
G1 X46.401 Y5.700 Z-3.033 F2000.000
G1 X56.300 Y15.599 Z-3.033 F2000.000
G1 X56.300 Y13.620 Z-3.033 F2000.000
G1 X48.380 Y5.700 Z-3.033 F2000.000
G1 X50.360 Y5.700 Z-3.033 F2000.000
G1 X56.300 Y11.640 Z-3.033 F2000.000
G1 X56.300 Y9.660 Z-3.033 F2000.000
G1 X52.340 Y5.700 Z-3.033 F2000.000
G1 X54.320 Y5.700 Z-3.033 F2000.000
G1 X56.300 Y7.680 Z-3.033 F2000.000
G1 X56.300 Y5.700 Z-3.033 F2000.000
G0 Z5.000
G0 X54.425 Y19.664 Z5.000
G0 X54.425 Y19.664 Z3.000
G1 X54.425 Y19.664 Z-1.400 F2000.000
G1 X56.300 Y21.539 Z-1.400 F2000.000
G1 X56.300 Y23.519 Z-1.400 F2000.000
G1 X54.531 Y21.750 Z-1.400 F2000.000
G3 X54.158 Y23.357 Z-1.400 I-4.978 J-0.309 K0.000 F2000.000
G1 X56.300 Y25.499 Z-1.400 F2000.000
G1 X56.300 Y27.479 Z-1.400 F2000.000
G1 X53.431 Y24.610 Z-1.400 F2000.000
G3 X52.391 Y25.549 Z-1.400 I-3.671 J-3.020 K0.000 F2000.000
G1 X56.300 Y29.459 Z-1.400 F2000.000
G1 X56.300 Y30.100 Z-1.400 F2000.000
G1 X54.961 Y30.100 Z-1.400 F2000.000
G1 X51.077 Y26.216 Z-1.400 F2000.000
G3 X49.468 Y26.587 Z-1.400 I-2.533 J-7.327 K0.000 F2000.000
G1 X52.981 Y30.100 Z-1.400 F2000.000
G1 X51.002 Y30.100 Z-1.400 F2000.000
G1 X47.602 Y26.700 Z-1.400 F2000.000
G1 X45.622 Y26.700 Z-1.400 F2000.000
G1 X49.022 Y30.100 Z-1.400 F2000.000
G1 X47.042 Y30.100 Z-1.400 F2000.000
G1 X43.601 Y26.660 Z-1.400 F2000.000
G3 X42.244 Y25.302 Z-1.400 I0.257 J-1.614 K0.000 F2000.000
G1 X36.342 Y19.400 Z-1.400 F2000.000
G3 X35.457 Y18.515 Z-1.400 I0.160 J-1.045 K0.000 F2000.000
G1 X34.236 Y17.295 Z-1.400 F2000.000
G2 X33.247 Y18.285 Z-1.400 I11.299 J12.279 K0.000 F2000.000
G1 X33.186 Y18.351 Z-1.400 F2000.000
G1 X33.470 Y18.508 Z-1.400 F2000.000
G1 X33.247 Y18.285 Z-1.400 F2000.000
G1 X33.247 Y18.285 Z-2.100 F2000.000
G1 X33.470 Y18.508 Z-2.100 F2000.000
G1 X33.186 Y18.351 Z-2.100 F2000.000
G1 X33.247 Y18.285 Z-2.100 F2000.000
G3 X34.236 Y17.295 Z-2.100 I12.289 J11.288 K0.000 F2000.000
G1 X35.457 Y18.515 Z-2.100 F2000.000
G2 X36.342 Y19.400 Z-2.100 I1.045 J-0.160 K0.000 F2000.000
G1 X42.244 Y25.302 Z-2.100 F2000.000
G2 X43.601 Y26.660 Z-2.100 I1.614 J-0.257 K0.000 F2000.000
G1 X47.042 Y30.100 Z-2.100 F2000.000
G1 X49.022 Y30.100 Z-2.100 F2000.000
G1 X45.622 Y26.700 Z-2.100 F2000.000
G1 X47.602 Y26.700 Z-2.100 F2000.000
G1 X51.002 Y30.100 Z-2.100 F2000.000
G1 X52.981 Y30.100 Z-2.100 F2000.000
G1 X49.468 Y26.587 Z-2.100 F2000.000
G2 X51.077 Y26.216 Z-2.100 I-0.924 J-7.697 K0.000 F2000.000
G1 X54.961 Y30.100 Z-2.100 F2000.000
G1 X56.300 Y30.100 Z-2.100 F2000.000
G1 X56.300 Y29.459 Z-2.100 F2000.000
G1 X52.391 Y25.549 Z-2.100 F2000.000
G2 X53.431 Y24.610 Z-2.100 I-2.630 J-3.959 K0.000 F2000.000
G1 X56.300 Y27.479 Z-2.100 F2000.000
G1 X56.300 Y25.499 Z-2.100 F2000.000
G1 X54.158 Y23.357 Z-2.100 F2000.000
G2 X54.531 Y21.750 Z-2.100 I-4.605 J-1.916 K0.000 F2000.000
G1 X56.300 Y23.519 Z-2.100 F2000.000
G1 X56.300 Y21.539 Z-2.100 F2000.000
G1 X54.425 Y19.664 Z-2.100 F2000.000
G1 X54.425 Y19.664 Z-2.800 F2000.000
G1 X56.300 Y21.539 Z-2.800 F2000.000
G1 X56.300 Y23.519 Z-2.800 F2000.000
G1 X54.531 Y21.750 Z-2.800 F2000.000
G3 X54.158 Y23.357 Z-2.800 I-4.978 J-0.309 K0.000 F2000.000
G1 X56.300 Y25.499 Z-2.800 F2000.000
G1 X56.300 Y27.479 Z-2.800 F2000.000
G1 X53.431 Y24.610 Z-2.800 F2000.000
G3 X52.391 Y25.549 Z-2.800 I-3.671 J-3.020 K0.000 F2000.000
G1 X56.300 Y29.459 Z-2.800 F2000.000
G1 X56.300 Y30.100 Z-2.800 F2000.000
G1 X54.961 Y30.100 Z-2.800 F2000.000
G1 X51.077 Y26.216 Z-2.800 F2000.000
G3 X49.468 Y26.587 Z-2.800 I-2.533 J-7.327 K0.000 F2000.000
G1 X52.981 Y30.100 Z-2.800 F2000.000
G1 X51.002 Y30.100 Z-2.800 F2000.000
G1 X47.602 Y26.700 Z-2.800 F2000.000
G1 X45.622 Y26.700 Z-2.800 F2000.000
G1 X49.022 Y30.100 Z-2.800 F2000.000
G1 X47.042 Y30.100 Z-2.800 F2000.000
G1 X43.601 Y26.660 Z-2.800 F2000.000
G3 X42.244 Y25.302 Z-2.800 I0.257 J-1.614 K0.000 F2000.000
G1 X36.342 Y19.400 Z-2.800 F2000.000
G3 X35.457 Y18.515 Z-2.800 I0.160 J-1.045 K0.000 F2000.000
G1 X34.236 Y17.295 Z-2.800 F2000.000
G2 X33.247 Y18.285 Z-2.800 I11.299 J12.279 K0.000 F2000.000
G1 X33.186 Y18.351 Z-2.800 F2000.000
G1 X33.470 Y18.508 Z-2.800 F2000.000
G1 X33.247 Y18.285 Z-2.800 F2000.000
G1 X33.247 Y18.285 Z-3.033 F2000.000
G1 X33.470 Y18.508 Z-3.033 F2000.000
G1 X33.186 Y18.351 Z-3.033 F2000.000
G1 X33.247 Y18.285 Z-3.033 F2000.000
G3 X34.236 Y17.295 Z-3.033 I12.289 J11.288 K0.000 F2000.000
G1 X35.457 Y18.515 Z-3.033 F2000.000
G2 X36.342 Y19.400 Z-3.033 I1.045 J-0.160 K0.000 F2000.000
G1 X42.244 Y25.302 Z-3.033 F2000.000
G2 X43.601 Y26.660 Z-3.033 I1.614 J-0.257 K0.000 F2000.000
G1 X47.042 Y30.100 Z-3.033 F2000.000
G1 X49.022 Y30.100 Z-3.033 F2000.000
G1 X45.622 Y26.700 Z-3.033 F2000.000
G1 X47.602 Y26.700 Z-3.033 F2000.000
G1 X51.002 Y30.100 Z-3.033 F2000.000
G1 X52.981 Y30.100 Z-3.033 F2000.000
G1 X49.468 Y26.587 Z-3.033 F2000.000
G2 X51.077 Y26.216 Z-3.033 I-0.924 J-7.697 K0.000 F2000.000
G1 X54.961 Y30.100 Z-3.033 F2000.000
G1 X56.300 Y30.100 Z-3.033 F2000.000
G1 X56.300 Y29.459 Z-3.033 F2000.000
G1 X52.391 Y25.549 Z-3.033 F2000.000
G2 X53.431 Y24.610 Z-3.033 I-2.630 J-3.959 K0.000 F2000.000
G1 X56.300 Y27.479 Z-3.033 F2000.000
G1 X56.300 Y25.499 Z-3.033 F2000.000
G1 X54.158 Y23.357 Z-3.033 F2000.000
G2 X54.531 Y21.750 Z-3.033 I-4.605 J-1.916 K0.000 F2000.000
G1 X56.300 Y23.519 Z-3.033 F2000.000
G1 X56.300 Y21.539 Z-3.033 F2000.000
G1 X54.425 Y19.664 Z-3.033 F2000.000
G0 Z5.000
G0 Z5.000
(Finish operation: Pocket_Shape)
(Begin operation: Profile)
(Path: Profile)
(Profile)
(Compensated Tool Path. Diameter: 1.4)
G0 Z5.000
G0 X18.152 Y22.666
G0 Z3.000
G1 X18.152 Y22.666 Z-0.700 F2000.000
G2 X19.305 Y20.763 Z-0.700 I-3.487 J-3.414 K0.000 F2000.000
G2 X19.279 Y15.312 Z-0.700 I-9.083 J-2.682 K0.000 F2000.000
G2 X16.281 Y12.197 Z-0.700 I-4.434 J1.268 K0.000 F2000.000
G2 X14.786 Y11.941 Z-0.700 I-1.738 J5.644 K0.000 F2000.000
G2 X12.275 Y11.888 Z-0.700 I-1.646 J18.432 K0.000 F2000.000
G2 X11.593 Y12.587 Z-0.700 I0.017 J0.700 K0.000 F2000.000
G1 X11.593 Y23.465 Z-0.700 F2000.000
G2 X12.282 Y24.165 Z-0.700 I0.700 J0.000 K0.000 F2000.000
G2 X15.160 Y24.107 Z-0.700 I0.795 J-31.796 K0.000 F2000.000
G2 X18.152 Y22.666 Z-0.700 I-0.495 J-4.855 K0.000 F2000.000
G1 X18.152 Y22.666 Z-1.400 F2000.000
G2 X19.305 Y20.763 Z-1.400 I-3.487 J-3.414 K0.000 F2000.000
G2 X19.279 Y15.312 Z-1.400 I-9.083 J-2.682 K0.000 F2000.000
G2 X16.281 Y12.197 Z-1.400 I-4.434 J1.268 K0.000 F2000.000
G2 X14.786 Y11.941 Z-1.400 I-1.738 J5.644 K0.000 F2000.000
G2 X12.275 Y11.888 Z-1.400 I-1.646 J18.432 K0.000 F2000.000
G2 X11.593 Y12.587 Z-1.400 I0.017 J0.700 K0.000 F2000.000
G1 X11.593 Y23.465 Z-1.400 F2000.000
G2 X12.282 Y24.165 Z-1.400 I0.700 J0.000 K0.000 F2000.000
G2 X15.160 Y24.107 Z-1.400 I0.795 J-31.796 K0.000 F2000.000
G2 X18.152 Y22.666 Z-1.400 I-0.495 J-4.855 K0.000 F2000.000
G1 X18.152 Y22.666 Z-2.100 F2000.000
G2 X19.305 Y20.763 Z-2.100 I-3.487 J-3.414 K0.000 F2000.000
G2 X19.279 Y15.312 Z-2.100 I-9.083 J-2.682 K0.000 F2000.000
G2 X16.281 Y12.197 Z-2.100 I-4.434 J1.268 K0.000 F2000.000
G2 X14.786 Y11.941 Z-2.100 I-1.738 J5.644 K0.000 F2000.000
G2 X12.275 Y11.888 Z-2.100 I-1.646 J18.432 K0.000 F2000.000
G2 X11.593 Y12.587 Z-2.100 I0.017 J0.700 K0.000 F2000.000
G1 X11.593 Y23.465 Z-2.100 F2000.000
G2 X12.282 Y24.165 Z-2.100 I0.700 J0.000 K0.000 F2000.000
G2 X15.160 Y24.107 Z-2.100 I0.795 J-31.796 K0.000 F2000.000
G2 X18.152 Y22.666 Z-2.100 I-0.495 J-4.855 K0.000 F2000.000
G1 X18.152 Y22.666 Z-2.800 F2000.000
G2 X19.305 Y20.763 Z-2.800 I-3.487 J-3.414 K0.000 F2000.000
G2 X19.279 Y15.312 Z-2.800 I-9.083 J-2.682 K0.000 F2000.000
G2 X16.281 Y12.197 Z-2.800 I-4.434 J1.268 K0.000 F2000.000
G2 X14.786 Y11.941 Z-2.800 I-1.738 J5.644 K0.000 F2000.000
G2 X12.275 Y11.888 Z-2.800 I-1.646 J18.432 K0.000 F2000.000
G2 X11.593 Y12.587 Z-2.800 I0.017 J0.700 K0.000 F2000.000
G1 X11.593 Y23.465 Z-2.800 F2000.000
G2 X12.282 Y24.165 Z-2.800 I0.700 J0.000 K0.000 F2000.000
G2 X15.160 Y24.107 Z-2.800 I0.795 J-31.796 K0.000 F2000.000
G2 X18.152 Y22.666 Z-2.800 I-0.495 J-4.855 K0.000 F2000.000
G1 X18.152 Y22.666 Z-3.033 F2000.000
G2 X19.305 Y20.763 Z-3.033 I-3.487 J-3.414 K0.000 F2000.000
G2 X19.279 Y15.312 Z-3.033 I-9.083 J-2.682 K0.000 F2000.000
G2 X16.281 Y12.197 Z-3.033 I-4.434 J1.268 K0.000 F2000.000
G2 X14.786 Y11.941 Z-3.033 I-1.738 J5.644 K0.000 F2000.000
G2 X12.275 Y11.888 Z-3.033 I-1.646 J18.432 K0.000 F2000.000
G2 X11.593 Y12.587 Z-3.033 I0.017 J0.700 K0.000 F2000.000
G1 X11.593 Y23.465 Z-3.033 F2000.000
G2 X12.282 Y24.165 Z-3.033 I0.700 J0.000 K0.000 F2000.000
G2 X15.160 Y24.107 Z-3.033 I0.795 J-31.796 K0.000 F2000.000
G2 X18.152 Y22.666 Z-3.033 I-0.495 J-4.855 K0.000 F2000.000
G0 Z5.000
G0 Z5.000
G0 X18.152 Y22.666
G0 X19.941 Y25.191
G0 X19.941 Y25.191 Z3.000
G1 X19.941 Y25.191 Z-0.700 F2000.000
G2 X22.737 Y20.970 Z-0.700 I-4.056 J-5.723 K0.000 F2000.000
G2 X22.682 Y15.049 Z-0.700 I-12.555 J-2.843 K0.000 F2000.000
G2 X18.442 Y10.038 Z-0.700 I-6.855 J1.501 K0.000 F2000.000
G2 X14.830 Y9.319 Z-0.700 I-4.238 J11.847 K0.000 F2000.000
G2 X10.015 Y9.300 Z-0.700 I-2.900 J127.960 K0.000 F2000.000
G2 X8.350 Y11.030 Z-0.700 I-0.067 J1.602 K0.000 F2000.000
G1 X8.350 Y24.969 Z-0.700 F2000.000
G2 X9.956 Y26.698 Z-0.700 I1.589 J0.134 K0.000 F2000.000
G1 X14.124 Y26.700 Z-0.700 F2000.000
G2 X17.935 Y26.176 Z-0.700 I0.277 J-12.104 K0.000 F2000.000
G2 X19.941 Y25.191 Z-0.700 I-2.050 J-6.708 K0.000 F2000.000
G1 X19.941 Y25.191 Z-1.400 F2000.000
G2 X22.737 Y20.970 Z-1.400 I-4.056 J-5.723 K0.000 F2000.000
G2 X22.682 Y15.049 Z-1.400 I-12.555 J-2.843 K0.000 F2000.000
G2 X18.442 Y10.038 Z-1.400 I-6.855 J1.501 K0.000 F2000.000
G2 X14.830 Y9.319 Z-1.400 I-4.238 J11.847 K0.000 F2000.000
G2 X10.015 Y9.300 Z-1.400 I-2.900 J127.960 K0.000 F2000.000
G2 X8.350 Y11.030 Z-1.400 I-0.067 J1.602 K0.000 F2000.000
G1 X8.350 Y24.969 Z-1.400 F2000.000
G2 X9.956 Y26.698 Z-1.400 I1.589 J0.134 K0.000 F2000.000
G1 X14.124 Y26.700 Z-1.400 F2000.000
G2 X17.935 Y26.176 Z-1.400 I0.277 J-12.104 K0.000 F2000.000
G2 X19.941 Y25.191 Z-1.400 I-2.050 J-6.708 K0.000 F2000.000
G1 X19.941 Y25.191 Z-2.100 F2000.000
G2 X22.737 Y20.970 Z-2.100 I-4.056 J-5.723 K0.000 F2000.000
G2 X22.682 Y15.049 Z-2.100 I-12.555 J-2.843 K0.000 F2000.000
G2 X18.442 Y10.038 Z-2.100 I-6.855 J1.501 K0.000 F2000.000
G2 X14.830 Y9.319 Z-2.100 I-4.238 J11.847 K0.000 F2000.000
G2 X10.015 Y9.300 Z-2.100 I-2.900 J127.960 K0.000 F2000.000
G2 X8.350 Y11.030 Z-2.100 I-0.067 J1.602 K0.000 F2000.000
G1 X8.350 Y24.969 Z-2.100 F2000.000
G2 X9.956 Y26.698 Z-2.100 I1.589 J0.134 K0.000 F2000.000
G1 X14.124 Y26.700 Z-2.100 F2000.000
G2 X17.935 Y26.176 Z-2.100 I0.277 J-12.104 K0.000 F2000.000
G2 X19.941 Y25.191 Z-2.100 I-2.050 J-6.708 K0.000 F2000.000
G1 X19.941 Y25.191 Z-2.800 F2000.000
G2 X22.737 Y20.970 Z-2.800 I-4.056 J-5.723 K0.000 F2000.000
G2 X22.682 Y15.049 Z-2.800 I-12.555 J-2.843 K0.000 F2000.000
G2 X18.442 Y10.038 Z-2.800 I-6.855 J1.501 K0.000 F2000.000
G2 X14.830 Y9.319 Z-2.800 I-4.238 J11.847 K0.000 F2000.000
G2 X10.015 Y9.300 Z-2.800 I-2.900 J127.960 K0.000 F2000.000
G2 X8.350 Y11.030 Z-2.800 I-0.067 J1.602 K0.000 F2000.000
G1 X8.350 Y24.969 Z-2.800 F2000.000
G2 X9.956 Y26.698 Z-2.800 I1.589 J0.134 K0.000 F2000.000
G1 X14.124 Y26.700 Z-2.800 F2000.000
G2 X17.935 Y26.176 Z-2.800 I0.277 J-12.104 K0.000 F2000.000
G2 X19.941 Y25.191 Z-2.800 I-2.050 J-6.708 K0.000 F2000.000
G1 X19.941 Y25.191 Z-3.033 F2000.000
G2 X22.737 Y20.970 Z-3.033 I-4.056 J-5.723 K0.000 F2000.000
G2 X22.682 Y15.049 Z-3.033 I-12.555 J-2.843 K0.000 F2000.000
G2 X18.442 Y10.038 Z-3.033 I-6.855 J1.501 K0.000 F2000.000
G2 X14.830 Y9.319 Z-3.033 I-4.238 J11.847 K0.000 F2000.000
G2 X10.015 Y9.300 Z-3.033 I-2.900 J127.960 K0.000 F2000.000
G2 X8.350 Y11.030 Z-3.033 I-0.067 J1.602 K0.000 F2000.000
G1 X8.350 Y24.969 Z-3.033 F2000.000
G2 X9.956 Y26.698 Z-3.033 I1.589 J0.134 K0.000 F2000.000
G1 X14.124 Y26.700 Z-3.033 F2000.000
G2 X17.935 Y26.176 Z-3.033 I0.277 J-12.104 K0.000 F2000.000
G2 X19.941 Y25.191 Z-3.033 I-2.050 J-6.708 K0.000 F2000.000
G0 Z5.000
G0 Z5.000
G0 X19.941 Y25.191
G0 X28.413 Y23.286
G0 X28.413 Y23.286 Z3.000
G1 X28.413 Y23.286 Z-0.700 F2000.000
G2 X29.363 Y24.656 Z-0.700 I2.165 J-0.487 K0.000 F2000.000
G2 X31.892 Y24.948 Z-0.700 I1.638 J-3.084 K0.000 F2000.000
G2 X33.509 Y23.465 Z-0.700 I-0.359 J-2.014 K0.000 F2000.000
G2 X32.893 Y21.245 Z-0.700 I-2.485 J-0.506 K0.000 F2000.000
G2 X30.660 Y19.694 Z-0.700 I-6.486 J6.961 K0.000 F2000.000
G2 X29.935 Y19.725 Z-0.700 I-0.337 J0.613 K0.000 F2000.000
G2 X28.498 Y22.024 Z-0.700 I5.153 J4.819 K0.000 F2000.000
G2 X28.413 Y23.286 Z-0.700 I2.080 J0.775 K0.000 F2000.000
G1 X28.413 Y23.286 Z-1.400 F2000.000
G2 X29.363 Y24.656 Z-1.400 I2.165 J-0.487 K0.000 F2000.000
G2 X31.892 Y24.948 Z-1.400 I1.638 J-3.084 K0.000 F2000.000
G2 X33.509 Y23.465 Z-1.400 I-0.359 J-2.014 K0.000 F2000.000
G2 X32.893 Y21.245 Z-1.400 I-2.485 J-0.506 K0.000 F2000.000
G2 X30.660 Y19.694 Z-1.400 I-6.486 J6.961 K0.000 F2000.000
G2 X29.935 Y19.725 Z-1.400 I-0.337 J0.613 K0.000 F2000.000
G2 X28.498 Y22.024 Z-1.400 I5.153 J4.819 K0.000 F2000.000
G2 X28.413 Y23.286 Z-1.400 I2.080 J0.775 K0.000 F2000.000
G1 X28.413 Y23.286 Z-2.100 F2000.000
G2 X29.363 Y24.656 Z-2.100 I2.165 J-0.487 K0.000 F2000.000
G2 X31.892 Y24.948 Z-2.100 I1.638 J-3.084 K0.000 F2000.000
G2 X33.509 Y23.465 Z-2.100 I-0.359 J-2.014 K0.000 F2000.000
G2 X32.893 Y21.245 Z-2.100 I-2.485 J-0.506 K0.000 F2000.000
G2 X30.660 Y19.694 Z-2.100 I-6.486 J6.961 K0.000 F2000.000
G2 X29.935 Y19.725 Z-2.100 I-0.337 J0.613 K0.000 F2000.000
G2 X28.498 Y22.024 Z-2.100 I5.153 J4.819 K0.000 F2000.000
G2 X28.413 Y23.286 Z-2.100 I2.080 J0.775 K0.000 F2000.000
G1 X28.413 Y23.286 Z-2.800 F2000.000
G2 X29.363 Y24.656 Z-2.800 I2.165 J-0.487 K0.000 F2000.000
G2 X31.892 Y24.948 Z-2.800 I1.638 J-3.084 K0.000 F2000.000
G2 X33.509 Y23.465 Z-2.800 I-0.359 J-2.014 K0.000 F2000.000
G2 X32.893 Y21.245 Z-2.800 I-2.485 J-0.506 K0.000 F2000.000
G2 X30.660 Y19.694 Z-2.800 I-6.486 J6.961 K0.000 F2000.000
G2 X29.935 Y19.725 Z-2.800 I-0.337 J0.613 K0.000 F2000.000
G2 X28.498 Y22.024 Z-2.800 I5.153 J4.819 K0.000 F2000.000
G2 X28.413 Y23.286 Z-2.800 I2.080 J0.775 K0.000 F2000.000
G1 X28.413 Y23.286 Z-3.033 F2000.000
G2 X29.363 Y24.656 Z-3.033 I2.165 J-0.487 K0.000 F2000.000
G2 X31.892 Y24.948 Z-3.033 I1.638 J-3.084 K0.000 F2000.000
G2 X33.509 Y23.465 Z-3.033 I-0.359 J-2.014 K0.000 F2000.000
G2 X32.893 Y21.245 Z-3.033 I-2.485 J-0.506 K0.000 F2000.000
G2 X30.660 Y19.694 Z-3.033 I-6.486 J6.961 K0.000 F2000.000
G2 X29.935 Y19.725 Z-3.033 I-0.337 J0.613 K0.000 F2000.000
G2 X28.498 Y22.024 Z-3.033 I5.153 J4.819 K0.000 F2000.000
G2 X28.413 Y23.286 Z-3.033 I2.080 J0.775 K0.000 F2000.000
G0 Z5.000
G0 Z5.000
G0 X28.413 Y23.286
G0 X29.153 Y17.717
G0 X29.153 Y17.717 Z3.000
G1 X29.153 Y17.717 Z-0.700 F2000.000
G2 X29.757 Y17.501 Z-0.700 I0.092 J-0.694 K0.000 F2000.000
G3 X33.806 Y13.655 Z-0.700 I26.411 J23.747 K0.000 F2000.000
G2 X33.901 Y12.682 Z-0.700 I-0.451 J-0.535 K0.000 F2000.000
G2 X32.011 Y11.714 Z-0.700 I-3.093 J3.710 K0.000 F2000.000
G2 X29.561 Y11.625 Z-0.700 I-1.407 J4.984 K0.000 F2000.000
G2 X27.172 Y15.677 Z-0.700 I0.472 J3.008 K0.000 F2000.000
G2 X28.859 Y17.607 Z-0.700 I3.671 J-1.507 K0.000 F2000.000
G2 X29.153 Y17.717 Z-0.700 I0.386 J-0.584 K0.000 F2000.000
G1 X29.153 Y17.717 Z-1.400 F2000.000
G2 X29.757 Y17.501 Z-1.400 I0.092 J-0.694 K0.000 F2000.000
G3 X33.806 Y13.655 Z-1.400 I26.411 J23.747 K0.000 F2000.000
G2 X33.901 Y12.682 Z-1.400 I-0.451 J-0.535 K0.000 F2000.000
G2 X32.011 Y11.714 Z-1.400 I-3.093 J3.710 K0.000 F2000.000
G2 X29.561 Y11.625 Z-1.400 I-1.407 J4.984 K0.000 F2000.000
G2 X27.172 Y15.677 Z-1.400 I0.472 J3.008 K0.000 F2000.000
G2 X28.859 Y17.607 Z-1.400 I3.671 J-1.507 K0.000 F2000.000
G2 X29.153 Y17.717 Z-1.400 I0.386 J-0.584 K0.000 F2000.000
G1 X29.153 Y17.717 Z-2.100 F2000.000
G2 X29.757 Y17.501 Z-2.100 I0.092 J-0.694 K0.000 F2000.000
G3 X33.806 Y13.655 Z-2.100 I26.411 J23.747 K0.000 F2000.000
G2 X33.901 Y12.682 Z-2.100 I-0.451 J-0.535 K0.000 F2000.000
G2 X32.011 Y11.714 Z-2.100 I-3.093 J3.710 K0.000 F2000.000
G2 X29.561 Y11.625 Z-2.100 I-1.407 J4.984 K0.000 F2000.000
G2 X27.172 Y15.677 Z-2.100 I0.472 J3.008 K0.000 F2000.000
G2 X28.859 Y17.607 Z-2.100 I3.671 J-1.507 K0.000 F2000.000
G2 X29.153 Y17.717 Z-2.100 I0.386 J-0.584 K0.000 F2000.000
G1 X29.153 Y17.717 Z-2.800 F2000.000
G2 X29.757 Y17.501 Z-2.800 I0.092 J-0.694 K0.000 F2000.000
G3 X33.806 Y13.655 Z-2.800 I26.411 J23.747 K0.000 F2000.000
G2 X33.901 Y12.682 Z-2.800 I-0.451 J-0.535 K0.000 F2000.000
G2 X32.011 Y11.714 Z-2.800 I-3.093 J3.710 K0.000 F2000.000
G2 X29.561 Y11.625 Z-2.800 I-1.407 J4.984 K0.000 F2000.000
G2 X27.172 Y15.677 Z-2.800 I0.472 J3.008 K0.000 F2000.000
G2 X28.859 Y17.607 Z-2.800 I3.671 J-1.507 K0.000 F2000.000
G2 X29.153 Y17.717 Z-2.800 I0.386 J-0.584 K0.000 F2000.000
G1 X29.153 Y17.717 Z-3.033 F2000.000
G2 X29.757 Y17.501 Z-3.033 I0.092 J-0.694 K0.000 F2000.000
G3 X33.806 Y13.655 Z-3.033 I26.411 J23.747 K0.000 F2000.000
G2 X33.901 Y12.682 Z-3.033 I-0.451 J-0.535 K0.000 F2000.000
G2 X32.011 Y11.714 Z-3.033 I-3.093 J3.710 K0.000 F2000.000
G2 X29.561 Y11.625 Z-3.033 I-1.407 J4.984 K0.000 F2000.000
G2 X27.172 Y15.677 Z-3.033 I0.472 J3.008 K0.000 F2000.000
G2 X28.859 Y17.607 Z-3.033 I3.671 J-1.507 K0.000 F2000.000
G2 X29.153 Y17.717 Z-3.033 I0.386 J-0.584 K0.000 F2000.000
G0 Z5.000
G0 Z5.000
G0 X29.153 Y17.717
G0 X26.523 Y19.107
G0 X26.523 Y19.107 Z3.000
G1 X26.523 Y19.107 Z-0.700 F2000.000
G2 X25.614 Y20.576 Z-0.700 I9.691 J7.008 K0.000 F2000.000
G2 X26.276 Y25.792 Z-0.700 I4.069 J2.134 K0.000 F2000.000
G2 X28.658 Y27.180 Z-0.700 I4.069 J-4.244 K0.000 F2000.000
G2 X31.764 Y27.484 Z-0.700 I2.510 J-9.652 K0.000 F2000.000
G2 X34.723 Y26.817 Z-0.700 I-0.171 J-7.660 K0.000 F2000.000
G2 X36.488 Y25.028 Z-0.700 I-1.557 J-3.301 K0.000 F2000.000
G2 X35.573 Y20.092 Z-0.700 I-4.089 J-1.794 K0.000 F2000.000
G2 X33.197 Y18.348 Z-0.700 I-8.605 J9.231 K0.000 F2000.000
G3 X35.171 Y16.411 Z-0.700 I26.964 J25.501 K0.000 F2000.000
G3 X35.439 Y18.308 Z-0.700 I-4.487 J1.601 K0.000 F2000.000
G2 X36.285 Y19.407 Z-0.700 I1.143 J-0.004 K0.000 F2000.000
G2 X38.845 Y19.415 Z-0.700 I1.302 J-7.481 K0.000 F2000.000
G2 X39.745 Y18.494 Z-0.700 I-0.196 J-1.091 K0.000 F2000.000
G2 X38.676 Y13.649 Z-0.700 I-8.720 J-0.617 K0.000 F2000.000
G1 X38.796 Y13.561 Z-0.700 F2000.000
G3 X39.746 Y13.022 Z-0.700 I1.683 J1.857 K0.000 F2000.000
G2 X40.922 Y11.968 Z-0.700 I0.118 J-1.051 K0.000 F2000.000
G2 X40.874 Y10.073 Z-0.700 I-7.507 J-0.759 K0.000 F2000.000
G2 X40.159 Y9.217 Z-0.700 I-1.211 J0.285 K0.000 F2000.000
G2 X37.987 Y9.235 Z-0.700 I-1.060 J3.060 K0.000 F2000.000
G2 X35.750 Y10.558 Z-0.700 I5.210 J11.367 K0.000 F2000.000
G2 X28.820 Y9.154 Z-0.700 I-5.343 J8.569 K0.000 F2000.000
G2 X25.522 Y10.443 Z-0.700 I0.829 J6.985 K0.000 F2000.000
G2 X24.072 Y16.509 Z-0.700 I3.141 J3.957 K0.000 F2000.000
G2 X26.523 Y19.107 Z-0.700 I5.871 J-3.083 K0.000 F2000.000
G1 X26.523 Y19.107 Z-1.400 F2000.000
G2 X25.614 Y20.576 Z-1.400 I9.691 J7.008 K0.000 F2000.000
G2 X26.276 Y25.792 Z-1.400 I4.069 J2.134 K0.000 F2000.000
G2 X28.658 Y27.180 Z-1.400 I4.069 J-4.244 K0.000 F2000.000
G2 X31.764 Y27.484 Z-1.400 I2.510 J-9.652 K0.000 F2000.000
G2 X34.723 Y26.817 Z-1.400 I-0.171 J-7.660 K0.000 F2000.000
G2 X36.488 Y25.028 Z-1.400 I-1.557 J-3.301 K0.000 F2000.000
G2 X35.573 Y20.092 Z-1.400 I-4.089 J-1.794 K0.000 F2000.000
G2 X33.197 Y18.348 Z-1.400 I-8.605 J9.231 K0.000 F2000.000
G3 X35.171 Y16.411 Z-1.400 I26.964 J25.501 K0.000 F2000.000
G3 X35.439 Y18.308 Z-1.400 I-4.487 J1.601 K0.000 F2000.000
G2 X36.285 Y19.407 Z-1.400 I1.143 J-0.004 K0.000 F2000.000
G2 X38.845 Y19.415 Z-1.400 I1.302 J-7.481 K0.000 F2000.000
G2 X39.745 Y18.494 Z-1.400 I-0.196 J-1.091 K0.000 F2000.000
G2 X38.676 Y13.649 Z-1.400 I-8.720 J-0.617 K0.000 F2000.000
G1 X38.796 Y13.561 Z-1.400 F2000.000
G3 X39.746 Y13.022 Z-1.400 I1.683 J1.857 K0.000 F2000.000
G2 X40.922 Y11.968 Z-1.400 I0.118 J-1.051 K0.000 F2000.000
G2 X40.874 Y10.073 Z-1.400 I-7.507 J-0.759 K0.000 F2000.000
G2 X40.159 Y9.217 Z-1.400 I-1.211 J0.285 K0.000 F2000.000
G2 X37.987 Y9.235 Z-1.400 I-1.060 J3.060 K0.000 F2000.000
G2 X35.750 Y10.558 Z-1.400 I5.210 J11.367 K0.000 F2000.000
G2 X28.820 Y9.154 Z-1.400 I-5.343 J8.569 K0.000 F2000.000
G2 X25.522 Y10.443 Z-1.400 I0.829 J6.985 K0.000 F2000.000
G2 X24.072 Y16.509 Z-1.400 I3.141 J3.957 K0.000 F2000.000
G2 X26.523 Y19.107 Z-1.400 I5.871 J-3.083 K0.000 F2000.000
G1 X26.523 Y19.107 Z-2.100 F2000.000
G2 X25.614 Y20.576 Z-2.100 I9.691 J7.008 K0.000 F2000.000
G2 X26.276 Y25.792 Z-2.100 I4.069 J2.134 K0.000 F2000.000
G2 X28.658 Y27.180 Z-2.100 I4.069 J-4.244 K0.000 F2000.000
G2 X31.764 Y27.484 Z-2.100 I2.510 J-9.652 K0.000 F2000.000
G2 X34.723 Y26.817 Z-2.100 I-0.171 J-7.660 K0.000 F2000.000
G2 X36.488 Y25.028 Z-2.100 I-1.557 J-3.301 K0.000 F2000.000
G2 X35.573 Y20.092 Z-2.100 I-4.089 J-1.794 K0.000 F2000.000
G2 X33.197 Y18.348 Z-2.100 I-8.605 J9.231 K0.000 F2000.000
G3 X35.171 Y16.411 Z-2.100 I26.964 J25.501 K0.000 F2000.000
G3 X35.439 Y18.308 Z-2.100 I-4.487 J1.601 K0.000 F2000.000
G2 X36.285 Y19.407 Z-2.100 I1.143 J-0.004 K0.000 F2000.000
G2 X38.845 Y19.415 Z-2.100 I1.302 J-7.481 K0.000 F2000.000
G2 X39.745 Y18.494 Z-2.100 I-0.196 J-1.091 K0.000 F2000.000
G2 X38.676 Y13.649 Z-2.100 I-8.720 J-0.617 K0.000 F2000.000
G1 X38.796 Y13.561 Z-2.100 F2000.000
G3 X39.746 Y13.022 Z-2.100 I1.683 J1.857 K0.000 F2000.000
G2 X40.922 Y11.968 Z-2.100 I0.118 J-1.051 K0.000 F2000.000
G2 X40.874 Y10.073 Z-2.100 I-7.507 J-0.759 K0.000 F2000.000
G2 X40.159 Y9.217 Z-2.100 I-1.211 J0.285 K0.000 F2000.000
G2 X37.987 Y9.235 Z-2.100 I-1.060 J3.060 K0.000 F2000.000
G2 X35.750 Y10.558 Z-2.100 I5.210 J11.367 K0.000 F2000.000
G2 X28.820 Y9.154 Z-2.100 I-5.343 J8.569 K0.000 F2000.000
G2 X25.522 Y10.443 Z-2.100 I0.829 J6.985 K0.000 F2000.000
G2 X24.072 Y16.509 Z-2.100 I3.141 J3.957 K0.000 F2000.000
G2 X26.523 Y19.107 Z-2.100 I5.871 J-3.083 K0.000 F2000.000
G1 X26.523 Y19.107 Z-2.800 F2000.000
G2 X25.614 Y20.576 Z-2.800 I9.691 J7.008 K0.000 F2000.000
G2 X26.276 Y25.792 Z-2.800 I4.069 J2.134 K0.000 F2000.000
G2 X28.658 Y27.180 Z-2.800 I4.069 J-4.244 K0.000 F2000.000
G2 X31.764 Y27.484 Z-2.800 I2.510 J-9.652 K0.000 F2000.000
G2 X34.723 Y26.817 Z-2.800 I-0.171 J-7.660 K0.000 F2000.000
G2 X36.488 Y25.028 Z-2.800 I-1.557 J-3.301 K0.000 F2000.000
G2 X35.573 Y20.092 Z-2.800 I-4.089 J-1.794 K0.000 F2000.000
G2 X33.197 Y18.348 Z-2.800 I-8.605 J9.231 K0.000 F2000.000
G3 X35.171 Y16.411 Z-2.800 I26.964 J25.501 K0.000 F2000.000
G3 X35.439 Y18.308 Z-2.800 I-4.487 J1.601 K0.000 F2000.000
G2 X36.285 Y19.407 Z-2.800 I1.143 J-0.004 K0.000 F2000.000
G2 X38.845 Y19.415 Z-2.800 I1.302 J-7.481 K0.000 F2000.000
G2 X39.745 Y18.494 Z-2.800 I-0.196 J-1.091 K0.000 F2000.000
G2 X38.676 Y13.649 Z-2.800 I-8.720 J-0.617 K0.000 F2000.000
G1 X38.796 Y13.561 Z-2.800 F2000.000
G3 X39.746 Y13.022 Z-2.800 I1.683 J1.857 K0.000 F2000.000
G2 X40.922 Y11.968 Z-2.800 I0.118 J-1.051 K0.000 F2000.000
G2 X40.874 Y10.073 Z-2.800 I-7.507 J-0.759 K0.000 F2000.000
G2 X40.159 Y9.217 Z-2.800 I-1.211 J0.285 K0.000 F2000.000
G2 X37.987 Y9.235 Z-2.800 I-1.060 J3.060 K0.000 F2000.000
G2 X35.750 Y10.558 Z-2.800 I5.210 J11.367 K0.000 F2000.000
G2 X28.820 Y9.154 Z-2.800 I-5.343 J8.569 K0.000 F2000.000
G2 X25.522 Y10.443 Z-2.800 I0.829 J6.985 K0.000 F2000.000
G2 X24.072 Y16.509 Z-2.800 I3.141 J3.957 K0.000 F2000.000
G2 X26.523 Y19.107 Z-2.800 I5.871 J-3.083 K0.000 F2000.000
G1 X26.523 Y19.107 Z-3.033 F2000.000
G2 X25.614 Y20.576 Z-3.033 I9.691 J7.008 K0.000 F2000.000
G2 X26.276 Y25.792 Z-3.033 I4.069 J2.134 K0.000 F2000.000
G2 X28.658 Y27.180 Z-3.033 I4.069 J-4.244 K0.000 F2000.000
G2 X31.764 Y27.484 Z-3.033 I2.510 J-9.652 K0.000 F2000.000
G2 X34.723 Y26.817 Z-3.033 I-0.171 J-7.660 K0.000 F2000.000
G2 X36.488 Y25.028 Z-3.033 I-1.557 J-3.301 K0.000 F2000.000
G2 X35.573 Y20.092 Z-3.033 I-4.089 J-1.794 K0.000 F2000.000
G2 X33.197 Y18.348 Z-3.033 I-8.605 J9.231 K0.000 F2000.000
G3 X35.171 Y16.411 Z-3.033 I26.964 J25.501 K0.000 F2000.000
G3 X35.439 Y18.308 Z-3.033 I-4.487 J1.601 K0.000 F2000.000
G2 X36.285 Y19.407 Z-3.033 I1.143 J-0.004 K0.000 F2000.000
G2 X38.845 Y19.415 Z-3.033 I1.302 J-7.481 K0.000 F2000.000
G2 X39.745 Y18.494 Z-3.033 I-0.196 J-1.091 K0.000 F2000.000
G2 X38.676 Y13.649 Z-3.033 I-8.720 J-0.617 K0.000 F2000.000
G1 X38.796 Y13.561 Z-3.033 F2000.000
G3 X39.746 Y13.022 Z-3.033 I1.683 J1.857 K0.000 F2000.000
G2 X40.922 Y11.968 Z-3.033 I0.118 J-1.051 K0.000 F2000.000
G2 X40.874 Y10.073 Z-3.033 I-7.507 J-0.759 K0.000 F2000.000
G2 X40.159 Y9.217 Z-3.033 I-1.211 J0.285 K0.000 F2000.000
G2 X37.987 Y9.235 Z-3.033 I-1.060 J3.060 K0.000 F2000.000
G2 X35.750 Y10.558 Z-3.033 I5.210 J11.367 K0.000 F2000.000
G2 X28.820 Y9.154 Z-3.033 I-5.343 J8.569 K0.000 F2000.000
G2 X25.522 Y10.443 Z-3.033 I0.829 J6.985 K0.000 F2000.000
G2 X24.072 Y16.509 Z-3.033 I3.141 J3.957 K0.000 F2000.000
G2 X26.523 Y19.107 Z-3.033 I5.871 J-3.083 K0.000 F2000.000
G0 Z5.000
G0 Z5.000
G0 X26.523 Y19.107
G0 X45.453
G0 X45.453 Z3.000
G1 X45.453 Y19.107 Z-0.700 F2000.000
G1 X45.453 Y23.465 Z-0.700 F2000.000
G2 X46.142 Y24.165 Z-0.700 I0.700 J0.000 K0.000 F2000.000
G2 X47.096 Y24.173 Z-0.700 I0.705 J-28.557 K0.000 F2000.000
G2 X48.975 Y24.021 Z-0.700 I0.267 J-8.410 K0.000 F2000.000
G2 X50.835 Y22.496 Z-0.700 I-0.671 J-2.713 K0.000 F2000.000
G2 X50.351 Y18.467 Z-0.700 I-3.658 J-1.604 K0.000 F2000.000
G2 X47.748 Y17.385 Z-0.700 I-2.448 J2.216 K0.000 F2000.000
G2 X46.134 Y17.379 Z-0.700 I-0.864 J17.952 K0.000 F2000.000
G2 X45.453 Y18.079 Z-0.700 I0.019 J0.700 K0.000 F2000.000
G1 X45.453 Y19.107 Z-0.700 F2000.000
G1 X45.453 Y19.107 Z-1.400 F2000.000
G1 X45.453 Y23.465 Z-1.400 F2000.000
G2 X46.142 Y24.165 Z-1.400 I0.700 J0.000 K0.000 F2000.000
G2 X47.096 Y24.173 Z-1.400 I0.705 J-28.557 K0.000 F2000.000
G2 X48.975 Y24.021 Z-1.400 I0.267 J-8.410 K0.000 F2000.000
G2 X50.835 Y22.496 Z-1.400 I-0.671 J-2.713 K0.000 F2000.000
G2 X50.351 Y18.467 Z-1.400 I-3.658 J-1.604 K0.000 F2000.000
G2 X47.748 Y17.385 Z-1.400 I-2.448 J2.216 K0.000 F2000.000
G2 X46.134 Y17.379 Z-1.400 I-0.864 J17.952 K0.000 F2000.000
G2 X45.453 Y18.079 Z-1.400 I0.019 J0.700 K0.000 F2000.000
G1 X45.453 Y19.107 Z-1.400 F2000.000
G1 X45.453 Y19.107 Z-2.100 F2000.000
G1 X45.453 Y23.465 Z-2.100 F2000.000
G2 X46.142 Y24.165 Z-2.100 I0.700 J0.000 K0.000 F2000.000
G2 X47.096 Y24.173 Z-2.100 I0.705 J-28.557 K0.000 F2000.000
G2 X48.975 Y24.021 Z-2.100 I0.267 J-8.410 K0.000 F2000.000
G2 X50.835 Y22.496 Z-2.100 I-0.671 J-2.713 K0.000 F2000.000
G2 X50.351 Y18.467 Z-2.100 I-3.658 J-1.604 K0.000 F2000.000
G2 X47.748 Y17.385 Z-2.100 I-2.448 J2.216 K0.000 F2000.000
G2 X46.134 Y17.379 Z-2.100 I-0.864 J17.952 K0.000 F2000.000
G2 X45.453 Y18.079 Z-2.100 I0.019 J0.700 K0.000 F2000.000
G1 X45.453 Y19.107 Z-2.100 F2000.000
G1 X45.453 Y19.107 Z-2.800 F2000.000
G1 X45.453 Y23.465 Z-2.800 F2000.000
G2 X46.142 Y24.165 Z-2.800 I0.700 J0.000 K0.000 F2000.000
G2 X47.096 Y24.173 Z-2.800 I0.705 J-28.557 K0.000 F2000.000
G2 X48.975 Y24.021 Z-2.800 I0.267 J-8.410 K0.000 F2000.000
G2 X50.835 Y22.496 Z-2.800 I-0.671 J-2.713 K0.000 F2000.000
G2 X50.351 Y18.467 Z-2.800 I-3.658 J-1.604 K0.000 F2000.000
G2 X47.748 Y17.385 Z-2.800 I-2.448 J2.216 K0.000 F2000.000
G2 X46.134 Y17.379 Z-2.800 I-0.864 J17.952 K0.000 F2000.000
G2 X45.453 Y18.079 Z-2.800 I0.019 J0.700 K0.000 F2000.000
G1 X45.453 Y19.107 Z-2.800 F2000.000
G1 X45.453 Y19.107 Z-3.033 F2000.000
G1 X45.453 Y23.465 Z-3.033 F2000.000
G2 X46.142 Y24.165 Z-3.033 I0.700 J0.000 K0.000 F2000.000
G2 X47.096 Y24.173 Z-3.033 I0.705 J-28.557 K0.000 F2000.000
G2 X48.975 Y24.021 Z-3.033 I0.267 J-8.410 K0.000 F2000.000
G2 X50.835 Y22.496 Z-3.033 I-0.671 J-2.713 K0.000 F2000.000
G2 X50.351 Y18.467 Z-3.033 I-3.658 J-1.604 K0.000 F2000.000
G2 X47.748 Y17.385 Z-3.033 I-2.448 J2.216 K0.000 F2000.000
G2 X46.134 Y17.379 Z-3.033 I-0.864 J17.952 K0.000 F2000.000
G2 X45.453 Y18.079 Z-3.033 I0.019 J0.700 K0.000 F2000.000
G1 X45.453 Y19.107 Z-3.033 F2000.000
G0 Z5.000
G0 Z5.000
G0 X45.453 Y19.107
G0 X42.198
G0 X42.198 Z3.000
G1 X42.198 Y19.107 Z-0.700 F2000.000
G1 X42.198 Y24.839 Z-0.700 F2000.000
G2 X43.956 Y26.699 Z-0.700 I1.724 J0.131 K0.000 F2000.000
G1 X47.774 Y26.700 Z-0.700 F2000.000
G2 X50.825 Y26.301 Z-0.700 I0.150 J-10.707 K0.000 F2000.000
G2 X54.260 Y23.085 Z-0.700 I-1.355 J-4.889 K0.000 F2000.000
G2 X54.474 Y19.837 Z-0.700 I-6.333 J-2.050 K0.000 F2000.000
G2 X51.057 Y15.460 Z-0.700 I-5.556 J0.815 K0.000 F2000.000
G2 X46.853 Y14.845 Z-0.700 I-3.573 J9.750 K0.000 F2000.000
G1 X46.853 Y10.464 Z-0.700 F2000.000
G2 X45.916 Y9.391 Z-0.700 I-1.122 J0.034 K0.000 F2000.000
G2 X43.123 Y9.391 Z-0.700 I-1.397 J6.745 K0.000 F2000.000
G2 X42.198 Y10.466 Z-0.700 I0.185 J1.095 K0.000 F2000.000
G1 X42.198 Y19.107 Z-0.700 F2000.000
G0 Z5.000
G0 X39.732 Y18.562 Z5.000
G0 X39.732 Y18.562 Z3.000
G1 X39.732 Y18.562 Z-0.700 F2000.000
G2 X39.745 Y18.494 Z-0.700 I-1.083 J-0.239 K0.000 F2000.000
G2 X38.676 Y13.649 Z-0.700 I-8.720 J-0.617 K0.000 F2000.000
G1 X38.796 Y13.561 Z-0.700 F2000.000
G3 X39.746 Y13.022 Z-0.700 I1.683 J1.857 K0.000 F2000.000
G2 X40.846 Y12.369 Z-0.700 I0.111 J-1.066 K0.000 F2000.000
G2 X40.874 Y10.073 Z-0.700 I-6.231 J-1.224 K0.000 F2000.000
G2 X40.159 Y9.217 Z-0.700 I-1.211 J0.285 K0.000 F2000.000
G2 X37.987 Y9.235 Z-0.700 I-1.060 J3.060 K0.000 F2000.000
G2 X35.750 Y10.558 Z-0.700 I5.210 J11.367 K0.000 F2000.000
G2 X32.252 Y9.199 Z-0.700 I-5.243 J8.319 K0.000 F2000.000
G2 X28.820 Y9.154 Z-0.700 I-1.850 J10.004 K0.000 F2000.000
G2 X25.522 Y10.443 Z-0.700 I0.829 J6.985 K0.000 F2000.000
G2 X24.072 Y16.509 Z-0.700 I3.141 J3.957 K0.000 F2000.000
G2 X26.523 Y19.107 Z-0.700 I5.871 J-3.083 K0.000 F2000.000
G2 X25.614 Y20.576 Z-0.700 I9.691 J7.008 K0.000 F2000.000
G2 X26.276 Y25.792 Z-0.700 I4.069 J2.134 K0.000 F2000.000
G2 X28.658 Y27.180 Z-0.700 I4.069 J-4.244 K0.000 F2000.000
G2 X31.764 Y27.484 Z-0.700 I2.510 J-9.652 K0.000 F2000.000
G2 X34.723 Y26.817 Z-0.700 I-0.171 J-7.660 K0.000 F2000.000
G2 X36.488 Y25.028 Z-0.700 I-1.557 J-3.301 K0.000 F2000.000
G2 X35.573 Y20.092 Z-0.700 I-4.089 J-1.794 K0.000 F2000.000
G2 X33.197 Y18.348 Z-0.700 I-8.605 J9.231 K0.000 F2000.000
G3 X35.171 Y16.411 Z-0.700 I26.964 J25.501 K0.000 F2000.000
G3 X35.439 Y18.308 Z-0.700 I-4.487 J1.601 K0.000 F2000.000
G2 X36.285 Y19.407 Z-0.700 I1.143 J-0.004 K0.000 F2000.000
G2 X38.845 Y19.415 Z-0.700 I1.302 J-7.481 K0.000 F2000.000
G2 X39.732 Y18.562 Z-0.700 I-0.196 J-1.091 K0.000 F2000.000
G1 X39.732 Y18.562 Z-1.400 F2000.000
G2 X39.745 Y18.494 Z-1.400 I-1.083 J-0.239 K0.000 F2000.000
G2 X38.676 Y13.649 Z-1.400 I-8.720 J-0.617 K0.000 F2000.000
G1 X38.796 Y13.561 Z-1.400 F2000.000
G3 X39.746 Y13.022 Z-1.400 I1.683 J1.857 K0.000 F2000.000
G2 X40.846 Y12.369 Z-1.400 I0.111 J-1.066 K0.000 F2000.000
G2 X40.874 Y10.073 Z-1.400 I-6.231 J-1.224 K0.000 F2000.000
G2 X40.159 Y9.217 Z-1.400 I-1.211 J0.285 K0.000 F2000.000
G2 X37.987 Y9.235 Z-1.400 I-1.060 J3.060 K0.000 F2000.000
G2 X35.750 Y10.558 Z-1.400 I5.210 J11.367 K0.000 F2000.000
G2 X32.252 Y9.199 Z-1.400 I-5.243 J8.319 K0.000 F2000.000
G2 X28.820 Y9.154 Z-1.400 I-1.850 J10.004 K0.000 F2000.000
G2 X25.522 Y10.443 Z-1.400 I0.829 J6.985 K0.000 F2000.000
G2 X24.072 Y16.509 Z-1.400 I3.141 J3.957 K0.000 F2000.000
G2 X26.523 Y19.107 Z-1.400 I5.871 J-3.083 K0.000 F2000.000
G2 X25.614 Y20.576 Z-1.400 I9.691 J7.008 K0.000 F2000.000
G2 X26.276 Y25.792 Z-1.400 I4.069 J2.134 K0.000 F2000.000
G2 X28.658 Y27.180 Z-1.400 I4.069 J-4.244 K0.000 F2000.000
G2 X31.764 Y27.484 Z-1.400 I2.510 J-9.652 K0.000 F2000.000
G2 X34.723 Y26.817 Z-1.400 I-0.171 J-7.660 K0.000 F2000.000
G2 X36.488 Y25.028 Z-1.400 I-1.557 J-3.301 K0.000 F2000.000
G2 X35.573 Y20.092 Z-1.400 I-4.089 J-1.794 K0.000 F2000.000
G2 X33.197 Y18.348 Z-1.400 I-8.605 J9.231 K0.000 F2000.000
G3 X35.171 Y16.411 Z-1.400 I26.964 J25.501 K0.000 F2000.000
G3 X35.439 Y18.308 Z-1.400 I-4.487 J1.601 K0.000 F2000.000
G2 X36.285 Y19.407 Z-1.400 I1.143 J-0.004 K0.000 F2000.000
G2 X38.845 Y19.415 Z-1.400 I1.302 J-7.481 K0.000 F2000.000
G2 X39.732 Y18.562 Z-1.400 I-0.196 J-1.091 K0.000 F2000.000
G0 Z5.000
G0 X42.198 Z5.000
G0 X42.198 Z3.000
G1 X42.198 Y18.562 Z-1.400 F2000.000
G1 X42.198 Y24.839 Z-1.400 F2000.000
G2 X43.956 Y26.699 Z-1.400 I1.724 J0.131 K0.000 F2000.000
G1 X47.774 Y26.700 Z-1.400 F2000.000
G2 X50.825 Y26.301 Z-1.400 I0.150 J-10.707 K0.000 F2000.000
G2 X54.260 Y23.085 Z-1.400 I-1.355 J-4.889 K0.000 F2000.000
G2 X54.474 Y19.837 Z-1.400 I-6.333 J-2.050 K0.000 F2000.000
G2 X51.057 Y15.460 Z-1.400 I-5.556 J0.815 K0.000 F2000.000
G2 X46.853 Y14.845 Z-1.400 I-3.573 J9.750 K0.000 F2000.000
G1 X46.853 Y10.464 Z-1.400 F2000.000
G2 X45.916 Y9.391 Z-1.400 I-1.122 J0.034 K0.000 F2000.000
G2 X43.123 Y9.391 Z-1.400 I-1.397 J6.745 K0.000 F2000.000
G2 X42.198 Y10.466 Z-1.400 I0.185 J1.095 K0.000 F2000.000
G1 X42.198 Y18.562 Z-1.400 F2000.000
G1 X42.198 Y18.562 Z-2.100 F2000.000
G1 X42.198 Y24.839 Z-2.100 F2000.000
G2 X43.956 Y26.699 Z-2.100 I1.724 J0.131 K0.000 F2000.000
G1 X47.774 Y26.700 Z-2.100 F2000.000
G2 X50.825 Y26.301 Z-2.100 I0.150 J-10.707 K0.000 F2000.000
G2 X54.260 Y23.085 Z-2.100 I-1.355 J-4.889 K0.000 F2000.000
G2 X54.474 Y19.837 Z-2.100 I-6.333 J-2.050 K0.000 F2000.000
G2 X51.057 Y15.460 Z-2.100 I-5.556 J0.815 K0.000 F2000.000
G2 X46.853 Y14.845 Z-2.100 I-3.573 J9.750 K0.000 F2000.000
G1 X46.853 Y10.464 Z-2.100 F2000.000
G2 X45.916 Y9.391 Z-2.100 I-1.122 J0.034 K0.000 F2000.000
G2 X43.123 Y9.391 Z-2.100 I-1.397 J6.745 K0.000 F2000.000
G2 X42.198 Y10.466 Z-2.100 I0.185 J1.095 K0.000 F2000.000
G1 X42.198 Y18.562 Z-2.100 F2000.000
G0 Z5.000
G0 X39.750 Y18.412 Z5.000
G0 X39.750 Y18.412 Z3.000
G1 X39.750 Y18.412 Z-2.100 F2000.000
G2 X38.676 Y13.649 Z-2.100 I-8.725 J-0.535 K0.000 F2000.000
G1 X38.796 Y13.561 Z-2.100 F2000.000
G3 X39.746 Y13.022 Z-2.100 I1.683 J1.857 K0.000 F2000.000
G2 X40.846 Y12.369 Z-2.100 I0.111 J-1.066 K0.000 F2000.000
G2 X40.874 Y10.073 Z-2.100 I-6.231 J-1.224 K0.000 F2000.000
G2 X40.159 Y9.217 Z-2.100 I-1.211 J0.285 K0.000 F2000.000
G2 X37.987 Y9.235 Z-2.100 I-1.060 J3.060 K0.000 F2000.000
G2 X35.750 Y10.558 Z-2.100 I5.210 J11.367 K0.000 F2000.000
G2 X32.252 Y9.199 Z-2.100 I-5.243 J8.319 K0.000 F2000.000
G2 X28.820 Y9.154 Z-2.100 I-1.850 J10.004 K0.000 F2000.000
G2 X25.522 Y10.443 Z-2.100 I0.829 J6.985 K0.000 F2000.000
G2 X24.072 Y16.509 Z-2.100 I3.141 J3.957 K0.000 F2000.000
G2 X26.523 Y19.107 Z-2.100 I5.871 J-3.083 K0.000 F2000.000
G2 X25.614 Y20.576 Z-2.100 I9.691 J7.008 K0.000 F2000.000
G2 X26.276 Y25.792 Z-2.100 I4.069 J2.134 K0.000 F2000.000
G2 X28.658 Y27.180 Z-2.100 I4.069 J-4.244 K0.000 F2000.000
G2 X31.764 Y27.484 Z-2.100 I2.510 J-9.652 K0.000 F2000.000
G2 X34.723 Y26.817 Z-2.100 I-0.171 J-7.660 K0.000 F2000.000
G2 X36.488 Y25.028 Z-2.100 I-1.557 J-3.301 K0.000 F2000.000
G2 X35.573 Y20.092 Z-2.100 I-4.089 J-1.794 K0.000 F2000.000
G2 X33.197 Y18.348 Z-2.100 I-8.605 J9.231 K0.000 F2000.000
G3 X35.171 Y16.411 Z-2.100 I26.964 J25.501 K0.000 F2000.000
G3 X35.439 Y18.308 Z-2.100 I-4.487 J1.601 K0.000 F2000.000
G2 X36.285 Y19.407 Z-2.100 I1.143 J-0.004 K0.000 F2000.000
G2 X38.845 Y19.415 Z-2.100 I1.302 J-7.481 K0.000 F2000.000
G2 X39.745 Y18.494 Z-2.100 I-0.196 J-1.091 K0.000 F2000.000
G2 X39.750 Y18.412 Z-2.100 I-8.720 J-0.617 K0.000 F2000.000
G1 X39.750 Y18.412 Z-2.800 F2000.000
G2 X38.676 Y13.649 Z-2.800 I-8.725 J-0.535 K0.000 F2000.000
G1 X38.796 Y13.561 Z-2.800 F2000.000
G3 X39.746 Y13.022 Z-2.800 I1.683 J1.857 K0.000 F2000.000
G2 X40.846 Y12.369 Z-2.800 I0.111 J-1.066 K0.000 F2000.000
G2 X40.874 Y10.073 Z-2.800 I-6.231 J-1.224 K0.000 F2000.000
G2 X40.159 Y9.217 Z-2.800 I-1.211 J0.285 K0.000 F2000.000
G2 X37.987 Y9.235 Z-2.800 I-1.060 J3.060 K0.000 F2000.000
G2 X35.750 Y10.558 Z-2.800 I5.210 J11.367 K0.000 F2000.000
G2 X32.252 Y9.199 Z-2.800 I-5.243 J8.319 K0.000 F2000.000
G2 X28.820 Y9.154 Z-2.800 I-1.850 J10.004 K0.000 F2000.000
G2 X25.522 Y10.443 Z-2.800 I0.829 J6.985 K0.000 F2000.000
G2 X24.072 Y16.509 Z-2.800 I3.141 J3.957 K0.000 F2000.000
G2 X26.523 Y19.107 Z-2.800 I5.871 J-3.083 K0.000 F2000.000
G2 X25.614 Y20.576 Z-2.800 I9.691 J7.008 K0.000 F2000.000
G2 X26.276 Y25.792 Z-2.800 I4.069 J2.134 K0.000 F2000.000
G2 X28.658 Y27.180 Z-2.800 I4.069 J-4.244 K0.000 F2000.000
G2 X31.764 Y27.484 Z-2.800 I2.510 J-9.652 K0.000 F2000.000
G2 X34.723 Y26.817 Z-2.800 I-0.171 J-7.660 K0.000 F2000.000
G2 X36.488 Y25.028 Z-2.800 I-1.557 J-3.301 K0.000 F2000.000
G2 X35.573 Y20.092 Z-2.800 I-4.089 J-1.794 K0.000 F2000.000
G2 X33.197 Y18.348 Z-2.800 I-8.605 J9.231 K0.000 F2000.000
G3 X35.171 Y16.411 Z-2.800 I26.964 J25.501 K0.000 F2000.000
G3 X35.439 Y18.308 Z-2.800 I-4.487 J1.601 K0.000 F2000.000
G2 X36.285 Y19.407 Z-2.800 I1.143 J-0.004 K0.000 F2000.000
G2 X38.845 Y19.415 Z-2.800 I1.302 J-7.481 K0.000 F2000.000
G2 X39.745 Y18.494 Z-2.800 I-0.196 J-1.091 K0.000 F2000.000
G2 X39.750 Y18.412 Z-2.800 I-8.720 J-0.617 K0.000 F2000.000
G0 Z5.000
G0 X42.198 Z5.000
G0 X42.198 Z3.000
G1 X42.198 Y18.412 Z-2.800 F2000.000
G1 X42.198 Y24.839 Z-2.800 F2000.000
G2 X43.956 Y26.699 Z-2.800 I1.724 J0.131 K0.000 F2000.000
G1 X47.774 Y26.700 Z-2.800 F2000.000
G2 X50.825 Y26.301 Z-2.800 I0.150 J-10.707 K0.000 F2000.000
G2 X54.260 Y23.085 Z-2.800 I-1.355 J-4.889 K0.000 F2000.000
G2 X54.474 Y19.837 Z-2.800 I-6.333 J-2.050 K0.000 F2000.000
G2 X51.057 Y15.460 Z-2.800 I-5.556 J0.815 K0.000 F2000.000
G2 X46.853 Y14.845 Z-2.800 I-3.573 J9.750 K0.000 F2000.000
G1 X46.853 Y10.464 Z-2.800 F2000.000
G2 X45.916 Y9.391 Z-2.800 I-1.122 J0.034 K0.000 F2000.000
G2 X43.123 Y9.391 Z-2.800 I-1.397 J6.745 K0.000 F2000.000
G2 X42.198 Y10.466 Z-2.800 I0.185 J1.095 K0.000 F2000.000
G1 X42.198 Y18.412 Z-2.800 F2000.000
G1 X42.198 Y18.412 Z-3.033 F2000.000
G1 X42.198 Y24.839 Z-3.033 F2000.000
G2 X43.956 Y26.699 Z-3.033 I1.724 J0.131 K0.000 F2000.000
G1 X47.774 Y26.700 Z-3.033 F2000.000
G2 X50.825 Y26.301 Z-3.033 I0.150 J-10.707 K0.000 F2000.000
G2 X54.260 Y23.085 Z-3.033 I-1.355 J-4.889 K0.000 F2000.000
G2 X54.474 Y19.837 Z-3.033 I-6.333 J-2.050 K0.000 F2000.000
G2 X51.057 Y15.460 Z-3.033 I-5.556 J0.815 K0.000 F2000.000
G2 X46.853 Y14.845 Z-3.033 I-3.573 J9.750 K0.000 F2000.000
G1 X46.853 Y10.464 Z-3.033 F2000.000
G2 X45.916 Y9.391 Z-3.033 I-1.122 J0.034 K0.000 F2000.000
G2 X43.123 Y9.391 Z-3.033 I-1.397 J6.745 K0.000 F2000.000
G2 X42.198 Y10.466 Z-3.033 I0.185 J1.095 K0.000 F2000.000
G1 X42.198 Y18.412 Z-3.033 F2000.000
G0 Z5.000
G0 X39.756 Y18.295 Z5.000
G0 X39.756 Y18.295 Z3.000
G1 X39.756 Y18.295 Z-3.033 F2000.000
G2 X38.676 Y13.649 Z-3.033 I-8.732 J-0.418 K0.000 F2000.000
G1 X38.796 Y13.561 Z-3.033 F2000.000
G3 X39.746 Y13.022 Z-3.033 I1.683 J1.857 K0.000 F2000.000
G2 X40.846 Y12.369 Z-3.033 I0.111 J-1.066 K0.000 F2000.000
G2 X40.874 Y10.073 Z-3.033 I-6.231 J-1.224 K0.000 F2000.000
G2 X40.159 Y9.217 Z-3.033 I-1.211 J0.285 K0.000 F2000.000
G2 X37.987 Y9.235 Z-3.033 I-1.060 J3.060 K0.000 F2000.000
G2 X35.750 Y10.558 Z-3.033 I5.210 J11.367 K0.000 F2000.000
G2 X32.252 Y9.199 Z-3.033 I-5.243 J8.319 K0.000 F2000.000
G2 X28.820 Y9.154 Z-3.033 I-1.850 J10.004 K0.000 F2000.000
G2 X25.522 Y10.443 Z-3.033 I0.829 J6.985 K0.000 F2000.000
G2 X24.072 Y16.509 Z-3.033 I3.141 J3.957 K0.000 F2000.000
G2 X26.523 Y19.107 Z-3.033 I5.871 J-3.083 K0.000 F2000.000
G2 X25.614 Y20.576 Z-3.033 I9.691 J7.008 K0.000 F2000.000
G2 X26.276 Y25.792 Z-3.033 I4.069 J2.134 K0.000 F2000.000
G2 X28.658 Y27.180 Z-3.033 I4.069 J-4.244 K0.000 F2000.000
G2 X31.764 Y27.484 Z-3.033 I2.510 J-9.652 K0.000 F2000.000
G2 X34.723 Y26.817 Z-3.033 I-0.171 J-7.660 K0.000 F2000.000
G2 X36.488 Y25.028 Z-3.033 I-1.557 J-3.301 K0.000 F2000.000
G2 X35.573 Y20.092 Z-3.033 I-4.089 J-1.794 K0.000 F2000.000
G2 X33.197 Y18.348 Z-3.033 I-8.605 J9.231 K0.000 F2000.000
G3 X35.171 Y16.411 Z-3.033 I26.964 J25.501 K0.000 F2000.000
G3 X35.439 Y18.308 Z-3.033 I-4.487 J1.601 K0.000 F2000.000
G2 X36.285 Y19.407 Z-3.033 I1.143 J-0.004 K0.000 F2000.000
G2 X38.845 Y19.415 Z-3.033 I1.302 J-7.481 K0.000 F2000.000
G2 X39.745 Y18.494 Z-3.033 I-0.196 J-1.091 K0.000 F2000.000
G2 X39.756 Y18.295 Z-3.033 I-8.720 J-0.617 K0.000 F2000.000
G0 Z5.000
G0 Z5.000
G0 X42.198 Y10.466
G0 Z3.000
G1 X42.198 Y10.466 Z-0.700 F2000.000
G1 X42.202 Y24.908 Z-0.700 F2000.000
G1 X42.238 Y25.276 Z-0.700 F2000.000
G1 X42.275 Y25.440 Z-0.700 F2000.000
G1 X42.372 Y25.716 Z-0.700 F2000.000
G1 X42.439 Y25.854 Z-0.700 F2000.000
G1 X42.584 Y26.068 Z-0.700 F2000.000
G1 X42.676 Y26.173 Z-0.700 F2000.000
G1 X42.790 Y26.276 Z-0.700 F2000.000
G1 X43.008 Y26.435 Z-0.700 F2000.000
G1 X43.174 Y26.524 Z-0.700 F2000.000
G1 X43.431 Y26.620 Z-0.700 F2000.000
G1 X43.558 Y26.654 Z-0.700 F2000.000
G1 X43.795 Y26.690 Z-0.700 F2000.000
G1 X44.000 Y26.700 Z-0.700 F2000.000
G1 X47.803 Y26.699 Z-0.700 F2000.000
G1 X48.948 Y26.650 Z-0.700 F2000.000
G1 X49.756 Y26.544 Z-0.700 F2000.000
G1 X50.267 Y26.448 Z-0.700 F2000.000
G1 X50.914 Y26.273 Z-0.700 F2000.000
G1 X51.544 Y26.023 Z-0.700 F2000.000
G1 X51.709 Y25.945 Z-0.700 F2000.000
G1 X51.904 Y25.845 Z-0.700 F2000.000
G1 X52.480 Y25.491 Z-0.700 F2000.000
G1 X52.968 Y25.099 Z-0.700 F2000.000
G1 X53.157 Y24.916 Z-0.700 F2000.000
G1 X53.354 Y24.701 Z-0.700 F2000.000
G1 X53.730 Y24.201 Z-0.700 F2000.000
G1 X54.028 Y23.674 Z-0.700 F2000.000
G1 X54.152 Y23.397 Z-0.700 F2000.000
G1 X54.266 Y23.087 Z-0.700 F2000.000
G1 X54.436 Y22.454 Z-0.700 F2000.000
G1 X54.534 Y21.789 Z-0.700 F2000.000
G1 X54.556 Y21.459 Z-0.700 F2000.000
G1 X54.563 Y21.104 Z-0.700 F2000.000
G1 X54.519 Y20.266 Z-0.700 F2000.000
G1 X54.399 Y19.499 Z-0.700 F2000.000
G1 X54.213 Y18.815 Z-0.700 F2000.000
G1 X54.075 Y18.448 Z-0.700 F2000.000
G1 X53.771 Y17.824 Z-0.700 F2000.000
G1 X53.405 Y17.262 Z-0.700 F2000.000
G1 X52.987 Y16.768 Z-0.700 F2000.000
G1 X52.648 Y16.446 Z-0.700 F2000.000
G1 X52.116 Y16.038 Z-0.700 F2000.000
G1 X51.524 Y15.688 Z-0.700 F2000.000
G1 X50.882 Y15.399 Z-0.700 F2000.000
G1 X50.420 Y15.239 Z-0.700 F2000.000
G1 X49.679 Y15.048 Z-0.700 F2000.000
G1 X48.862 Y14.919 Z-0.700 F2000.000
G1 X48.185 Y14.863 Z-0.700 F2000.000
G1 X47.490 Y14.845 Z-0.700 F2000.000
G1 X46.853 Y14.845 Z-0.700 F2000.000
G1 X46.853 Y10.464 Z-0.700 F2000.000
G0 Z5.000
G0 X42.198 Y10.466
G0 Z3.000
G1 X42.198 Y10.466 Z-1.400 F2000.000
G1 X42.202 Y24.908 Z-1.400 F2000.000
G1 X42.238 Y25.276 Z-1.400 F2000.000
G1 X42.275 Y25.440 Z-1.400 F2000.000
G1 X42.372 Y25.716 Z-1.400 F2000.000
G1 X42.439 Y25.854 Z-1.400 F2000.000
G1 X42.584 Y26.068 Z-1.400 F2000.000
G1 X42.676 Y26.173 Z-1.400 F2000.000
G1 X42.790 Y26.276 Z-1.400 F2000.000
G1 X43.008 Y26.435 Z-1.400 F2000.000
G1 X43.174 Y26.524 Z-1.400 F2000.000
G1 X43.431 Y26.620 Z-1.400 F2000.000
G1 X43.558 Y26.654 Z-1.400 F2000.000
G1 X43.795 Y26.690 Z-1.400 F2000.000
G1 X44.000 Y26.700 Z-1.400 F2000.000
G1 X47.803 Y26.699 Z-1.400 F2000.000
G1 X48.948 Y26.650 Z-1.400 F2000.000
G1 X49.756 Y26.544 Z-1.400 F2000.000
G1 X50.267 Y26.448 Z-1.400 F2000.000
G1 X50.914 Y26.273 Z-1.400 F2000.000
G1 X51.544 Y26.023 Z-1.400 F2000.000
G1 X51.709 Y25.945 Z-1.400 F2000.000
G1 X51.904 Y25.845 Z-1.400 F2000.000
G1 X52.480 Y25.491 Z-1.400 F2000.000
G1 X52.968 Y25.099 Z-1.400 F2000.000
G1 X53.157 Y24.916 Z-1.400 F2000.000
G1 X53.354 Y24.701 Z-1.400 F2000.000
G1 X53.730 Y24.201 Z-1.400 F2000.000
G1 X54.028 Y23.674 Z-1.400 F2000.000
G1 X54.152 Y23.397 Z-1.400 F2000.000
G1 X54.266 Y23.087 Z-1.400 F2000.000
G1 X54.436 Y22.454 Z-1.400 F2000.000
G1 X54.534 Y21.789 Z-1.400 F2000.000
G1 X54.556 Y21.459 Z-1.400 F2000.000
G1 X54.563 Y21.104 Z-1.400 F2000.000
G1 X54.519 Y20.266 Z-1.400 F2000.000
G1 X54.399 Y19.499 Z-1.400 F2000.000
G1 X54.213 Y18.815 Z-1.400 F2000.000
G1 X54.075 Y18.448 Z-1.400 F2000.000
G1 X53.771 Y17.824 Z-1.400 F2000.000
G1 X53.405 Y17.262 Z-1.400 F2000.000
G1 X52.987 Y16.768 Z-1.400 F2000.000
G1 X52.648 Y16.446 Z-1.400 F2000.000
G1 X52.116 Y16.038 Z-1.400 F2000.000
G1 X51.524 Y15.688 Z-1.400 F2000.000
G1 X50.882 Y15.399 Z-1.400 F2000.000
G1 X50.420 Y15.239 Z-1.400 F2000.000
G1 X49.679 Y15.048 Z-1.400 F2000.000
G1 X48.862 Y14.919 Z-1.400 F2000.000
G1 X48.185 Y14.863 Z-1.400 F2000.000
G1 X47.490 Y14.845 Z-1.400 F2000.000
G1 X46.853 Y14.845 Z-1.400 F2000.000
G1 X46.853 Y10.464 Z-1.400 F2000.000
G0 Z5.000
G0 X42.198 Y10.466
G0 Z3.000
G1 X42.198 Y10.466 Z-2.100 F2000.000
G1 X42.202 Y24.908 Z-2.100 F2000.000
G1 X42.238 Y25.276 Z-2.100 F2000.000
G1 X42.275 Y25.440 Z-2.100 F2000.000
G1 X42.372 Y25.716 Z-2.100 F2000.000
G1 X42.439 Y25.854 Z-2.100 F2000.000
G1 X42.584 Y26.068 Z-2.100 F2000.000
G1 X42.676 Y26.173 Z-2.100 F2000.000
G1 X42.790 Y26.276 Z-2.100 F2000.000
G1 X43.008 Y26.435 Z-2.100 F2000.000
G1 X43.174 Y26.524 Z-2.100 F2000.000
G1 X43.431 Y26.620 Z-2.100 F2000.000
G1 X43.558 Y26.654 Z-2.100 F2000.000
G1 X43.795 Y26.690 Z-2.100 F2000.000
G1 X44.000 Y26.700 Z-2.100 F2000.000
G1 X47.803 Y26.699 Z-2.100 F2000.000
G1 X48.948 Y26.650 Z-2.100 F2000.000
G1 X49.756 Y26.544 Z-2.100 F2000.000
G1 X50.267 Y26.448 Z-2.100 F2000.000
G1 X50.914 Y26.273 Z-2.100 F2000.000
G1 X51.544 Y26.023 Z-2.100 F2000.000
G1 X51.709 Y25.945 Z-2.100 F2000.000
G1 X51.904 Y25.845 Z-2.100 F2000.000
G1 X52.480 Y25.491 Z-2.100 F2000.000
G1 X52.968 Y25.099 Z-2.100 F2000.000
G1 X53.157 Y24.916 Z-2.100 F2000.000
G1 X53.354 Y24.701 Z-2.100 F2000.000
G1 X53.730 Y24.201 Z-2.100 F2000.000
G1 X54.028 Y23.674 Z-2.100 F2000.000
G1 X54.152 Y23.397 Z-2.100 F2000.000
G1 X54.266 Y23.087 Z-2.100 F2000.000
G1 X54.436 Y22.454 Z-2.100 F2000.000
G1 X54.534 Y21.789 Z-2.100 F2000.000
G1 X54.556 Y21.459 Z-2.100 F2000.000
G1 X54.563 Y21.104 Z-2.100 F2000.000
G1 X54.519 Y20.266 Z-2.100 F2000.000
G1 X54.399 Y19.499 Z-2.100 F2000.000
G1 X54.213 Y18.815 Z-2.100 F2000.000
G1 X54.075 Y18.448 Z-2.100 F2000.000
G1 X53.771 Y17.824 Z-2.100 F2000.000
G1 X53.405 Y17.262 Z-2.100 F2000.000
G1 X52.987 Y16.768 Z-2.100 F2000.000
G1 X52.648 Y16.446 Z-2.100 F2000.000
G1 X52.116 Y16.038 Z-2.100 F2000.000
G1 X51.524 Y15.688 Z-2.100 F2000.000
G1 X50.882 Y15.399 Z-2.100 F2000.000
G1 X50.420 Y15.239 Z-2.100 F2000.000
G1 X49.679 Y15.048 Z-2.100 F2000.000
G1 X48.862 Y14.919 Z-2.100 F2000.000
G1 X48.185 Y14.863 Z-2.100 F2000.000
G1 X47.490 Y14.845 Z-2.100 F2000.000
G1 X46.853 Y14.845 Z-2.100 F2000.000
G1 X46.853 Y10.464 Z-2.100 F2000.000
G0 Z5.000
G0 X42.198 Y10.466
G0 Z3.000
G1 X42.198 Y10.466 Z-2.800 F2000.000
G1 X42.202 Y24.908 Z-2.800 F2000.000
G1 X42.238 Y25.276 Z-2.800 F2000.000
G1 X42.275 Y25.440 Z-2.800 F2000.000
G1 X42.372 Y25.716 Z-2.800 F2000.000
G1 X42.439 Y25.854 Z-2.800 F2000.000
G1 X42.584 Y26.068 Z-2.800 F2000.000
G1 X42.676 Y26.173 Z-2.800 F2000.000
G1 X42.790 Y26.276 Z-2.800 F2000.000
G1 X43.008 Y26.435 Z-2.800 F2000.000
G1 X43.174 Y26.524 Z-2.800 F2000.000
G1 X43.431 Y26.620 Z-2.800 F2000.000
G1 X43.558 Y26.654 Z-2.800 F2000.000
G1 X43.795 Y26.690 Z-2.800 F2000.000
G1 X44.000 Y26.700 Z-2.800 F2000.000
G1 X47.803 Y26.699 Z-2.800 F2000.000
G1 X48.948 Y26.650 Z-2.800 F2000.000
G1 X49.756 Y26.544 Z-2.800 F2000.000
G1 X50.267 Y26.448 Z-2.800 F2000.000
G1 X50.914 Y26.273 Z-2.800 F2000.000
G1 X51.544 Y26.023 Z-2.800 F2000.000
G1 X51.709 Y25.945 Z-2.800 F2000.000
G1 X51.904 Y25.845 Z-2.800 F2000.000
G1 X52.480 Y25.491 Z-2.800 F2000.000
G1 X52.968 Y25.099 Z-2.800 F2000.000
G1 X53.157 Y24.916 Z-2.800 F2000.000
G1 X53.354 Y24.701 Z-2.800 F2000.000
G1 X53.730 Y24.201 Z-2.800 F2000.000
G1 X54.028 Y23.674 Z-2.800 F2000.000
G1 X54.152 Y23.397 Z-2.800 F2000.000
G1 X54.266 Y23.087 Z-2.800 F2000.000
G1 X54.436 Y22.454 Z-2.800 F2000.000
G1 X54.534 Y21.789 Z-2.800 F2000.000
G1 X54.556 Y21.459 Z-2.800 F2000.000
G1 X54.563 Y21.104 Z-2.800 F2000.000
G1 X54.519 Y20.266 Z-2.800 F2000.000
G1 X54.399 Y19.499 Z-2.800 F2000.000
G1 X54.213 Y18.815 Z-2.800 F2000.000
G1 X54.075 Y18.448 Z-2.800 F2000.000
G1 X53.771 Y17.824 Z-2.800 F2000.000
G1 X53.405 Y17.262 Z-2.800 F2000.000
G1 X52.987 Y16.768 Z-2.800 F2000.000
G1 X52.648 Y16.446 Z-2.800 F2000.000
G1 X52.116 Y16.038 Z-2.800 F2000.000
G1 X51.524 Y15.688 Z-2.800 F2000.000
G1 X50.882 Y15.399 Z-2.800 F2000.000
G1 X50.420 Y15.239 Z-2.800 F2000.000
G1 X49.679 Y15.048 Z-2.800 F2000.000
G1 X48.862 Y14.919 Z-2.800 F2000.000
G1 X48.185 Y14.863 Z-2.800 F2000.000
G1 X47.490 Y14.845 Z-2.800 F2000.000
G1 X46.853 Y14.845 Z-2.800 F2000.000
G1 X46.853 Y10.464 Z-2.800 F2000.000
G0 Z5.000
G0 X42.198 Y10.466
G0 Z3.000
G1 X42.198 Y10.466 Z-3.033 F2000.000
G1 X42.202 Y24.908 Z-3.033 F2000.000
G1 X42.238 Y25.276 Z-3.033 F2000.000
G1 X42.275 Y25.440 Z-3.033 F2000.000
G1 X42.372 Y25.716 Z-3.033 F2000.000
G1 X42.439 Y25.854 Z-3.033 F2000.000
G1 X42.584 Y26.068 Z-3.033 F2000.000
G1 X42.676 Y26.173 Z-3.033 F2000.000
G1 X42.790 Y26.276 Z-3.033 F2000.000
G1 X43.008 Y26.435 Z-3.033 F2000.000
G1 X43.174 Y26.524 Z-3.033 F2000.000
G1 X43.431 Y26.620 Z-3.033 F2000.000
G1 X43.558 Y26.654 Z-3.033 F2000.000
G1 X43.795 Y26.690 Z-3.033 F2000.000
G1 X44.000 Y26.700 Z-3.033 F2000.000
G1 X47.803 Y26.699 Z-3.033 F2000.000
G1 X48.948 Y26.650 Z-3.033 F2000.000
G1 X49.756 Y26.544 Z-3.033 F2000.000
G1 X50.267 Y26.448 Z-3.033 F2000.000
G1 X50.914 Y26.273 Z-3.033 F2000.000
G1 X51.544 Y26.023 Z-3.033 F2000.000
G1 X51.709 Y25.945 Z-3.033 F2000.000
G1 X51.904 Y25.845 Z-3.033 F2000.000
G1 X52.480 Y25.491 Z-3.033 F2000.000
G1 X52.968 Y25.099 Z-3.033 F2000.000
G1 X53.157 Y24.916 Z-3.033 F2000.000
G1 X53.354 Y24.701 Z-3.033 F2000.000
G1 X53.730 Y24.201 Z-3.033 F2000.000
G1 X54.028 Y23.674 Z-3.033 F2000.000
G1 X54.152 Y23.397 Z-3.033 F2000.000
G1 X54.266 Y23.087 Z-3.033 F2000.000
G1 X54.436 Y22.454 Z-3.033 F2000.000
G1 X54.534 Y21.789 Z-3.033 F2000.000
G1 X54.556 Y21.459 Z-3.033 F2000.000
G1 X54.563 Y21.104 Z-3.033 F2000.000
G1 X54.519 Y20.266 Z-3.033 F2000.000
G1 X54.399 Y19.499 Z-3.033 F2000.000
G1 X54.213 Y18.815 Z-3.033 F2000.000
G1 X54.075 Y18.448 Z-3.033 F2000.000
G1 X53.771 Y17.824 Z-3.033 F2000.000
G1 X53.405 Y17.262 Z-3.033 F2000.000
G1 X52.987 Y16.768 Z-3.033 F2000.000
G1 X52.648 Y16.446 Z-3.033 F2000.000
G1 X52.116 Y16.038 Z-3.033 F2000.000
G1 X51.524 Y15.688 Z-3.033 F2000.000
G1 X50.882 Y15.399 Z-3.033 F2000.000
G1 X50.420 Y15.239 Z-3.033 F2000.000
G1 X49.679 Y15.048 Z-3.033 F2000.000
G1 X48.862 Y14.919 Z-3.033 F2000.000
G1 X48.185 Y14.863 Z-3.033 F2000.000
G1 X47.490 Y14.845 Z-3.033 F2000.000
G1 X46.853 Y14.845 Z-3.033 F2000.000
G1 X46.853 Y10.464 Z-3.033 F2000.000
G0 Z5.000
G0 Z5.000
G0 X46.853 Y10.464
G0 Y4.300
G0 Y4.300 Z3.000
G1 X46.853 Y4.300 Z-0.700 F2000.000
G1 X5.000 Y4.300 Z-0.700 F2000.000
G2 X4.300 Y5.000 Z-0.700 I0.000 J0.700 K0.000 F2000.000
G1 X4.300 Y30.800 Z-0.700 F2000.000
G2 X5.000 Y31.500 Z-0.700 I0.700 J-0.000 K0.000 F2000.000
G1 X57.000 Y31.500 Z-0.700 F2000.000
G2 X57.700 Y30.800 Z-0.700 I-0.000 J-0.700 K0.000 F2000.000
G1 X57.700 Y5.000 Z-0.700 F2000.000
G2 X57.000 Y4.300 Z-0.700 I-0.700 J0.000 K0.000 F2000.000
G1 X46.853 Y4.300 Z-0.700 F2000.000
G1 X46.853 Y4.300 Z-1.400 F2000.000
G1 X5.000 Y4.300 Z-1.400 F2000.000
G2 X4.300 Y5.000 Z-1.400 I0.000 J0.700 K0.000 F2000.000
G1 X4.300 Y30.800 Z-1.400 F2000.000
G2 X5.000 Y31.500 Z-1.400 I0.700 J-0.000 K0.000 F2000.000
G1 X57.000 Y31.500 Z-1.400 F2000.000
G2 X57.700 Y30.800 Z-1.400 I-0.000 J-0.700 K0.000 F2000.000
G1 X57.700 Y5.000 Z-1.400 F2000.000
G2 X57.000 Y4.300 Z-1.400 I-0.700 J0.000 K0.000 F2000.000
G1 X46.853 Y4.300 Z-1.400 F2000.000
G1 X46.853 Y4.300 Z-2.100 F2000.000
G1 X5.000 Y4.300 Z-2.100 F2000.000
G2 X4.300 Y5.000 Z-2.100 I0.000 J0.700 K0.000 F2000.000
G1 X4.300 Y30.800 Z-2.100 F2000.000
G2 X5.000 Y31.500 Z-2.100 I0.700 J-0.000 K0.000 F2000.000
G1 X57.000 Y31.500 Z-2.100 F2000.000
G2 X57.700 Y30.800 Z-2.100 I-0.000 J-0.700 K0.000 F2000.000
G1 X57.700 Y5.000 Z-2.100 F2000.000
G2 X57.000 Y4.300 Z-2.100 I-0.700 J0.000 K0.000 F2000.000
G1 X46.853 Y4.300 Z-2.100 F2000.000
G1 X46.853 Y4.300 Z-2.800 F2000.000
G1 X5.000 Y4.300 Z-2.800 F2000.000
G2 X4.300 Y5.000 Z-2.800 I0.000 J0.700 K0.000 F2000.000
G1 X4.300 Y30.800 Z-2.800 F2000.000
G2 X5.000 Y31.500 Z-2.800 I0.700 J-0.000 K0.000 F2000.000
G1 X57.000 Y31.500 Z-2.800 F2000.000
G2 X57.700 Y30.800 Z-2.800 I-0.000 J-0.700 K0.000 F2000.000
G1 X57.700 Y5.000 Z-2.800 F2000.000
G2 X57.000 Y4.300 Z-2.800 I-0.700 J0.000 K0.000 F2000.000
G1 X46.853 Y4.300 Z-2.800 F2000.000
G1 X46.853 Y4.300 Z-3.033 F2000.000
G1 X5.000 Y4.300 Z-3.033 F2000.000
G2 X4.300 Y5.000 Z-3.033 I0.000 J0.700 K0.000 F2000.000
G1 X4.300 Y30.800 Z-3.033 F2000.000
G2 X5.000 Y31.500 Z-3.033 I0.700 J-0.000 K0.000 F2000.000
G1 X57.000 Y31.500 Z-3.033 F2000.000
G2 X57.700 Y30.800 Z-3.033 I-0.000 J-0.700 K0.000 F2000.000
G1 X57.700 Y5.000 Z-3.033 F2000.000
G2 X57.000 Y4.300 Z-3.033 I-0.700 J0.000 K0.000 F2000.000
G1 X46.853 Y4.300 Z-3.033 F2000.000
G0 Z5.000
G0 Z5.000
(Finish operation: Profile)
(Begin operation: TC: 2.2mm)
(Path: TC: 2.2mm)
(TC: 2.2mm)
(Begin toolchange)
( M6 T1 )
M3 S12000
(Finish operation: TC: 2.2mm)
(Begin operation: Profile001)
(Path: Profile001)
(Profile001)
(Uncompensated Tool Path)
G0 Z5.000
G0 X62.000 Y35.800
G0 Z3.000
G1 X62.000 Y35.800 Z-1.100 F2000.000
G1 X62.000 Y0.000 Z-1.100 F2000.000
G1 X0.000 Y0.000 Z-1.100 F2000.000
G1 X0.000 Y35.800 Z-1.100 F2000.000
G1 X62.000 Y35.800 Z-1.100 F2000.000
G1 X62.000 Y35.800 Z-2.200 F2000.000
G1 X62.000 Y0.000 Z-2.200 F2000.000
G1 X0.000 Y0.000 Z-2.200 F2000.000
G1 X0.000 Y35.800 Z-2.200 F2000.000
G1 X62.000 Y35.800 Z-2.200 F2000.000
G1 X62.000 Y35.800 Z-3.300 F2000.000
G1 X62.000 Y0.000 Z-3.300 F2000.000
G1 X0.000 Y0.000 Z-3.300 F2000.000
G1 X0.000 Y35.800 Z-3.300 F2000.000
G1 X62.000 Y35.800 Z-3.300 F2000.000
G1 X62.000 Y35.800 Z-4.400 F2000.000
G1 X62.000 Y0.000 Z-4.400 F2000.000
G1 X0.000 Y0.000 Z-4.400 F2000.000
G1 X0.000 Y35.800 Z-4.400 F2000.000
G1 X62.000 Y35.800 Z-4.400 F2000.000
G1 X62.000 Y35.800 Z-5.500 F2000.000
G1 X62.000 Y0.000 Z-5.500 F2000.000
G1 X0.000 Y0.000 Z-5.500 F2000.000
G1 X0.000 Y35.800 Z-5.500 F2000.000
G1 X62.000 Y35.800 Z-5.500 F2000.000
G1 X62.000 Y35.800 Z-6.600 F2000.000
G1 X62.000 Y0.000 Z-6.600 F2000.000
G1 X0.000 Y0.000 Z-6.600 F2000.000
G1 X0.000 Y35.800 Z-6.600 F2000.000
G1 X62.000 Y35.800 Z-6.600 F2000.000
G1 X62.000 Y35.800 Z-7.700 F2000.000
G1 X62.000 Y0.000 Z-7.700 F2000.000
G1 X0.000 Y0.000 Z-7.700 F2000.000
G1 X0.000 Y35.800 Z-7.700 F2000.000
G1 X62.000 Y35.800 Z-7.700 F2000.000
G1 X62.000 Y35.800 Z-8.800 F2000.000
G1 X62.000 Y0.000 Z-8.800 F2000.000
G1 X0.000 Y0.000 Z-8.800 F2000.000
G1 X0.000 Y35.800 Z-8.800 F2000.000
G1 X62.000 Y35.800 Z-8.800 F2000.000
G1 X62.000 Y35.800 Z-9.100 F2000.000
G1 X62.000 Y0.000 Z-9.100 F2000.000
G1 X0.000 Y0.000 Z-9.100 F2000.000
G1 X0.000 Y35.800 Z-9.100 F2000.000
G1 X62.000 Y35.800 Z-9.100 F2000.000
G0 Z5.000
G0 Z5.000
(Finish operation: Profile001)
(Begin postamble)
M5
G17 G90
M2
