; generated by PrusaSlicer 2.6.0+MacOS-x64 on 2023-08-15 at 03:23:15 UTC

; 

; external perimeters extrusion width = 0.45mm
; perimeters extrusion width = 0.40mm
; infill extrusion width = 0.45mm
; solid infill extrusion width = 0.50mm
; top infill extrusion width = 0.45mm
; support material extrusion width = 0.42mm
; first layer extrusion width = 0.56mm

M201 X2500 Y2500 Z800 E2500 ; sets maximum accelerations, mm/sec^2
M203 X300 Y250 Z8 E80 ; sets maximum feedrates, mm / sec
M204 S2500 T2500 ; sets acceleration (S) and retract acceleration (R), mm/sec^2
M205 X15.00 Y10.00 Z2.00 E10.00 ; sets the jerk limits, mm/sec
M205 S0 T0 ; sets the minimum extruding and travel feed rate, mm/sec
;TYPE:Custom
G90 ; use absolute coordinates
M83 ; extruder relative mode
M104 S215 ; set extruder temp
M140 S65 ; set bed temp
M190 S65 ; wait for bed temp
M109 S215 ; wait for extruder temp
G28                                        ; move X/Y/Z to min endstops
G1 Z0.28                                   ; lift nozzle a bit
 
G0 Y235      ; move to max Y (within soft-limit)


G92 E0 
G1 Y3 F1800                                    ; zero the extruded length 
G1 X60  E25 F500                       ; Extrude 25mm of filament in a 5cm line. 
G92 E0                                     ; zero the extruded length again 
G1 E-2 F500                                ; Retract a little 
G1 X70 F4000                              ; Quickly wipe away from the filament line

M211 S0      ; disable software endstop
G0 Y245 X80       ; push forward past the endstop to the nozzle wiper

G0 X90       ; move X to the nozzle wiper
G0 X80       ; move X to wipe the nozzle


M117

G28          ; home all
M211 S1      ; enable software endstop
G21 ; set units to millimeters
G90 ; use absolute coordinates
M82 ; use absolute distances for extrusion
G92 E0
M107
;LAYER_CHANGE
;Z:0.28
;HEIGHT:0.28
; BEFORE_LAYER_CHANGE 0 @ 0.28mm
G1 E-2 F4800
G92 E0
G1 Z.28 F7200
; AFTER_LAYER_CHANGE 0 @ 0.28mm
G1 X22.465 Y32.033
G1 E2 F4800
M204 S2000
;TYPE:Support material
;WIDTH:0.56
G1 F3000
G1 X23.14 Y32.033 E2.03928
G1 X23.14 Y40.227 E2.51613
G1 X20.025 Y40.227 E2.69741
G1 X20.025 Y29.033 E3.34884
G1 X22.465 Y29.033 E3.49084
G1 X22.465 Y31.958 E3.66106
M204 S2500
G1 X22.239 Y40.002 F7200
M204 S2000
G1 F3000
G1 X22.239 Y32.483 E4.09863
G1 X22.015 Y32.483 E4.11167
G1 X22.015 Y29.483 E4.28625
G1 X21.683 Y29.483 E4.30557
G1 X21.683 Y39.777 E4.90463
G1 X21.128 Y39.777 E4.93693
G1 X21.128 Y29.483 E5.53599
G1 X20.572 Y29.483 E5.56835
G1 X20.572 Y40.002 E6.1805
M204 S2500
G1 E4.7805 F4800
;WIPE_START
G1 F5760
G1 X20.572 Y39.244 E4.1805
;WIPE_END
G92 E0
G1 X23.181 Y31.734 F7200
G1 E2 F4800
M204 S2000
;TYPE:Support material interface
;WIDTH:0.42
G1 F3000
G1 X23.181 Y25.811 E2.24816
G1 X23.558 Y25.811 E2.26396
G1 X23.558 Y29.126 E2.40285
G1 X23.935 Y29.126 E2.41865
G1 X23.935 Y25.811 E2.55754
G1 X24.312 Y25.811 E2.57334
G1 X24.312 Y29.126 E2.71223
G1 X24.69 Y29.126 E2.72807
G1 X24.69 Y25.811 E2.86696
G1 X25.067 Y25.811 E2.88276
G1 X25.067 Y29.126 E3.02165
G1 X25.444 Y29.126 E3.03745
G1 X25.444 Y25.811 E3.17634
G1 X25.821 Y25.811 E3.19214
G1 X25.821 Y29.126 E3.33103
G1 X26.198 Y29.126 E3.34683
G1 X26.198 Y25.811 E3.48572
G1 X26.575 Y25.811 E3.50152
G1 X26.575 Y29.126 E3.64041
G1 X26.952 Y29.126 E3.65621
G1 X26.952 Y25.811 E3.7951
G1 X27.329 Y25.811 E3.8109
G1 X27.329 Y29.126 E3.94979
G1 X27.706 Y29.126 E3.96559
G1 X27.706 Y25.811 E4.10448
G1 X28.083 Y25.811 E4.12028
G1 X28.083 Y29.126 E4.25917
G1 X28.46 Y29.126 E4.27497
G1 X28.46 Y25.811 E4.41386
G1 X28.837 Y25.811 E4.42966
G1 X28.837 Y29.126 E4.56855
G1 X29.214 Y29.126 E4.58435
G1 X29.214 Y25.811 E4.72324
G1 X29.592 Y25.811 E4.73908
G1 X29.592 Y29.126 E4.87797
G1 X29.969 Y29.126 E4.89377
G1 X29.969 Y25.811 E5.03266
G1 X30.346 Y25.811 E5.04846
G1 X30.346 Y29.126 E5.18735
G1 X30.723 Y29.126 E5.20315
G1 X30.723 Y25.811 E5.34204
G1 X31.1 Y25.811 E5.35784
G1 X31.1 Y29.126 E5.49673
G1 X31.477 Y29.126 E5.51253
G1 X31.477 Y25.811 E5.65142
G1 X31.854 Y25.811 E5.66722
G1 X31.854 Y29.126 E5.80611
G1 X32.231 Y29.126 E5.82191
G1 X32.231 Y25.811 E5.9608
G1 X32.608 Y25.811 E5.9766
G1 X32.608 Y29.126 E6.11549
G1 X32.985 Y29.126 E6.13129
G1 X32.985 Y25.811 E6.27018
G1 X33.362 Y25.811 E6.28598
G1 X33.362 Y29.126 E6.42487
G1 X33.739 Y29.126 E6.44067
G1 X33.739 Y25.811 E6.57956
G1 X34.117 Y25.811 E6.5954
G1 X34.117 Y29.126 E6.73429
G1 X34.494 Y29.126 E6.75009
G1 X34.494 Y25.811 E6.88898
G1 X34.871 Y25.811 E6.90478
G1 X34.871 Y29.126 E7.04367
G1 X35.248 Y29.126 E7.05947
G1 X35.248 Y25.811 E7.19836
G1 X35.625 Y25.811 E7.21416
G1 X35.625 Y31.565 E7.45524
G1 X36.002 Y31.565 E7.47104
G1 X36.002 Y25.811 E7.71212
G1 X36.379 Y25.811 E7.72792
G1 X36.379 Y31.565 E7.969
G1 X36.756 Y31.565 E7.9848
G1 X36.756 Y25.811 E8.22588
G1 X37.133 Y25.811 E8.24168
G1 X37.133 Y31.734 E8.48984
M204 S2500
G1 E7.08984 F4800
;WIPE_START
G1 F5760
G1 X37.133 Y30.976 E6.48984
;WIPE_END
G92 E0
G1 X35.05 Y31.565 F7200
G1 E2 F4800
M204 S2000
;TYPE:Support material
;WIDTH:0.56
G1 F3000
G1 X32.61 Y31.565 E2.142
G1 X32.61 Y29.594 E2.2567
G1 X35.05 Y29.594 E2.3987
G1 X35.05 Y31.49 E2.50904
M204 S2500
G1 X34.459 Y31.34 F7200
M204 S2000
G1 F3000
G1 X34.459 Y30.044 E2.58446
G1 X33.903 Y30.044 E2.61682
G1 X33.903 Y31.115 E2.67915
G1 X33.348 Y31.115 E2.71145
G1 X33.348 Y29.819 E2.78687
M204 S2500
G1 E1.38687 F4800
;WIPE_START
G1 F5760
G1 X33.348 Y30.577 E.78687
;WIPE_END
G92 E0
G1 X26.14 Y31.565 F7200
G1 E2 F4800
M204 S2000
G1 F3000
G1 X23.7 Y31.565 E2.142
G1 X23.7 Y29.595 E2.25664
G1 X26.14 Y29.594 E2.39864
G1 X26.14 Y31.49 E2.50898
M204 S2500
G1 X25.571 Y31.34 F7200
M204 S2000
G1 F3000
G1 X25.571 Y30.044 E2.5844
G1 X25.016 Y30.044 E2.6167
G1 X25.016 Y31.115 E2.67903
G1 X24.461 Y31.115 E2.71133
G1 X24.461 Y29.819 E2.78675
M204 S2500
G1 E1.38675 F4800
;WIPE_START
G1 F5760
G1 X24.461 Y30.577 E.78675
;WIPE_END
G92 E0
G1 X40.227 Y40.227 F7200
G1 E2 F4800
M204 S2000
G1 F3000
G1 X35.61 Y40.227 E2.26869
G1 X35.61 Y32.033 E2.74554
G1 X37.788 Y32.033 E2.87229
G1 X37.788 Y29.033 E3.04687
G1 X40.227 Y29.033 E3.18881
G1 X40.227 Y40.152 E3.83588
M204 S2500
G1 X39.458 Y40.002 F7200
M204 S2000
G1 F3000
G1 X39.458 Y29.483 E4.44803
G1 X38.902 Y29.483 E4.48039
G1 X38.902 Y39.777 E5.07945
G1 X38.347 Y39.777 E5.11175
G1 X38.347 Y29.483 E5.71081
G1 X38.237 Y29.483 E5.71721
G1 X38.237 Y32.483 E5.89179
G1 X37.791 Y32.483 E5.91774
G1 X37.791 Y39.777 E6.34221
G1 X37.236 Y39.777 E6.37451
G1 X37.236 Y32.483 E6.79898
G1 X36.681 Y32.483 E6.83128
G1 X36.681 Y39.777 E7.25575
G1 X36.125 Y39.777 E7.28811
G1 X36.125 Y32.258 E7.72568
M204 S2500
G1 E6.32568 F4800
;WIPE_START
G1 F5760
G1 X36.125 Y33.016 E5.72568
;WIPE_END
G92 E0
G1 X114.975 Y212.85 F7200
G1 E2 F4800
M204 S2000
;TYPE:External perimeter
G1 F3000
G1 X114.975 Y215.85 E2.17458
G1 X24.775 Y215.85 E7.42376
G1 X24.775 Y212.85 E7.59834
G1 X24.025 Y212.85 E7.64199
G1 X24.025 Y32.45 E18.14036
G1 X34.725 Y32.45 E18.76305
G1 X34.725 Y182.298 E27.48344
G1 X34.671 Y182.85 E27.51572
G1 X34.625 Y184.25 E27.59724
G1 X34.671 Y185.65 E27.67876
G1 X34.725 Y186.202 E27.71104
G1 X34.725 Y187.15 E27.76621
G1 X34.833 Y187.15 E27.7725
G1 X35.036 Y188.424 E27.84758
G1 X35.354 Y189.789 E27.92914
G1 X35.761 Y191.129 E28.01064
G1 X36.257 Y192.446 E28.09254
G1 X36.832 Y193.715 E28.17362
G1 X37.492 Y194.95 E28.25511
G1 X38.231 Y196.139 E28.33658
G1 X39.052 Y197.283 E28.41852
G1 X39.935 Y198.36 E28.49957
G1 X40.893 Y199.382 E28.58109
G1 X41.915 Y200.34 E28.66261
G1 X42.997 Y201.228 E28.74407
G1 X44.136 Y202.044 E28.82561
G1 X45.325 Y202.783 E28.90708
G1 X46.56 Y203.443 E28.98857
G1 X47.835 Y204.021 E29.07004
G1 X49.139 Y204.512 E29.15113
G1 X50.486 Y204.921 E29.23305
G1 X51.85 Y205.239 E29.31456
G1 X53.232 Y205.467 E29.39607
G1 X54.625 Y205.604 E29.47753
G1 X55.868 Y205.65 E29.54992
G1 X205.975 Y205.65 E38.28539
G1 X205.975 Y212.85 E38.70439
G1 X115.035 Y212.85 E43.99664
M204 S2500
G1 X114.575 Y212.861 F7200
G1 X114.475 Y212.35
M204 S2000
;TYPE:Perimeter
G1 F3000
G1 X114.475 Y215.35 E44.17122
G1 X25.275 Y215.35 E49.36221
G1 X25.275 Y212.35 E49.53679
G1 X24.525 Y212.35 E49.58044
G1 X24.525 Y32.95 E60.02061
G1 X34.225 Y32.95 E60.5851
G1 X34.225 Y182.274 E69.275
G1 X34.171 Y182.818 E69.30681
G1 X34.125 Y184.25 E69.39019
G1 X34.171 Y185.682 E69.47357
G1 X34.225 Y186.226 E69.50538
G1 X34.225 Y187.65 E69.58825
G1 X34.406 Y187.65 E69.59878
G1 X34.545 Y188.52 E69.65005
G1 X34.871 Y189.918 E69.73359
G1 X35.287 Y191.29 E69.81702
G1 X35.795 Y192.638 E69.90085
G1 X36.383 Y193.936 E69.98378
G1 X37.059 Y195.2 E70.0672
G1 X37.816 Y196.417 E70.15061
G1 X38.655 Y197.588 E70.23444
G1 X39.559 Y198.69 E70.31739
G1 X40.539 Y199.736 E70.4008
G1 X41.585 Y200.716 E70.48421
G1 X42.693 Y201.625 E70.56761
G1 X43.858 Y202.46 E70.65102
G1 X45.075 Y203.216 E70.7344
G1 X46.339 Y203.892 E70.81782
G1 X47.644 Y204.483 E70.90119
G1 X48.979 Y204.986 E70.98421
G1 X50.357 Y205.404 E71.06801
G1 X51.752 Y205.73 E71.15138
G1 X53.166 Y205.963 E71.23478
G1 X54.591 Y206.103 E71.31811
G1 X55.858 Y206.15 E71.39189
G1 X205.475 Y206.15 E80.09884
G1 X205.475 Y212.35 E80.45965
G1 X114.535 Y212.35 E85.7519
M204 S2500
G1 X113.975 Y211.85 F7200
M204 S2000
G1 F3000
G1 X113.975 Y214.85 E85.92648
G1 X25.775 Y214.85 E91.05927
G1 X25.775 Y211.85 E91.23385
G1 X25.025 Y211.85 E91.2775
G1 X25.025 Y33.45 E101.65948
G1 X33.725 Y33.45 E102.16578
G1 X33.725 Y182.249 E110.82513
G1 X33.672 Y182.785 E110.85647
G1 X33.624 Y184.25 E110.94177
G1 X33.672 Y185.715 E111.02707
G1 X33.725 Y186.251 E111.05841
G1 X33.725 Y188.15 E111.16892
G1 X33.98 Y188.15 E111.18376
G1 X34.054 Y188.616 E111.21122
G1 X34.388 Y190.048 E111.29679
G1 X34.813 Y191.451 E111.3821
G1 X35.333 Y192.829 E111.46781
G1 X35.935 Y194.158 E111.55272
G1 X36.626 Y195.45 E111.63799
G1 X37.4 Y196.695 E111.7233
G1 X38.258 Y197.892 E111.80901
G1 X39.183 Y199.02 E111.8939
G1 X40.185 Y200.09 E111.97921
G1 X41.255 Y201.092 E112.06452
G1 X42.388 Y202.022 E112.14982
G1 X43.58 Y202.875 E112.23512
G1 X44.825 Y203.649 E112.32043
G1 X46.117 Y204.34 E112.4057
G1 X47.453 Y204.945 E112.49105
G1 X48.818 Y205.459 E112.57593
G1 X50.227 Y205.887 E112.66163
G1 X51.655 Y206.22 E112.74696
G1 X53.101 Y206.459 E112.83225
G1 X54.557 Y206.602 E112.91739
G1 X55.849 Y206.65 E112.99263
G1 X204.975 Y206.65 E121.67101
G1 X204.975 Y211.85 E121.97362
G1 X114.035 Y211.85 E127.26587
M204 S2500
G1 E125.86587 F4800
;WIPE_START
G1 F5760
G1 X114.02 Y212.608 E125.26587
;WIPE_END
G92 E0
G1 X204.293 Y206.85 F7200
G1 E2 F4800
M204 S2000
;TYPE:Solid infill
;WIDTH:0.561577
G1 F3000
G1 X204.55 Y207.107 E2.02122
G1 X204.55 Y207.816 E2.06261
G1 X203.809 Y207.075 E2.12379
G1 X203.099 Y207.075 E2.16524
G1 X204.55 Y208.526 E2.28503
G1 X204.55 Y209.235 E2.32642
G1 X202.39 Y207.075 E2.50475
G1 X201.681 Y207.075 E2.54614
G1 X204.55 Y209.944 E2.783
G1 X204.55 Y210.653 E2.82439
G1 X200.972 Y207.075 E3.11979
G1 X200.263 Y207.075 E3.16118
G1 X204.55 Y211.362 E3.51511
G1 X204.55 Y211.425 E3.51879
G1 X203.904 Y211.425 E3.5565
G1 X199.553 Y207.075 E3.91568
G1 X198.844 Y207.075 E3.95707
G1 X203.195 Y211.425 E4.31625
G1 X202.485 Y211.425 E4.3577
G1 X198.135 Y207.075 E4.71683
G1 X197.426 Y207.075 E4.75822
G1 X201.776 Y211.425 E5.11735
G1 X201.067 Y211.425 E5.15874
G1 X196.717 Y207.075 E5.51787
G1 X196.007 Y207.075 E5.55932
G1 X200.358 Y211.425 E5.9185
G1 X199.649 Y211.425 E5.95989
G1 X195.298 Y207.075 E6.31907
G1 X194.589 Y207.075 E6.36046
G1 X198.939 Y211.425 E6.71959
G1 X198.23 Y211.425 E6.76098
G1 X193.88 Y207.075 E7.12011
G1 X193.17 Y207.075 E7.16156
G1 X197.521 Y211.425 E7.52074
G1 X196.812 Y211.425 E7.56213
G1 X192.461 Y207.075 E7.92131
G1 X191.752 Y207.075 E7.9627
G1 X196.103 Y211.425 E8.32188
G1 X195.393 Y211.425 E8.36333
G1 X191.043 Y207.075 E8.72246
G1 X190.334 Y207.075 E8.76385
G1 X194.684 Y211.425 E9.12298
G1 X193.975 Y211.425 E9.16437
G1 X189.624 Y207.075 E9.52355
G1 X188.915 Y207.075 E9.56494
G1 X193.266 Y211.425 E9.92412
G1 X192.556 Y211.425 E9.96557
G1 X188.206 Y207.075 E10.3247
G1 X187.497 Y207.075 E10.36609
G1 X191.847 Y211.425 E10.72522
G1 X191.138 Y211.425 E10.76661
G1 X186.788 Y207.075 E11.12574
G1 X186.078 Y207.075 E11.16719
G1 X190.429 Y211.425 E11.52637
G1 X189.72 Y211.425 E11.56776
G1 X185.369 Y207.075 E11.92694
G1 X184.66 Y207.075 E11.96833
G1 X189.01 Y211.425 E12.32746
G1 X188.301 Y211.425 E12.36885
G1 X183.951 Y207.075 E12.72798
G1 X183.241 Y207.075 E12.76943
G1 X187.592 Y211.425 E13.12861
G1 X186.883 Y211.425 E13.17
G1 X182.532 Y207.075 E13.52918
G1 X181.823 Y207.075 E13.57057
G1 X186.174 Y211.425 E13.92975
G1 X185.464 Y211.425 E13.9712
G1 X181.114 Y207.075 E14.33033
G1 X180.405 Y207.075 E14.37172
G1 X184.755 Y211.425 E14.73085
G1 X184.046 Y211.425 E14.77224
G1 X179.695 Y207.075 E15.13142
G1 X178.986 Y207.075 E15.17281
G1 X183.337 Y211.425 E15.53199
G1 X182.627 Y211.425 E15.57344
G1 X178.277 Y207.075 E15.93257
G1 X177.568 Y207.075 E15.97396
G1 X181.918 Y211.425 E16.33309
G1 X181.209 Y211.425 E16.37448
G1 X176.859 Y207.075 E16.73361
G1 X176.149 Y207.075 E16.77506
G1 X180.5 Y211.425 E17.13424
G1 X179.791 Y211.425 E17.17563
G1 X175.44 Y207.075 E17.53481
G1 X174.731 Y207.075 E17.5762
G1 X179.081 Y211.425 E17.93533
G1 X178.372 Y211.425 E17.97672
G1 X174.022 Y207.075 E18.33585
G1 X173.312 Y207.075 E18.3773
G1 X177.663 Y211.425 E18.73648
G1 X176.954 Y211.425 E18.77787
G1 X172.603 Y207.075 E19.13705
G1 X171.894 Y207.075 E19.17844
G1 X176.245 Y211.425 E19.53762
G1 X175.535 Y211.425 E19.57907
G1 X171.185 Y207.075 E19.9382
G1 X170.476 Y207.075 E19.97959
G1 X174.826 Y211.425 E20.33872
G1 X174.117 Y211.425 E20.38011
G1 X169.766 Y207.075 E20.73929
G1 X169.057 Y207.075 E20.78068
G1 X173.408 Y211.425 E21.13986
G1 X172.699 Y211.425 E21.18125
G1 X168.348 Y207.075 E21.54043
G1 X167.639 Y207.075 E21.58182
G1 X171.989 Y211.425 E21.94095
G1 X171.28 Y211.425 E21.98234
G1 X166.93 Y207.075 E22.34147
G1 X166.22 Y207.075 E22.38292
G1 X170.571 Y211.425 E22.7421
G1 X169.862 Y211.425 E22.78349
G1 X165.511 Y207.075 E23.14267
G1 X164.802 Y207.075 E23.18406
G1 X169.152 Y211.425 E23.54319
G1 X168.443 Y211.425 E23.58458
G1 X164.093 Y207.075 E23.94371
G1 X163.384 Y207.075 E23.9851
G1 X167.734 Y211.425 E24.34423
G1 X167.025 Y211.425 E24.38562
G1 X162.674 Y207.075 E24.7448
G1 X161.965 Y207.075 E24.78619
G1 X166.316 Y211.425 E25.14537
G1 X165.606 Y211.425 E25.18682
G1 X161.256 Y207.075 E25.54595
G1 X160.547 Y207.075 E25.58734
G1 X164.897 Y211.425 E25.94647
G1 X164.188 Y211.425 E25.98786
G1 X159.837 Y207.075 E26.34704
G1 X159.128 Y207.075 E26.38843
G1 X163.479 Y211.425 E26.74761
G1 X162.77 Y211.425 E26.789
G1 X158.419 Y207.075 E27.14818
G1 X157.71 Y207.075 E27.18957
G1 X162.06 Y211.425 E27.5487
G1 X161.351 Y211.425 E27.59009
G1 X157.001 Y207.075 E27.94922
G1 X156.291 Y207.075 E27.99067
G1 X160.642 Y211.425 E28.34985
G1 X159.933 Y211.425 E28.39124
G1 X155.582 Y207.075 E28.75042
G1 X154.873 Y207.075 E28.79181
G1 X159.223 Y211.425 E29.15094
G1 X158.514 Y211.425 E29.19233
G1 X154.164 Y207.075 E29.55146
G1 X153.455 Y207.075 E29.59285
G1 X157.805 Y211.425 E29.95198
G1 X157.096 Y211.425 E29.99337
G1 X152.745 Y207.075 E30.35255
G1 X152.036 Y207.075 E30.39394
G1 X156.387 Y211.425 E30.75312
G1 X155.677 Y211.425 E30.79457
G1 X151.327 Y207.075 E31.1537
G1 X150.618 Y207.075 E31.19509
G1 X154.968 Y211.425 E31.55422
G1 X154.259 Y211.425 E31.59561
G1 X149.908 Y207.075 E31.95479
G1 X149.199 Y207.075 E31.99618
G1 X153.55 Y211.425 E32.35536
G1 X152.841 Y211.425 E32.39675
G1 X148.49 Y207.075 E32.75593
G1 X147.781 Y207.075 E32.79732
G1 X152.131 Y211.425 E33.15645
G1 X151.422 Y211.425 E33.19784
G1 X147.072 Y207.075 E33.55697
G1 X146.362 Y207.075 E33.59842
G1 X150.713 Y211.425 E33.9576
G1 X150.004 Y211.425 E33.99899
G1 X145.653 Y207.075 E34.35817
G1 X144.944 Y207.075 E34.39956
G1 X149.295 Y211.425 E34.75874
G1 X148.585 Y211.425 E34.80019
G1 X144.235 Y207.075 E35.15932
G1 X143.526 Y207.075 E35.20071
G1 X147.876 Y211.425 E35.55984
G1 X147.167 Y211.425 E35.60123
G1 X142.816 Y207.075 E35.96041
G1 X142.107 Y207.075 E36.0018
G1 X146.458 Y211.425 E36.36098
G1 X145.748 Y211.425 E36.40243
G1 X141.398 Y207.075 E36.76156
G1 X140.689 Y207.075 E36.80295
G1 X145.039 Y211.425 E37.16208
