; generated by PrusaSlicer 2.6.0+MacOS-x64 on 2023-08-16 at 00:30:27 UTC

; 

; external perimeters extrusion width = 0.45mm
; perimeters extrusion width = 0.40mm
; infill extrusion width = 0.45mm
; solid infill extrusion width = 0.50mm
; top infill extrusion width = 0.45mm
; support material extrusion width = 0.42mm
; first layer extrusion width = 0.56mm

M201 X2500 Y2500 Z800 E2500 ; sets maximum accelerations, mm/sec^2
M203 X300 Y250 Z8 E80 ; sets maximum feedrates, mm / sec
M204 S2500 T2500 ; sets acceleration (S) and retract acceleration (R), mm/sec^2
M205 X15.00 Y10.00 Z2.00 E10.00 ; sets the jerk limits, mm/sec
M205 S0 T0 ; sets the minimum extruding and travel feed rate, mm/sec
;TYPE:Custom
G90 ; use absolute coordinates
M83 ; extruder relative mode
M104 S215 ; set extruder temp
M140 S65 ; set bed temp
M190 S65 ; wait for bed temp
M109 S215 ; wait for extruder temp
G28                                        ; move X/Y/Z to min endstops
G1 Z0.28                                   ; lift nozzle a bit
 
G0 Y235      ; move to max Y (within soft-limit)


G92 E0 
G1 Y3 F1800                                    ; zero the extruded length 
G1 X60  E25 F500                       ; Extrude 25mm of filament in a 5cm line. 
G92 E0                                     ; zero the extruded length again 
G1 E-2 F500                                ; Retract a little 
G1 X70 F4000                              ; Quickly wipe away from the filament line

M211 S0      ; disable software endstop
G0 Y245 X80       ; push forward past the endstop to the nozzle wiper

G0 X90       ; move X to the nozzle wiper
G0 X80       ; move X to wipe the nozzle


M117

G28          ; home all
M211 S1      ; enable software endstop
G21 ; set units to millimeters
G90 ; use absolute coordinates
M82 ; use absolute distances for extrusion
G92 E0
M107
;LAYER_CHANGE
;Z:0.28
;HEIGHT:0.28
; BEFORE_LAYER_CHANGE 0 @ 0.28mm
G1 E-2 F4800
G92 E0
G1 Z.28 F7200
; AFTER_LAYER_CHANGE 0 @ 0.28mm
G1 X68.698 Y109.388
G1 E2 F4800
M204 S2000
;TYPE:Support material
;WIDTH:0.56
G1 F3000
G1 X69.036 Y110.286 E2.05584
G1 X69.315 Y111.204 E2.11168
G1 X69.537 Y112.161 E2.16885
G1 X69.689 Y113.086 E2.2234
G1 X69.783 Y114.041 E2.27924
G1 X69.815 Y115 E2.33508
G1 X69.783 Y115.959 E2.39092
G1 X69.689 Y116.914 E2.44676
G1 X69.533 Y117.861 E2.50261
G1 X69.318 Y118.784 E2.55776
G1 X69.036 Y119.714 E2.61431
G1 X68.62 Y120.786 E2.68123
G1 X63.181 Y120.786 E2.99775
G1 X63.181 Y109.214 E3.67118
G1 X68.62 Y109.214 E3.9877
G1 X68.668 Y109.32 E3.99447
M204 S2500
G1 X68.897 Y119.398 F7200
M204 S2000
G1 F3000
G1 X68.897 Y111.394 E4.46026
G1 X68.61 Y110.431 E4.51874
G1 X68.342 Y109.717 E4.56312
G1 X68.342 Y120.283 E5.17801
G1 X68.322 Y120.336 E5.18131
G1 X67.786 Y120.336 E5.2125
G1 X67.786 Y109.664 E5.83356
G1 X67.231 Y109.664 E5.86586
G1 X67.231 Y120.336 E6.48692
G1 X66.675 Y120.336 E6.51928
G1 X66.675 Y109.664 E7.14034
G1 X66.12 Y109.664 E7.17264
G1 X66.12 Y120.336 E7.7937
G1 X65.564 Y120.336 E7.82606
G1 X65.564 Y109.664 E8.44712
G1 X65.009 Y109.664 E8.47942
G1 X65.009 Y120.336 E9.10048
G1 X64.453 Y120.336 E9.13284
G1 X64.453 Y109.664 E9.7539
G1 X63.898 Y109.664 E9.7862
G1 X63.898 Y120.561 E10.42035
M204 S2500
G1 E9.02035 F4800
;WIPE_START
G1 F5760
G1 X63.898 Y119.803 E8.42035
;WIPE_END
G92 E0
G1 X45.981 Y120.786 F7200
G1 E2 F4800
M204 S2000
G1 F3000
G1 X41.68 Y120.786 E2.2503
G1 X41.264 Y119.714 E2.31722
G1 X40.985 Y118.796 E2.37306
G1 X40.763 Y117.839 E2.43023
G1 X40.611 Y116.914 E2.48478
G1 X40.517 Y115.959 E2.54062
G1 X40.485 Y115 E2.59646
G1 X40.516 Y114.073 E2.65044
G1 X40.611 Y113.085 E2.7082
G1 X40.767 Y112.139 E2.764
G1 X40.985 Y111.204 E2.81987
G1 X41.264 Y110.286 E2.87571
G1 X41.68 Y109.214 E2.94263
G1 X45.981 Y109.214 E3.19293
G1 X45.981 Y120.711 E3.862
M204 S2500
G1 X45.012 Y120.561 F7200
M204 S2000
G1 F3000
G1 X45.012 Y109.664 E4.49615
G1 X44.457 Y109.664 E4.52845
G1 X44.457 Y120.336 E5.14951
G1 X43.902 Y120.336 E5.18181
G1 X43.902 Y109.664 E5.80287
G1 X43.346 Y109.664 E5.83523
G1 X43.346 Y120.336 E6.45629
G1 X42.791 Y120.336 E6.48859
G1 X42.791 Y109.664 E7.10965
G1 X42.235 Y109.664 E7.14201
G1 X42.235 Y120.336 E7.76307
G1 X41.978 Y120.336 E7.77803
G1 X41.68 Y119.536 E7.82771
G1 X41.68 Y110.464 E8.35565
G1 X41.42 Y111.321 E8.40777
G1 X41.209 Y112.227 E8.46191
G1 X41.124 Y112.738 E8.49206
G1 X41.124 Y118.4 E8.82156
M204 S2500
G1 E7.42156 F4800
;WIPE_START
G1 F5760
G1 X41.124 Y117.642 E6.82156
;WIPE_END
G92 E0
G1 X67.362 Y128.1 F7200
G1 E2 F4800
M204 S2000
;TYPE:External perimeter
G1 F3000
G1 X67.334 Y128.1 E2.00163
G1 X66.952 Y128.458 E2.0321
G1 X66.047 Y129.201 E2.10024
G1 X65.095 Y129.883 E2.16839
G1 X64.1 Y130.502 E2.23658
G1 X63.067 Y131.054 E2.30474
G1 X62 Y131.537 E2.3729
G1 X60.904 Y131.95 E2.44106
G1 X59.783 Y132.29 E2.50923
G1 X58.642 Y132.556 E2.57741
G1 X57.486 Y132.747 E2.6456
G1 X56.321 Y132.861 E2.71372
G1 X55.164 Y132.899 E2.78109
G1 X53.979 Y132.861 E2.85009
G1 X52.814 Y132.747 E2.91821
G1 X51.658 Y132.556 E2.9864
G1 X50.517 Y132.29 E3.05458
G1 X49.396 Y131.95 E3.12275
G1 X48.314 Y131.542 E3.19004
G1 X47.233 Y131.054 E3.25906
G1 X46.2 Y130.502 E3.32722
G1 X45.205 Y129.883 E3.39541
G1 X44.265 Y129.209 E3.46272
G1 X43.348 Y128.458 E3.5317
G1 X42.493 Y127.657 E3.59988
G1 X41.692 Y126.802 E3.66806
G1 X40.949 Y125.897 E3.7362
G1 X40.267 Y124.945 E3.80435
G1 X39.648 Y123.95 E3.87254
G1 X39.096 Y122.917 E3.9407
G1 X38.613 Y121.85 E4.00886
G1 X38.2 Y120.754 E4.07702
G1 X37.86 Y119.633 E4.14519
G1 X37.592 Y118.478 E4.21419
G1 X37.403 Y117.336 E4.28155
G1 X37.289 Y116.171 E4.34967
G1 X37.25 Y115 E4.41785
G1 X37.289 Y113.829 E4.48603
G1 X37.403 Y112.664 E4.55415
G1 X37.594 Y111.508 E4.62234
G1 X37.86 Y110.367 E4.69052
G1 X38.2 Y109.246 E4.75869
G1 X38.613 Y108.15 E4.82685
G1 X39.096 Y107.083 E4.89501
G1 X39.648 Y106.05 E4.96317
G1 X40.267 Y105.056 E5.03132
G1 X40.958 Y104.092 E5.10034
G1 X41.692 Y103.198 E5.16766
G1 X42.493 Y102.343 E5.23584
G1 X43.348 Y101.542 E5.30402
G1 X44.253 Y100.799 E5.37216
G1 X45.205 Y100.117 E5.44031
G1 X46.2 Y99.498 E5.5085
G1 X47.233 Y98.946 E5.57666
G1 X48.287 Y98.469 E5.64399
G1 X49.396 Y98.05 E5.71298
G1 X50.517 Y97.71 E5.78115
G1 X51.644 Y97.447 E5.8485
G1 X52.814 Y97.253 E5.91752
G1 X53.979 Y97.139 E5.98564
G1 X55.15 Y97.1 E6.05382
G1 X56.306 Y97.138 E6.12113
G1 X57.487 Y97.253 E6.19018
G1 X58.642 Y97.444 E6.25831
G1 X59.783 Y97.71 E6.32649
G1 X60.904 Y98.05 E6.39466
G1 X62 Y98.463 E6.46282
G1 X63.067 Y98.946 E6.53098
G1 X64.087 Y99.492 E6.59831
G1 X65.095 Y100.117 E6.66733
G1 X66.047 Y100.799 E6.73548
G1 X66.952 Y101.542 E6.80362
G1 X67.334 Y101.9 E6.83409
G1 X192.75 Y101.9 E14.13267
G1 X192.75 Y128.1 E15.65738
G1 X67.422 Y128.1 E22.95083
M204 S2500
G1 X67.347 Y128.077 F7200
G1 X67.217 Y127.6
M204 S2000
;TYPE:Perimeter
G1 F3000
G1 X67.137 Y127.6 E22.95549
G1 X66.622 Y128.082 E22.99654
G1 X65.742 Y128.804 E23.06278
G1 X64.817 Y129.467 E23.12901
G1 X63.85 Y130.069 E23.1953
G1 X62.846 Y130.605 E23.26153
G1 X61.809 Y131.075 E23.32779
G1 X60.743 Y131.476 E23.39407
G1 X59.653 Y131.807 E23.46036
G1 X58.544 Y132.065 E23.52662
G1 X57.421 Y132.251 E23.59286
G1 X56.288 Y132.362 E23.65911
G1 X55.164 Y132.399 E23.72456
G1 X54.012 Y132.362 E23.79164
G1 X52.879 Y132.251 E23.85789
G1 X51.756 Y132.065 E23.92413
G1 X50.647 Y131.807 E23.99039
G1 X49.557 Y131.476 E24.05668
G1 X48.505 Y131.08 E24.12209
G1 X47.454 Y130.605 E24.18921
G1 X46.45 Y130.069 E24.25544
G1 X45.483 Y129.467 E24.32173
G1 X44.569 Y128.812 E24.38717
G1 X43.677 Y128.081 E24.45428
G1 X42.847 Y127.303 E24.52048
G1 X42.068 Y126.472 E24.58677
G1 X41.346 Y125.592 E24.65301
G1 X40.683 Y124.667 E24.71924
G1 X40.082 Y123.7 E24.7855
G1 X39.545 Y122.696 E24.85176
G1 X39.075 Y121.659 E24.91802
G1 X38.674 Y120.593 E24.9843
G1 X38.343 Y119.504 E25.05054
G1 X38.082 Y118.38 E25.11769
G1 X37.899 Y117.271 E25.1831
G1 X37.788 Y116.138 E25.24935
G1 X37.75 Y115 E25.31561
G1 X37.788 Y113.862 E25.38187
G1 X37.899 Y112.729 E25.44812
G1 X38.085 Y111.606 E25.51436
G1 X38.343 Y110.497 E25.58062
G1 X38.674 Y109.407 E25.64691
G1 X39.075 Y108.341 E25.71319
G1 X39.545 Y107.304 E25.77945
G1 X40.082 Y106.3 E25.84571
G1 X40.683 Y105.334 E25.91192
G1 X41.355 Y104.397 E25.97902
G1 X42.068 Y103.528 E26.04444
G1 X42.847 Y102.697 E26.11073
G1 X43.678 Y101.918 E26.17702
G1 X44.558 Y101.196 E26.24326
G1 X45.483 Y100.533 E26.30949
G1 X46.45 Y99.932 E26.37575
G1 X47.454 Y99.395 E26.44201
G1 X48.478 Y98.931 E26.50743
G1 X49.557 Y98.524 E26.57454
G1 X50.647 Y98.193 E26.64083
G1 X51.742 Y97.938 E26.70626
G1 X52.879 Y97.749 E26.77334
G1 X54.012 Y97.638 E26.83959
G1 X55.15 Y97.6 E26.90585
G1 X56.274 Y97.637 E26.9713
G1 X57.421 Y97.749 E27.03837
G1 X58.544 Y97.935 E27.10461
G1 X59.653 Y98.193 E27.17087
G1 X60.743 Y98.524 E27.23716
G1 X61.809 Y98.925 E27.30344
G1 X62.846 Y99.395 E27.3697
G1 X63.837 Y99.925 E27.4351
G1 X64.817 Y100.533 E27.50222
G1 X65.742 Y101.196 E27.56845
G1 X66.622 Y101.918 E27.63469
G1 X67.137 Y102.4 E27.67574
G1 X192.25 Y102.4 E34.95668
G1 X192.25 Y127.6 E36.42319
G1 X67.277 Y127.6 E43.69599
M204 S2500
G1 X67.114 Y127.1 F7200
M204 S2000
G1 F3000
G1 X66.939 Y127.1 E43.70617
G1 X66.293 Y127.706 E43.75772
G1 X65.438 Y128.407 E43.82206
G1 X64.539 Y129.051 E43.88642
G1 X63.6 Y129.635 E43.95077
G1 X62.624 Y130.157 E44.01518
G1 X61.617 Y130.613 E44.07951
G1 X60.582 Y131.003 E44.14388
G1 X59.524 Y131.324 E44.20822
G1 X58.447 Y131.575 E44.27258
G1 X57.356 Y131.755 E44.33693
G1 X56.255 Y131.863 E44.40131
G1 X55.164 Y131.899 E44.46484
G1 X54.044 Y131.863 E44.53005
G1 X52.944 Y131.755 E44.59437
G1 X51.853 Y131.575 E44.65872
G1 X50.776 Y131.324 E44.72308
G1 X49.718 Y131.003 E44.78742
G1 X48.696 Y130.618 E44.85098
G1 X47.675 Y130.156 E44.9162
G1 X46.7 Y129.635 E44.98053
G1 X45.761 Y129.051 E45.04488
G1 X44.874 Y128.415 E45.1084
G1 X44.007 Y127.705 E45.17361
G1 X43.2 Y126.95 E45.23792
G1 X42.444 Y126.143 E45.30227
G1 X41.743 Y125.288 E45.36661
G1 X41.099 Y124.389 E45.43097
G1 X40.515 Y123.45 E45.49532
G1 X39.993 Y122.474 E45.55973
G1 X39.537 Y121.467 E45.62406
G1 X39.147 Y120.432 E45.68843
G1 X38.827 Y119.374 E45.75275
G1 X38.573 Y118.283 E45.81794
G1 X38.395 Y117.206 E45.88147
G1 X38.287 Y116.105 E45.94585
G1 X38.251 Y115 E46.01019
G1 X38.287 Y113.895 E46.07453
G1 X38.395 Y112.794 E46.13891
G1 X38.575 Y111.703 E46.20326
G1 X38.826 Y110.626 E46.26762
G1 X39.147 Y109.568 E46.33196
G1 X39.537 Y108.533 E46.39633
G1 X39.993 Y107.526 E46.46066
G1 X40.515 Y106.55 E46.52507
G1 X41.098 Y105.612 E46.58934
G1 X41.752 Y104.701 E46.6546
G1 X42.444 Y103.857 E46.71812
G1 X43.2 Y103.05 E46.78247
G1 X44.007 Y102.294 E46.84682
G1 X44.862 Y101.593 E46.91116
G1 X45.761 Y100.949 E46.97552
G1 X46.7 Y100.365 E47.03987
G1 X47.676 Y99.843 E47.10428
G1 X48.67 Y99.393 E47.16778
G1 X49.718 Y98.997 E47.23298
G1 X50.776 Y98.676 E47.29732
G1 X51.839 Y98.428 E47.36084
G1 X52.945 Y98.245 E47.42608
G1 X54.045 Y98.137 E47.4904
G1 X55.15 Y98.101 E47.55474
G1 X56.241 Y98.136 E47.61826
G1 X57.356 Y98.245 E47.68346
G1 X58.447 Y98.425 E47.74781
G1 X59.524 Y98.676 E47.81217
G1 X60.582 Y98.997 E47.87651
G1 X61.617 Y99.387 E47.94088
G1 X62.624 Y99.843 E48.00521
G1 X63.587 Y100.358 E48.06876
G1 X64.539 Y100.949 E48.13397
G1 X65.438 Y101.593 E48.19833
G1 X66.293 Y102.294 E48.26267
G1 X66.939 Y102.9 E48.31422
G1 X191.75 Y102.9 E55.57759
G1 X191.75 Y127.1 E56.98591
G1 X67.174 Y127.1 E64.2356
M204 S2500
G1 E62.8356 F4800
;WIPE_START
G1 F5760
G1 X66.939 Y127.1 E62.64956
G1 X66.558 Y127.458 E62.2356
;WIPE_END
G92 E0
G1 X70.549 Y112.862 F7200
G1 E2 F4800
M204 S2000
;TYPE:External perimeter
G1 F3000
G1 X70.667 Y113.983 E2.0656
G1 X70.7 Y115 E2.12482
G1 X70.667 Y116.017 E2.18404
G1 X70.567 Y117.03 E2.24328
G1 X70.401 Y118.034 E2.3025
G1 X70.173 Y119.013 E2.361
G1 X69.875 Y119.998 E2.42089
G1 X69.517 Y120.951 E2.48013
G1 X69.097 Y121.878 E2.53936
G1 X68.617 Y122.775 E2.59856
G1 X68.08 Y123.639 E2.65776
G1 X67.487 Y124.466 E2.71698
G1 X66.841 Y125.253 E2.77623
G1 X66.146 Y125.996 E2.83544
G1 X65.403 Y126.691 E2.89465
G1 X64.616 Y127.337 E2.9539
G1 X63.789 Y127.93 E3.01312
G1 X62.925 Y128.467 E3.07232
G1 X62.028 Y128.947 E3.13152
G1 X61.101 Y129.367 E3.19075
G1 X60.148 Y129.725 E3.24999
G1 X59.175 Y130.02 E3.30916
G1 X58.184 Y130.251 E3.36838
G1 X57.18 Y130.417 E3.4276
G1 X56.167 Y130.517 E3.48684
G1 X55.138 Y130.55 E3.54675
G1 X54.133 Y130.517 E3.60527
G1 X53.12 Y130.417 E3.66451
G1 X52.116 Y130.251 E3.72373
G1 X51.125 Y130.02 E3.78295
G1 X50.151 Y129.725 E3.84217
G1 X49.188 Y129.361 E3.90208
G1 X48.272 Y128.947 E3.96058
G1 X47.375 Y128.467 E4.01978
G1 X46.501 Y127.922 E4.07972
G1 X45.684 Y127.337 E4.1382
G1 X44.897 Y126.691 E4.19745
G1 X44.154 Y125.996 E4.25666
G1 X43.459 Y125.253 E4.31587
G1 X42.813 Y124.466 E4.37512
G1 X42.22 Y123.639 E4.43434
G1 X41.683 Y122.775 E4.49354
G1 X41.203 Y121.878 E4.55274
G1 X40.783 Y120.951 E4.61197
G1 X40.425 Y119.998 E4.67121
G1 X40.13 Y119.024 E4.73043
G1 X39.895 Y118.012 E4.79089
G1 X39.733 Y117.03 E4.84881
G1 X39.633 Y116.017 E4.90805
G1 X39.6 Y115 E4.96727
G1 X39.632 Y114.016 E5.02456
G1 X39.733 Y112.971 E5.08566
G1 X39.899 Y111.966 E5.14494
G1 X40.13 Y110.975 E5.20416
G1 X40.425 Y110.002 E5.26333
G1 X40.783 Y109.049 E5.32257
G1 X41.203 Y108.122 E5.3818
G1 X41.683 Y107.225 E5.441
G1 X42.22 Y106.361 E5.5002
G1 X42.813 Y105.534 E5.55942
G1 X43.459 Y104.747 E5.61867
G1 X44.154 Y104.004 E5.67788
G1 X44.897 Y103.309 E5.73709
G1 X45.684 Y102.663 E5.79634
G1 X46.521 Y102.064 E5.85624
G1 X47.375 Y101.533 E5.91476
G1 X48.272 Y101.053 E5.97396
G1 X49.211 Y100.629 E6.03392
G1 X50.152 Y100.275 E6.09243
G1 X51.125 Y99.98 E6.1516
G1 X52.116 Y99.749 E6.21082
G1 X53.12 Y99.583 E6.27004
G1 X54.145 Y99.483 E6.32997
G1 X55.15 Y99.45 E6.38849
G1 X56.167 Y99.483 E6.44771
G1 X57.18 Y99.583 E6.50695
G1 X58.184 Y99.749 E6.56617
G1 X59.175 Y99.98 E6.62539
G1 X60.149 Y100.275 E6.68461
G1 X61.112 Y100.639 E6.74452
G1 X62.028 Y101.053 E6.80302
G1 X62.925 Y101.533 E6.86222
G1 X63.799 Y102.078 E6.92216
G1 X64.616 Y102.663 E6.98064
G1 X65.403 Y103.309 E7.03989
G1 X66.146 Y104.004 E7.0991
G1 X66.841 Y104.747 E7.15831
G1 X67.487 Y105.534 E7.21756
G1 X68.08 Y106.361 E7.27678
G1 X68.617 Y107.225 E7.33598
G1 X69.097 Y108.122 E7.39518
G1 X69.517 Y109.049 E7.45441
G1 X69.875 Y110.002 E7.51365
G1 X70.17 Y110.976 E7.57287
G1 X70.405 Y111.988 E7.63333
G1 X70.54 Y112.803 E7.68141
M204 S2500
G1 X70.92 Y113.014 F7200
G1 X71.065 Y112.92
M204 S2000
;TYPE:Perimeter
G1 F3000
G1 X71.166 Y113.95 E7.74164
G1 X71.2 Y115 E7.80278
G1 X71.166 Y116.05 E7.86392
G1 X71.063 Y117.095 E7.92503
G1 X70.892 Y118.131 E7.98614
G1 X70.656 Y119.142 E8.04656
G1 X70.349 Y120.159 E8.10838
G1 X69.979 Y121.142 E8.1695
G1 X69.545 Y122.099 E8.23065
G1 X69.05 Y123.025 E8.29175
G1 X68.495 Y123.917 E8.35289
G1 X67.884 Y124.771 E8.414
G1 X67.217 Y125.583 E8.47515
G1 X66.499 Y126.349 E8.53625
G1 X65.733 Y127.067 E8.59735
G1 X64.921 Y127.734 E8.6585
G1 X64.067 Y128.345 E8.71961
G1 X63.175 Y128.9 E8.78075
G1 X62.249 Y129.395 E8.84185
G1 X61.292 Y129.829 E8.903
G1 X60.309 Y130.199 E8.96412
G1 X59.304 Y130.503 E9.02522
G1 X58.281 Y130.742 E9.08636
G1 X57.245 Y130.913 E9.14747
G1 X56.199 Y131.016 E9.20864
G1 X55.138 Y131.05 E9.27042
G1 X54.1 Y131.016 E9.33086
G1 X53.055 Y130.913 E9.39197
G1 X52.019 Y130.742 E9.45308
G1 X50.996 Y130.503 E9.51422
G1 X49.99 Y130.198 E9.5754
G1 X48.996 Y129.824 E9.6372
G1 X48.051 Y129.395 E9.6976
G1 X47.125 Y128.9 E9.7587
G1 X46.223 Y128.338 E9.82055
G1 X45.379 Y127.734 E9.88095
G1 X44.567 Y127.067 E9.9421
G1 X43.801 Y126.349 E10.0032
G1 X43.083 Y125.583 E10.0643
G1 X42.416 Y124.771 E10.12545
G1 X41.805 Y123.917 E10.18656
G1 X41.25 Y123.025 E10.2477
G1 X40.755 Y122.099 E10.3088
G1 X40.321 Y121.142 E10.36995
G1 X39.951 Y120.159 E10.43107
G1 X39.646 Y119.154 E10.49219
G1 X39.404 Y118.109 E10.55461
G1 X39.237 Y117.095 E10.61441
G1 X39.134 Y116.05 E10.67552
G1 X39.1 Y115 E10.73666
G1 X39.133 Y113.984 E10.79582
G1 X39.237 Y112.906 E10.85885
G1 X39.408 Y111.869 E10.92001
G1 X39.647 Y110.846 E10.98115
G1 X39.951 Y109.841 E11.04225
G1 X40.321 Y108.858 E11.10337
G1 X40.755 Y107.901 E11.16452
G1 X41.25 Y106.975 E11.22562
G1 X41.805 Y106.083 E11.28676
G1 X42.416 Y105.229 E11.34787
