; generated by PrusaSlicer 2.6.0+MacOS-x64 on 2023-08-18 at 22:12:51 UTC

; 

; external perimeters extrusion width = 0.45mm
; perimeters extrusion width = 0.40mm
; infill extrusion width = 0.45mm
; solid infill extrusion width = 0.50mm
; top infill extrusion width = 0.45mm
; support material extrusion width = 0.42mm
; first layer extrusion width = 0.56mm

M201 X2500 Y2500 Z800 E2500 ; sets maximum accelerations, mm/sec^2
M203 X300 Y250 Z8 E80 ; sets maximum feedrates, mm / sec
M204 S2500 T2500 ; sets acceleration (S) and retract acceleration (R), mm/sec^2
M205 X15.00 Y10.00 Z2.00 E10.00 ; sets the jerk limits, mm/sec
M205 S0 T0 ; sets the minimum extruding and travel feed rate, mm/sec
;TYPE:Custom
G90 ; use absolute coordinates
M83 ; extruder relative mode
M104 S215 ; set extruder temp
M140 S65 ; set bed temp
M190 S65 ; wait for bed temp
M109 S215 ; wait for extruder temp
G28                                        ; move X/Y/Z to min endstops
G1 Z0.28                                   ; lift nozzle a bit
 
G0 Y235      ; move to max Y (within soft-limit)


G92 E0 
G1 Y3 F1800                                    ; zero the extruded length 
G1 X60  E25 F500                       ; Extrude 25mm of filament in a 5cm line. 
G92 E0                                     ; zero the extruded length again 
G1 E-2 F500                                ; Retract a little 
G1 X70 F4000                              ; Quickly wipe away from the filament line

M211 S0      ; disable software endstop
G0 Y245 X80       ; push forward past the endstop to the nozzle wiper

G0 X90       ; move X to the nozzle wiper
G0 X80       ; move X to wipe the nozzle


M117

G28          ; home all
M211 S1      ; enable software endstop
G21 ; set units to millimeters
G90 ; use absolute coordinates
M82 ; use absolute distances for extrusion
G92 E0
M107
;LAYER_CHANGE
;Z:0.28
;HEIGHT:0.28
; BEFORE_LAYER_CHANGE 0 @ 0.28mm
G1 E-2 F4800
G92 E0
G1 Z.28 F7200
; AFTER_LAYER_CHANGE 0 @ 0.28mm
G1 X52.317 Y104.06
G1 E2 F4800
M204 S2000
;TYPE:External perimeter
;WIDTH:0.56
G1 F3000
G1 X52.309 Y88.797 E2.88823
G1 X52.324 Y87.969 E2.93642
G1 X52.451 Y86.801 E3.00479
G1 X52.682 Y85.648 E3.07322
G1 X53.015 Y84.521 E3.14161
G1 X53.448 Y83.428 E3.21003
G1 X53.977 Y82.379 E3.2784
G1 X54.598 Y81.381 E3.3468
G1 X55.306 Y80.442 E3.41524
G1 X56.096 Y79.572 E3.48363
G1 X56.96 Y78.775 E3.55204
G1 X57.892 Y78.059 E3.62044
G1 X58.884 Y77.43 E3.6888
G1 X59.982 Y76.87 E3.76053
G1 X61.019 Y76.449 E3.82566
G1 X62.143 Y76.106 E3.89405
G1 X63.294 Y75.866 E3.96247
G1 X64.46 Y75.729 E4.03079
G1 X65.692 Y75.701 E4.1025
G1 X66.809 Y75.772 E4.16763
G1 X67.971 Y75.951 E4.23605
G1 X69.112 Y76.233 E4.30445
G1 X70.223 Y76.617 E4.37286
G1 X71.308 Y77.104 E4.44207
G1 X74.902 Y78.798 E4.67329
G1 X80.749 Y81.16 E5.04027
G1 X86.734 Y83.151 E5.40733
G1 X92.832 Y84.761 E5.77436
G1 X99.02 Y85.986 E6.14146
G1 X105.272 Y86.819 E6.50851
G1 X111.564 Y87.259 E6.87557
G1 X117.871 Y87.302 E7.24261
G1 X124.168 Y86.949 E7.60964
G1 X130.431 Y86.202 E7.9767
G1 X136.635 Y85.063 E8.34378
G1 X142.754 Y83.536 E8.7108
G1 X148.766 Y81.628 E9.07786
G1 X154.646 Y79.347 E9.44489
G1 X160.347 Y76.712 E9.81038
G1 X161.014 Y76.46 E9.85187
G1 X162.143 Y76.116 E9.92055
G1 X163.294 Y75.876 E9.98897
G1 X164.461 Y75.739 E10.05735
G1 X165.636 Y75.708 E10.12575
G1 X166.809 Y75.782 E10.19415
G1 X167.971 Y75.961 E10.26257
G1 X169.112 Y76.243 E10.33097
G1 X170.223 Y76.627 E10.39938
G1 X171.295 Y77.108 E10.46776
G1 X172.32 Y77.684 E10.53618
G1 X173.289 Y78.349 E10.60457
G1 X174.195 Y79.099 E10.67302
G1 X175.029 Y79.926 E10.74137
G1 X175.786 Y80.825 E10.80976
G1 X176.46 Y81.789 E10.87821
G1 X177.044 Y82.809 E10.94661
G1 X177.535 Y83.877 E11.01502
G1 X177.928 Y84.985 E11.08344
G1 X178.22 Y86.123 E11.15181
G1 X178.4 Y87.228 E11.21696
G1 X178.493 Y88.46 E11.28886
G1 X178.483 Y103.701 E12.17581
G1 X178.458 Y104.023 E12.19461
G1 X178.362 Y104.293 E12.21129
G1 X178.199 Y104.528 E12.22793
G1 X177.981 Y104.714 E12.24461
G1 X177.723 Y104.837 E12.26124
G1 X177.425 Y104.892 E12.27887
G1 X53.466 Y104.892 E19.49266
G1 X53.144 Y104.866 E19.51146
G1 X52.874 Y104.77 E19.52814
G1 X52.639 Y104.607 E19.54478
G1 X52.453 Y104.389 E19.56146
G1 X52.328 Y104.119 E19.57877
M204 S2500
G1 X52.623 Y103.802 F7200
G1 X52.807 Y103.97
M204 S2000
;TYPE:Perimeter
G1 F3000
G1 X52.809 Y88.802 E20.46147
G1 X52.824 Y88.001 E20.50809
G1 X52.945 Y86.877 E20.57388
G1 X53.168 Y85.768 E20.63971
G1 X53.488 Y84.684 E20.70548
G1 X53.905 Y83.633 E20.77128
G1 X54.413 Y82.624 E20.83702
G1 X55.011 Y81.664 E20.90284
G1 X55.692 Y80.762 E20.96861
G1 X56.451 Y79.924 E21.03441
G1 X57.282 Y79.158 E21.10018
G1 X58.179 Y78.469 E21.166
G1 X59.132 Y77.864 E21.23169
G1 X60.189 Y77.325 E21.30074
G1 X61.186 Y76.921 E21.36334
G1 X62.268 Y76.591 E21.42917
G1 X63.374 Y76.359 E21.49493
G1 X64.495 Y76.228 E21.56061
G1 X65.682 Y76.201 E21.62971
G1 X66.755 Y76.269 E21.69228
G1 X67.873 Y76.441 E21.75811
G1 X68.97 Y76.713 E21.82388
G1 X70.039 Y77.082 E21.88969
G1 X71.099 Y77.558 E21.95731
G1 X74.702 Y79.257 E22.18913
G1 X80.576 Y81.63 E22.55781
G1 X86.591 Y83.63 E22.9267
G1 X92.72 Y85.248 E23.2956
G1 X98.938 Y86.479 E23.66448
G1 X105.221 Y87.317 E24.03336
G1 X111.544 Y87.758 E24.40222
G1 X117.883 Y87.802 E24.77113
G1 X124.212 Y87.447 E25.14002
G1 X130.506 Y86.696 E25.5089
G1 X136.74 Y85.551 E25.87776
G1 X142.891 Y84.017 E26.24668
G1 X148.932 Y82.1 E26.61551
G1 X154.842 Y79.807 E26.98442
G1 X160.541 Y77.173 E27.34978
G1 X161.176 Y76.934 E27.38926
G1 X162.268 Y76.601 E27.4557
G1 X163.374 Y76.369 E27.52146
G1 X164.497 Y76.238 E27.58726
G1 X165.627 Y76.208 E27.65304
G1 X166.755 Y76.279 E27.71881
G1 X167.873 Y76.451 E27.78464
G1 X168.97 Y76.723 E27.85041
G1 X170.039 Y77.092 E27.91622
G1 X171.07 Y77.555 E27.98199
G1 X172.056 Y78.109 E28.04781
G1 X172.988 Y78.749 E28.1136
G1 X173.859 Y79.47 E28.1794
G1 X174.661 Y80.266 E28.24516
G1 X175.39 Y81.13 E28.31095
G1 X176.037 Y82.057 E28.37674
G1 X176.599 Y83.038 E28.44253
G1 X177.071 Y84.065 E28.50831
G1 X177.449 Y85.131 E28.57413
G1 X177.73 Y86.226 E28.63992
G1 X177.903 Y87.287 E28.70248
G1 X177.993 Y88.479 E28.77205
G1 X177.983 Y103.681 E29.65673
G1 X177.964 Y103.917 E29.67051
G1 X177.913 Y104.063 E29.67951
G1 X177.825 Y104.19 E29.6885
G1 X177.707 Y104.291 E29.69754
G1 X177.568 Y104.357 E29.70649
G1 X177.38 Y104.392 E29.71762
G1 X53.486 Y104.392 E36.92762
G1 X53.25 Y104.373 E36.9414
G1 X53.104 Y104.321 E36.95042
G1 X52.977 Y104.233 E36.95941
G1 X52.876 Y104.115 E36.96845
G1 X52.833 Y104.025 E36.97425
M204 S2500
G1 X53.307 Y103.876 F7200
M204 S2000
G1 F3000
G1 X53.309 Y88.807 E37.85119
G1 X53.323 Y88.032 E37.8963
G1 X53.44 Y86.953 E37.95946
G1 X53.653 Y85.889 E38.02261
G1 X53.961 Y84.847 E38.08584
G1 X54.361 Y83.838 E38.149
G1 X54.85 Y82.869 E38.21216
G1 X55.423 Y81.947 E38.27533
G1 X56.077 Y81.081 E38.33848
G1 X56.806 Y80.276 E38.40168
G1 X57.605 Y79.54 E38.4649
G1 X58.466 Y78.879 E38.52807
G1 X59.38 Y78.299 E38.59107
G1 X60.397 Y77.781 E38.65749
G1 X61.354 Y77.392 E38.71761
G1 X62.392 Y77.076 E38.78075
G1 X63.455 Y76.853 E38.84396
G1 X64.53 Y76.728 E38.90694
G1 X65.672 Y76.702 E38.97342
G1 X66.701 Y76.767 E39.03342
G1 X67.774 Y76.932 E39.0966
G1 X68.828 Y77.193 E39.15979
G1 X69.854 Y77.547 E39.22295
G1 X70.89 Y78.012 E39.28903
G1 X74.501 Y79.715 E39.52137
G1 X80.404 Y82.099 E39.89185
G1 X86.448 Y84.109 E40.26252
G1 X92.607 Y85.736 E40.63324
G1 X98.856 Y86.972 E41.00395
G1 X105.171 Y87.814 E41.3747
G1 X111.525 Y88.258 E41.74537
G1 X117.895 Y88.302 E42.11608
G1 X124.255 Y87.946 E42.48678
G1 X130.581 Y87.191 E42.85753
G1 X136.846 Y86.04 E43.22822
G1 X143.027 Y84.499 E43.59893
G1 X149.099 Y82.572 E43.96966
G1 X155.037 Y80.268 E44.34032
G1 X160.734 Y77.635 E44.70555
G1 X161.337 Y77.407 E44.74307
G1 X162.392 Y77.086 E44.80724
G1 X163.455 Y76.863 E44.87045
G1 X164.533 Y76.737 E44.93361
G1 X165.618 Y76.708 E44.99677
G1 X166.701 Y76.777 E45.05992
G1 X167.774 Y76.942 E45.1231
G1 X168.828 Y77.203 E45.18629
G1 X169.854 Y77.557 E45.24945
G1 X170.845 Y78.002 E45.31267
G1 X171.791 Y78.534 E45.37583
G1 X172.686 Y79.148 E45.43899
G1 X173.523 Y79.84 E45.50219
G1 X174.293 Y80.605 E45.56536
G1 X174.993 Y81.435 E45.62855
G1 X175.615 Y82.325 E45.69174
G1 X176.154 Y83.267 E45.7549
G1 X176.608 Y84.253 E45.81807
G1 X176.971 Y85.277 E45.8813
G1 X177.24 Y86.328 E45.94443
G1 X177.406 Y87.347 E46.00451
G1 X177.493 Y88.498 E46.07168
G1 X177.483 Y103.661 E46.95409
G1 X177.467 Y103.867 E46.96611
G1 X177.334 Y103.892 E46.97399
G1 X53.367 Y103.881 E54.18824
M204 S2500
G1 E52.78824 F4800
;WIPE_START
G1 F5760
G1 X53.364 Y103.123 E52.18824
;WIPE_END
G92 E0
G1 X172.022 Y78.934 F7200
G1 E2 F4800
M204 S2000
;TYPE:Solid infill
;WIDTH:0.560552
G1 F3000
G1 X173.983 Y80.896 E2.16161
G1 X174.655 Y81.694 E2.22239
G1 X175.256 Y82.553 E2.28347
G1 X175.689 Y83.31 E2.33428
G1 X170.9 Y78.52 E2.72889
G1 X170.653 Y78.382 E2.74537
G1 X169.586 Y77.914 E2.81325
G1 X176.284 Y84.612 E3.3651
G1 X176.564 Y85.401 E3.41388
G1 X176.632 Y85.668 E3.42993
G1 X168.531 Y77.567 E4.09738
G1 X167.602 Y77.345 E4.15303
G1 X176.853 Y86.597 E4.91527
G1 X176.987 Y87.438 E4.96488
G1 X166.765 Y77.217 E5.80704
G1 X165.999 Y77.158 E5.8518
G1 X177.045 Y88.204 E6.76189
G1 X177.068 Y88.514 E6.78
G1 X177.068 Y88.935 E6.80453
G1 X165.276 Y77.143 E7.77608
G1 X164.586 Y77.161 E7.81629
G1 X177.067 Y89.642 E8.84461
G1 X177.067 Y90.35 E8.88586
G1 X163.951 Y77.233 E9.96654
G1 X163.523 Y77.283 E9.99164
G1 X163.333 Y77.323 E10.00295
G1 X177.067 Y91.057 E11.13451
G1 X177.066 Y91.764 E11.1757
G1 X162.747 Y77.445 E12.35545
G1 X162.498 Y77.498 E12.37028
G1 X162.187 Y77.592 E12.38921
G1 X177.066 Y92.471 E13.6151
G1 X177.065 Y93.179 E13.65635
G1 X161.644 Y77.758 E14.9269
G1 X161.121 Y77.943 E14.95922
G1 X177.065 Y93.886 E16.27282
G1 X177.064 Y94.593 E16.31401
G1 X160.624 Y78.154 E17.66847
G1 X160.14 Y78.377 E17.69952
G1 X177.064 Y95.301 E19.0939
G1 X177.063 Y96.008 E19.13509
G1 X159.656 Y78.601 E20.56927
G1 X159.172 Y78.825 E20.60034
G1 X177.063 Y96.715 E22.07435
G1 X177.063 Y97.423 E22.1156
G1 X158.688 Y79.048 E23.62953
G1 X158.204 Y79.272 E23.6606
G1 X177.062 Y98.13 E25.21433
G1 X177.062 Y98.837 E25.25552
G1 X157.72 Y79.496 E26.84908
G1 X157.236 Y79.72 E26.88015
G1 X177.061 Y99.545 E28.51355
G1 X177.061 Y100.252 E28.55474
G1 X156.752 Y79.943 E30.22802
G1 X156.268 Y80.167 E30.25909
G1 X177.06 Y100.959 E31.97216
G1 X177.06 Y101.667 E32.01341
G1 X155.784 Y80.391 E33.76636
G1 X155.3 Y80.614 E33.79741
G1 X177.059 Y102.374 E35.59019
G1 X177.059 Y103.081 E35.63138
G1 X154.795 Y80.817 E37.46573
G1 X154.285 Y81.015 E37.4976
G1 X176.737 Y103.467 E39.34744
G1 X176.029 Y103.467 E39.38869
G1 X153.775 Y81.213 E41.22222
G1 X153.265 Y81.411 E41.25409
G1 X175.321 Y103.467 E43.0713
G1 X174.613 Y103.467 E43.11255
G1 X152.756 Y81.609 E44.91341
G1 X152.246 Y81.807 E44.94528
G1 X173.906 Y103.467 E46.72987
G1 X173.198 Y103.467 E46.77112
G1 X151.736 Y82.005 E48.53939
G1 X151.226 Y82.202 E48.57124
G1 X172.49 Y103.467 E50.32324
G1 X171.782 Y103.467 E50.36449
G1 X150.716 Y82.4 E52.10018
G1 X150.206 Y82.598 E52.13205
G1 X171.075 Y103.467 E53.85146
G1 X170.367 Y103.467 E53.89271
G1 X149.696 Y82.796 E55.59581
G1 X149.183 Y82.991 E55.62778
G1 X169.659 Y103.467 E57.31482
G1 X168.951 Y103.467 E57.35607
G1 X148.646 Y83.161 E59.02906
G1 X148.109 Y83.332 E59.06189
G1 X168.244 Y103.467 E60.72083
G1 X167.536 Y103.467 E60.76208
G1 X147.571 Y83.502 E62.40701
G1 X147.034 Y83.673 E62.43984
G1 X166.828 Y103.467 E64.07068
G1 X166.12 Y103.467 E64.11193
G1 X146.497 Y83.843 E65.72873
G1 X145.96 Y84.014 E65.76156
G1 X165.413 Y103.467 E67.36431
G1 X164.705 Y103.467 E67.40556
G1 X145.422 Y84.184 E68.9943
G1 X144.885 Y84.355 E69.02713
G1 X163.997 Y103.467 E70.60178
G1 X163.289 Y103.467 E70.64303
G1 X144.348 Y84.525 E72.20364
G1 X143.811 Y84.696 E72.23647
G1 X162.582 Y103.467 E73.78303
G1 X161.874 Y103.467 E73.82428
G1 X143.273 Y84.866 E75.35683
G1 X142.714 Y85.015 E75.39053
G1 X161.166 Y103.467 E76.91081
G1 X160.458 Y103.467 E76.95206
G1 X142.147 Y85.156 E78.46072
G1 X141.581 Y85.297 E78.4947
G1 X159.751 Y103.467 E79.99174
G1 X159.043 Y103.467 E80.03299
G1 X141.014 Y85.439 E81.51837
G1 X140.448 Y85.58 E81.55235
G1 X158.335 Y103.467 E83.02608
G1 X157.627 Y103.467 E83.06733
G1 X139.882 Y85.721 E84.5294
G1 X139.315 Y85.862 E84.56344
G1 X156.919 Y103.467 E86.01389
G1 X156.212 Y103.467 E86.05508
G1 X138.749 Y86.004 E87.49387
G1 X138.182 Y86.145 E87.52791
G1 X155.504 Y103.467 E88.95508
G1 X154.796 Y103.467 E88.99633
G1 X137.616 Y86.286 E90.41185
G1 X137.049 Y86.428 E90.4459
G1 X154.088 Y103.467 E91.84976
G1 X153.381 Y103.467 E91.89095
G1 X136.458 Y86.544 E93.28525
G1 X135.86 Y86.654 E93.32067
G1 X152.673 Y103.467 E94.70591
G1 X151.965 Y103.467 E94.74716
G1 X135.262 Y86.763 E96.12338
G1 X134.664 Y86.873 E96.1588
G1 X151.257 Y103.467 E97.52595
G1 X150.55 Y103.467 E97.56714
G1 X134.066 Y86.983 E98.92527
G1 X133.468 Y87.093 E98.96069
G1 X149.842 Y103.467 E100.30976
G1 X149.134 Y103.467 E100.35101
G1 X132.87 Y87.203 E101.69101
G1 X132.272 Y87.312 E101.72642
G1 X148.426 Y103.467 E103.0574
G1 X147.719 Y103.467 E103.09859
G1 X131.674 Y87.422 E104.42055
G1 X131.076 Y87.532 E104.45597
G1 X147.011 Y103.467 E105.76887
G1 X146.303 Y103.467 E105.81012
G1 X130.468 Y87.632 E107.11478
G1 X129.836 Y87.708 E107.15187
G1 X145.595 Y103.467 E108.45027
G1 X144.888 Y103.467 E108.49146
G1 X129.204 Y87.783 E109.78368
G1 X128.572 Y87.859 E109.82077
G1 X144.18 Y103.467 E111.10673
G1 X143.472 Y103.467 E111.14798
G1 X127.939 Y87.934 E112.42776
G1 X127.307 Y88.01 E112.46485
G1 X142.764 Y103.467 E113.73837
G1 X142.056 Y103.467 E113.77962
G1 X126.675 Y88.085 E115.04691
G1 X126.042 Y88.16 E115.08405
G1 X141.349 Y103.467 E116.34521
G1 X140.641 Y103.467 E116.38646
G1 X125.41 Y88.236 E117.64136
G1 X124.778 Y88.311 E117.67844
G1 X139.933 Y103.467 E118.92711
G1 X139.225 Y103.467 E118.96836
G1 X124.137 Y88.378 E120.21151
G1 X123.466 Y88.416 E120.25066
G1 X138.518 Y103.467 E121.49077
G1 X137.81 Y103.467 E121.53202
G1 X122.796 Y88.453 E122.76904
G1 X122.126 Y88.491 E122.80814
G1 X137.102 Y103.467 E124.04203
G1 X136.394 Y103.467 E124.08328
G1 X121.456 Y88.528 E125.31408
G1 X120.785 Y88.566 E125.35323
G1 X135.687 Y103.467 E126.58098
G1 X134.979 Y103.467 E126.62223
G1 X120.115 Y88.603 E127.84689
G1 X119.445 Y88.641 E127.88599
G1 X134.271 Y103.467 E129.10752
G1 X133.563 Y103.467 E129.14877
G1 X118.775 Y88.678 E130.36721
G1 X118.105 Y88.716 E130.40631
G1 X132.856 Y103.467 E131.62166
G1 X132.148 Y103.467 E131.66291
G1 X117.404 Y88.724 E132.87764
G1 X116.692 Y88.719 E132.91912
G1 X131.44 Y103.467 E134.13422
G1 X130.732 Y103.467 E134.17547
G1 X115.979 Y88.714 E135.39098
G1 X115.267 Y88.709 E135.43246
G1 X130.025 Y103.467 E136.64838
G1 X129.317 Y103.467 E136.68963
G1 X114.554 Y88.704 E137.90597
G1 X113.841 Y88.699 E137.94751
G1 X128.609 Y103.467 E139.16426
G1 X127.901 Y103.467 E139.20551
G1 X113.129 Y88.694 E140.42263
G1 X112.416 Y88.689 E140.46417
G1 X127.193 Y103.467 E141.6817
G1 X126.486 Y103.467 E141.72289
G1 X111.703 Y88.684 E142.94087
G1 X110.955 Y88.644 E142.98451
G1 X125.778 Y103.467 E144.20579
G1 X125.07 Y103.467 E144.24704
G1 X110.195 Y88.591 E145.47265
G1 X109.434 Y88.538 E145.51709
G1 X124.362 Y103.467 E146.74706
G1 X123.655 Y103.467 E146.78825
G1 X108.673 Y88.485 E148.02263
G1 X107.912 Y88.432 E148.06707
G1 X122.947 Y103.467 E149.30582
G1 X122.239 Y103.467 E149.34707
G1 X107.151 Y88.379 E150.59018
G1 X106.39 Y88.325 E150.63463
G1 X121.531 Y103.467 E151.88215
G1 X120.824 Y103.467 E151.92334
G1 X105.629 Y88.272 E153.17527
G1 X104.849 Y88.2 E153.22091
G1 X120.116 Y103.467 E154.47877
G1 X119.408 Y103.467 E154.52002
G1 X104.033 Y88.091 E155.78682
G1 X103.216 Y87.982 E155.83484
G1 X118.7 Y103.467 E157.11062
G1 X117.993 Y103.467 E157.15181
G1 X102.399 Y87.874 E158.43657
G1 X101.583 Y87.765 E158.48453
G1 X117.285 Y103.467 E159.77823
G1 X116.577 Y103.467 E159.81948
G1 X100.766 Y87.656 E161.12216
G1 X99.949 Y87.547 E161.17018
G1 X115.869 Y103.467 E162.48184
G1 X115.162 Y103.467 E162.52303
G1 X99.133 Y87.438 E163.84367
G1 X98.787 Y87.392 E163.86401
G1 X98.278 Y87.291 E163.89424
G1 X114.454 Y103.467 E165.22699
G1 X113.746 Y103.467 E165.26824
