; generated by PrusaSlicer 2.6.0+MacOS-x64 on 2023-08-17 at 02:43:34 UTC

; 

; external perimeters extrusion width = 0.45mm
; perimeters extrusion width = 0.40mm
; infill extrusion width = 0.45mm
; solid infill extrusion width = 0.50mm
; top infill extrusion width = 0.45mm
; support material extrusion width = 0.42mm
; first layer extrusion width = 0.56mm

; external perimeters extrusion width = 0.45mm
; perimeters extrusion width = 0.40mm
; infill extrusion width = 0.45mm
; solid infill extrusion width = 0.50mm
; top infill extrusion width = 0.45mm
; support material extrusion width = 0.42mm
; first layer extrusion width = 0.56mm

M201 X2500 Y2500 Z800 E2500 ; sets maximum accelerations, mm/sec^2
M203 X300 Y250 Z8 E80 ; sets maximum feedrates, mm / sec
M204 S2500 T2500 ; sets acceleration (S) and retract acceleration (R), mm/sec^2
M205 X15.00 Y10.00 Z2.00 E10.00 ; sets the jerk limits, mm/sec
M205 S0 T0 ; sets the minimum extruding and travel feed rate, mm/sec
;TYPE:Custom
G90 ; use absolute coordinates
M83 ; extruder relative mode
M104 S215 ; set extruder temp
M140 S65 ; set bed temp
M190 S65 ; wait for bed temp
M109 S215 ; wait for extruder temp
G28                                        ; move X/Y/Z to min endstops
G1 Z0.28                                   ; lift nozzle a bit
 
G0 Y235      ; move to max Y (within soft-limit)


G92 E0 
G1 Y3 F1800                                    ; zero the extruded length 
G1 X60  E25 F500                       ; Extrude 25mm of filament in a 5cm line. 
G92 E0                                     ; zero the extruded length again 
G1 E-2 F500                                ; Retract a little 
G1 X70 F4000                              ; Quickly wipe away from the filament line

M211 S0      ; disable software endstop
G0 Y245 X80       ; push forward past the endstop to the nozzle wiper

G0 X90       ; move X to the nozzle wiper
G0 X80       ; move X to wipe the nozzle


M117

G28          ; home all
M211 S1      ; enable software endstop
G21 ; set units to millimeters
G90 ; use absolute coordinates
M82 ; use absolute distances for extrusion
G92 E0
M107
;LAYER_CHANGE
;Z:0.28
;HEIGHT:0.28
; BEFORE_LAYER_CHANGE 0 @ 0.28mm
G1 E-2 F4800
G92 E0
G1 Z.28 F7200
; AFTER_LAYER_CHANGE 0 @ 0.28mm
G1 X51.922 Y83.588
G1 E2 F4800
M204 S2000
;TYPE:External perimeter
;WIDTH:0.56
G1 F3000
G1 X51.947 Y83.279 E2.01804
G1 X52.043 Y83.01 E2.03466
G1 X52.205 Y82.774 E2.05132
G1 X52.423 Y82.588 E2.068
G1 X52.682 Y82.465 E2.08469
G1 X52.979 Y82.411 E2.10226
G1 X176.938 Y82.411 E9.31605
G1 X177.26 Y82.437 E9.33485
G1 X177.53 Y82.532 E9.35151
G1 X177.766 Y82.695 E9.3682
G1 X177.951 Y82.913 E9.38484
G1 X178.074 Y83.171 E9.40147
G1 X178.097 Y83.295 E9.40881
G1 X178.095 Y98.505 E10.29395
G1 X178.08 Y99.333 E10.34214
G1 X177.954 Y100.502 E10.41056
G1 X177.723 Y101.654 E10.47894
G1 X177.389 Y102.781 E10.54735
G1 X176.956 Y103.874 E10.61577
G1 X176.427 Y104.924 E10.68419
G1 X175.806 Y105.922 E10.75259
G1 X175.098 Y106.86 E10.82098
G1 X174.309 Y107.731 E10.88937
G1 X173.444 Y108.527 E10.95778
G1 X172.512 Y109.243 E11.02618
G1 X171.52 Y109.873 E11.09457
G1 X170.475 Y110.411 E11.16297
G1 X169.385 Y110.853 E11.23142
G1 X168.261 Y111.196 E11.29981
G1 X167.111 Y111.437 E11.36819
G1 X165.943 Y111.573 E11.43662
G1 X164.768 Y111.605 E11.50502
G1 X163.595 Y111.531 E11.57342
G1 X162.433 Y111.352 E11.64184
G1 X161.292 Y111.069 E11.71025
G1 X160.181 Y110.686 E11.77864
G1 X159.096 Y110.198 E11.84787
G1 X155.502 Y108.504 E12.07909
G1 X149.655 Y106.142 E12.44607
G1 X143.67 Y104.152 E12.81312
G1 X137.572 Y102.541 E13.18017
G1 X131.385 Y101.317 E13.5472
G1 X125.133 Y100.483 E13.91426
G1 X118.841 Y100.044 E14.28131
G1 X112.534 Y100 E14.64835
G1 X106.236 Y100.353 E15.01544
G1 X99.973 Y101.1 E15.3825
G1 X93.77 Y102.24 E15.74953
G1 X87.65 Y103.766 E16.11659
G1 X81.638 Y105.674 E16.48365
G1 X75.758 Y107.955 E16.85068
G1 X70.475 Y110.401 E17.18948
G1 X70.059 Y110.59 E17.21607
G1 X69.39 Y110.842 E17.25767
G1 X68.261 Y111.186 E17.32635
G1 X67.111 Y111.427 E17.39473
G1 X65.943 Y111.563 E17.46316
G1 X64.768 Y111.595 E17.53156
G1 X63.595 Y111.521 E17.59996
G1 X62.433 Y111.342 E17.66838
G1 X61.292 Y111.059 E17.73679
G1 X60.181 Y110.676 E17.80518
G1 X59.109 Y110.194 E17.87358
G1 X58.084 Y109.618 E17.942
G1 X57.115 Y108.953 E18.01039
G1 X56.21 Y108.204 E18.07875
G1 X55.375 Y107.376 E18.14718
G1 X54.618 Y106.477 E18.21557
G1 X53.945 Y105.513 E18.28399
G1 X53.36 Y104.494 E18.35237
G1 X52.893 Y103.476 E18.41755
G1 X52.476 Y102.317 E18.48923
G1 X52.185 Y101.179 E18.55759
G1 X51.996 Y100.019 E18.62599
G1 X51.912 Y98.843 E18.6946
G1 X51.921 Y83.648 E19.57887
M204 S2500
G1 X52.198 Y83.447 F7200
G1 X52.421 Y83.622
M204 S2000
;TYPE:Perimeter
G1 F3000
G1 X52.44 Y83.385 E19.59271
G1 X52.492 Y83.239 E19.60173
G1 X52.58 Y83.112 E19.61072
G1 X52.697 Y83.012 E19.61968
G1 X52.837 Y82.945 E19.62871
G1 X53.025 Y82.911 E19.63983
G1 X176.918 Y82.911 E26.84977
G1 X177.155 Y82.93 E26.86361
G1 X177.3 Y82.981 E26.87255
G1 X177.428 Y83.069 E26.88159
G1 X177.528 Y83.187 E26.89059
G1 X177.597 Y83.332 E26.89993
G1 X177.595 Y98.5 E27.78263
G1 X177.581 Y99.302 E27.82931
G1 X177.459 Y100.426 E27.89511
G1 X177.237 Y101.534 E27.96087
G1 X176.916 Y102.618 E28.02666
G1 X176.5 Y103.669 E28.09244
G1 X175.991 Y104.679 E28.15826
G1 X175.394 Y105.638 E28.224
G1 X174.712 Y106.541 E28.28985
G1 X173.953 Y107.378 E28.3556
G1 X173.122 Y108.145 E28.42141
G1 X172.225 Y108.833 E28.4872
G1 X171.271 Y109.439 E28.55297
G1 X170.266 Y109.956 E28.61874
G1 X169.218 Y110.382 E28.68457
G1 X168.137 Y110.711 E28.75033
G1 X167.03 Y110.943 E28.81615
G1 X165.907 Y111.074 E28.88195
G1 X164.777 Y111.104 E28.94773
G1 X163.649 Y111.033 E29.0135
G1 X162.532 Y110.861 E29.07927
G1 X161.434 Y110.589 E29.1451
G1 X160.366 Y110.22 E29.21086
G1 X159.305 Y109.744 E29.27853
G1 X155.703 Y108.046 E29.51027
G1 X149.828 Y105.673 E29.879
G1 X143.813 Y103.672 E30.2479
G1 X137.685 Y102.054 E30.61674
G1 X131.466 Y100.823 E30.98568
G1 X125.183 Y99.986 E31.35455
G1 X118.86 Y99.544 E31.72341
G1 X112.521 Y99.5 E32.09232
G1 X106.193 Y99.855 E32.46116
G1 X99.899 Y100.606 E32.83004
G1 X93.664 Y101.751 E33.19895
G1 X87.514 Y103.285 E33.56781
G1 X81.472 Y105.202 E33.9367
G1 X75.562 Y107.495 E34.30561
G1 X70.267 Y109.947 E34.64519
G1 X69.867 Y110.128 E34.67074
G1 X69.229 Y110.368 E34.71041
G1 X68.137 Y110.701 E34.77685
G1 X67.03 Y110.933 E34.84267
G1 X65.907 Y111.064 E34.90847
G1 X64.777 Y111.094 E34.97425
G1 X63.649 Y111.023 E35.04002
G1 X62.532 Y110.851 E35.10579
G1 X61.434 Y110.579 E35.17162
G1 X60.366 Y110.21 E35.23738
G1 X59.334 Y109.747 E35.3032
G1 X58.349 Y109.194 E35.36894
G1 X57.417 Y108.554 E35.43473
G1 X56.546 Y107.833 E35.50053
G1 X55.743 Y107.037 E35.56633
G1 X55.015 Y106.172 E35.63212
G1 X54.367 Y105.245 E35.69794
G1 X53.805 Y104.265 E35.76368
G1 X53.356 Y103.287 E35.82631
G1 X52.955 Y102.17 E35.89538
G1 X52.674 Y101.077 E35.96106
G1 X52.493 Y99.961 E36.02685
G1 X52.411 Y98.825 E36.09313
G1 X52.421 Y83.682 E36.97438
M204 S2500
G1 X52.921 Y83.642 F7200
M204 S2000
G1 F3000
G1 X52.937 Y83.435 E36.98646
G1 X53.07 Y83.411 E36.99432
G1 X176.898 Y83.411 E44.20048
G1 X177.097 Y83.426 E44.21209
G1 X177.096 Y98.496 E45.08909
G1 X177.081 Y99.27 E45.13414
G1 X176.964 Y100.349 E45.1973
G1 X176.751 Y101.414 E45.26051
G1 X176.443 Y102.455 E45.32369
G1 X176.043 Y103.464 E45.38685
G1 X175.555 Y104.434 E45.45004
G1 X174.981 Y105.355 E45.51319
G1 X174.327 Y106.222 E45.57639
G1 X173.598 Y107.026 E45.63955
G1 X172.8 Y107.762 E45.70273
G1 X171.939 Y108.423 E45.7659
G1 X171.022 Y109.005 E45.82911
G1 X170.057 Y109.502 E45.89228
G1 X169.051 Y109.91 E45.95546
G1 X168.013 Y110.227 E46.01862
G1 X166.95 Y110.449 E46.08182
G1 X165.872 Y110.575 E46.14498
G1 X164.786 Y110.604 E46.2082
G1 X163.703 Y110.536 E46.27135
G1 X162.63 Y110.37 E46.33454
G1 X161.576 Y110.109 E46.39773
G1 X160.55 Y109.755 E46.46089
G1 X159.514 Y109.29 E46.52697
G1 X155.903 Y107.587 E46.75931
G1 X150.001 Y105.203 E47.12974
G1 X143.956 Y103.193 E47.50047
G1 X137.797 Y101.567 E47.87117
G1 X131.548 Y100.33 E48.24189
G1 X125.234 Y99.488 E48.61259
G1 X118.879 Y99.044 E48.98332
G1 X112.509 Y99 E49.35403
G1 X106.149 Y99.357 E49.72473
G1 X99.824 Y100.111 E50.09542
G1 X93.558 Y101.262 E50.46617
G1 X87.378 Y102.804 E50.83684
G1 X81.306 Y104.73 E51.20755
G1 X75.367 Y107.035 E51.57829
G1 X70.059 Y109.492 E51.91868
G1 X69.676 Y109.665 E51.94314
G1 X69.068 Y109.895 E51.98097
G1 X68.012 Y110.217 E52.04522
G1 X66.95 Y110.439 E52.10836
G1 X65.872 Y110.565 E52.17152
G1 X64.786 Y110.594 E52.23474
G1 X63.703 Y110.526 E52.29789
G1 X62.63 Y110.36 E52.36108
G1 X61.576 Y110.099 E52.42427
G1 X60.55 Y109.745 E52.48743
G1 X59.56 Y109.3 E52.5506
G1 X58.613 Y108.769 E52.61378
G1 X57.718 Y108.154 E52.67698
G1 X56.882 Y107.462 E52.74014
G1 X56.111 Y106.698 E52.80331
G1 X55.412 Y105.867 E52.8665
G1 X54.79 Y104.977 E52.92969
G1 X54.25 Y104.035 E52.99288
G1 X53.819 Y103.098 E53.0529
G1 X53.433 Y102.023 E53.11937
G1 X53.164 Y100.974 E53.18239
G1 X52.99 Y99.903 E53.24553
G1 X52.911 Y98.808 E53.30942
G1 X52.921 Y83.702 E54.18851
M204 S2500
G1 E52.78851 F4800
;WIPE_START
G1 F5760
G1 X52.937 Y83.435 E52.57676
G1 X53.07 Y83.411 E52.46977
G1 X53.425 Y83.411 E52.18851
;WIPE_END
G92 E0
G1 X176.897 Y84.622 F7200
G1 E2 F4800
M204 S2000
;TYPE:Solid infill
;WIDTH:0.560552
G1 F3000
G1 X176.11 Y83.836 E2.0648
G1 X175.403 Y83.836 E2.10599
G1 X176.672 Y85.105 E2.21054
G1 X176.672 Y85.813 E2.25179
G1 X174.695 Y83.836 E2.41468
G1 X173.987 Y83.836 E2.45593
G1 X176.672 Y86.52 E2.67711
G1 X176.672 Y87.228 E2.71836
G1 X173.279 Y83.836 E2.99787
G1 X172.571 Y83.836 E3.03912
G1 X176.672 Y87.936 E3.37696
G1 X176.672 Y88.643 E3.41815
G1 X171.864 Y83.836 E3.81424
G1 X171.156 Y83.836 E3.85549
G1 X176.672 Y89.351 E4.30992
G1 X176.671 Y90.059 E4.35117
G1 X170.448 Y83.836 E4.86389
G1 X169.74 Y83.836 E4.90514
G1 X176.671 Y90.766 E5.47615
G1 X176.671 Y91.474 E5.5174
G1 X169.033 Y83.836 E6.1467
G1 X168.325 Y83.836 E6.18795
G1 X176.671 Y92.182 E6.87558
G1 X176.671 Y92.89 E6.91683
G1 X167.617 Y83.836 E7.6628
G1 X166.909 Y83.836 E7.70405
G1 X176.671 Y93.597 E8.50831
G1 X176.671 Y94.305 E8.54956
G1 X166.202 Y83.836 E9.41211
G1 X165.494 Y83.836 E9.45336
G1 X176.671 Y95.013 E10.37424
G1 X176.671 Y95.72 E10.41543
G1 X164.786 Y83.836 E11.3946
G1 X164.078 Y83.836 E11.43585
G1 X176.671 Y96.428 E12.47336
G1 X176.671 Y97.136 E12.51461
G1 X163.371 Y83.836 E13.61041
G1 X162.663 Y83.836 E13.65166
G1 X176.671 Y97.843 E14.80575
G1 X176.67 Y98.55 E14.84694
G1 X161.955 Y83.836 E16.05928
G1 X161.247 Y83.836 E16.10053
G1 X176.657 Y99.245 E17.37013
G1 X176.588 Y99.883 E17.40752
G1 X160.54 Y83.836 E18.72969
G1 X159.832 Y83.836 E18.77094
G1 X176.5 Y100.504 E20.14423
G1 X176.382 Y101.093 E20.17923
G1 X159.124 Y83.836 E21.60109
G1 X158.416 Y83.836 E21.64234
G1 X176.237 Y101.656 E23.11059
G1 X176.075 Y102.202 E23.14377
G1 X157.708 Y83.836 E24.657
G1 X157.001 Y83.836 E24.69819
G1 X175.882 Y102.717 E26.25381
G1 X175.681 Y103.224 E26.28558
G1 X156.293 Y83.836 E27.88297
G1 X155.585 Y83.836 E27.92422
G1 X175.449 Y103.699 E29.56079
G1 X175.212 Y104.17 E29.59151
G1 X154.877 Y83.836 E31.26689
G1 X154.17 Y83.836 E31.30808
G1 X174.944 Y104.61 E33.01967
G1 X174.673 Y105.046 E33.04958
G1 X153.462 Y83.836 E34.79713
G1 X152.754 Y83.836 E34.83838
G1 X174.373 Y105.455 E36.61959
G1 X174.069 Y105.858 E36.649
G1 X152.046 Y83.836 E38.46345
G1 X151.339 Y83.836 E38.50464
G1 X173.74 Y106.237 E40.35028
G1 X173.403 Y106.608 E40.37948
G1 X150.631 Y83.836 E42.25568
G1 X149.923 Y83.836 E42.29693
G1 X173.045 Y106.958 E44.20197
G1 X172.677 Y107.297 E44.23112
G1 X149.215 Y83.836 E46.16413
G1 X148.508 Y83.836 E46.20532
G1 X172.29 Y107.618 E48.16474
G1 X171.89 Y107.925 E48.19412
G1 X147.8 Y83.836 E50.17887
G1 X147.092 Y83.836 E50.22012
G1 X171.472 Y108.216 E52.22881
G1 X171.039 Y108.491 E52.25869
G1 X146.384 Y83.836 E54.29004
G1 X145.677 Y83.836 E54.33123
G1 X170.59 Y108.749 E56.38383
G1 X170.123 Y108.99 E56.41445
G1 X144.969 Y83.836 E58.48691
G1 X144.261 Y83.836 E58.52816
G1 X169.638 Y109.213 E60.61899
G1 X169.135 Y109.417 E60.65061
G1 X143.553 Y83.836 E62.75829
G1 X142.845 Y83.836 E62.79954
G1 X168.61 Y109.6 E64.9223
G1 X168.068 Y109.766 E64.95532
G1 X142.138 Y83.836 E67.09171
G1 X141.43 Y83.836 E67.13296
G1 X167.495 Y109.901 E69.28048
G1 X166.91 Y110.023 E69.31529
G1 X140.722 Y83.836 E71.4729
G1 X140.014 Y83.836 E71.51415
G1 X166.279 Y110.1 E73.6781
G1 X165.841 Y110.151 E73.70379
G1 X165.628 Y110.156 E73.7162
G1 X139.307 Y83.836 E75.88477
G1 X138.599 Y83.836 E75.92602
G1 X164.938 Y110.175 E78.09611
G1 X164.794 Y110.179 E78.1045
G1 X164.197 Y110.141 E78.13935
G1 X137.891 Y83.836 E80.30668
G1 X137.183 Y83.836 E80.34793
G1 X163.408 Y110.06 E82.50859
G1 X162.554 Y109.914 E82.55907
G1 X136.476 Y83.836 E84.70766
G1 X135.768 Y83.836 E84.74891
G1 X161.601 Y109.668 E86.87727
G1 X160.707 Y109.36 E86.93236
G1 X160.485 Y109.26 E86.94655
G1 X135.06 Y83.836 E89.0413
G1 X134.352 Y83.836 E89.08255
G1 X159.179 Y108.662 E91.12803
G1 X157.84 Y108.031 E91.21427
G1 X133.645 Y83.836 E93.20772
G1 X132.937 Y83.836 E93.24897
G1 X156.501 Y107.399 E95.19039
G1 X156.074 Y107.198 E95.21788
G1 X155.265 Y106.871 E95.26872
G1 X132.229 Y83.836 E97.16663
G1 X131.521 Y83.836 E97.20788
G1 X154.077 Y106.392 E99.06629
G1 X152.89 Y105.912 E99.14088
G1 X130.814 Y83.836 E100.95974
G1 X130.106 Y83.836 E101.00099
G1 X151.703 Y105.433 E102.78039
G1 X150.515 Y104.953 E102.85504
G1 X129.398 Y83.836 E104.59489
G1 X128.69 Y83.836 E104.63614
G1 X149.416 Y104.561 E106.34373
G1 X148.355 Y104.208 E106.40887
G1 X127.982 Y83.836 E108.08738
G1 X127.275 Y83.836 E108.12857
G1 X147.295 Y103.856 E109.77803
G1 X146.235 Y103.503 E109.84312
G1 X126.567 Y83.836 E111.46354
G1 X125.859 Y83.836 E111.50479
G1 X145.174 Y103.15 E113.09613
G1 X144.114 Y102.798 E113.1612
G1 X125.151 Y83.836 E114.72354
G1 X124.444 Y83.836 E114.76473
G1 X143.149 Y102.54 E116.30581
G1 X142.187 Y102.286 E116.36378
G1 X123.736 Y83.836 E117.88393
G1 X123.028 Y83.836 E117.92518
G1 X141.225 Y102.032 E119.42441
G1 X140.263 Y101.778 E119.48238
G1 X122.32 Y83.836 E120.96068
G1 X121.613 Y83.836 E121.00187
G1 X139.301 Y101.524 E122.4592
G1 X138.34 Y101.27 E122.51711
G1 X120.905 Y83.836 E123.95355
G1 X120.197 Y83.836 E123.9948
G1 X137.42 Y101.059 E125.41382
G1 X136.538 Y100.884 E125.46621
G1 X119.489 Y83.836 E126.87085
G1 X118.782 Y83.836 E126.91204
G1 X135.656 Y100.71 E128.3023
G1 X134.773 Y100.535 E128.35474
G1 X118.074 Y83.836 E129.73058
G1 X117.366 Y83.836 E129.77183
G1 X133.891 Y100.36 E131.1333
G1 X133.008 Y100.186 E131.18573
G1 X116.658 Y83.836 E132.53282
G1 X115.951 Y83.836 E132.57401
G1 X132.126 Y100.011 E133.90668
G1 X131.617 Y99.91 E133.93691
G1 X131.272 Y99.864 E133.95719
G1 X115.243 Y83.836 E135.27779
G1 X114.535 Y83.836 E135.31904
G1 X130.455 Y99.755 E136.63066
G1 X129.638 Y99.647 E136.67867
G1 X113.827 Y83.836 E137.98135
G1 X113.12 Y83.836 E138.02254
G1 X128.822 Y99.538 E139.31624
G1 X128.005 Y99.429 E139.36426
G1 X112.412 Y83.836 E140.64898
G1 X111.704 Y83.836 E140.69023
G1 X127.188 Y99.32 E141.96597
G1 X126.372 Y99.211 E142.01393
G1 X110.996 Y83.836 E143.28073
G1 X110.288 Y83.836 E143.32198
G1 X125.555 Y99.102 E144.5798
G1 X124.775 Y99.03 E144.62544
G1 X109.581 Y83.836 E145.87729
G1 X108.873 Y83.836 E145.91854
G1 X124.014 Y98.977 E147.16602
G1 X123.253 Y98.924 E147.21046
G1 X108.165 Y83.836 E148.45357
G1 X107.457 Y83.836 E148.49482
G1 X122.492 Y98.871 E149.73357
G1 X121.732 Y98.817 E149.77796
G1 X106.75 Y83.836 E151.0123
G1 X106.042 Y83.836 E151.05355
G1 X120.971 Y98.764 E152.28352
G1 X120.21 Y98.711 E152.32796
G1 X105.334 Y83.836 E153.55357
G1 X104.626 Y83.836 E153.59482
G1 X119.449 Y98.658 E154.81606
G1 X118.701 Y98.618 E154.8597
G1 X103.919 Y83.836 E156.0776
G1 X103.211 Y83.836 E156.11885
G1 X117.988 Y98.613 E157.33634
G1 X117.276 Y98.608 E157.37782
G1 X102.503 Y83.836 E158.59494
G1 X101.795 Y83.836 E158.63619
G1 X116.563 Y98.603 E159.8529
G1 X115.85 Y98.598 E159.89444
G1 X101.088 Y83.836 E161.11069
G1 X100.38 Y83.836 E161.15194
G1 X115.138 Y98.594 E162.36786
G1 X114.425 Y98.589 E162.4094
G1 X99.672 Y83.836 E163.62491
G1 X98.964 Y83.836 E163.66616
