; generated by PrusaSlicer 2.6.0+MacOS-x64 on 2023-08-07 at 00:41:37 UTC

; 

; external perimeters extrusion width = 0.45mm
; perimeters extrusion width = 0.40mm
; infill extrusion width = 0.45mm
; solid infill extrusion width = 0.50mm
; top infill extrusion width = 0.45mm
; first layer extrusion width = 0.56mm

M201 X2500 Y2500 Z800 E2500 ; sets maximum accelerations, mm/sec^2
M203 X300 Y250 Z8 E80 ; sets maximum feedrates, mm / sec
M204 S2500 T2500 ; sets acceleration (S) and retract acceleration (R), mm/sec^2
M205 X15.00 Y10.00 Z2.00 E10.00 ; sets the jerk limits, mm/sec
M205 S0 T0 ; sets the minimum extruding and travel feed rate, mm/sec
;TYPE:Custom
G90 ; use absolute coordinates
M83 ; extruder relative mode
M104 S215 ; set extruder temp
M140 S60 ; set bed temp
M190 S60 ; wait for bed temp
M109 S215 ; wait for extruder temp
G28                                        ; move X/Y/Z to min endstops
G1 Z0.28                                   ; lift nozzle a bit 
G92 E0 
G1 Y3 F1800                                    ; zero the extruded length 
G1 X60  E25 F500                       ; Extrude 25mm of filament in a 5cm line. 
G92 E0                                     ; zero the extruded length again 
G1 E-2 F500                                ; Retract a little 
G1 X70 F4000                              ; Quickly wipe away from the filament line
M117
G21 ; set units to millimeters
G90 ; use absolute coordinates
M82 ; use absolute distances for extrusion
G92 E0
M107
;LAYER_CHANGE
;Z:0.28
;HEIGHT:0.28
; BEFORE_LAYER_CHANGE 0 @ 0.28mm
G1 E-2 F4800
G92 E0
G1 Z.28 F7200
; AFTER_LAYER_CHANGE 0 @ 0.28mm
G1 X92.502 Y104.806
G1 E2 F4800
M204 S2000
;TYPE:External perimeter
;WIDTH:0.56
G1 F2492
G1 X92.847 Y104.075 E2.04704
G1 X93.217 Y103.357 E2.09405
G1 X93.609 Y102.65 E2.14109
G1 X94.025 Y101.957 E2.18813
G1 X94.463 Y101.277 E2.2352
G1 X94.923 Y100.613 E2.28221
G1 X95.397 Y99.973 E2.32856
G1 X95.907 Y99.33 E2.37632
G1 X96.43 Y98.714 E2.42335
G1 X96.965 Y98.124 E2.4697
G1 X97.534 Y97.534 E2.5174
G1 X98.124 Y96.965 E2.5651
G1 X98.714 Y96.43 E2.61145
G1 X99.33 Y95.907 E2.65848
G1 X99.973 Y95.397 E2.70624
G1 X100.613 Y94.923 E2.75259
G1 X101.277 Y94.463 E2.7996
G1 X101.957 Y94.025 E2.84667
G1 X102.65 Y93.609 E2.89371
G1 X103.357 Y93.217 E2.94075
G1 X104.075 Y92.847 E2.98776
G1 X104.806 Y92.502 E3.0348
G1 X105.548 Y92.18 E3.08187
G1 X106.31 Y91.879 E3.12955
G1 X107.06 Y91.611 E3.1759
G1 X107.83 Y91.364 E3.22296
G1 X108.607 Y91.142 E3.26999
G1 X109.391 Y90.945 E3.31703
G1 X110.181 Y90.775 E3.36406
G1 X110.976 Y90.63 E3.41109
G1 X111.776 Y90.511 E3.45816
G1 X112.579 Y90.419 E3.5052
G1 X113.385 Y90.353 E3.55226
G1 X114.19 Y90.313 E3.59916
G1 X115.41 Y90.307 E3.67016
G1 X116.617 Y90.353 E3.74045
G1 X117.421 Y90.419 E3.7874
G1 X118.235 Y90.513 E3.83509
G1 X119.024 Y90.63 E3.88151
G1 X119.819 Y90.775 E3.92854
G1 X120.609 Y90.945 E3.97557
G1 X121.393 Y91.142 E4.02261
G1 X122.17 Y91.364 E4.06964
G1 X122.94 Y91.611 E4.1167
G1 X123.701 Y91.883 E4.16373
G1 X124.452 Y92.18 E4.21073
G1 X125.204 Y92.507 E4.25845
G1 X125.925 Y92.847 E4.30484
G1 X126.643 Y93.217 E4.35185
G1 X127.35 Y93.609 E4.39889
G1 X128.043 Y94.025 E4.44593
G1 X128.723 Y94.463 E4.493
G1 X129.387 Y94.923 E4.54001
G1 X130.036 Y95.404 E4.58702
G1 X130.67 Y95.907 E4.63412
G1 X131.286 Y96.43 E4.68115
G1 X131.885 Y96.972 E4.72816
G1 X132.466 Y97.534 E4.7752
G1 X133.028 Y98.115 E4.82224
G1 X133.57 Y98.714 E4.86925
G1 X134.093 Y99.331 E4.91632
G1 X134.596 Y99.964 E4.96337
G1 X135.077 Y100.613 E5.01038
G1 X135.537 Y101.277 E5.05739
G1 X135.975 Y101.957 E5.10446
G1 X136.391 Y102.65 E5.1515
G1 X136.783 Y103.357 E5.19854
G1 X137.153 Y104.075 E5.24555
G1 X137.498 Y104.806 E5.29259
G1 X137.82 Y105.548 E5.33966
G1 X138.117 Y106.299 E5.38666
G1 X138.389 Y107.06 E5.43369
G1 X138.636 Y107.83 E5.48075
G1 X138.858 Y108.607 E5.52778
G1 X139.052 Y109.38 E5.57416
G1 X139.225 Y110.181 E5.62185
G1 X139.37 Y110.976 E5.66888
G1 X139.487 Y111.765 E5.7153
G1 X139.581 Y112.579 E5.76299
G1 X139.647 Y113.385 E5.81005
G1 X139.687 Y114.192 E5.85707
G1 X139.7 Y115 E5.9041
G1 X139.687 Y115.808 E5.95113
G1 X139.647 Y116.615 E5.99815
G1 X139.581 Y117.421 E6.04521
G1 X139.489 Y118.224 E6.09225
G1 X139.37 Y119.024 E6.13932
G1 X139.225 Y119.819 E6.18635
G1 X139.055 Y120.609 E6.23338
G1 X138.858 Y121.393 E6.28042
G1 X138.636 Y122.17 E6.32745
G1 X138.389 Y122.94 E6.37451
G1 X138.117 Y123.701 E6.42154
G1 X137.82 Y124.452 E6.46854
G1 X137.498 Y125.194 E6.51561
G1 X137.153 Y125.925 E6.56265
G1 X136.783 Y126.643 E6.60966
G1 X136.391 Y127.35 E6.6567
G1 X135.975 Y128.043 E6.70374
G1 X135.537 Y128.723 E6.75081
G1 X135.077 Y129.387 E6.79782
G1 X134.596 Y130.036 E6.84483
G1 X134.093 Y130.669 E6.89188
G1 X133.57 Y131.286 E6.93895
G1 X133.035 Y131.876 E6.9853
G1 X132.465 Y132.466 E7.03304
G1 X131.885 Y133.028 E7.08004
G1 X131.286 Y133.57 E7.12705
G1 X130.669 Y134.093 E7.17412
G1 X130.036 Y134.596 E7.22117
G1 X129.387 Y135.077 E7.26818
G1 X128.723 Y135.537 E7.31519
G1 X128.043 Y135.975 E7.36226
G1 X127.35 Y136.391 E7.4093
G1 X126.643 Y136.783 E7.45634
G1 X125.925 Y137.153 E7.50335
G1 X125.194 Y137.498 E7.55039
G1 X124.452 Y137.82 E7.59746
G1 X123.701 Y138.117 E7.64446
G1 X122.94 Y138.389 E7.69149
G1 X122.17 Y138.636 E7.73855
G1 X121.393 Y138.858 E7.78558
G1 X120.609 Y139.055 E7.83262
G1 X119.819 Y139.225 E7.87965
G1 X119.024 Y139.37 E7.92668
G1 X118.224 Y139.489 E7.97375
G1 X117.421 Y139.581 E8.02079
G1 X116.615 Y139.647 E8.06785
G1 X115.808 Y139.687 E8.11487
G1 X115 Y139.7 E8.1619
G1 X114.18 Y139.686 E8.20963
G1 X113.385 Y139.647 E8.25595
G1 X112.579 Y139.581 E8.30301
G1 X111.776 Y139.489 E8.35005
G1 X110.976 Y139.37 E8.39712
G1 X110.181 Y139.225 E8.44415
G1 X109.391 Y139.055 E8.49118
G1 X108.607 Y138.858 E8.53822
G1 X107.83 Y138.636 E8.58525
G1 X107.06 Y138.389 E8.63231
G1 X106.299 Y138.117 E8.67934
G1 X105.548 Y137.82 E8.72634
G1 X104.796 Y137.493 E8.77406
G1 X104.075 Y137.153 E8.82045
G1 X103.357 Y136.783 E8.86746
G1 X102.65 Y136.391 E8.9145
G1 X101.957 Y135.975 E8.96154
G1 X101.277 Y135.537 E9.00861
G1 X100.613 Y135.077 E9.05562
G1 X99.964 Y134.596 E9.10263
G1 X99.331 Y134.093 E9.14968
G1 X98.714 Y133.57 E9.19675
G1 X98.115 Y133.028 E9.24376
G1 X97.534 Y132.466 E9.2908
G1 X96.972 Y131.885 E9.33784
G1 X96.43 Y131.286 E9.38485
G1 X95.907 Y130.669 E9.43192
G1 X95.404 Y130.036 E9.47897
G1 X94.929 Y129.396 E9.52535
G1 X94.463 Y128.723 E9.57299
G1 X94.025 Y128.043 E9.62006
G1 X93.615 Y127.36 E9.66642
G1 X93.217 Y126.643 E9.71414
G1 X92.847 Y125.925 E9.76115
G1 X92.507 Y125.204 E9.80754
G1 X92.18 Y124.452 E9.85526
G1 X91.883 Y123.701 E9.90226
G1 X91.611 Y122.94 E9.94929
G1 X91.364 Y122.17 E9.99635
G1 X91.142 Y121.393 E10.04338
G1 X90.948 Y120.62 E10.08976
G1 X90.775 Y119.819 E10.13745
G1 X90.63 Y119.024 E10.18448
G1 X90.513 Y118.235 E10.2309
G1 X90.419 Y117.421 E10.27859
G1 X90.353 Y116.615 E10.32565
G1 X90.314 Y115.82 E10.37197
G1 X90.3 Y115 E10.4197
G1 X90.313 Y114.192 E10.46673
G1 X90.352 Y113.396 E10.51311
G1 X90.419 Y112.579 E10.56081
G1 X90.511 Y111.776 E10.60785
G1 X90.63 Y110.976 E10.65492
G1 X90.775 Y110.181 E10.70195
G1 X90.945 Y109.391 E10.74898
G1 X91.142 Y108.607 E10.79602
G1 X91.364 Y107.83 E10.84305
G1 X91.611 Y107.06 E10.89011
G1 X91.879 Y106.31 E10.93646
G1 X92.18 Y105.548 E10.98414
G1 X92.478 Y104.861 E11.02772
M204 S2500
G1 X92.9 Y104.767 F7200
G1 E9.62772 F4800
;WIPE_START
G1 F5760
G1 X92.8 Y104.175 E9.02772
;WIPE_END
G92 E0
G1 X111.043 Y138.976 F7200
G1 E2 F4800
M204 S2000
G1 F2492
G1 X110.259 Y138.833 E2.04638
G1 X109.482 Y138.665 E2.09264
G1 X108.711 Y138.472 E2.13889
G1 X107.946 Y138.254 E2.18518
G1 X107.189 Y138.01 E2.23147
G1 X106.44 Y137.743 E2.27774
G1 X105.701 Y137.45 E2.324
G1 X104.971 Y137.134 E2.37029
G1 X104.252 Y136.794 E2.41657
G1 X103.545 Y136.431 E2.46282
G1 X102.85 Y136.044 E2.50911
G1 X102.168 Y135.636 E2.55536
G1 X101.5 Y135.205 E2.60162
G1 X100.846 Y134.752 E2.64792
G1 X100.207 Y134.279 E2.69419
G1 X99.584 Y133.784 E2.7405
G1 X98.978 Y133.27 E2.78674
G1 X98.389 Y132.736 E2.83301
G1 X97.817 Y132.183 E2.87931
G1 X97.264 Y131.611 E2.92561
G1 X96.73 Y131.022 E2.97188
G1 X96.216 Y130.416 E3.01812
G1 X95.721 Y129.793 E3.06443
G1 X95.248 Y129.154 E3.1107
G1 X94.795 Y128.5 E3.157
G1 X94.364 Y127.832 E3.20326
G1 X93.956 Y127.15 E3.24951
G1 X93.569 Y126.455 E3.2958
G1 X93.206 Y125.748 E3.34205
G1 X92.866 Y125.029 E3.38833
G1 X92.55 Y124.299 E3.43462
G1 X92.254 Y123.549 E3.48154
G1 X91.99 Y122.811 E3.52715
G1 X91.746 Y122.054 E3.57344
G1 X91.528 Y121.289 E3.61973
G1 X91.335 Y120.518 E3.66598
G1 X91.167 Y119.741 E3.71224
G1 X91.023 Y118.947 E3.7592
G1 X90.908 Y118.172 E3.80479
G1 X90.817 Y117.382 E3.85107
G1 X90.751 Y116.578 E3.89802
G1 X90.713 Y115.795 E3.94364
G1 X90.7 Y115 E3.98991
G1 X90.713 Y114.205 E4.03618
G1 X90.752 Y113.411 E4.08244
G1 X90.817 Y112.618 E4.12874
G1 X90.908 Y111.828 E4.17502
G1 X91.025 Y111.042 E4.22127
G1 X91.167 Y110.259 E4.26758
G1 X91.335 Y109.482 E4.31384
G1 X91.528 Y108.709 E4.36021
G1 X91.868 Y107.568 E4.4295
G1 X92.257 Y106.442 E4.49883
G1 X92.55 Y105.701 E4.5452
G1 X92.871 Y104.961 E4.59214
G1 X93.206 Y104.252 E4.63777
G1 X93.569 Y103.545 E4.68402
G1 X93.956 Y102.85 E4.73031
G1 X94.364 Y102.168 E4.77656
G1 X94.795 Y101.5 E4.82282
G1 X95.254 Y100.837 E4.86975
G1 X95.721 Y100.207 E4.91539
G1 X96.216 Y99.584 E4.9617
G1 X96.738 Y98.97 E5.0086
G1 X97.264 Y98.389 E5.05421
G1 X97.817 Y97.817 E5.10051
G1 X98.389 Y97.264 E5.14681
G1 X98.97 Y96.738 E5.19242
G1 X99.584 Y96.216 E5.23932
G1 X100.207 Y95.721 E5.28563
G1 X100.846 Y95.248 E5.3319
G1 X101.5 Y94.795 E5.3782
G1 X102.168 Y94.364 E5.42446
G1 X102.85 Y93.956 E5.47071
G1 X103.545 Y93.569 E5.517
G1 X104.252 Y93.206 E5.56325
G1 X104.961 Y92.871 E5.60888
G1 X105.701 Y92.55 E5.65582
G1 X106.44 Y92.257 E5.70208
G1 X107.179 Y91.993 E5.74775
G1 X107.946 Y91.746 E5.79464
G1 X108.711 Y91.528 E5.84093
G1 X109.482 Y91.335 E5.88718
G1 X110.259 Y91.167 E5.93344
G1 X111.042 Y91.025 E5.97975
G1 X111.828 Y90.908 E6.026
G1 X112.618 Y90.817 E6.07228
G1 X113.412 Y90.752 E6.11864
G1 X114.597 Y90.706 E6.18765
G1 X115.794 Y90.713 E6.25731
G1 X116.589 Y90.752 E6.30363
G1 X117.382 Y90.817 E6.34993
G1 X118.172 Y90.908 E6.39621
G1 X118.947 Y91.023 E6.4418
G1 X119.741 Y91.167 E6.48876
G1 X120.518 Y91.335 E6.53502
G1 X121.289 Y91.528 E6.58127
G1 X122.054 Y91.746 E6.62756
G1 X122.811 Y91.99 E6.67385
G1 X123.549 Y92.254 E6.71946
G1 X124.299 Y92.55 E6.76638
G1 X125.029 Y92.866 E6.81267
G1 X125.748 Y93.206 E6.85895
G1 X126.455 Y93.569 E6.9052
G1 X127.15 Y93.956 E6.95149
G1 X127.832 Y94.364 E6.99774
G1 X128.5 Y94.795 E7.044
G1 X129.154 Y95.248 E7.0903
G1 X129.793 Y95.721 E7.13657
G1 X130.416 Y96.216 E7.18288
G1 X131.022 Y96.73 E7.22912
G1 X131.611 Y97.264 E7.27539
G1 X132.183 Y97.817 E7.32169
G1 X132.736 Y98.389 E7.36799
G1 X133.27 Y98.978 E7.41426
G1 X133.784 Y99.584 E7.4605
G1 X134.279 Y100.207 E7.50681
G1 X134.752 Y100.846 E7.55308
G1 X135.205 Y101.5 E7.59938
G1 X135.636 Y102.168 E7.64564
G1 X136.044 Y102.85 E7.69189
G1 X136.431 Y103.545 E7.73818
G1 X136.794 Y104.252 E7.78443
G1 X137.134 Y104.971 E7.83071
G1 X137.45 Y105.701 E7.877
G1 X137.743 Y106.44 E7.92326
G1 X138.01 Y107.189 E7.96953
G1 X138.254 Y107.946 E8.01582
G1 X138.472 Y108.711 E8.06211
G1 X138.665 Y109.482 E8.10836
G1 X138.833 Y110.259 E8.15462
G1 X138.975 Y111.042 E8.20093
G1 X139.092 Y111.828 E8.24718
G1 X139.183 Y112.618 E8.29346
G1 X139.248 Y113.411 E8.33976
G1 X139.287 Y114.205 E8.38602
G1 X139.3 Y115 E8.43229
G1 X139.287 Y115.795 E8.47856
G1 X139.248 Y116.589 E8.52482
G1 X139.183 Y117.382 E8.57112
G1 X139.092 Y118.172 E8.6174
G1 X138.975 Y118.958 E8.66365
G1 X138.833 Y119.741 E8.70996
G1 X138.665 Y120.518 E8.75622
G1 X138.472 Y121.289 E8.80247
G1 X138.254 Y122.054 E8.84876
G1 X138.01 Y122.811 E8.89505
G1 X137.743 Y123.56 E8.94132
G1 X137.45 Y124.299 E8.98758
G1 X137.134 Y125.029 E9.03387
G1 X136.794 Y125.748 E9.08015
G1 X136.431 Y126.455 E9.1264
G1 X136.044 Y127.15 E9.17269
G1 X135.636 Y127.832 E9.21894
G1 X135.205 Y128.5 E9.2652
G1 X134.752 Y129.154 E9.3115
G1 X134.279 Y129.793 E9.35777
G1 X133.784 Y130.416 E9.40408
G1 X133.27 Y131.022 E9.45032
G1 X132.736 Y131.611 E9.49659
G1 X132.183 Y132.183 E9.54289
G1 X131.611 Y132.736 E9.58919
G1 X131.022 Y133.27 E9.63546
G1 X130.416 Y133.784 E9.6817
G1 X129.793 Y134.279 E9.72801
G1 X129.154 Y134.752 E9.77428
G1 X128.5 Y135.205 E9.82058
G1 X127.832 Y135.636 E9.86684
G1 X127.15 Y136.044 E9.91309
G1 X126.455 Y136.431 E9.95938
G1 X125.748 Y136.794 E10.00563
G1 X125.029 Y137.134 E10.05191
G1 X124.299 Y137.45 E10.0982
G1 X123.56 Y137.743 E10.14446
G1 X122.811 Y138.01 E10.19073
G1 X122.054 Y138.254 E10.23702
G1 X121.289 Y138.472 E10.28331
G1 X120.518 Y138.665 E10.32956
G1 X119.741 Y138.833 E10.37582
G1 X118.958 Y138.975 E10.42213
G1 X118.172 Y139.092 E10.46838
G1 X117.382 Y139.183 E10.51466
G1 X116.589 Y139.248 E10.56096
G1 X115.795 Y139.287 E10.60722
G1 X115 Y139.3 E10.65349
G1 X114.205 Y139.287 E10.69976
G1 X113.411 Y139.248 E10.74602
G1 X112.618 Y139.183 E10.79232
G1 X111.828 Y139.092 E10.8386
G1 X111.102 Y138.984 E10.88131
M204 S2500
G1 X110.789 Y139.285 F7200
;LAYER_CHANGE
;Z:0.48
;HEIGHT:0.2
; BEFORE_LAYER_CHANGE 1 @ 0.48mm
G1 E9.48131 F4800
;WIPE_START
G1 F5760
G1 X110.356 Y138.85 E8.88131
;WIPE_END
G92 E0
G1 Z.48 F7200
; AFTER_LAYER_CHANGE 1 @ 0.48mm
M104 S190 ; set temperature
G1 X92.452 Y104.783
G1 E2 F4800
;WIDTH:0.45
G1 F3356
G1 X92.798 Y104.051 E2.02741
G1 X93.168 Y103.331 E2.05481
G1 X93.562 Y102.623 E2.08224
G1 X93.978 Y101.928 E2.10966
G1 X94.417 Y101.247 E2.13709
G1 X94.878 Y100.581 E2.16451
G1 X95.361 Y99.93 E2.19195
G1 X95.864 Y99.296 E2.21934
G1 X96.388 Y98.678 E2.24677
G1 X96.911 Y98.101 E2.27313
G1 X97.496 Y97.496 E2.30162
G1 X98.101 Y96.911 E2.33011
G1 X98.678 Y96.388 E2.35647
G1 X99.296 Y95.864 E2.3839
G1 X99.93 Y95.361 E2.41129
G1 X100.581 Y94.878 E2.43873
G1 X101.247 Y94.417 E2.46615
G1 X101.928 Y93.978 E2.49358
G1 X102.623 Y93.562 E2.521
G1 X103.331 Y93.168 E2.54843
G1 X104.051 Y92.798 E2.57583
G1 X104.783 Y92.452 E2.60324
G1 X105.527 Y92.129 E2.63069
G1 X106.28 Y91.832 E2.65809
G1 X107.043 Y91.559 E2.68552
G1 X107.814 Y91.311 E2.71293
G1 X108.593 Y91.089 E2.74035
G1 X109.379 Y90.892 E2.76778
G1 X110.17 Y90.721 E2.79517
G1 X110.998 Y90.571 E2.82365
G1 X111.769 Y90.457 E2.85003
G1 X112.574 Y90.364 E2.87746
G1 X113.381 Y90.298 E2.90487
G1 X114.19 Y90.258 E2.93229
G1 X115.031 Y90.246 E2.96076
G1 X115.81 Y90.258 E2.98713
G1 X116.619 Y90.298 E3.01455
G1 X117.426 Y90.364 E3.04196
G1 X118.262 Y90.461 E3.07045
G1 X119.033 Y90.576 E3.09684
G1 X119.829 Y90.721 E3.12423
G1 X120.651 Y90.899 E3.1527
G1 X121.407 Y91.089 E3.17909
G1 X122.186 Y91.311 E3.20651
G1 X122.986 Y91.569 E3.23496
G1 X123.72 Y91.832 E3.26135
G1 X124.473 Y92.129 E3.28875
G1 X125.245 Y92.465 E3.31725
G1 X125.949 Y92.798 E3.34361
G1 X126.669 Y93.168 E3.37101
G1 X127.404 Y93.577 E3.39948
G1 X128.072 Y93.978 E3.42585
G1 X128.753 Y94.417 E3.45328
G1 X129.419 Y94.878 E3.4807
G1 X130.07 Y95.361 E3.50814
G1 X130.704 Y95.864 E3.53553
G1 X131.322 Y96.388 E3.56296
G1 X131.922 Y96.932 E3.59037
G1 X132.504 Y97.496 E3.6178
G1 X133.068 Y98.078 E3.64523
G1 X133.612 Y98.678 E3.67264
G1 X134.136 Y99.296 E3.70007
G1 X134.639 Y99.93 E3.72746
G1 X135.122 Y100.581 E3.7549
G1 X135.583 Y101.247 E3.78232
G1 X136.022 Y101.928 E3.80975
G1 X136.423 Y102.596 E3.83612
G1 X136.832 Y103.331 E3.86459
G1 X137.202 Y104.051 E3.89199
G1 X137.548 Y104.783 E3.9194
G1 X137.871 Y105.527 E3.94685
G1 X138.168 Y106.28 E3.97425
G1 X138.441 Y107.043 E4.00168
G1 X138.689 Y107.814 E4.02909
G1 X138.911 Y108.593 E4.05651
G1 X139.101 Y109.349 E4.0829
G1 X139.279 Y110.171 E4.11137
G1 X139.424 Y110.967 E4.13876
G1 X139.539 Y111.738 E4.16515
G1 X139.636 Y112.574 E4.19364
G1 X139.702 Y113.381 E4.22105
G1 X139.742 Y114.19 E4.24847
G1 X139.755 Y115 E4.27589
G1 X139.742 Y115.81 E4.30331
G1 X139.702 Y116.619 E4.33073
G1 X139.636 Y117.426 E4.35814
G1 X139.543 Y118.231 E4.38557
G1 X139.424 Y119.033 E4.41301
G1 X139.279 Y119.829 E4.4404
G1 X139.108 Y120.621 E4.46783
G1 X138.911 Y121.407 E4.49526
G1 X138.689 Y122.186 E4.52268
G1 X138.441 Y122.957 E4.55009
G1 X138.168 Y123.72 E4.57752
