; generated by PrusaSlicer 2.6.0+MacOS-x64 on 2023-08-07 at 12:40:41 UTC

; 

; external perimeters extrusion width = 0.45mm
; perimeters extrusion width = 0.40mm
; infill extrusion width = 0.45mm
; solid infill extrusion width = 0.50mm
; top infill extrusion width = 0.45mm
; first layer extrusion width = 0.56mm

M201 X2500 Y2500 Z800 E2500 ; sets maximum accelerations, mm/sec^2
M203 X300 Y250 Z8 E80 ; sets maximum feedrates, mm / sec
M204 S2500 T2500 ; sets acceleration (S) and retract acceleration (R), mm/sec^2
M205 X15.00 Y10.00 Z2.00 E10.00 ; sets the jerk limits, mm/sec
M205 S0 T0 ; sets the minimum extruding and travel feed rate, mm/sec
;TYPE:Custom
G90 ; use absolute coordinates
M83 ; extruder relative mode
M104 S215 ; set extruder temp
M140 S60 ; set bed temp
M190 S60 ; wait for bed temp
M109 S215 ; wait for extruder temp
G28                                        ; move X/Y/Z to min endstops
G1 Z0.28                                   ; lift nozzle a bit 
G92 E0 
G1 Y3 F1800                                    ; zero the extruded length 
G1 X60  E25 F500                       ; Extrude 25mm of filament in a 5cm line. 
G92 E0                                     ; zero the extruded length again 
G1 E-2 F500                                ; Retract a little 
G1 X70 F4000                              ; Quickly wipe away from the filament line
M117
G21 ; set units to millimeters
G90 ; use absolute coordinates
M82 ; use absolute distances for extrusion
G92 E0
M107
;LAYER_CHANGE
;Z:0.28
;HEIGHT:0.28
; BEFORE_LAYER_CHANGE 0 @ 0.28mm
G1 E-2 F4800
G92 E0
G1 Z.28 F7200
; AFTER_LAYER_CHANGE 0 @ 0.28mm
G1 X147.1 Y147.1
G1 E2 F4800
M204 S2000
;TYPE:External perimeter
;WIDTH:0.56
G1 F3000
G1 X82.9 Y147.1 E5.73611
G1 X82.9 Y82.9 E9.47222
G1 X147.1 Y82.9 E13.20833
G1 X147.1 Y147.04 E16.94095
M204 S2500
G1 X146.714 Y146.996 F7200
G1 X146.6 Y146.6
M204 S2000
;TYPE:Perimeter
G1 F3000
G1 X83.4 Y146.6 E20.61887
G1 X83.4 Y83.4 E24.29679
G1 X146.6 Y83.4 E27.97471
G1 X146.6 Y146.54 E31.64914
M204 S2500
G1 E30.24914 F4800
;WIPE_START
G1 F5760
G1 X145.842 Y146.541 E29.64914
;WIPE_END
G92 E0
G1 X146.1 Y121.4 F7200
G1 E2 F4800
M204 S2000
G1 F3000
G1 X146.1 Y146.1 E3.43741
G1 X83.9 Y146.1 E7.05713
G1 X83.9 Y121.4 E8.49454
G1 X86.832 Y121.4 E8.66517
G1 X87.084 Y122.48 E8.72971
G1 X87.633 Y124.29 E8.83978
G1 X88.299 Y126.06 E8.94984
G1 X89.08 Y127.782 E9.05988
G1 X89.971 Y129.45 E9.16993
G1 X90.97 Y131.056 E9.28
G1 X92.072 Y132.594 E9.39011
G1 X93.271 Y134.055 E9.5001
G1 X94.564 Y135.436 E9.61019
G1 X95.945 Y136.729 E9.72028
G1 X97.406 Y137.928 E9.83027
G1 X98.944 Y139.03 E9.94038
G1 X100.55 Y140.029 E10.05045
G1 X102.218 Y140.92 E10.1605
G1 X103.94 Y141.701 E10.27054
G1 X105.71 Y142.367 E10.3806
G1 X107.52 Y142.916 E10.49067
G1 X109.362 Y143.345 E10.60073
G1 X111.228 Y143.653 E10.71079
G1 X113.11 Y143.839 E10.82085
G1 X115 Y143.901 E10.9309
G1 X116.89 Y143.839 E11.04095
G1 X118.772 Y143.653 E11.15101
G1 X120.638 Y143.345 E11.26107
G1 X122.48 Y142.916 E11.37113
G1 X124.29 Y142.367 E11.4812
G1 X126.06 Y141.701 E11.59126
G1 X127.782 Y140.92 E11.7013
G1 X129.45 Y140.029 E11.81135
G1 X131.056 Y139.03 E11.92142
G1 X132.594 Y137.928 E12.03153
G1 X134.055 Y136.729 E12.14152
G1 X135.436 Y135.436 E12.25161
G1 X136.729 Y134.055 E12.3617
G1 X137.928 Y132.594 E12.47169
G1 X139.03 Y131.056 E12.5818
G1 X140.029 Y129.45 E12.69187
G1 X140.92 Y127.782 E12.80192
G1 X141.701 Y126.06 E12.91196
G1 X142.367 Y124.29 E13.02202
G1 X142.916 Y122.48 E13.13209
G1 X143.168 Y121.4 E13.19663
G1 X146.04 Y121.4 E13.36377
M204 S2500
G1 E11.96377 F4800
;WIPE_START
G1 F5760
G1 X146.042 Y122.158 E11.36377
;WIPE_END
G92 E0
G1 X146.1 Y108.6 F7200
G1 E2 F4800
M204 S2000
G1 F3000
G1 X143.168 Y108.6 E2.17063
G1 X142.916 Y107.52 E2.23517
G1 X142.367 Y105.71 E2.34524
G1 X141.701 Y103.94 E2.4553
G1 X140.92 Y102.218 E2.56534
G1 X140.029 Y100.55 E2.67539
G1 X139.03 Y98.944 E2.78546
G1 X137.928 Y97.406 E2.89557
G1 X136.729 Y95.945 E3.00556
G1 X135.436 Y94.564 E3.11565
G1 X134.055 Y93.271 E3.22574
G1 X132.594 Y92.072 E3.33573
G1 X131.056 Y90.97 E3.44584
G1 X129.45 Y89.971 E3.55591
G1 X127.782 Y89.08 E3.66596
G1 X126.06 Y88.299 E3.776
G1 X124.29 Y87.633 E3.88606
G1 X122.48 Y87.084 E3.99613
G1 X120.638 Y86.655 E4.10619
G1 X118.772 Y86.347 E4.21625
G1 X116.89 Y86.161 E4.32631
G1 X115 Y86.099 E4.43636
G1 X113.11 Y86.161 E4.54641
G1 X111.228 Y86.347 E4.65647
G1 X109.362 Y86.655 E4.76653
G1 X107.52 Y87.084 E4.87659
G1 X105.71 Y87.633 E4.98666
G1 X103.94 Y88.299 E5.09672
G1 X102.218 Y89.08 E5.20676
G1 X100.55 Y89.971 E5.31681
G1 X98.944 Y90.97 E5.42688
G1 X97.406 Y92.072 E5.53699
G1 X95.945 Y93.271 E5.64698
G1 X94.564 Y94.564 E5.75707
G1 X93.271 Y95.945 E5.86716
G1 X92.072 Y97.406 E5.97715
G1 X90.97 Y98.944 E6.08726
G1 X89.971 Y100.55 E6.19733
G1 X89.08 Y102.218 E6.30738
G1 X88.299 Y103.94 E6.41742
G1 X87.633 Y105.71 E6.52748
G1 X87.084 Y107.52 E6.63755
G1 X86.832 Y108.6 E6.70209
G1 X83.9 Y108.6 E6.87272
G1 X83.9 Y83.9 E8.31013
G1 X146.1 Y83.9 E11.92985
G1 X146.1 Y108.54 E13.36377
M204 S2500
G1 E11.96377 F4800
;WIPE_START
G1 F5760
G1 X145.342 Y108.556 E11.36377
;WIPE_END
G92 E0
G1 X145.4 Y109.6 F7200
G1 E2 F4800
M204 S2000
;TYPE:External perimeter
G1 F3000
G1 X145.4 Y120.4 E2.62851
G1 X142.374 Y120.4 E2.80461
G1 X141.95 Y122.221 E2.91342
G1 X141.42 Y123.968 E3.01966
G1 X140.776 Y125.677 E3.12594
G1 X140.023 Y127.34 E3.23218
G1 X139.162 Y128.95 E3.33843
G1 X138.198 Y130.501 E3.4447
G1 X137.135 Y131.985 E3.55093
G1 X135.976 Y133.396 E3.65719
G1 X134.728 Y134.728 E3.76341
G1 X133.396 Y135.976 E3.86963
G1 X131.985 Y137.135 E3.97589
G1 X130.501 Y138.198 E4.08212
G1 X128.95 Y139.162 E4.18839
G1 X127.34 Y140.023 E4.29464
G1 X125.677 Y140.776 E4.40088
G1 X123.968 Y141.42 E4.50716
G1 X122.221 Y141.95 E4.6134
G1 X120.443 Y142.364 E4.71964
G1 X118.642 Y142.662 E4.82587
G1 X116.825 Y142.84 E4.93212
G1 X115 Y142.9 E5.03838
G1 X113.175 Y142.84 E5.14464
G1 X111.358 Y142.662 E5.25089
G1 X109.557 Y142.364 E5.35712
G1 X107.779 Y141.95 E5.46336
G1 X106.032 Y141.42 E5.5696
G1 X104.323 Y140.776 E5.67588
G1 X102.66 Y140.023 E5.78212
G1 X101.05 Y139.162 E5.88837
G1 X99.499 Y138.198 E5.99464
G1 X98.015 Y137.135 E6.10087
G1 X96.604 Y135.976 E6.20713
G1 X95.272 Y134.728 E6.31335
G1 X94.024 Y133.396 E6.41957
G1 X92.865 Y131.985 E6.52583
G1 X91.802 Y130.501 E6.63206
G1 X90.838 Y128.95 E6.73833
G1 X89.977 Y127.34 E6.84458
G1 X89.224 Y125.677 E6.95082
G1 X88.58 Y123.968 E7.0571
G1 X88.05 Y122.221 E7.16334
G1 X87.626 Y120.4 E7.27215
G1 X84.6 Y120.4 E7.44825
G1 X84.6 Y109.6 E8.07676
G1 X87.626 Y109.6 E8.25286
G1 X88.05 Y107.779 E8.36167
G1 X88.58 Y106.032 E8.46791
G1 X89.224 Y104.323 E8.57419
G1 X89.977 Y102.66 E8.68043
G1 X90.838 Y101.05 E8.78668
G1 X91.802 Y99.499 E8.89295
G1 X92.865 Y98.015 E8.99918
G1 X94.024 Y96.604 E9.10544
G1 X95.272 Y95.272 E9.21166
G1 X96.604 Y94.024 E9.31788
G1 X98.015 Y92.865 E9.42414
G1 X99.499 Y91.802 E9.53037
G1 X101.05 Y90.838 E9.63664
G1 X102.66 Y89.977 E9.74289
G1 X104.323 Y89.224 E9.84913
G1 X106.032 Y88.58 E9.95541
G1 X107.779 Y88.05 E10.06165
G1 X109.557 Y87.636 E10.16789
G1 X111.358 Y87.338 E10.27412
G1 X113.175 Y87.16 E10.38037
G1 X114.735 Y87.108 E10.4712
G1 X115 Y87.1 E10.48663
G1 X116.825 Y87.16 E10.59289
G1 X118.642 Y87.338 E10.69914
G1 X120.443 Y87.636 E10.80537
G1 X121.963 Y87.99 E10.89619
G1 X122.221 Y88.05 E10.9116
G1 X123.968 Y88.58 E11.01784
G1 X125.677 Y89.224 E11.12412
G1 X127.34 Y89.977 E11.23036
G1 X128.95 Y90.838 E11.33661
G1 X130.501 Y91.802 E11.44288
G1 X131.985 Y92.865 E11.54911
G1 X133.396 Y94.024 E11.65537
G1 X134.728 Y95.272 E11.76159
G1 X135.976 Y96.604 E11.86781
G1 X137.135 Y98.015 E11.97407
G1 X138.198 Y99.499 E12.0803
G1 X139.162 Y101.05 E12.18657
G1 X140.023 Y102.66 E12.29282
G1 X140.776 Y104.323 E12.39906
G1 X141.42 Y106.032 E12.50534
G1 X141.95 Y107.779 E12.61158
G1 X142.374 Y109.6 E12.72039
G1 X145.34 Y109.6 E12.893
M204 S2500
G1 X145.795 Y109.664 F7200
G1 X145.9 Y109.1
M204 S2000
;TYPE:Perimeter
G1 F3000
G1 X145.9 Y120.9 E13.5797
G1 X142.771 Y120.9 E13.76179
G1 X142.433 Y122.351 E13.84849
G1 X141.893 Y124.129 E13.95663
G1 X141.239 Y125.868 E14.06475
G1 X140.472 Y127.561 E14.17291
G1 X139.595 Y129.2 E14.28109
G1 X138.614 Y130.778 E14.38922
G1 X137.532 Y132.289 E14.49737
G1 X136.353 Y133.726 E14.60554
G1 X135.082 Y135.082 E14.7137
G1 X133.726 Y136.353 E14.82186
G1 X132.289 Y137.532 E14.93003
G1 X130.778 Y138.614 E15.03818
G1 X129.2 Y139.595 E15.14631
G1 X127.561 Y140.472 E15.25449
G1 X125.868 Y141.239 E15.36265
G1 X124.129 Y141.893 E15.47077
G1 X122.351 Y142.433 E15.57891
G1 X120.541 Y142.855 E15.68707
G1 X118.707 Y143.157 E15.79524
G1 X116.857 Y143.34 E15.90343
G1 X115 Y143.4 E16.01155
G1 X113.143 Y143.34 E16.11967
G1 X111.293 Y143.157 E16.22786
G1 X109.459 Y142.855 E16.33603
G1 X107.649 Y142.433 E16.44419
G1 X105.871 Y141.893 E16.55233
G1 X104.132 Y141.239 E16.66045
G1 X102.439 Y140.472 E16.76861
G1 X100.8 Y139.595 E16.87679
G1 X99.222 Y138.614 E16.98492
G1 X97.711 Y137.532 E17.09307
G1 X96.274 Y136.353 E17.20124
G1 X94.918 Y135.082 E17.3094
G1 X93.647 Y133.726 E17.41756
G1 X92.468 Y132.289 E17.52573
G1 X91.386 Y130.778 E17.63388
G1 X90.405 Y129.2 E17.74201
G1 X89.528 Y127.561 E17.85019
G1 X88.761 Y125.868 E17.95835
G1 X88.107 Y124.129 E18.06647
G1 X87.567 Y122.351 E18.17461
G1 X87.229 Y120.9 E18.26131
G1 X84.1 Y120.9 E18.4434
G1 X84.1 Y109.1 E19.1301
G1 X87.229 Y109.1 E19.31219
G1 X87.567 Y107.649 E19.39889
G1 X88.107 Y105.871 E19.50703
G1 X88.761 Y104.132 E19.61515
G1 X89.528 Y102.439 E19.72331
G1 X90.405 Y100.8 E19.83149
G1 X91.386 Y99.222 E19.93962
G1 X92.468 Y97.711 E20.04777
G1 X93.647 Y96.274 E20.15594
G1 X94.918 Y94.918 E20.2641
G1 X96.274 Y93.647 E20.37226
G1 X97.711 Y92.468 E20.48043
G1 X99.222 Y91.386 E20.58858
G1 X100.8 Y90.405 E20.69671
G1 X102.439 Y89.528 E20.80489
G1 X104.132 Y88.761 E20.91305
G1 X105.871 Y88.107 E21.02117
G1 X107.649 Y87.567 E21.12931
G1 X109.459 Y87.145 E21.23747
G1 X111.293 Y86.843 E21.34564
G1 X113.143 Y86.66 E21.45383
G1 X115 Y86.6 E21.56195
G1 X116.857 Y86.66 E21.67007
G1 X118.707 Y86.843 E21.77826
G1 X120.541 Y87.145 E21.88643
G1 X122.077 Y87.503 E21.97821
G1 X122.351 Y87.567 E21.99458
G1 X124.129 Y88.107 E22.10272
G1 X125.868 Y88.761 E22.21084
G1 X127.561 Y89.528 E22.319
G1 X129.2 Y90.405 E22.42718
G1 X130.778 Y91.386 E22.53531
G1 X132.289 Y92.468 E22.64346
G1 X133.726 Y93.647 E22.75163
G1 X135.082 Y94.918 E22.85979
G1 X136.353 Y96.274 E22.96795
G1 X137.532 Y97.711 E23.07612
G1 X138.614 Y99.222 E23.18427
G1 X139.595 Y100.8 E23.2924
G1 X140.472 Y102.439 E23.40058
G1 X141.239 Y104.132 E23.50874
G1 X141.893 Y105.871 E23.61686
G1 X142.433 Y107.649 E23.725
G1 X142.771 Y109.1 E23.8117
G1 X145.84 Y109.1 E23.9903
M204 S2500
G1 X146.25 Y108.85 F7200
M204 S2000
;TYPE:Gap fill
;WIDTH:0.260357
G1 F3000
G1 X146.25 Y121.15 E24.27705
M204 S2500
G1 E22.87705 F4800
;WIPE_START
G1 F5760
G1 X146.25 Y120.392 E22.27705
;WIPE_END
G92 E0
G1 X144.882 Y121.6 F7200
G1 E2 F4800
M204 S2000
;TYPE:Solid infill
;WIDTH:0.563834
G1 F3000
G1 X145.675 Y122.394 E2.06581
G1 X145.675 Y123.106 E2.10756
G1 X144.394 Y121.825 E2.21379
G1 X143.682 Y121.825 E2.25554
G1 X145.675 Y123.818 E2.42082
G1 X145.675 Y124.531 E2.46263
G1 X143.404 Y122.259 E2.65101
G1 X143.256 Y122.823 E2.6852
G1 X145.675 Y125.243 E2.88585
G1 X145.675 Y125.956 E2.92766
G1 X143.09 Y123.37 E3.14208
G1 X142.924 Y123.917 E3.1756
G1 X145.675 Y126.668 E3.40374
G1 X145.675 Y127.38 E3.44549
G1 X142.756 Y124.461 E3.68757
G1 X142.561 Y124.979 E3.72003
G1 X145.675 Y128.093 E3.97828
G1 X145.675 Y128.805 E4.02003
G1 X142.367 Y125.497 E4.29437
G1 X142.172 Y126.014 E4.32677
G1 X145.675 Y129.518 E4.61732
G1 X145.675 Y130.23 E4.65907
G1 X141.961 Y126.515 E4.96712
G1 X141.739 Y127.006 E4.99872
G1 X145.675 Y130.942 E5.32514
G1 X145.675 Y131.655 E5.36695
G1 X141.516 Y127.496 E5.71186
G1 X141.293 Y127.985 E5.74338
G1 X145.675 Y132.367 E6.10678
G1 X145.675 Y133.08 E6.14859
G1 X141.045 Y128.45 E6.53256
G1 X140.797 Y128.914 E6.56341
G1 X145.675 Y133.792 E6.96795
G1 X145.675 Y134.504 E7.0097
G1 X140.549 Y129.378 E7.43481
G1 X140.291 Y129.833 E7.46548
G1 X145.675 Y135.217 E7.91198
G1 X145.675 Y135.929 E7.95373
G1 X140.018 Y130.272 E8.42287
G1 X139.745 Y130.711 E8.45319
G1 X145.675 Y136.642 E8.94501
G1 X145.675 Y137.354 E8.98676
G1 X139.472 Y131.15 E9.50122
G1 X139.182 Y131.573 E9.53129
G1 X145.675 Y138.066 E10.06976
G1 X145.675 Y138.779 E10.11157
G1 X138.885 Y131.988 E10.67471
G1 X138.587 Y132.403 E10.70467
G1 X145.675 Y139.491 E11.29249
G1 X145.675 Y140.204 E11.3343
G1 X138.29 Y132.818 E11.94679
G1 X137.971 Y133.212 E11.97652
G1 X145.675 Y140.916 E12.61542
G1 X145.675 Y141.628 E12.65717
G1 X137.65 Y133.603 E13.32269
G1 X137.329 Y133.994 E13.35236
G1 X145.675 Y142.341 E14.04455
G1 X145.675 Y143.053 E14.0863
G1 X137.005 Y134.382 E14.80535
G1 X136.66 Y134.75 E14.83493
G1 X145.675 Y143.766 E15.5826
G1 X145.675 Y144.478 E15.62435
G1 X136.315 Y135.118 E16.40059
G1 X135.971 Y135.486 E16.43013
G1 X145.675 Y145.19 E17.23489
G1 X145.675 Y145.675 E17.26333
G1 X145.448 Y145.675 E17.27664
G1 X135.619 Y135.846 E18.09177
G1 X135.251 Y136.191 E18.12135
G1 X144.735 Y145.675 E18.90787
G1 X144.023 Y145.675 E18.94962
G1 X134.883 Y136.536 E19.70757
G1 X134.515 Y136.88 E19.73711
G1 X143.311 Y145.675 E20.46653
G1 X142.598 Y145.675 E20.50834
G1 X134.135 Y137.213 E21.21015
G1 X133.744 Y137.534 E21.23982
G1 X141.886 Y145.675 E21.915
G1 X141.173 Y145.675 E21.95681
G1 X133.353 Y137.855 E22.60533
G1 X132.962 Y138.176 E22.635
G1 X140.461 Y145.675 E23.2569
G1 X139.749 Y145.675 E23.29865
G1 X132.553 Y138.48 E23.89538
G1 X132.138 Y138.777 E23.92531
G1 X139.036 Y145.675 E24.49737
G1 X138.324 Y145.675 E24.53912
G1 X131.723 Y139.075 E25.08651
G1 X131.308 Y139.372 E25.11644
G1 X137.611 Y145.675 E25.63916
G1 X136.899 Y145.675 E25.68091
G1 X130.87 Y139.646 E26.1809
G1 X130.431 Y139.919 E26.21122
G1 X136.186 Y145.675 E26.68853
G1 X135.474 Y145.675 E26.73028
G1 X129.991 Y140.193 E27.18495
G1 X129.546 Y140.459 E27.21535
G1 X134.762 Y145.675 E27.64792
G1 X134.049 Y145.675 E27.68973
G1 X129.082 Y140.708 E28.10165
G1 X128.617 Y140.956 E28.13255
G1 X133.337 Y145.675 E28.52394
G1 X132.624 Y145.675 E28.56575
G1 X128.153 Y141.204 E28.93654
G1 X127.673 Y141.436 E28.9678
G1 X131.912 Y145.675 E29.31935
G1 X131.2 Y145.675 E29.3611
G1 X127.183 Y141.658 E29.69423
G1 X126.692 Y141.88 E29.72583
G1 X130.487 Y145.675 E30.04055
G1 X129.775 Y145.675 E30.0823
G1 X126.201 Y142.101 E30.3787
G1 X125.683 Y142.296 E30.41116
G1 X129.062 Y145.675 E30.69138
G1 X128.35 Y145.675 E30.73313
G1 X125.166 Y142.491 E30.99718
G1 X124.648 Y142.686 E31.02964
G1 X127.638 Y145.675 E31.27756
G1 X126.925 Y145.675 E31.31937
G1 X124.114 Y142.864 E31.55249
G1 X123.568 Y143.03 E31.58596
G1 X126.213 Y145.675 E31.80531
G1 X125.5 Y145.675 E31.84712
G1 X123.021 Y143.196 E32.05271
G1 X122.468 Y143.355 E32.08645
G1 X124.788 Y145.675 E32.27885
G1 X124.076 Y145.675 E32.3206
G1 X121.89 Y143.49 E32.50185
G1 X121.312 Y143.624 E32.53664
G1 X123.363 Y145.675 E32.70673
G1 X122.651 Y145.675 E32.74848
G1 X120.735 Y143.759 E32.90738
G1 X120.124 Y143.861 E32.94371
G1 X121.938 Y145.675 E33.09415
G1 X121.226 Y145.675 E33.1359
G1 X119.513 Y143.962 E33.27796
G1 X118.901 Y144.063 E33.31433
G1 X120.514 Y145.675 E33.44806
G1 X119.801 Y145.675 E33.48987
G1 X118.257 Y144.131 E33.61792
G1 X117.608 Y144.195 E33.65616
G1 X119.089 Y145.675 E33.77894
G1 X118.376 Y145.675 E33.82075
G1 X116.96 Y144.259 E33.93818
G1 X116.273 Y144.284 E33.97849
G1 X117.664 Y145.675 E34.09385
G1 X116.952 Y145.675 E34.1356
G1 X115.583 Y144.307 E34.24909
G1 X114.886 Y144.322 E34.28997
G1 X116.239 Y145.675 E34.40218
G1 X115.527 Y145.675 E34.44393
G1 X114.149 Y144.298 E34.55817
G1 X113.413 Y144.274 E34.60135
G1 X114.814 Y145.675 E34.71754
G1 X114.102 Y145.675 E34.75929
G1 X112.647 Y144.22 E34.87995
G1 X111.857 Y144.142 E34.9265
G1 X113.39 Y145.675 E35.05363
G1 X112.677 Y145.675 E35.09544
G1 X111.058 Y144.056 E35.22971
G1 X110.205 Y143.915 E35.28041
G1 X111.965 Y145.675 E35.42637
G1 X111.252 Y145.675 E35.46818
G1 X109.351 Y143.774 E35.62583
G1 X108.429 Y143.564 E35.68128
G1 X110.54 Y145.675 E35.85635
G1 X109.828 Y145.675 E35.8981
