; generated by PrusaSlicer 2.6.0+MacOS-x64 on 2023-08-07 at 00:00:35 UTC

; 

; external perimeters extrusion width = 0.45mm
; perimeters extrusion width = 0.40mm
; infill extrusion width = 0.45mm
; solid infill extrusion width = 0.50mm
; top infill extrusion width = 0.45mm
; first layer extrusion width = 0.56mm

M201 X2500 Y2500 Z800 E2500 ; sets maximum accelerations, mm/sec^2
M203 X300 Y250 Z8 E80 ; sets maximum feedrates, mm / sec
M204 S2500 T2500 ; sets acceleration (S) and retract acceleration (R), mm/sec^2
M205 X15.00 Y10.00 Z2.00 E10.00 ; sets the jerk limits, mm/sec
M205 S0 T0 ; sets the minimum extruding and travel feed rate, mm/sec
;TYPE:Custom
G90 ; use absolute coordinates
M83 ; extruder relative mode
M104 S215 ; set extruder temp
M140 S60 ; set bed temp
M190 S60 ; wait for bed temp
M109 S215 ; wait for extruder temp
G28                                        ; move X/Y/Z to min endstops
G1 Z0.28                                   ; lift nozzle a bit 
G92 E0 
G1 Y3 F1800                                    ; zero the extruded length 
G1 X60  E25 F500                       ; Extrude 25mm of filament in a 5cm line. 
G92 E0                                     ; zero the extruded length again 
G1 E-2 F500                                ; Retract a little 
G1 X70 F4000                              ; Quickly wipe away from the filament line
M117
G21 ; set units to millimeters
G90 ; use absolute coordinates
M82 ; use absolute distances for extrusion
G92 E0
M107
;LAYER_CHANGE
;Z:0.28
;HEIGHT:0.28
; BEFORE_LAYER_CHANGE 0 @ 0.28mm
G1 Z.28 F7200
; AFTER_LAYER_CHANGE 0 @ 0.28mm
G1 E-2 F4800
G92 E0
G1 X101.853 Y101.716 F7200
G1 E2 F4800
M204 S2000
;TYPE:External perimeter
;WIDTH:0.56
G1 F1798
G1 X102.217 Y101.352 E2.02996
G1 X103.139 Y100.543 E2.10134
G1 X103.614 Y100.166 E2.13663
G1 X104.613 Y99.45 E2.20816
G1 X105.123 Y99.121 E2.24348
G1 X106.185 Y98.508 E2.31484
G1 X107.283 Y97.967 E2.38607
G1 X108.413 Y97.499 E2.45725
G1 X109.574 Y97.105 E2.5286
G1 X110.158 Y96.938 E2.56395
G1 X111.354 Y96.659 E2.63542
G1 X111.968 Y96.548 E2.67173
G1 X113.167 Y96.39 E2.74211
G1 X114.39 Y96.31 E2.81343
G1 X115.015 Y96.3 E2.84981
G1 X116.225 Y96.34 E2.92026
G1 X116.833 Y96.39 E2.95576
G1 X117.455 Y96.462 E2.9922
G1 X118.651 Y96.66 E3.06275
G1 X119.244 Y96.788 E3.09805
G1 X120.431 Y97.106 E3.16956
G1 X121.025 Y97.298 E3.20589
G1 X122.158 Y97.724 E3.27633
G1 X122.715 Y97.966 E3.31167
G1 X123.817 Y98.509 E3.38316
G1 X124.348 Y98.804 E3.41851
G1 X125.391 Y99.453 E3.49
G1 X125.89 Y99.798 E3.5253
G1 X126.865 Y100.546 E3.59681
G1 X127.328 Y100.939 E3.63215
G1 X128.225 Y101.779 E3.70367
G1 X128.647 Y102.215 E3.73898
G1 X129.455 Y103.137 E3.81032
G1 X130.202 Y104.11 E3.88171
G1 X130.547 Y104.609 E3.91701
G1 X131.187 Y105.637 E3.98748
G1 X131.491 Y106.183 E4.02385
G1 X132.033 Y107.283 E4.09521
G1 X132.501 Y108.413 E4.16639
G1 X132.895 Y109.574 E4.23774
G1 X133.062 Y110.158 E4.27309
G1 X133.341 Y111.354 E4.34456
G1 X133.45 Y111.951 E4.37988
G1 X133.61 Y113.17 E4.45143
G1 X133.66 Y113.775 E4.48676
G1 X133.7 Y115 E4.55809
G1 X133.661 Y116.206 E4.62831
G1 X133.54 Y117.441 E4.70052
G1 X133.341 Y118.648 E4.77171
G1 X133.067 Y119.823 E4.84192
G1 X132.707 Y121.011 E4.91416
G1 X132.276 Y122.158 E4.98547
G1 X132.034 Y122.715 E5.02081
G1 X131.492 Y123.815 E5.09217
G1 X130.88 Y124.875 E5.1634
G1 X130.2 Y125.892 E5.2346
G1 X129.454 Y126.865 E5.30595
G1 X129.061 Y127.328 E5.34129
G1 X128.221 Y128.224 E5.41276
G1 X127.772 Y128.658 E5.4491
G1 X126.863 Y129.455 E5.51945
G1 X125.892 Y130.2 E5.59067
G1 X124.875 Y130.88 E5.66187
G1 X123.815 Y131.492 E5.7331
G1 X122.717 Y132.033 E5.80433
G1 X121.587 Y132.501 E5.87551
G1 X120.426 Y132.895 E5.94686
G1 X119.826 Y133.066 E5.98317
G1 X118.646 Y133.341 E6.05368
G1 X118.049 Y133.45 E6.089
G1 X116.83 Y133.61 E6.16055
G1 X116.225 Y133.66 E6.19588
G1 X115 Y133.7 E6.26721
G1 X113.777 Y133.66 E6.33842
G1 X112.559 Y133.54 E6.40964
G1 X111.349 Y133.34 E6.48101
G1 X110.756 Y133.212 E6.51631
G1 X109.569 Y132.894 E6.58782
G1 X108.991 Y132.708 E6.62316
G1 X107.842 Y132.276 E6.6946
G1 X107.285 Y132.034 E6.72994
G1 X106.183 Y131.491 E6.80143
G1 X105.652 Y131.196 E6.83678
G1 X104.609 Y130.547 E6.90827
G1 X104.11 Y130.202 E6.94357
G1 X103.135 Y129.454 E7.01508
G1 X102.672 Y129.061 E7.05042
G1 X101.775 Y128.221 E7.12194
G1 X101.353 Y127.785 E7.15725
G1 X100.545 Y126.863 E7.22859
G1 X99.8 Y125.892 E7.29981
G1 X99.12 Y124.875 E7.37101
G1 X98.508 Y123.815 E7.44224
G1 X97.967 Y122.717 E7.51347
G1 X97.499 Y121.587 E7.58465
G1 X97.105 Y120.426 E7.656
G1 X96.938 Y119.842 E7.69135
G1 X96.659 Y118.648 E7.76271
G1 X96.463 Y117.458 E7.8329
G1 X96.34 Y116.223 E7.90513
G1 X96.3 Y115 E7.97634
G1 X96.339 Y113.792 E8.04668
G1 X96.39 Y113.169 E8.08306
G1 X96.548 Y111.968 E8.15355
G1 X96.659 Y111.354 E8.18986
G1 X96.934 Y110.174 E8.26037
G1 X97.105 Y109.574 E8.29668
G1 X97.493 Y108.429 E8.36703
G1 X97.967 Y107.282 E8.43925
G1 X98.508 Y106.185 E8.51043
G1 X99.112 Y105.138 E8.58077
G1 X99.45 Y104.613 E8.61711
G1 X100.156 Y103.628 E8.68764
G1 X100.543 Y103.139 E8.72393
G1 X101.34 Y102.23 E8.79428
G1 X101.811 Y101.758 E8.83308
M204 S2500
G1 X102.078 Y102.043 F7200
M204 S2000
G1 F1798
G1 X102.92 Y101.254 E8.90023
G1 X103.392 Y100.852 E8.93631
G1 X104.325 Y100.136 E9.00475
G1 X104.835 Y99.783 E9.04085
G1 X105.834 Y99.161 E9.10933
G1 X106.375 Y98.86 E9.14536
G1 X107.43 Y98.339 E9.21383
G1 X107.999 Y98.092 E9.24993
G1 X109.115 Y97.672 E9.31932
G1 X109.69 Y97.487 E9.35447
G1 X110.826 Y97.183 E9.42291
G1 X111.432 Y97.051 E9.459
G1 X112.592 Y96.859 E9.52742
G1 X113.209 Y96.788 E9.56356
G1 X114.195 Y96.726 E9.62105
G1 X114.981 Y96.7 E9.66682
G1 X115.601 Y96.71 E9.70291
G1 X116.791 Y96.788 E9.77231
G1 X117.391 Y96.857 E9.80746
G1 X118.57 Y97.051 E9.87699
G1 X119.734 Y97.323 E9.94655
G1 X120.315 Y97.489 E9.98171
G1 X121.43 Y97.867 E10.05022
G1 X122.553 Y98.331 E10.12093
G1 X123.624 Y98.86 E10.19045
G1 X124.152 Y99.153 E10.22559
G1 X125.167 Y99.784 E10.29514
G1 X126.125 Y100.47 E10.36371
G1 X126.611 Y100.855 E10.39979
G1 X127.51 Y101.643 E10.46936
G1 X128.357 Y102.49 E10.53907
G1 X129.146 Y103.39 E10.60872
G1 X129.874 Y104.339 E10.67833
G1 X130.217 Y104.835 E10.71342
G1 X130.847 Y105.848 E10.78284
G1 X131.14 Y106.376 E10.81798
G1 X131.668 Y107.445 E10.88736
G1 X131.908 Y107.999 E10.9225
G1 X132.329 Y109.118 E10.99208
G1 X132.681 Y110.28 E11.06274
G1 X132.949 Y111.43 E11.13146
G1 X133.144 Y112.611 E11.20112
G1 X133.262 Y113.82 E11.27181
G1 X133.3 Y115 E11.34052
G1 X133.261 Y116.197 E11.41022
G1 X133.141 Y117.405 E11.48087
G1 X132.949 Y118.568 E11.54947
G1 X132.817 Y119.174 E11.58556
G1 X132.512 Y120.312 E11.65412
G1 X132.127 Y121.446 E11.72381
G1 X131.662 Y122.568 E11.79449
G1 X131.14 Y123.624 E11.86304
G1 X130.847 Y124.152 E11.89818
G1 X130.217 Y125.165 E11.9676
G1 X129.864 Y125.675 E12.0037
G1 X129.148 Y126.608 E12.07214
G1 X128.757 Y127.068 E12.10727
G1 X127.942 Y127.938 E12.17664
G1 X127.508 Y128.358 E12.21179
G1 X126.611 Y129.145 E12.28123
G1 X126.138 Y129.52 E12.31636
G1 X125.167 Y130.216 E12.38588
G1 X124.152 Y130.847 E12.45543
G1 X123.624 Y131.14 E12.49057
G1 X122.555 Y131.668 E12.55995
G1 X122.001 Y131.908 E12.59509
G1 X120.9 Y132.322 E12.66354
G1 X120.31 Y132.513 E12.69963
G1 X119.158 Y132.821 E12.76903
G1 X118.568 Y132.949 E12.80416
G1 X117.389 Y133.144 E12.8737
G1 X116.197 Y133.261 E12.9434
G1 X115 Y133.3 E13.0131
G1 X113.803 Y133.261 E13.0828
G1 X112.611 Y133.144 E13.1525
G1 X111.43 Y132.949 E13.22216
G1 X110.266 Y132.677 E13.29172
G1 X109.685 Y132.511 E13.32688
G1 X108.554 Y132.127 E13.39639
G1 X107.447 Y131.669 E13.46611
G1 X106.376 Y131.14 E13.53563
G1 X105.848 Y130.847 E13.57077
G1 X104.833 Y130.216 E13.64032
G1 X103.862 Y129.52 E13.70984
G1 X103.389 Y129.145 E13.74497
G1 X102.49 Y128.357 E13.81454
G1 X101.643 Y127.51 E13.88425
G1 X100.854 Y126.609 E13.95395
G1 X100.126 Y125.661 E14.02351
G1 X99.783 Y125.165 E14.0586
G1 X99.153 Y124.152 E14.12802
G1 X98.86 Y123.624 E14.16316
G1 X98.331 Y122.553 E14.23268
G1 X97.873 Y121.446 E14.3024
G1 X97.489 Y120.315 E14.37191
G1 X97.323 Y119.734 E14.40707
G1 X97.051 Y118.57 E14.47663
G1 X96.856 Y117.389 E14.54629
G1 X96.738 Y116.18 E14.61698
G1 X96.7 Y115 E14.68569
G1 X96.739 Y113.803 E14.75539
G1 X96.859 Y112.595 E14.82604
G1 X97.051 Y111.432 E14.89464
G1 X97.183 Y110.826 E14.93073
G1 X97.487 Y109.69 E14.99917
G1 X97.672 Y109.115 E15.03432
G1 X98.092 Y107.999 E15.10371
G1 X98.339 Y107.43 E15.13981
G1 X98.86 Y106.375 E15.20828
G1 X99.161 Y105.834 E15.24431
G1 X99.783 Y104.835 E15.31279
G1 X100.136 Y104.325 E15.34889
G1 X100.854 Y103.39 E15.41749
G1 X101.642 Y102.492 E15.48702
G1 X102.035 Y102.085 E15.51995
M204 S2500
;LAYER_CHANGE
;Z:0.48
;HEIGHT:0.2
; BEFORE_LAYER_CHANGE 1 @ 0.48mm
G1 Z.48 F7200
; AFTER_LAYER_CHANGE 1 @ 0.48mm
M104 S190 ; set temperature
G1 X101.721 Y101.772
;WIDTH:0.45
G1 F1549
G1 X102.179 Y101.311 E15.54195
G1 X103.103 Y100.501 E15.58354
G1 X103.619 Y100.094 E15.60579
G1 X104.582 Y99.405 E15.64587
G1 X105.135 Y99.05 E15.66811
G1 X106.159 Y98.46 E15.70811
G1 X107.26 Y97.917 E15.74966
G1 X108.438 Y97.431 E15.79279
G1 X109.558 Y97.052 E15.83281
G1 X110.144 Y96.885 E15.85344
G1 X111.343 Y96.605 E15.89512
G1 X111.989 Y96.489 E15.91734
G1 X113.162 Y96.335 E15.95739
G1 X114.388 Y96.255 E15.99898
G1 X115.045 Y96.246 E16.02122
G1 X116.227 Y96.285 E16.06125
G1 X117.494 Y96.412 E16.10435
G1 X118.661 Y96.606 E16.14439
G1 X119.257 Y96.735 E16.16503
G1 X120.446 Y97.053 E16.20669
G1 X121.027 Y97.24 E16.22735
G1 X122.179 Y97.673 E16.26901
G1 X122.781 Y97.936 E16.29125
G1 X123.842 Y98.46 E16.3313
G1 X124.416 Y98.781 E16.35356
G1 X125.421 Y99.407 E16.39364
G1 X125.923 Y99.754 E16.4143
G1 X126.899 Y100.503 E16.45594
G1 X127.399 Y100.929 E16.47817
G1 X128.263 Y101.74 E16.51828
G1 X128.687 Y102.178 E16.53891
G1 X129.499 Y103.104 E16.5806
G1 X129.878 Y103.581 E16.60122
G1 X130.595 Y104.582 E16.6429
G1 X130.926 Y105.094 E16.66354
G1 X131.54 Y106.159 E16.70515
G1 X132.084 Y107.262 E16.74678
G1 X132.327 Y107.823 E16.76747
G1 X132.552 Y108.392 E16.78818
G1 X132.948 Y109.558 E16.82986
G1 X133.115 Y110.144 E16.85049
G1 X133.395 Y111.343 E16.89217
G1 X133.504 Y111.943 E16.91281
G1 X133.665 Y113.164 E16.9545
G1 X133.715 Y113.771 E16.97512
G1 X133.755 Y115 E17.01674
G1 X133.715 Y116.227 E17.05829
G1 X133.594 Y117.448 E17.09982
G1 X133.394 Y118.659 E17.14137
G1 X133.127 Y119.811 E17.1814
G1 X132.947 Y120.445 E17.20371
G1 X132.76 Y121.027 E17.2244
G1 X132.327 Y122.179 E17.26606
G1 X132.084 Y122.738 E17.28669
G1 X131.539 Y123.843 E17.32839
G1 X131.243 Y124.376 E17.34903
G1 X130.593 Y125.421 E17.39069
G1 X130.246 Y125.923 E17.41135
G1 X129.498 Y126.898 E17.45295
G1 X128.687 Y127.822 E17.49456
G1 X128.262 Y128.262 E17.51527
G1 X127.822 Y128.687 E17.53598
G1 X126.896 Y129.499 E17.57767
G1 X126.419 Y129.878 E17.59829
G1 X125.418 Y130.595 E17.63997
G1 X124.906 Y130.926 E17.66061
G1 X123.841 Y131.54 E17.70222
G1 X122.738 Y132.084 E17.74385
G1 X122.179 Y132.327 E17.76448
G1 X121.027 Y132.76 E17.80614
G1 X120.446 Y132.947 E17.8268
G1 X119.257 Y133.265 E17.86846
G1 X118.659 Y133.395 E17.88917
G1 X118.057 Y133.504 E17.90988
G1 X116.836 Y133.665 E17.95157
G1 X116.229 Y133.715 E17.97219
G1 X115 Y133.755 E18.01381
G1 X113.771 Y133.715 E18.05543
G1 X113.164 Y133.665 E18.07605
G1 X111.943 Y133.504 E18.11774
G1 X111.343 Y133.395 E18.13838
G1 X110.146 Y133.116 E18.17998
G1 X108.927 Y132.744 E18.22312
G1 X107.821 Y132.327 E18.26313
G1 X107.262 Y132.084 E18.28376
G1 X106.157 Y131.539 E18.32546
G1 X105.624 Y131.243 E18.3461
G1 X104.579 Y130.593 E18.38776
G1 X104.077 Y130.246 E18.40842
G1 X103.102 Y129.498 E18.45002
G1 X102.179 Y128.688 E18.49159
G1 X101.312 Y127.821 E18.53309
G1 X100.501 Y126.896 E18.57473
G1 X100.122 Y126.419 E18.59535
G1 X99.405 Y125.418 E18.63703
G1 X99.074 Y124.906 E18.65767
G1 X98.46 Y123.841 E18.69928
G1 X97.917 Y122.74 E18.74083
G1 X97.447 Y121.607 E18.78235
G1 X97.052 Y120.442 E18.82399
G1 X96.885 Y119.856 E18.84462
G1 X96.605 Y118.659 E18.88623
G1 X96.412 Y117.494 E18.9262
G1 X96.285 Y116.227 E18.9693
G1 X96.245 Y115 E19.01085
G1 X96.283 Y113.818 E19.05088
G1 X96.335 Y113.163 E19.07312
G1 X96.489 Y111.989 E19.1132
G1 X96.605 Y111.343 E19.13542
G1 X96.873 Y110.191 E19.17546
G1 X97.24 Y108.971 E19.21858
G1 X97.673 Y107.821 E19.26017
G1 X97.916 Y107.262 E19.2808
G1 X98.46 Y106.159 E19.32243
G1 X99.05 Y105.135 E19.36243
G1 X99.405 Y104.582 E19.38467
G1 X100.094 Y103.619 E19.42475
G1 X100.501 Y103.103 E19.447
G1 X101.28 Y102.214 E19.48701
G1 X101.678 Y101.814 E19.50611
G1 X102.038 Y102.162 F7200
G1 F1549
G1 X102.935 Y101.314 E19.54789
G1 X103.427 Y100.895 E19.56976
G1 X104.335 Y100.198 E19.60851
G1 X104.865 Y99.829 E19.63037
G1 X105.876 Y99.2 E19.67067
G1 X106.401 Y98.908 E19.691
G1 X107.429 Y98.401 E19.7298
G1 X108.573 Y97.924 E19.77175
G1 X109.704 Y97.541 E19.81217
G1 X110.811 Y97.243 E19.85097
G1 X111.442 Y97.105 E19.87283
G1 X112.574 Y96.918 E19.91167
G1 X113.807 Y96.794 E19.95362
G1 X114.953 Y96.756 E19.99243
G1 X115.599 Y96.765 E20.0143
G1 X116.786 Y96.843 E20.05457
G1 X117.383 Y96.911 E20.07491
G1 X118.559 Y97.105 E20.11525
G1 X119.676 Y97.365 E20.15407
G1 X120.298 Y97.541 E20.17595
G1 X121.384 Y97.909 E20.21476
G1 X122.53 Y98.381 E20.25671
G1 X123.601 Y98.909 E20.29713
G1 X124.596 Y99.483 E20.33601
G1 X125.627 Y100.169 E20.37793
G1 X126.575 Y100.896 E20.41837
G1 X127.472 Y101.683 E20.45876
G1 X128.317 Y102.528 E20.49921
G1 X129.102 Y103.424 E20.53953
G1 X129.476 Y103.895 E20.55989
G1 X130.17 Y104.864 E20.60023
G1 X130.8 Y105.876 E20.64058
G1 X131.092 Y106.401 E20.66091
G1 X131.619 Y107.47 E20.70125
G1 X132.091 Y108.616 E20.7432
G1 X132.459 Y109.702 E20.78201
G1 X132.635 Y110.324 E20.80389
G1 X132.895 Y111.441 E20.84271
G1 X133.089 Y112.618 E20.88309
G1 X133.206 Y113.807 E20.92353
G1 X133.245 Y115 E20.96393
G1 X133.206 Y116.193 E21.00433
G1 X133.082 Y117.426 E21.04628
G1 X132.895 Y118.56 E21.08518
G1 X132.624 Y119.72 E21.1255
G1 X132.459 Y120.298 E21.14585
G1 X132.076 Y121.427 E21.1862
G1 X131.619 Y122.53 E21.22661
G1 X131.092 Y123.599 E21.26695
G1 X130.8 Y124.124 E21.28728
G1 X130.171 Y125.135 E21.32758
G1 X129.829 Y125.629 E21.34792
G1 X129.105 Y126.573 E21.38819
G1 X128.716 Y127.031 E21.40853
G1 X127.901 Y127.901 E21.44888
G1 X127.031 Y128.716 E21.48923
G1 X126.573 Y129.105 E21.50957
G1 X125.629 Y129.829 E21.54984
G1 X125.135 Y130.171 E21.57018
G1 X124.124 Y130.8 E21.61048
G1 X123.599 Y131.092 E21.63081
G1 X122.532 Y131.618 E21.67108
G1 X121.98 Y131.857 E21.69144
G1 X120.865 Y132.277 E21.73177
G1 X119.722 Y132.623 E21.77219
G1 X118.559 Y132.895 E21.81262
G1 X117.382 Y133.089 E21.853
G1 X116.193 Y133.206 E21.89344
G1 X115 Y133.245 E21.93384
G1 X113.807 Y133.206 E21.97424
G1 X112.618 Y133.089 E22.01468
G1 X111.441 Y132.895 E22.05506
G1 X110.28 Y132.624 E22.09541
G1 X109.702 Y132.459 E22.11576
G1 X108.573 Y132.076 E22.15611
G1 X107.47 Y131.619 E22.19652
G1 X106.399 Y131.091 E22.23694
G1 X105.406 Y130.518 E22.27575
G1 X104.862 Y130.169 E22.29763
G1 X103.895 Y129.476 E22.3379
G1 X103.424 Y129.102 E22.35826
G1 X102.528 Y128.317 E22.39858
G1 X101.683 Y127.472 E22.43903
G1 X100.896 Y126.575 E22.47942
G1 X100.169 Y125.627 E22.51986
G1 X99.483 Y124.596 E22.56178
G1 X98.909 Y123.601 E22.60066
G1 X98.381 Y122.53 E22.64108
G1 X97.909 Y121.384 E22.68303
G1 X97.541 Y120.298 E22.72184
G1 X97.365 Y119.676 E22.74372
G1 X97.105 Y118.559 E22.78254
G1 X96.911 Y117.381 E22.82295
G1 X96.792 Y116.148 E22.86488
G1 X96.755 Y115 E22.90376
G1 X96.794 Y113.807 E22.94416
G1 X96.918 Y112.574 E22.98611
G1 X97.105 Y111.44 E23.02501
G1 X97.376 Y110.28 E23.06533
G1 X97.541 Y109.702 E23.08568
G1 X97.924 Y108.573 E23.12603
G1 X98.401 Y107.429 E23.16798
G1 X98.909 Y106.401 E23.20679
G1 X99.224 Y105.837 E23.22866
G1 X99.829 Y104.865 E23.26741
G1 X100.198 Y104.335 E23.28927
G1 X100.896 Y103.425 E23.32809
G1 X101.682 Y102.529 E23.36843
G1 X101.996 Y102.205 E23.3837
M106 S255
;LAYER_CHANGE
;Z:0.68
;HEIGHT:0.2
; BEFORE_LAYER_CHANGE 2 @ 0.68mm
G1 Z.68 F7200
; AFTER_LAYER_CHANGE 2 @ 0.68mm
G1 X101.641 Y101.852
G1 F1549
G1 X102.179 Y101.311 E23.40953
G1 X103.103 Y100.501 E23.45112
G1 X103.639 Y100.079 E23.47421
