; generated by PrusaSlicer 2.6.0+MacOS-x64 on 2023-08-07 at 02:00:48 UTC

; 

; external perimeters extrusion width = 0.45mm
; perimeters extrusion width = 0.40mm
; infill extrusion width = 0.45mm
; solid infill extrusion width = 0.50mm
; top infill extrusion width = 0.45mm
; first layer extrusion width = 0.56mm

M201 X2500 Y2500 Z800 E2500 ; sets maximum accelerations, mm/sec^2
M203 X300 Y250 Z8 E80 ; sets maximum feedrates, mm / sec
M204 S2500 T2500 ; sets acceleration (S) and retract acceleration (R), mm/sec^2
M205 X15.00 Y10.00 Z2.00 E10.00 ; sets the jerk limits, mm/sec
M205 S0 T0 ; sets the minimum extruding and travel feed rate, mm/sec
;TYPE:Custom
G90 ; use absolute coordinates
M83 ; extruder relative mode
M104 S215 ; set extruder temp
M140 S60 ; set bed temp
M190 S60 ; wait for bed temp
M109 S215 ; wait for extruder temp
G28                                        ; move X/Y/Z to min endstops
G1 Z0.28                                   ; lift nozzle a bit 
G92 E0 
G1 Y3 F1800                                    ; zero the extruded length 
G1 X60  E25 F500                       ; Extrude 25mm of filament in a 5cm line. 
G92 E0                                     ; zero the extruded length again 
G1 E-2 F500                                ; Retract a little 
G1 X70 F4000                              ; Quickly wipe away from the filament line
M117
G21 ; set units to millimeters
G90 ; use absolute coordinates
M82 ; use absolute distances for extrusion
G92 E0
M107
;LAYER_CHANGE
;Z:0.28
;HEIGHT:0.28
; BEFORE_LAYER_CHANGE 0 @ 0.28mm
G1 Z.28 F7200
; AFTER_LAYER_CHANGE 0 @ 0.28mm
G1 E-2 F4800
G92 E0
G1 X96.827 Y96.827 F7200
G1 E2 F4800
M204 S2000
;TYPE:External perimeter
;WIDTH:0.56
G1 F2460
G1 X97.432 Y96.243 E2.04894
G1 X98.055 Y95.678 E2.09788
G1 X98.696 Y95.134 E2.14681
G1 X99.364 Y94.604 E2.19643
G1 X100.03 Y94.11 E2.24469
G1 X100.722 Y93.631 E2.29367
G1 X101.429 Y93.176 E2.3426
G1 X102.15 Y92.743 E2.39154
G1 X102.885 Y92.335 E2.44046
G1 X103.633 Y91.95 E2.48942
G1 X104.393 Y91.591 E2.53833
G1 X105.165 Y91.256 E2.5873
G1 X105.947 Y90.947 E2.63623
G1 X106.739 Y90.664 E2.68517
G1 X107.54 Y90.407 E2.73412
G1 X108.36 Y90.173 E2.78374
G1 X109.164 Y89.971 E2.83198
G1 X109.986 Y89.794 E2.88091
G1 X110.825 Y89.642 E2.93053
G1 X111.646 Y89.52 E2.97883
G1 X112.481 Y89.424 E3.02774
G1 X113.319 Y89.355 E3.07667
G1 X114.158 Y89.314 E3.12555
G1 X115.426 Y89.307 E3.19934
G1 X116.682 Y89.355 E3.27249
G1 X117.519 Y89.424 E3.32136
G1 X118.366 Y89.522 E3.37098
G1 X119.186 Y89.643 E3.41922
G1 X120.014 Y89.794 E3.4682
G1 X120.847 Y89.974 E3.5178
G1 X121.652 Y90.176 E3.5661
G1 X122.46 Y90.407 E3.61501
G1 X123.261 Y90.664 E3.66396
G1 X124.053 Y90.947 E3.7129
G1 X124.835 Y91.256 E3.76183
G1 X125.607 Y91.591 E3.8108
G1 X126.367 Y91.95 E3.85971
G1 X127.115 Y92.335 E3.90867
G1 X127.85 Y92.743 E3.95759
G1 X128.571 Y93.176 E4.00653
G1 X129.278 Y93.631 E4.05546
G1 X129.979 Y94.117 E4.1051
G1 X130.645 Y94.611 E4.15336
G1 X131.304 Y95.134 E4.20232
G1 X131.945 Y95.678 E4.25125
G1 X132.568 Y96.243 E4.30019
G1 X133.173 Y96.827 E4.34913
G1 X133.757 Y97.432 E4.39807
G1 X134.322 Y98.055 E4.44701
G1 X134.866 Y98.696 E4.49594
G1 X135.389 Y99.355 E4.5449
G1 X135.883 Y100.021 E4.59316
G1 X136.369 Y100.722 E4.6428
G1 X136.824 Y101.429 E4.69173
G1 X137.257 Y102.15 E4.74067
G1 X137.665 Y102.885 E4.78959
G1 X138.05 Y103.633 E4.83855
G1 X138.409 Y104.393 E4.88746
G1 X138.744 Y105.165 E4.93643
G1 X139.053 Y105.947 E4.98536
G1 X139.336 Y106.739 E5.0343
G1 X139.593 Y107.54 E5.08325
G1 X139.824 Y108.348 E5.13216
G1 X140.029 Y109.164 E5.18112
G1 X140.206 Y109.986 E5.23005
G1 X140.357 Y110.814 E5.27903
G1 X140.478 Y111.634 E5.32727
G1 X140.576 Y112.481 E5.37689
G1 X140.645 Y113.319 E5.42582
G1 X140.686 Y114.159 E5.47476
G1 X140.7 Y115 E5.52371
G1 X140.686 Y115.841 E5.57266
G1 X140.645 Y116.681 E5.6216
G1 X140.576 Y117.519 E5.67053
G1 X140.48 Y118.354 E5.71944
G1 X140.358 Y119.175 E5.76774
G1 X140.206 Y120.014 E5.81736
G1 X140.029 Y120.836 E5.86629
G1 X139.824 Y121.652 E5.91525
G1 X139.593 Y122.46 E5.96416
G1 X139.336 Y123.261 E6.01311
G1 X139.053 Y124.053 E6.06205
G1 X138.744 Y124.835 E6.11098
G1 X138.409 Y125.607 E6.15995
G1 X138.05 Y126.367 E6.20886
G1 X137.665 Y127.115 E6.25782
G1 X137.257 Y127.85 E6.30674
G1 X136.831 Y128.561 E6.35498
G1 X136.369 Y129.278 E6.40462
G1 X135.89 Y129.97 E6.4536
G1 X135.389 Y130.645 E6.50252
G1 X134.866 Y131.304 E6.55148
G1 X134.322 Y131.945 E6.60041
G1 X133.757 Y132.568 E6.64935
G1 X133.173 Y133.173 E6.69829
G1 X132.56 Y133.765 E6.74788
G1 X131.945 Y134.322 E6.79617
G1 X131.304 Y134.866 E6.8451
G1 X130.645 Y135.389 E6.89406
G1 X129.97 Y135.89 E6.94298
G1 X129.278 Y136.369 E6.99196
G1 X128.571 Y136.824 E7.04089
G1 X127.85 Y137.257 E7.08983
G1 X127.115 Y137.665 E7.13875
G1 X126.367 Y138.05 E7.18771
G1 X125.607 Y138.409 E7.23662
G1 X124.835 Y138.744 E7.28559
G1 X124.053 Y139.053 E7.33452
G1 X123.261 Y139.336 E7.38346
G1 X122.46 Y139.593 E7.43241
G1 X121.652 Y139.824 E7.48132
G1 X120.836 Y140.029 E7.53028
G1 X120.014 Y140.206 E7.57921
G1 X119.175 Y140.358 E7.62883
G1 X118.354 Y140.48 E7.67713
G1 X117.519 Y140.576 E7.72604
G1 X116.681 Y140.645 E7.77497
G1 X115.841 Y140.686 E7.82391
G1 X115 Y140.7 E7.87286
G1 X114.159 Y140.686 E7.92181
G1 X113.319 Y140.645 E7.97075
G1 X112.481 Y140.576 E8.01968
G1 X111.634 Y140.478 E8.0693
G1 X110.814 Y140.357 E8.11754
G1 X109.986 Y140.206 E8.16652
G1 X109.164 Y140.029 E8.21545
G1 X108.348 Y139.824 E8.26441
G1 X107.54 Y139.593 E8.31332
G1 X106.739 Y139.336 E8.36227
G1 X105.947 Y139.053 E8.41121
G1 X105.165 Y138.744 E8.46014
G1 X104.393 Y138.409 E8.50911
G1 X103.633 Y138.05 E8.55802
G1 X102.885 Y137.665 E8.60698
G1 X102.15 Y137.257 E8.6559
G1 X101.429 Y136.824 E8.70484
G1 X100.722 Y136.369 E8.75377
G1 X100.03 Y135.89 E8.80275
G1 X99.355 Y135.389 E8.85167
G1 X98.696 Y134.866 E8.90063
G1 X98.055 Y134.322 E8.94956
G1 X97.432 Y133.758 E8.99847
G1 X96.827 Y133.173 E9.04745
G1 X96.243 Y132.568 E9.09639
G1 X95.678 Y131.945 E9.14533
G1 X95.134 Y131.304 E9.19426
G1 X94.611 Y130.645 E9.24322
G1 X94.117 Y129.979 E9.29148
G1 X93.631 Y129.278 E9.34112
G1 X93.176 Y128.571 E9.39005
G1 X92.743 Y127.85 E9.43899
G1 X92.335 Y127.115 E9.48791
G1 X91.95 Y126.367 E9.53687
G1 X91.591 Y125.607 E9.58578
G1 X91.256 Y124.835 E9.63475
G1 X90.947 Y124.053 E9.68368
G1 X90.664 Y123.261 E9.73262
G1 X90.407 Y122.46 E9.78157
G1 X90.176 Y121.652 E9.83048
G1 X89.974 Y120.847 E9.87878
G1 X89.794 Y120.014 E9.92838
G1 X89.643 Y119.186 E9.97736
G1 X89.522 Y118.366 E10.0256
G1 X89.424 Y117.519 E10.07522
G1 X89.355 Y116.681 E10.12415
G1 X89.314 Y115.841 E10.17309
G1 X89.3 Y115 E10.22204
G1 X89.314 Y114.159 E10.27099
G1 X89.354 Y113.331 E10.31923
G1 X89.424 Y112.481 E10.36886
G1 X89.52 Y111.646 E10.41777
G1 X89.642 Y110.825 E10.46607
G1 X89.794 Y109.986 E10.51569
G1 X89.971 Y109.164 E10.56462
G1 X90.173 Y108.36 E10.61286
G1 X90.407 Y107.54 E10.66248
G1 X90.664 Y106.739 E10.71143
G1 X90.943 Y105.958 E10.75969
G1 X91.256 Y105.165 E10.8093
G1 X91.591 Y104.393 E10.85827
G1 X91.945 Y103.644 E10.90648
G1 X92.335 Y102.885 E10.95614
G1 X92.743 Y102.15 E11.00506
G1 X93.169 Y101.439 E11.0533
G1 X93.631 Y100.722 E11.10294
G1 X94.11 Y100.03 E11.15192
G1 X94.604 Y99.364 E11.20018
G1 X95.134 Y98.696 E11.2498
G1 X95.678 Y98.055 E11.29873
G1 X96.235 Y97.44 E11.34702
G1 X96.786 Y96.87 E11.39316
M204 S2500
G1 X97.073 Y97.149 F7200
M204 S2000
G1 F2460
G1 X97.705 Y96.534 E11.44448
G1 X98.31 Y95.986 E11.49198
G1 X98.95 Y95.443 E11.54082
G1 X99.598 Y94.928 E11.58899
G1 X100.254 Y94.442 E11.6365
G1 X100.944 Y93.964 E11.68535
G1 X101.64 Y93.515 E11.73355
G1 X102.35 Y93.09 E11.78171
G1 X103.074 Y92.687 E11.82993
G1 X103.81 Y92.309 E11.87808
G1 X104.558 Y91.955 E11.92624
G1 X105.32 Y91.625 E11.97456
G1 X106.478 Y91.182 E12.04671
G1 X107.654 Y90.79 E12.11885
G1 X108.452 Y90.562 E12.16715
G1 X109.244 Y90.364 E12.21466
G1 X110.064 Y90.186 E12.26349
G1 X110.879 Y90.038 E12.31169
G1 X111.686 Y89.918 E12.35917
G1 X112.52 Y89.822 E12.40803
G1 X113.347 Y89.754 E12.45632
G1 X114.58 Y89.707 E12.52813
G1 X115.826 Y89.713 E12.60064
G1 X116.655 Y89.754 E12.64894
G1 X117.48 Y89.822 E12.69711
G1 X118.302 Y89.916 E12.74526
G1 X119.121 Y90.038 E12.79345
G1 X119.936 Y90.186 E12.84165
G1 X120.745 Y90.361 E12.88982
G1 X121.548 Y90.562 E12.93799
G1 X122.344 Y90.789 E12.98616
G1 X123.132 Y91.043 E13.03434
G1 X123.901 Y91.318 E13.08187
G1 X124.682 Y91.626 E13.13073
G1 X125.442 Y91.955 E13.17892
G1 X126.19 Y92.309 E13.22708
G1 X126.926 Y92.687 E13.27523
G1 X127.65 Y93.09 E13.32345
G1 X128.36 Y93.515 E13.37161
G1 X129.056 Y93.964 E13.41981
G1 X129.737 Y94.435 E13.468
G1 X130.402 Y94.928 E13.51617
G1 X131.05 Y95.443 E13.56434
G1 X131.681 Y95.978 E13.61248
G1 X132.286 Y96.527 E13.66002
G1 X132.89 Y97.11 E13.70887
G1 X133.466 Y97.705 E13.75706
G1 X134.022 Y98.319 E13.80526
G1 X134.557 Y98.95 E13.8534
G1 X135.072 Y99.598 E13.90157
G1 X135.565 Y100.263 E13.94974
G1 X136.036 Y100.944 E13.99793
G1 X136.485 Y101.64 E14.04613
G1 X136.91 Y102.35 E14.09429
G1 X137.313 Y103.074 E14.14251
G1 X137.691 Y103.81 E14.19066
G1 X138.045 Y104.558 E14.23882
G1 X138.374 Y105.318 E14.28701
G1 X138.682 Y106.099 E14.33587
G1 X138.957 Y106.868 E14.3834
G1 X139.211 Y107.656 E14.43158
G1 X139.438 Y108.452 E14.47975
G1 X139.639 Y109.255 E14.52792
G1 X139.814 Y110.064 E14.57609
G1 X139.962 Y110.879 E14.62429
G1 X140.084 Y111.698 E14.67248
G1 X140.178 Y112.52 E14.72063
G1 X140.246 Y113.345 E14.7688
G1 X140.286 Y114.172 E14.81698
G1 X140.3 Y115 E14.86517
G1 X140.286 Y115.828 E14.91336
G1 X140.246 Y116.655 E14.96154
G1 X140.178 Y117.48 E15.00971
G1 X140.082 Y118.314 E15.05857
G1 X139.962 Y119.121 E15.10605
G1 X139.814 Y119.936 E15.15425
G1 X139.636 Y120.756 E15.20308
G1 X139.438 Y121.548 E15.25059
G1 X139.211 Y122.344 E15.29876
G1 X138.957 Y123.132 E15.34694
G1 X138.678 Y123.912 E15.39515
G1 X138.374 Y124.682 E15.44333
G1 X138.04 Y125.452 E15.49217
G1 X137.691 Y126.19 E15.53968
G1 X137.313 Y126.926 E15.58783
G1 X136.91 Y127.65 E15.63605
G1 X136.485 Y128.36 E15.68421
G1 X136.036 Y129.056 E15.73241
G1 X135.565 Y129.737 E15.7806
G1 X135.072 Y130.402 E15.82877
G1 X134.557 Y131.05 E15.87694
G1 X134.022 Y131.681 E15.92508
G1 X133.466 Y132.295 E15.97328
G1 X132.89 Y132.89 E16.02147
G1 X132.295 Y133.466 E16.06966
G1 X131.681 Y134.022 E16.11786
G1 X131.05 Y134.557 E16.166
G1 X130.402 Y135.072 E16.21417
G1 X129.746 Y135.558 E16.26168
G1 X129.056 Y136.036 E16.31053
G1 X128.36 Y136.485 E16.35873
G1 X127.65 Y136.91 E16.40689
G1 X126.926 Y137.313 E16.45511
G1 X126.19 Y137.691 E16.50326
G1 X125.442 Y138.045 E16.55142
G1 X124.682 Y138.374 E16.59961
G1 X123.912 Y138.678 E16.64779
G1 X123.132 Y138.957 E16.696
G1 X122.344 Y139.211 E16.74418
G1 X121.548 Y139.438 E16.79235
G1 X120.745 Y139.639 E16.84052
G1 X119.936 Y139.814 E16.88869
G1 X119.121 Y139.962 E16.93689
G1 X118.314 Y140.082 E16.98437
G1 X117.48 Y140.178 E17.03323
G1 X116.655 Y140.246 E17.0814
G1 X115.839 Y140.286 E17.12894
G1 X115 Y140.3 E17.17777
G1 X114.172 Y140.286 E17.22596
G1 X113.345 Y140.246 E17.27414
G1 X112.52 Y140.178 E17.32231
G1 X111.698 Y140.084 E17.37046
G1 X110.879 Y139.962 E17.41865
G1 X110.064 Y139.814 E17.46685
G1 X109.255 Y139.639 E17.51502
G1 X108.452 Y139.438 E17.56319
G1 X107.656 Y139.211 E17.61136
G1 X106.868 Y138.957 E17.65954
G1 X106.088 Y138.678 E17.70775
G1 X105.318 Y138.374 E17.75593
G1 X104.558 Y138.045 E17.80412
G1 X103.81 Y137.691 E17.85228
G1 X103.074 Y137.313 E17.90043
G1 X102.35 Y136.91 E17.94865
G1 X101.64 Y136.485 E17.99681
G1 X100.944 Y136.036 E18.04501
G1 X100.263 Y135.565 E18.0932
G1 X99.598 Y135.072 E18.14137
G1 X98.95 Y134.557 E18.18954
G1 X98.319 Y134.022 E18.23768
G1 X97.705 Y133.466 E18.28588
G1 X97.11 Y132.89 E18.33407
G1 X96.534 Y132.295 E18.38226
G1 X95.978 Y131.681 E18.43046
G1 X95.443 Y131.05 E18.4786
G1 X94.928 Y130.402 E18.52677
G1 X94.435 Y129.737 E18.57494
G1 X93.964 Y129.056 E18.62313
G1 X93.515 Y128.36 E18.67133
G1 X93.09 Y127.65 E18.71949
G1 X92.687 Y126.926 E18.76771
G1 X92.309 Y126.19 E18.81586
G1 X91.955 Y125.441 E18.86407
G1 X91.626 Y124.682 E18.91221
G1 X91.318 Y123.901 E18.96107
G1 X91.043 Y123.132 E19.0086
G1 X90.789 Y122.344 E19.05678
G1 X90.562 Y121.548 E19.10495
G1 X90.361 Y120.745 E19.15312
G1 X90.186 Y119.936 E19.20129
G1 X90.038 Y119.121 E19.24949
G1 X89.916 Y118.302 E19.29768
G1 X89.822 Y117.48 E19.34583
G1 X89.754 Y116.643 E19.3947
G1 X89.714 Y115.828 E19.44219
G1 X89.7 Y115 E19.49038
G1 X89.714 Y114.161 E19.53921
G1 X89.754 Y113.345 E19.58675
G1 X89.822 Y112.52 E19.63492
G1 X89.918 Y111.686 E19.68378
G1 X90.038 Y110.879 E19.73126
G1 X90.186 Y110.064 E19.77946
G1 X90.364 Y109.244 E19.82829
G1 X90.562 Y108.452 E19.8758
G1 X90.789 Y107.656 E19.92397
G1 X91.043 Y106.868 E19.97215
G1 X91.322 Y106.088 E20.02036
G1 X91.626 Y105.318 E20.06854
G1 X91.96 Y104.548 E20.11738
G1 X92.309 Y103.81 E20.16489
G1 X92.687 Y103.074 E20.21304
G1 X93.095 Y102.34 E20.26191
G1 X93.515 Y101.64 E20.30942
G1 X93.964 Y100.944 E20.35762
G1 X94.442 Y100.254 E20.40647
G1 X94.928 Y99.598 E20.45398
G1 X95.443 Y98.95 E20.50215
G1 X95.978 Y98.319 E20.55029
G1 X96.534 Y97.705 E20.59849
G1 X97.031 Y97.192 E20.64006
M204 S2500
;LAYER_CHANGE
;Z:0.48
;HEIGHT:0.2
; BEFORE_LAYER_CHANGE 1 @ 0.48mm
G1 Z.48 F7200
; AFTER_LAYER_CHANGE 1 @ 0.48mm
M104 S190 ; set temperature
G1 X96.704 Y96.876
;WIDTH:0.45
G1 F2136
G1 X97.394 Y96.202 E20.67271
G1 X98.019 Y95.636 E20.70125
G1 X98.661 Y95.091 E20.72976
G1 X99.321 Y94.567 E20.75829
G1 X99.998 Y94.065 E20.78682
G1 X100.691 Y93.586 E20.81534
G1 X101.4 Y93.129 E20.84389
G1 X102.123 Y92.696 E20.87242
G1 X102.859 Y92.286 E20.90094
G1 X103.638 Y91.887 E20.93057
G1 X104.371 Y91.541 E20.95801
G1 X105.144 Y91.206 E20.98653
G1 X105.928 Y90.896 E21.01507
G1 X106.721 Y90.612 E21.04358
G1 X107.524 Y90.354 E21.07213
G1 X108.334 Y90.123 E21.10064
G1 X109.152 Y89.918 E21.12918
G1 X109.975 Y89.74 E21.15768
G1 X110.805 Y89.589 E21.18624
G1 X111.638 Y89.465 E21.21475
G1 X112.476 Y89.369 E21.2433
G1 X113.316 Y89.3 E21.27183
G1 X114.157 Y89.259 E21.30033
G1 X115.032 Y89.246 E21.32995
G1 X115.843 Y89.259 E21.3574
G1 X116.684 Y89.3 E21.3859
G1 X117.524 Y89.369 E21.41443
G1 X118.394 Y89.47 E21.44408
G1 X119.195 Y89.589 E21.47149
G1 X120.025 Y89.74 E21.50005
G1 X120.848 Y89.918 E21.52855
G1 X121.666 Y90.123 E21.55709
G1 X122.476 Y90.354 E21.5856
G1 X123.279 Y90.612 E21.61415
G1 X124.072 Y90.896 E21.64266
G1 X124.856 Y91.206 E21.6712
G1 X125.629 Y91.541 E21.69972
G1 X126.391 Y91.901 E21.72825
G1 X127.141 Y92.286 E21.75679
G1 X127.877 Y92.696 E21.78531
G1 X128.6 Y93.129 E21.81384
G1 X129.309 Y93.586 E21.84239
G1 X130.002 Y94.065 E21.87091
G1 X130.679 Y94.567 E21.89944
G1 X131.339 Y95.091 E21.92797
G1 X132.005 Y95.658 E21.95758
G1 X132.606 Y96.202 E21.98502
G1 X133.212 Y96.788 E22.01355
G1 X133.798 Y97.394 E22.04208
G1 X134.342 Y97.995 E22.06952
G1 X134.909 Y98.661 E22.09913
G1 X135.433 Y99.321 E22.12766
G1 X135.916 Y99.972 E22.1551
G1 X136.415 Y100.691 E22.18472
G1 X136.871 Y101.4 E22.21325
G1 X137.304 Y102.123 E22.24178
G1 X137.714 Y102.859 E22.2703
G1 X138.099 Y103.609 E22.29884
G1 X138.459 Y104.371 E22.32737
G1 X138.794 Y105.144 E22.35589
G1 X139.104 Y105.928 E22.38443
G1 X139.388 Y106.721 E22.41294
G1 X139.646 Y107.524 E22.44149
G1 X139.877 Y108.334 E22.47
G1 X140.082 Y109.152 E22.49854
G1 X140.26 Y109.975 E22.52704
G1 X140.411 Y110.805 E22.5556
G1 X140.53 Y111.606 E22.58301
G1 X140.631 Y112.476 E22.61266
G1 X140.7 Y113.316 E22.64119
G1 X140.741 Y114.157 E22.66969
G1 X140.755 Y115 E22.69823
G1 X140.741 Y115.843 E22.72677
G1 X140.7 Y116.684 E22.75527
G1 X140.631 Y117.524 E22.7838
G1 X140.535 Y118.362 E22.81235
G1 X140.411 Y119.195 E22.84086
G1 X140.26 Y120.025 E22.86942
G1 X140.082 Y120.848 E22.89792
G1 X139.877 Y121.666 E22.92646
G1 X139.646 Y122.476 E22.95497
G1 X139.388 Y123.279 E22.98352
G1 X139.115 Y124.042 E23.01095
G1 X138.794 Y124.856 E23.04057
G1 X138.459 Y125.629 E23.06909
G1 X138.113 Y126.362 E23.09653
G1 X137.714 Y127.141 E23.12616
G1 X137.304 Y127.877 E23.15468
G1 X136.871 Y128.6 E23.18321
G1 X136.414 Y129.309 E23.21176
G1 X135.935 Y130.002 E23.24028
G1 X135.433 Y130.679 E23.26881
