; generated by PrusaSlicer 2.6.0+MacOS-x64 on 2023-08-09 at 17:25:32 UTC

; 

; external perimeters extrusion width = 0.45mm
; perimeters extrusion width = 0.40mm
; infill extrusion width = 0.45mm
; solid infill extrusion width = 0.50mm
; top infill extrusion width = 0.45mm
; first layer extrusion width = 0.56mm

M201 X2500 Y2500 Z800 E2500 ; sets maximum accelerations, mm/sec^2
M203 X300 Y250 Z8 E80 ; sets maximum feedrates, mm / sec
M204 S2500 T2500 ; sets acceleration (S) and retract acceleration (R), mm/sec^2
M205 X15.00 Y10.00 Z2.00 E10.00 ; sets the jerk limits, mm/sec
M205 S0 T0 ; sets the minimum extruding and travel feed rate, mm/sec
;TYPE:Custom
G90 ; use absolute coordinates
M83 ; extruder relative mode
M104 S215 ; set extruder temp
M140 S65 ; set bed temp
M190 S65 ; wait for bed temp
M109 S215 ; wait for extruder temp
G28                                        ; move X/Y/Z to min endstops
G1 Z0.28                                   ; lift nozzle a bit 
G92 E0 
G1 Y3 F1800                                    ; zero the extruded length 
G1 X60  E25 F500                       ; Extrude 25mm of filament in a 5cm line. 
G92 E0                                     ; zero the extruded length again 
G1 E-2 F500                                ; Retract a little 
G1 X70 F4000                              ; Quickly wipe away from the filament line
M117
G21 ; set units to millimeters
G90 ; use absolute coordinates
M82 ; use absolute distances for extrusion
G92 E0
M107
;LAYER_CHANGE
;Z:0.28
;HEIGHT:0.28
; BEFORE_LAYER_CHANGE 0 @ 0.28mm
G1 E-2 F4800
G92 E0
G1 Z.28 F7200
; AFTER_LAYER_CHANGE 0 @ 0.28mm
G1 X103.738 Y123.978
G1 E2 F4800
M204 S2000
;TYPE:External perimeter
;WIDTH:0.56
G1 F3000
G1 X104.82 Y123.203 E2.07745
G1 X106.045 Y122.441 E2.16141
G1 X107.318 Y121.761 E2.2454
G1 X108.631 Y121.166 E2.32929
G1 X109.982 Y120.658 E2.41329
G1 X111.362 Y120.239 E2.49722
G1 X112.767 Y119.911 E2.58118
G1 X114.19 Y119.676 E2.66511
G1 X115.626 Y119.535 E2.74908
G1 X117.067 Y119.488 E2.83298
G1 X118.472 Y119.534 E2.91479
G1 X119.945 Y119.676 E3.00091
G1 X121.368 Y119.911 E3.08484
G1 X122.773 Y120.239 E3.1688
G1 X124.153 Y120.658 E3.25273
G1 X125.503 Y121.166 E3.33667
G1 X126.817 Y121.761 E3.42061
G1 X128.089 Y122.441 E3.50455
G1 X129.314 Y123.203 E3.58851
G1 X130.487 Y124.043 E3.67247
G1 X131.602 Y124.958 E3.75641
G1 X132.655 Y125.944 E3.84036
G1 X133.641 Y126.997 E3.92431
G1 X134.556 Y128.112 E4.00825
G1 X135.396 Y129.285 E4.09221
G1 X136.158 Y130.51 E4.17617
G1 X136.838 Y131.782 E4.26011
G1 X137.433 Y133.096 E4.34405
G1 X137.941 Y134.446 E4.42799
G1 X138.36 Y135.826 E4.51192
G1 X138.687 Y137.231 E4.59587
G1 X138.922 Y138.654 E4.6798
G1 X139.064 Y140.09 E4.76378
G1 X139.111 Y141.531 E4.84768
G1 X139.064 Y142.973 E4.93164
G1 X138.922 Y144.409 E5.01562
G1 X138.687 Y145.832 E5.09955
G1 X138.36 Y147.237 E5.1835
G1 X137.941 Y148.617 E5.26743
G1 X137.433 Y149.967 E5.35137
G1 X136.838 Y151.281 E5.43531
G1 X136.158 Y152.553 E5.51925
G1 X135.396 Y153.778 E5.60321
G1 X134.556 Y154.951 E5.68717
G1 X133.641 Y156.066 E5.77111
G1 X132.68 Y157.092 E5.85292
G1 X131.601 Y158.105 E5.93905
G1 X130.487 Y159.02 E6.02294
G1 X129.314 Y159.86 E6.1069
G1 X128.089 Y160.622 E6.19086
G1 X126.817 Y161.302 E6.2748
G1 X125.503 Y161.897 E6.35874
G1 X124.153 Y162.405 E6.44268
G1 X122.773 Y162.824 E6.52661
G1 X121.368 Y163.152 E6.61057
G1 X119.945 Y163.387 E6.6945
G1 X118.509 Y163.528 E6.77847
G1 X117.067 Y163.575 E6.86243
G1 X115.626 Y163.528 E6.94633
G1 X114.19 Y163.387 E7.0303
G1 X112.767 Y163.152 E7.11423
G1 X111.362 Y162.824 E7.19819
G1 X109.982 Y162.405 E7.28212
G1 X108.631 Y161.897 E7.36612
G1 X107.318 Y161.302 E7.45001
G1 X106.045 Y160.622 E7.534
G1 X104.82 Y159.86 E7.61796
G1 X103.648 Y159.02 E7.70187
G1 X102.533 Y158.105 E7.78581
G1 X101.507 Y157.144 E7.86762
G1 X100.494 Y156.066 E7.95371
G1 X99.579 Y154.951 E8.03765
G1 X98.739 Y153.778 E8.12161
G1 X97.977 Y152.553 E8.20557
G1 X97.297 Y151.281 E8.28951
G1 X96.701 Y149.967 E8.37348
G1 X96.193 Y148.617 E8.45742
G1 X95.775 Y147.237 E8.54133
G1 X95.447 Y145.832 E8.62529
G1 X95.212 Y144.409 E8.70922
G1 X95.071 Y142.973 E8.79319
G1 X95.023 Y141.531 E8.87715
G1 X95.071 Y140.09 E8.96106
G1 X95.212 Y138.654 E9.04503
G1 X95.447 Y137.231 E9.12896
G1 X95.775 Y135.826 E9.21292
G1 X96.193 Y134.446 E9.29683
G1 X96.701 Y133.096 E9.38077
G1 X97.297 Y131.782 E9.46474
G1 X97.977 Y130.51 E9.54868
G1 X98.739 Y129.285 E9.63264
G1 X99.579 Y128.112 E9.7166
G1 X100.494 Y126.997 E9.80054
G1 X101.454 Y125.971 E9.88231
G1 X102.533 Y124.958 E9.96844
G1 X103.689 Y124.013 E10.05533
M204 S2500
G1 X104.108 Y124.132 F7200
G1 X104.029 Y124.385
M204 S2000
;TYPE:Perimeter
G1 F3000
G1 X105.098 Y123.619 E10.13186
G1 X106.295 Y122.874 E10.21391
G1 X107.539 Y122.21 E10.29597
G1 X108.823 Y121.628 E10.37801
G1 X110.142 Y121.131 E10.46004
G1 X111.491 Y120.722 E10.54207
G1 X112.864 Y120.402 E10.62411
G1 X114.255 Y120.172 E10.70616
G1 X115.658 Y120.034 E10.7882
G1 X117.067 Y119.988 E10.87024
G1 X118.439 Y120.033 E10.95013
G1 X119.88 Y120.172 E11.03438
G1 X121.27 Y120.402 E11.11637
G1 X122.643 Y120.722 E11.19841
G1 X123.992 Y121.131 E11.28044
G1 X125.312 Y121.628 E11.36252
G1 X126.596 Y122.21 E11.44456
G1 X127.839 Y122.874 E11.52657
G1 X129.036 Y123.619 E11.60862
G1 X130.182 Y124.44 E11.69066
G1 X131.272 Y125.334 E11.7727
G1 X132.301 Y126.298 E11.85476
G1 X133.265 Y127.327 E11.93682
G1 X134.159 Y128.417 E12.01886
G1 X134.98 Y129.562 E12.10085
G1 X135.725 Y130.76 E12.18295
G1 X136.389 Y132.003 E12.26496
G1 X136.971 Y133.287 E12.347
G1 X137.468 Y134.606 E12.42903
G1 X137.877 Y135.956 E12.51112
G1 X138.197 Y137.329 E12.59316
G1 X138.427 Y138.719 E12.67515
G1 X138.565 Y140.122 E12.75719
G1 X138.611 Y141.531 E12.83923
G1 X138.565 Y142.94 E12.92127
G1 X138.427 Y144.343 E13.00331
G1 X138.197 Y145.734 E13.08536
G1 X137.877 Y147.107 E13.1674
G1 X137.468 Y148.456 E13.24943
G1 X136.971 Y149.776 E13.33151
G1 X136.389 Y151.06 E13.41355
G1 X135.725 Y152.303 E13.49556
G1 X134.98 Y153.5 E13.57761
G1 X134.159 Y154.646 E13.65965
G1 X133.265 Y155.736 E13.74169
G1 X132.326 Y156.738 E13.8216
G1 X131.271 Y157.729 E13.90583
G1 X130.182 Y158.623 E13.98782
G1 X129.036 Y159.444 E14.06986
G1 X127.839 Y160.189 E14.15191
G1 X126.596 Y160.853 E14.23392
G1 X125.312 Y161.435 E14.31596
G1 X123.992 Y161.932 E14.39804
G1 X122.643 Y162.341 E14.48007
G1 X121.27 Y162.661 E14.56211
G1 X119.879 Y162.891 E14.64416
G1 X118.476 Y163.029 E14.7262
G1 X117.067 Y163.075 E14.80824
G1 X115.658 Y163.029 E14.89028
G1 X114.255 Y162.891 E14.97232
G1 X112.864 Y162.661 E15.05437
G1 X111.491 Y162.341 E15.13641
G1 X110.142 Y161.932 E15.21844
G1 X108.823 Y161.435 E15.30047
G1 X107.539 Y160.853 E15.38251
G1 X106.295 Y160.189 E15.46457
G1 X105.098 Y159.444 E15.54662
G1 X103.952 Y158.623 E15.62866
G1 X102.863 Y157.729 E15.71065
G1 X101.861 Y156.79 E15.79056
G1 X100.869 Y155.736 E15.87479
G1 X99.976 Y154.646 E15.95679
G1 X99.154 Y153.5 E16.03886
G1 X98.41 Y152.303 E16.12088
G1 X97.745 Y151.06 E16.20292
G1 X97.164 Y149.776 E16.28494
G1 X96.667 Y148.456 E16.36702
G1 X96.258 Y147.107 E16.44905
G1 X95.938 Y145.734 E16.53109
G1 X95.708 Y144.343 E16.61314
G1 X95.57 Y142.94 E16.69518
G1 X95.524 Y141.531 E16.77722
G1 X95.57 Y140.122 E16.85926
G1 X95.708 Y138.719 E16.9413
G1 X95.938 Y137.329 E17.02329
G1 X96.258 Y135.956 E17.10533
G1 X96.667 Y134.606 E17.18742
G1 X97.164 Y133.287 E17.26945
G1 X97.745 Y132.003 E17.35147
G1 X98.41 Y130.76 E17.43351
G1 X99.154 Y129.562 E17.51558
G1 X99.976 Y128.417 E17.59761
G1 X100.87 Y127.327 E17.67965
G1 X101.808 Y126.325 E17.75952
G1 X102.863 Y125.334 E17.84375
G1 X103.981 Y124.42 E17.92779
M204 S2500
G1 X104.32 Y124.791 F7200
M204 S2000
G1 F3000
G1 X105.376 Y124.034 E18.0034
G1 X106.546 Y123.307 E18.08356
G1 X107.76 Y122.658 E18.16367
G1 X109.014 Y122.09 E18.24378
G1 X110.303 Y121.605 E18.32393
G1 X111.621 Y121.205 E18.40409
G1 X112.962 Y120.892 E18.48423
G1 X114.321 Y120.668 E18.56438
G1 X115.691 Y120.533 E18.64449
G1 X117.067 Y120.488 E18.72461
G1 X118.407 Y120.532 E18.80263
G1 X119.815 Y120.668 E18.88495
G1 X121.173 Y120.892 E18.96505
G1 X122.514 Y121.205 E19.04519
G1 X123.831 Y121.605 E19.12529
G1 X125.12 Y122.09 E19.20544
G1 X126.375 Y122.658 E19.28561
G1 X127.589 Y123.307 E19.36572
G1 X128.758 Y124.034 E19.44583
G1 X129.878 Y124.837 E19.52603
G1 X130.942 Y125.71 E19.60612
G1 X131.947 Y126.651 E19.68624
G1 X132.889 Y127.657 E19.76644
G1 X133.762 Y128.721 E19.84653
G1 X134.564 Y129.84 E19.92665
G1 X135.291 Y131.01 E20.00681
G1 X135.941 Y132.224 E20.08695
G1 X136.509 Y133.478 E20.16706
G1 X136.994 Y134.767 E20.24721
G1 X137.394 Y136.085 E20.32737
G1 X137.706 Y137.426 E20.40749
G1 X137.931 Y138.785 E20.48765
G1 X138.066 Y140.155 E20.56776
G1 X138.111 Y141.531 E20.64788
G1 X138.066 Y142.908 E20.72806
G1 X137.931 Y144.278 E20.80817
G1 X137.706 Y145.637 E20.88833
G1 X137.394 Y146.978 E20.96845
G1 X136.994 Y148.296 E21.04861
G1 X136.509 Y149.584 E21.1287
G1 X135.941 Y150.839 E21.20887
G1 X135.291 Y152.053 E21.28901
G1 X134.564 Y153.223 E21.36917
G1 X133.762 Y154.342 E21.44929
G1 X132.889 Y155.406 E21.52938
G1 X131.972 Y156.385 E21.60744
G1 X130.941 Y157.353 E21.68974
G1 X129.878 Y158.226 E21.76979
G1 X128.758 Y159.028 E21.84996
G1 X127.589 Y159.756 E21.9301
G1 X126.375 Y160.405 E22.01021
G1 X125.12 Y160.973 E22.09038
G1 X123.831 Y161.458 E22.17053
G1 X122.514 Y161.858 E22.25063
G1 X121.173 Y162.171 E22.33077
G1 X119.814 Y162.395 E22.41092
G1 X118.444 Y162.53 E22.49103
G1 X117.067 Y162.575 E22.57121
G1 X115.691 Y162.53 E22.65133
G1 X114.321 Y162.395 E22.73144
G1 X112.962 Y162.171 E22.81159
G1 X111.621 Y161.858 E22.89173
G1 X110.303 Y161.458 E22.97189
G1 X109.014 Y160.973 E23.05204
G1 X107.76 Y160.405 E23.13215
G1 X106.546 Y159.756 E23.21226
G1 X105.376 Y159.028 E23.29245
G1 X104.257 Y158.226 E23.37257
G1 X103.192 Y157.353 E23.45271
G1 X102.214 Y156.436 E23.53073
G1 X101.245 Y155.405 E23.61307
G1 X100.372 Y154.342 E23.69312
G1 X99.57 Y153.223 E23.77324
G1 X98.843 Y152.053 E23.8534
G1 X98.194 Y150.839 E23.93351
G1 X97.626 Y149.584 E24.01368
G1 X97.141 Y148.296 E24.09377
G1 X96.741 Y146.978 E24.17393
G1 X96.428 Y145.637 E24.25407
G1 X96.204 Y144.278 E24.33422
G1 X96.069 Y142.908 E24.41433
G1 X96.024 Y141.531 E24.49451
G1 X96.069 Y140.155 E24.57463
G1 X96.204 Y138.785 E24.65474
G1 X96.428 Y137.426 E24.73489
G1 X96.741 Y136.085 E24.81503
G1 X97.141 Y134.767 E24.89519
G1 X97.626 Y133.478 E24.97534
G1 X98.194 Y132.224 E25.05545
G1 X98.843 Y131.01 E25.13556
G1 X99.57 Y129.84 E25.21572
G1 X100.372 Y128.721 E25.29584
G1 X101.246 Y127.657 E25.37597
G1 X102.162 Y126.678 E25.45399
G1 X103.193 Y125.709 E25.53633
G1 X104.272 Y124.826 E25.61747
M204 S2500
G1 E24.21747 F4800
;WIPE_START
G1 F5760
G1 X104.888 Y124.384 E23.61747
;WIPE_END
G92 E0
G1 X133.776 Y129.083 F7200
G1 E2 F4800
M204 S2000
;TYPE:Solid infill
;WIDTH:0.562927
G1 F3000
G1 X131.616 Y126.923 E2.17881
G1 X130.662 Y126.03 E2.2553
G1 X129.619 Y125.174 E2.33428
G1 X128.522 Y124.388 E2.41327
G1 X128.118 Y124.137 E2.44111
G1 X134.462 Y130.481 E2.96628
G1 X134.923 Y131.222 E3.01736
G1 X135.418 Y132.147 E3.07877
G1 X126.451 Y123.181 E3.82103
G1 X126.186 Y123.039 E3.83863
G1 X125.112 Y122.552 E3.90766
G1 X136.046 Y133.487 E4.81284
G1 X136.494 Y134.646 E4.88557
G1 X123.952 Y122.104 E5.92382
G1 X123.695 Y122.007 E5.9399
G1 X122.905 Y121.768 E5.98821
G1 X136.831 Y135.694 E7.14103
G1 X136.983 Y136.195 E7.17168
G1 X137.093 Y136.667 E7.20005
G1 X121.931 Y121.506 E8.45515
G1 X121.011 Y121.296 E8.51039
G1 X137.302 Y137.588 E9.85903
G1 X137.443 Y138.439 E9.90952
G1 X120.159 Y121.156 E11.34028
G1 X119.76 Y121.09 E11.36395
G1 X119.342 Y121.049 E11.38854
G1 X137.55 Y139.258 E12.89587
G1 X137.628 Y140.047 E12.94228
G1 X118.554 Y120.973 E14.52126
G1 X117.808 Y120.937 E14.56498
G1 X137.661 Y140.791 E16.20849
G1 X137.685 Y141.526 E16.25154
G1 X117.072 Y120.913 E17.95792
G1 X116.384 Y120.936 E17.99821
G1 X137.663 Y142.215 E19.75973
G1 X137.639 Y142.902 E19.79997
G1 X115.696 Y120.96 E21.61641
G1 X115.049 Y121.023 E21.65446
G1 X137.575 Y143.55 E23.51925
G1 X137.512 Y144.197 E23.5573
G1 X114.402 Y121.087 E25.47039
G1 X113.79 Y121.186 E25.50668
G1 X137.412 Y144.809 E27.46219
G1 X137.312 Y145.419 E27.49837
G1 X113.179 Y121.287 E29.4961
G1 X112.595 Y121.414 E29.53108
G1 X137.185 Y146.003 E31.56664
G1 X137.05 Y146.58 E31.60133
G1 X112.019 Y121.549 E33.67344
G1 X111.458 Y121.699 E33.70743
G1 X136.9 Y147.141 E35.81357
G1 X136.735 Y147.687 E35.84696
G1 X110.912 Y121.864 E37.98464
G1 X110.37 Y122.034 E38.01789
G1 X136.565 Y148.228 E40.18632
G1 X136.371 Y148.745 E40.21864
G1 X109.854 Y122.228 E42.41377
G1 X109.337 Y122.422 E42.44609
G1 X136.176 Y149.262 E44.66791
G1 X135.963 Y149.76 E44.69962
G1 X108.839 Y122.636 E46.945
G1 X108.35 Y122.857 E46.97641
G1 X135.741 Y150.249 E49.24393
G1 X135.515 Y150.734 E49.27525
G1 X107.865 Y123.084 E51.56417
G1 X107.402 Y123.332 E51.59492
G1 X135.267 Y151.197 E53.90164
G1 X135.019 Y151.661 E53.93244
G1 X106.938 Y123.579 E56.25708
G1 X106.49 Y123.842 E56.28749
G1 X134.756 Y152.109 E58.62744
G1 X134.484 Y152.547 E58.65762
G1 X106.052 Y124.115 E61.01127
G1 X105.613 Y124.388 E61.04153
G1 X134.211 Y152.986 E63.40893
G1 X133.914 Y153.4 E63.43875
G1 X105.199 Y124.684 E65.81587
G1 X104.785 Y124.981 E65.84569
G1 X133.618 Y153.814 E68.23254
G1 X133.312 Y154.22 E68.2623
G1 X104.379 Y125.286 E70.65747
G1 X103.988 Y125.607 E70.68708
G1 X132.992 Y154.611 E73.08809
G1 X132.671 Y155.001 E73.11766
G1 X103.597 Y125.927 E75.52446
G1 X103.223 Y126.264 E75.55393
G1 X132.335 Y155.376 E77.96388
G1 X131.991 Y155.743 E77.99332
G1 X102.857 Y126.609 E80.40509
G1 X102.49 Y126.953 E80.43453
G1 X131.645 Y156.109 E82.84808
G1 X131.279 Y156.453 E82.87748
G1 X102.144 Y127.319 E85.28929
G1 X101.8 Y127.686 E85.31873
G1 X130.912 Y156.798 E87.72868
G1 X130.538 Y157.135 E87.75815
G1 X101.464 Y128.061 E90.16495
G1 X101.143 Y128.451 E90.19452
G1 X130.147 Y157.455 E92.59553
G1 X129.757 Y157.776 E92.6251
G1 X100.823 Y128.842 E95.02031
G1 X100.518 Y129.248 E95.05003
G1 X129.351 Y158.081 E97.43688
G1 X128.937 Y158.378 E97.4667
G1 X100.221 Y129.662 E99.84386
G1 X99.924 Y130.076 E99.87368
G1 X128.522 Y158.675 E102.24112
G1 X128.084 Y158.947 E102.2713
G1 X99.651 Y130.515 E104.625
G1 X99.379 Y130.953 E104.65518
G1 X127.645 Y159.22 E106.99513
G1 X127.197 Y159.483 E107.02554
G1 X99.116 Y131.401 E109.35018
G1 X98.868 Y131.865 E109.38098
G1 X126.734 Y159.731 E111.68778
G1 X126.271 Y159.979 E111.71853
G1 X98.62 Y132.328 E114.00753
G1 X98.394 Y132.813 E114.03885
G1 X125.786 Y160.205 E116.30641
G1 X125.296 Y160.427 E116.3379
G1 X98.172 Y133.302 E118.58332
G1 X97.959 Y133.8 E118.61503
G1 X124.799 Y160.64 E120.8369
G1 X124.282 Y160.835 E120.86924
G1 X97.764 Y134.317 E123.06445
G1 X97.57 Y134.833 E123.09672
G1 X123.765 Y161.029 E125.26523
G1 X123.224 Y161.198 E125.29841
G1 X97.4 Y135.375 E127.43613
G1 X97.235 Y135.921 E127.46952
G1 X122.678 Y161.364 E129.57574
G1 X122.117 Y161.514 E129.60973
G1 X97.085 Y136.482 E131.68193
G1 X96.95 Y137.058 E131.71656
G1 X121.54 Y161.648 E133.75217
G1 X120.956 Y161.776 E133.78717
G1 X96.823 Y137.642 E135.78499
G1 X96.722 Y138.253 E135.82124
G1 X120.346 Y161.876 E137.77684
G1 X119.734 Y161.976 E137.81314
G1 X96.623 Y138.864 E139.72635
G1 X96.559 Y139.512 E139.76447
G1 X119.087 Y162.039 E141.62934
G1 X118.44 Y162.103 E141.6674
G1 X96.495 Y140.159 E143.48401
G1 X96.471 Y140.846 E143.52425
G1 X117.753 Y162.127 E145.28597
G1 X117.064 Y162.15 E145.32632
G1 X96.449 Y141.535 E147.03287
G1 X96.473 Y142.27 E147.07592
G1 X116.329 Y162.126 E148.71964
G1 X115.584 Y162.092 E148.76329
G1 X96.506 Y143.015 E150.34256
G1 X96.584 Y143.803 E150.38891
G1 X114.795 Y162.015 E151.89649
G1 X114.376 Y161.973 E151.92114
G1 X113.977 Y161.907 E151.94481
G1 X96.691 Y144.622 E153.37574
G1 X96.832 Y145.473 E153.42623
G1 X113.125 Y161.767 E154.77504
G1 X112.205 Y161.558 E154.83026
G1 X97.041 Y146.394 E156.08556
G1 X97.152 Y146.868 E156.11406
G1 X97.303 Y147.367 E156.14458
G1 X111.232 Y161.296 E157.29765
G1 X110.44 Y161.056 E157.34609
G1 X110.185 Y160.96 E157.36204
G1 X97.639 Y148.414 E158.40062
G1 X98.087 Y149.573 E158.47335
G1 X109.026 Y160.512 E159.3789
