; generated by PrusaSlicer 2.6.0+MacOS-x64 on 2023-08-09 at 17:10:54 UTC

; 

; external perimeters extrusion width = 0.45mm
; perimeters extrusion width = 0.40mm
; infill extrusion width = 0.45mm
; solid infill extrusion width = 0.50mm
; top infill extrusion width = 0.45mm
; first layer extrusion width = 0.56mm

M201 X2500 Y2500 Z800 E2500 ; sets maximum accelerations, mm/sec^2
M203 X300 Y250 Z8 E80 ; sets maximum feedrates, mm / sec
M204 S2500 T2500 ; sets acceleration (S) and retract acceleration (R), mm/sec^2
M205 X15.00 Y10.00 Z2.00 E10.00 ; sets the jerk limits, mm/sec
M205 S0 T0 ; sets the minimum extruding and travel feed rate, mm/sec
;TYPE:Custom
G90 ; use absolute coordinates
M83 ; extruder relative mode
M104 S215 ; set extruder temp
M140 S65 ; set bed temp
M190 S65 ; wait for bed temp
M109 S215 ; wait for extruder temp
G28                                        ; move X/Y/Z to min endstops
G1 Z0.28                                   ; lift nozzle a bit 
G92 E0 
G1 Y3 F1800                                    ; zero the extruded length 
G1 X60  E25 F500                       ; Extrude 25mm of filament in a 5cm line. 
G92 E0                                     ; zero the extruded length again 
G1 E-2 F500                                ; Retract a little 
G1 X70 F4000                              ; Quickly wipe away from the filament line
M117
G21 ; set units to millimeters
G90 ; use absolute coordinates
M82 ; use absolute distances for extrusion
G92 E0
M107
;LAYER_CHANGE
;Z:0.28
;HEIGHT:0.28
; BEFORE_LAYER_CHANGE 0 @ 0.28mm
G1 E-2 F4800
G92 E0
G1 Z.28 F7200
; AFTER_LAYER_CHANGE 0 @ 0.28mm
G1 X94.467 Y111.131
G1 E2 F4800
M204 S2000
;TYPE:External perimeter
;WIDTH:0.56
G1 F3000
G1 X77.967 Y111.131 E2.96022
G1 X77.967 Y56.431 E6.14348
G1 X98.482 Y56.431 E7.33735
G1 X99.41 Y56.082 E7.39505
G1 X101.291 Y55.511 E7.50945
G1 X103.206 Y55.065 E7.62388
G1 X105.146 Y54.745 E7.7383
G1 X107.102 Y54.552 E7.85268
G1 X109.067 Y54.488 E7.96709
G1 X111.032 Y54.552 E8.0815
G1 X112.989 Y54.745 E8.19594
G1 X114.929 Y55.065 E8.31036
G1 X116.843 Y55.511 E8.42473
G1 X118.725 Y56.082 E8.53918
G1 X119.653 Y56.431 E8.59688
G1 X142.167 Y56.431 E9.90708
G1 X142.167 Y160.631 E15.97099
G1 X128.071 Y160.631 E16.79131
G1 X126.817 Y161.302 E16.87408
G1 X125.503 Y161.897 E16.95802
G1 X124.153 Y162.405 E17.04196
G1 X122.773 Y162.824 E17.12589
G1 X121.368 Y163.152 E17.20985
G1 X119.945 Y163.387 E17.29378
G1 X118.509 Y163.528 E17.37775
G1 X117.067 Y163.575 E17.46171
G1 X115.626 Y163.528 E17.54561
G1 X114.19 Y163.387 E17.62958
G1 X112.767 Y163.152 E17.71351
G1 X111.362 Y162.824 E17.79747
G1 X109.982 Y162.405 E17.8814
G1 X108.631 Y161.897 E17.9654
G1 X107.318 Y161.302 E18.04929
G1 X106.063 Y160.631 E18.13211
G1 X94.467 Y160.631 E18.80694
G1 X94.467 Y111.191 E21.6841
M204 S2500
G1 X94.437 Y110.733 F7200
G1 X94.967 Y110.632
M204 S2000
;TYPE:Perimeter
G1 F3000
G1 X78.467 Y110.632 E22.64432
G1 X78.467 Y56.931 E25.76945
G1 X98.573 Y56.931 E26.93952
G1 X99.571 Y56.556 E27.00156
G1 X101.421 Y55.995 E27.11406
G1 X103.304 Y55.556 E27.22658
G1 X105.211 Y55.241 E27.33906
G1 X107.135 Y55.051 E27.45157
G1 X109.067 Y54.988 E27.56406
G1 X110.999 Y55.051 E27.67655
G1 X112.923 Y55.241 E27.78906
G1 X114.831 Y55.556 E27.9016
G1 X116.714 Y55.995 E28.01412
G1 X118.564 Y56.556 E28.12662
G1 X119.562 Y56.931 E28.18866
G1 X141.667 Y56.931 E29.47506
G1 X141.667 Y160.132 E35.48084
G1 X127.946 Y160.132 E36.27933
G1 X126.596 Y160.853 E36.3684
G1 X125.312 Y161.435 E36.45044
G1 X123.992 Y161.932 E36.53252
G1 X122.643 Y162.341 E36.61455
G1 X121.27 Y162.661 E36.69659
G1 X119.879 Y162.891 E36.77864
G1 X118.476 Y163.029 E36.86068
G1 X117.067 Y163.075 E36.94272
G1 X115.658 Y163.029 E37.02476
G1 X114.255 Y162.891 E37.1068
G1 X112.864 Y162.661 E37.18885
G1 X111.491 Y162.341 E37.27089
G1 X110.142 Y161.932 E37.35292
G1 X108.823 Y161.435 E37.43495
G1 X107.539 Y160.853 E37.51699
G1 X106.188 Y160.132 E37.60611
G1 X94.967 Y160.132 E38.25912
G1 X94.967 Y110.692 E41.13628
M204 S2500
G1 X95.467 Y110.132 F7200
M204 S2000
G1 F3000
G1 X78.967 Y110.132 E42.0965
G1 X78.967 Y57.431 E45.16343
G1 X98.664 Y57.431 E46.3097
G1 X99.732 Y57.029 E46.37611
G1 X101.55 Y56.478 E46.48666
G1 X103.401 Y56.046 E46.59727
G1 X105.276 Y55.736 E46.70787
G1 X107.168 Y55.55 E46.81851
G1 X109.067 Y55.488 E46.92908
G1 X110.967 Y55.55 E47.03971
G1 X112.858 Y55.736 E47.15029
G1 X114.733 Y56.046 E47.26089
G1 X116.584 Y56.478 E47.3715
G1 X118.403 Y57.029 E47.48211
G1 X119.471 Y57.431 E47.54852
G1 X141.167 Y57.431 E48.81112
G1 X141.167 Y159.632 E54.7587
G1 X127.821 Y159.632 E55.53537
G1 X126.375 Y160.405 E55.63079
G1 X125.12 Y160.973 E55.71096
G1 X123.831 Y161.458 E55.79111
G1 X122.514 Y161.858 E55.87121
G1 X121.173 Y162.171 E55.95135
G1 X119.814 Y162.395 E56.0315
G1 X118.444 Y162.53 E56.11161
G1 X117.067 Y162.575 E56.19179
G1 X115.691 Y162.53 E56.27191
G1 X114.321 Y162.395 E56.35202
G1 X112.962 Y162.171 E56.43217
G1 X111.621 Y161.858 E56.51231
G1 X110.303 Y161.458 E56.59247
G1 X109.014 Y160.973 E56.67262
G1 X107.76 Y160.405 E56.75273
G1 X106.314 Y159.632 E56.84815
G1 X95.467 Y159.632 E57.47939
G1 X95.467 Y110.192 E60.35655
M204 S2500
G1 E58.95655 F4800
;WIPE_START
G1 F5760
G1 X94.709 Y110.189 E58.35655
;WIPE_END
G92 E0
G1 X140.967 Y58.643 F7200
G1 E2 F4800
M204 S2000
;TYPE:Solid infill
;WIDTH:0.560504
G1 F3000
G1 X140.181 Y57.856 E2.06479
G1 X139.473 Y57.856 E2.10603
G1 X140.743 Y59.126 E2.21066
G1 X140.743 Y59.833 E2.25185
G1 X138.765 Y57.856 E2.41476
G1 X138.058 Y57.856 E2.45595
G1 X140.743 Y60.541 E2.67715
G1 X140.743 Y61.249 E2.71839
G1 X137.35 Y57.856 E2.99792
G1 X136.642 Y57.856 E3.03916
G1 X140.743 Y61.956 E3.37697
G1 X140.743 Y62.664 E3.41821
G1 X135.935 Y57.856 E3.81431
G1 X135.227 Y57.856 E3.85555
G1 X140.743 Y63.372 E4.30998
G1 X140.743 Y64.079 E4.35117
G1 X134.519 Y57.856 E4.86388
G1 X133.812 Y57.856 E4.90507
G1 X140.743 Y64.787 E5.47607
G1 X140.743 Y65.495 E5.51731
G1 X133.104 Y57.856 E6.14663
G1 X132.396 Y57.856 E6.18787
G1 X140.743 Y66.203 E6.87552
G1 X140.743 Y66.91 E6.91671
G1 X131.688 Y57.856 E7.66265
G1 X130.981 Y57.856 E7.70384
G1 X140.743 Y67.618 E8.50806
G1 X140.743 Y68.326 E8.5493
G1 X130.273 Y57.856 E9.41185
G1 X129.565 Y57.856 E9.45309
G1 X140.743 Y69.033 E10.37393
G1 X140.743 Y69.741 E10.41517
G1 X128.858 Y57.856 E11.39429
G1 X128.15 Y57.856 E11.43553
G1 X140.743 Y70.449 E12.47298
G1 X140.743 Y71.156 E12.51417
G1 X127.442 Y57.856 E13.60991
G1 X126.735 Y57.856 E13.6511
G1 X140.743 Y71.864 E14.80512
G1 X140.743 Y72.572 E14.84636
G1 X126.027 Y57.856 E16.05871
G1 X125.319 Y57.856 E16.09995
G1 X140.743 Y73.279 E17.37059
G1 X140.743 Y73.987 E17.41183
G1 X124.612 Y57.856 E18.74075
G1 X123.904 Y57.856 E18.78199
G1 X140.743 Y74.695 E20.16924
G1 X140.743 Y75.403 E20.21048
G1 X123.196 Y57.856 E21.65606
G1 X122.488 Y57.856 E21.6973
G1 X140.743 Y76.11 E23.20116
G1 X140.743 Y76.818 E23.2424
G1 X121.781 Y57.856 E24.80455
G1 X121.073 Y57.856 E24.84579
G1 X140.743 Y77.526 E26.46627
G1 X140.743 Y78.233 E26.50746
G1 X120.365 Y57.856 E28.18622
G1 X119.658 Y57.856 E28.22741
G1 X140.743 Y78.941 E29.96446
G1 X140.743 Y79.649 E30.0057
G1 X118.682 Y57.588 E31.82315
G1 X118.266 Y57.432 E31.84903
G1 X117.623 Y57.237 E31.88817
G1 X140.743 Y80.356 E33.79283
G1 X140.743 Y81.064 E33.83407
G1 X116.607 Y56.929 E35.82243
G1 X115.672 Y56.701 E35.87849
G1 X140.743 Y81.772 E37.94392
G1 X140.743 Y82.48 E37.98516
G1 X114.749 Y56.486 E40.12663
G1 X113.893 Y56.338 E40.17723
G1 X140.743 Y83.187 E42.38918
G1 X140.743 Y83.895 E42.43042
G1 X113.046 Y56.198 E44.71219
G1 X112.243 Y56.103 E44.75929
G1 X140.743 Y84.603 E47.10721
G1 X140.743 Y85.31 E47.1484
G1 X111.458 Y56.026 E49.56095
G1 X110.691 Y55.966 E49.60577
G1 X140.743 Y86.018 E52.08155
G1 X140.743 Y86.726 E52.12279
G1 X109.959 Y55.942 E54.65887
G1 X109.228 Y55.918 E54.70148
G1 X140.743 Y87.433 E57.29778
G1 X140.743 Y88.141 E57.33902
G1 X108.532 Y55.931 E59.99262
G1 X107.847 Y55.953 E60.03254
G1 X140.743 Y88.849 E62.74261
G1 X140.743 Y89.556 E62.7838
G1 X107.164 Y55.978 E65.5501
G1 X106.519 Y56.041 E65.58785
G1 X140.743 Y90.264 E68.40729
G1 X140.743 Y90.972 E68.44853
G1 X105.875 Y56.104 E71.32106
G1 X105.237 Y56.174 E71.35845
G1 X140.743 Y91.68 E74.28354
G1 X140.743 Y92.387 E74.32473
G1 X104.629 Y56.274 E77.29987
G1 X104.022 Y56.374 E77.33571
G1 X140.743 Y93.095 E80.3609
G1 X140.743 Y93.803 E80.40214
G1 X103.418 Y56.478 E83.47709
G1 X102.844 Y56.612 E83.51143
G1 X140.743 Y94.51 E86.63363
G1 X140.743 Y95.218 E86.67487
G1 X102.271 Y56.746 E89.84431
G1 X101.697 Y56.88 E89.87865
G1 X140.743 Y95.926 E93.09538
G1 X140.743 Y96.633 E93.13657
G1 X101.152 Y57.043 E96.39816
G1 X100.609 Y57.207 E96.4312
G1 X140.743 Y97.341 E99.73756
G1 X140.743 Y98.049 E99.7788
G1 X100.066 Y57.372 E103.1299
G1 X99.541 Y57.555 E103.16229
G1 X140.743 Y98.757 E106.55664
G1 X140.743 Y99.464 E106.59783
G1 X99.027 Y57.749 E110.03448
G1 X98.741 Y57.856 E110.05227
G1 X98.427 Y57.856 E110.07056
G1 X140.743 Y100.172 E113.55668
G1 X140.743 Y100.88 E113.59792
G1 X97.719 Y57.856 E117.14237
G1 X97.011 Y57.856 E117.18361
G1 X140.743 Y101.587 E120.78635
G1 X140.743 Y102.295 E120.82759
G1 X96.304 Y57.856 E124.48861
G1 X95.596 Y57.856 E124.52985
G1 X140.743 Y103.003 E128.2492
G1 X140.743 Y103.71 E128.29039
G1 X94.888 Y57.856 E132.06803
G1 X94.181 Y57.856 E132.10922
G1 X140.743 Y104.418 E135.94514
G1 X140.743 Y105.126 E135.98638
G1 X93.473 Y57.856 E139.88063
G1 X92.765 Y57.856 E139.92187
G1 X140.743 Y105.833 E143.87441
G1 X140.743 Y106.541 E143.91565
G1 X92.058 Y57.856 E147.92647
G1 X91.35 Y57.856 E147.96771
G1 X140.743 Y107.249 E152.03686
G1 X140.743 Y107.957 E152.0781
G1 X90.642 Y57.856 E156.20558
G1 X89.934 Y57.856 E156.24682
G1 X140.743 Y108.664 E160.43258
G1 X140.743 Y109.372 E160.47382
G1 X89.227 Y57.856 E164.71787
G1 X88.519 Y57.856 E164.75911
G1 X140.743 Y110.08 E169.06149
G1 X140.743 Y110.787 E169.10268
G1 X87.811 Y57.856 E173.46334
G1 X87.104 Y57.856 E173.50453
G1 X140.743 Y111.495 E177.92348
G1 X140.743 Y112.203 E177.96472
G1 X86.396 Y57.856 E182.442
G1 X85.688 Y57.856 E182.48324
G1 X140.743 Y112.91 E187.0188
G1 X140.743 Y113.618 E187.06004
G1 X84.981 Y57.856 E191.65389
G1 X84.273 Y57.856 E191.69513
G1 X140.743 Y114.326 E196.3473
G1 X140.743 Y115.034 E196.38854
G1 X83.565 Y57.856 E201.09904
G1 X82.858 Y57.856 E201.14023
G1 X140.743 Y115.741 E205.90898
G1 X140.743 Y116.449 E205.95022
G1 X82.15 Y57.856 E210.77729
G1 X81.442 Y57.856 E210.81853
G1 X140.743 Y117.157 E215.70393
G1 X140.743 Y117.864 E215.74512
G1 X80.734 Y57.856 E220.68881
G1 X80.027 Y57.856 E220.73
G1 X140.743 Y118.572 E225.73197
G1 X140.743 Y119.28 E225.77321
G1 X79.392 Y57.929 E230.8275
G1 X79.392 Y58.637 E230.86874
G1 X140.743 Y119.987 E235.92299
G1 X140.743 Y120.695 E235.96423
G1 X79.392 Y59.345 E241.01848
G1 X79.392 Y60.052 E241.05967
G1 X140.743 Y121.403 E246.11396
G1 X140.743 Y122.11 E246.15515
G1 X79.392 Y60.76 E251.2094
G1 X79.392 Y61.468 E251.25064
G1 X140.743 Y122.818 E256.30489
G1 X140.743 Y123.526 E256.34613
G1 X79.392 Y62.175 E261.40042
G1 X79.392 Y62.883 E261.44166
G1 X140.743 Y124.234 E266.49595
G1 X140.743 Y124.941 E266.53714
G1 X79.392 Y63.591 E271.59139
G1 X79.392 Y64.298 E271.63258
G1 X140.743 Y125.649 E276.68687
G1 X140.743 Y126.357 E276.72811
G1 X79.392 Y65.006 E281.7824
G1 X79.392 Y65.714 E281.82364
G1 X140.743 Y127.064 E286.87789
G1 X140.743 Y127.772 E286.91913
G1 X79.392 Y66.422 E291.97338
G1 X79.392 Y67.129 E292.01457
G1 X140.743 Y128.48 E297.06886
G1 X140.743 Y129.187 E297.11005
G1 X79.392 Y67.837 E302.1643
G1 X79.392 Y68.545 E302.20554
G1 X140.743 Y129.895 E307.25979
G1 X140.743 Y130.603 E307.30103
G1 X79.392 Y69.252 E312.35532
G1 X79.392 Y69.96 E312.39656
G1 X140.743 Y131.31 E317.45081
G1 X140.743 Y132.018 E317.49205
G1 X79.392 Y70.668 E322.5463
G1 X79.392 Y71.375 E322.58749
G1 X140.743 Y132.726 E327.64178
G1 X140.743 Y133.434 E327.68302
G1 X79.392 Y72.083 E332.73731
G1 X79.392 Y72.791 E332.77855
G1 X140.743 Y134.141 E337.8328
G1 X140.743 Y134.849 E337.87404
G1 X79.392 Y73.498 E342.92833
G1 X79.392 Y74.206 E342.96957
G1 X140.743 Y135.557 E348.02386
G1 X140.743 Y136.264 E348.06505
G1 X79.392 Y74.914 E353.1193
G1 X79.392 Y75.622 E353.16054
G1 X140.743 Y136.972 E358.21479
G1 X140.743 Y137.68 E358.25603
G1 X79.392 Y76.329 E363.31032
G1 X79.392 Y77.037 E363.35156
G1 X140.743 Y138.387 E368.40581
G1 X140.743 Y139.095 E368.44705
G1 X79.392 Y77.745 E373.5013
G1 X79.392 Y78.452 E373.54249
G1 X140.743 Y139.803 E378.59678
G1 X140.743 Y140.511 E378.63802
G1 X79.392 Y79.16 E383.69231
G1 X79.392 Y79.868 E383.73355
G1 X140.743 Y141.218 E388.7878
G1 X140.743 Y141.926 E388.82904
G1 X79.392 Y80.575 E393.88333
G1 X79.392 Y81.283 E393.92457
G1 X140.743 Y142.634 E398.97886
G1 X140.743 Y143.341 E399.02005
G1 X79.392 Y81.991 E404.0743
G1 X79.392 Y82.699 E404.11554
G1 X140.743 Y144.049 E409.16979
G1 X140.743 Y144.757 E409.21103
G1 X79.392 Y83.406 E414.26532
G1 X79.392 Y84.114 E414.30656
G1 X140.743 Y145.464 E419.36081
G1 X140.743 Y146.172 E419.40205
G1 X79.392 Y84.822 E424.4563
G1 X79.392 Y85.529 E424.49749
G1 X140.743 Y146.88 E429.55178
G1 X140.743 Y147.587 E429.59297
G1 X79.392 Y86.237 E434.64722
G1 X79.392 Y86.945 E434.68846
G1 X140.743 Y148.295 E439.74271
G1 X140.743 Y149.003 E439.78395
G1 X79.392 Y87.652 E444.83824
G1 X79.392 Y88.36 E444.87948
G1 X140.743 Y149.711 E449.93377
G1 X140.743 Y150.418 E449.97496
G1 X79.392 Y89.068 E455.02921
G1 X79.392 Y89.775 E455.0704
G1 X140.743 Y151.126 E460.12469
G1 X140.743 Y151.834 E460.16593
G1 X79.392 Y90.483 E465.22022
G1 X79.392 Y91.191 E465.26146
G1 X140.743 Y152.541 E470.31571
G1 X140.743 Y153.249 E470.35695
G1 X79.392 Y91.899 E475.4112
G1 X79.392 Y92.606 E475.45239
G1 X140.743 Y153.957 E480.50668
G1 X140.743 Y154.664 E480.54787
G1 X79.392 Y93.314 E485.60212
G1 X79.392 Y94.022 E485.64336
G1 X95.077 Y109.707 E486.93554
G1 X94.369 Y109.707 E486.97678
G1 X79.392 Y94.729 E488.21067
G1 X79.392 Y95.437 E488.25191
G1 X93.662 Y109.707 E489.42752
G1 X92.954 Y109.707 E489.46876
G1 X79.392 Y96.145 E490.58604
G1 X79.392 Y96.852 E490.62723
G1 X92.246 Y109.707 E491.68622
G1 X91.539 Y109.707 E491.72741
G1 X79.392 Y97.56 E492.72812
G1 X79.392 Y98.268 E492.76936
G1 X90.831 Y109.707 E493.71174
G1 X90.123 Y109.707 E493.75298
G1 X79.392 Y98.975 E494.63707
G1 X79.392 Y99.683 E494.67831
G1 X89.416 Y109.707 E495.50412
G1 X88.708 Y109.707 E495.54536
G1 X79.392 Y100.391 E496.31284
G1 X79.392 Y101.099 E496.35408
G1 X88 Y109.707 E497.06323
G1 X87.292 Y109.707 E497.10447
G1 X79.392 Y101.806 E497.75534
G1 X79.392 Y102.514 E497.79658
G1 X86.585 Y109.707 E498.38916
G1 X85.877 Y109.707 E498.4304
G1 X79.392 Y103.222 E498.96465
G1 X79.392 Y103.929 E499.00584
G1 X85.169 Y109.707 E499.48181
G1 X84.462 Y109.707 E499.523
G1 X79.392 Y104.637 E499.94068
G1 X79.392 Y105.345 E499.98192
G1 X83.754 Y109.707 E500.34128
G1 X83.046 Y109.707 E500.38252
G1 X79.392 Y106.052 E500.68359
G1 X79.392 Y106.76 E500.72483
G1 X82.339 Y109.707 E500.96761
G1 X81.631 Y109.707 E501.00885
G1 X79.392 Y107.468 E501.19331
G1 X79.392 Y108.176 E501.23455
G1 X80.923 Y109.707 E501.36068
G1 X80.215 Y109.707 E501.40192
G1 X79.392 Y108.883 E501.46976
G1 X79.392 Y109.591 E501.511
G1 X79.733 Y109.932 E501.53909
M204 S2500
G1 E500.13909 F4800
;WIPE_START
G1 F5760
G1 X79.392 Y109.591 E499.75731
G1 X79.392 Y109.315 E499.53909
;WIPE_END
G92 E0
G1 X95.667 Y110.297 F7200
G1 E2 F4800
M204 S2000
G1 F3000
G1 X140.743 Y155.372 E5.71346
G1 X140.743 Y156.08 E5.7547
G1 X95.892 Y111.229 E9.44967
G1 X95.892 Y111.937 E9.49091
G1 X140.743 Y156.788 E13.18588
G1 X140.743 Y157.495 E13.22707
G1 X95.892 Y112.645 E16.92199
G1 X95.892 Y113.352 E16.96318
G1 X140.743 Y158.203 E20.65815
G1 X140.743 Y158.911 E20.69939
G1 X95.892 Y114.06 E24.39436
G1 X95.892 Y114.768 E24.4356
G1 X140.331 Y159.207 E28.09662
G1 X139.623 Y159.207 E28.13786
G1 X95.892 Y115.475 E31.7406
G1 X95.892 Y116.183 E31.78184
G1 X138.916 Y159.207 E35.32629
G1 X138.208 Y159.207 E35.36753
G1 X95.892 Y116.891 E38.85365
G1 X95.892 Y117.599 E38.89489
G1 X137.5 Y159.207 E42.32269
G1 X136.792 Y159.207 E42.36393
G1 X95.892 Y118.306 E45.73344
G1 X95.892 Y119.014 E45.77468
G1 X136.085 Y159.207 E49.0859
G1 X135.377 Y159.207 E49.12714
