; generated by PrusaSlicer 2.6.0+MacOS-x64 on 2023-08-09 at 16:33:06 UTC

; 

; external perimeters extrusion width = 0.45mm
; perimeters extrusion width = 0.40mm
; infill extrusion width = 0.45mm
; solid infill extrusion width = 0.50mm
; top infill extrusion width = 0.45mm
; first layer extrusion width = 0.56mm

M201 X2500 Y2500 Z800 E2500 ; sets maximum accelerations, mm/sec^2
M203 X300 Y250 Z8 E80 ; sets maximum feedrates, mm / sec
M204 S2500 T2500 ; sets acceleration (S) and retract acceleration (R), mm/sec^2
M205 X15.00 Y10.00 Z2.00 E10.00 ; sets the jerk limits, mm/sec
M205 S0 T0 ; sets the minimum extruding and travel feed rate, mm/sec
;TYPE:Custom
G90 ; use absolute coordinates
M83 ; extruder relative mode
M104 S215 ; set extruder temp
M140 S65 ; set bed temp
M190 S65 ; wait for bed temp
M109 S215 ; wait for extruder temp
G28                                        ; move X/Y/Z to min endstops
G1 Z0.28                                   ; lift nozzle a bit 
G92 E0 
G1 Y3 F1800                                    ; zero the extruded length 
G1 X60  E25 F500                       ; Extrude 25mm of filament in a 5cm line. 
G92 E0                                     ; zero the extruded length again 
G1 E-2 F500                                ; Retract a little 
G1 X70 F4000                              ; Quickly wipe away from the filament line
M117
G21 ; set units to millimeters
G90 ; use absolute coordinates
M82 ; use absolute distances for extrusion
G92 E0
M107
;LAYER_CHANGE
;Z:0.28
;HEIGHT:0.28
; BEFORE_LAYER_CHANGE 0 @ 0.28mm
G1 E-2 F4800
G92 E0
G1 Z.28 F7200
; AFTER_LAYER_CHANGE 0 @ 0.28mm
G1 X82.9 Y62.4
G1 E2 F4800
M204 S2000
;TYPE:External perimeter
;WIDTH:0.56
G1 F3000
G1 X147.1 Y62.4 E5.73611
G1 X147.1 Y166.6 E11.80002
G1 X82.9 Y166.6 E15.53613
G1 X82.9 Y62.46 E21.59655
M204 S2500
G1 X83.277 Y62.533 F7200
G1 X83.4 Y62.9
M204 S2000
;TYPE:Perimeter
G1 F3000
G1 X146.6 Y62.9 E25.27447
G1 X146.6 Y166.1 E31.28019
G1 X83.4 Y166.1 E34.95811
G1 X83.4 Y62.96 E40.96034
M204 S2500
G1 X83.9 Y63.4 F7200
M204 S2000
G1 F3000
G1 X146.1 Y63.4 E44.58006
G1 X146.1 Y165.6 E50.52758
G1 X83.9 Y165.6 E54.1473
G1 X83.9 Y63.46 E60.09133
M204 S2500
G1 E58.69133 F4800
;WIPE_START
G1 F5760
G1 X84.658 Y63.459 E58.09133
;WIPE_END
G92 E0
G1 X144.887 Y63.6 F7200
G1 E2 F4800
M204 S2000
;TYPE:Solid infill
;WIDTH:0.561188
G1 F3000
G1 X145.675 Y64.388 E2.06501
G1 X145.675 Y65.097 E2.10637
G1 X144.403 Y63.825 E2.2113
G1 X143.695 Y63.825 E2.2526
G1 X145.675 Y65.805 E2.41594
G1 X145.675 Y66.514 E2.4573
G1 X142.986 Y63.825 E2.67913
G1 X142.277 Y63.825 E2.72049
G1 X145.675 Y67.223 E3.00081
G1 X145.675 Y67.931 E3.04211
G1 X141.569 Y63.825 E3.38084
G1 X140.86 Y63.825 E3.4222
G1 X145.675 Y68.64 E3.81942
G1 X145.675 Y69.349 E3.86078
G1 X140.151 Y63.825 E4.31649
G1 X139.443 Y63.825 E4.35779
G1 X145.675 Y70.057 E4.8719
G1 X145.675 Y70.766 E4.91326
G1 X138.734 Y63.825 E5.48586
G1 X138.025 Y63.825 E5.52722
G1 X145.675 Y71.475 E6.15831
G1 X145.675 Y72.183 E6.19961
G1 X137.317 Y63.825 E6.88911
G1 X136.608 Y63.825 E6.93047
G1 X145.675 Y72.892 E7.67846
G1 X145.675 Y73.6 E7.71976
G1 X135.9 Y63.825 E8.52615
G1 X135.191 Y63.825 E8.56751
G1 X145.675 Y74.309 E9.43239
G1 X145.675 Y75.018 E9.47375
G1 X134.482 Y63.825 E10.39712
G1 X133.774 Y63.825 E10.43842
G1 X145.675 Y75.726 E11.4202
G1 X145.675 Y76.435 E11.46156
G1 X133.065 Y63.825 E12.50183
G1 X132.356 Y63.825 E12.54319
G1 X145.675 Y77.144 E13.64195
G1 X145.675 Y77.852 E13.68325
G1 X131.648 Y63.825 E14.84042
G1 X130.939 Y63.825 E14.88178
G1 X145.675 Y78.561 E16.09743
G1 X145.675 Y79.27 E16.13879
G1 X130.23 Y63.825 E17.41293
G1 X129.522 Y63.825 E17.45423
G1 X145.675 Y79.978 E18.78678
G1 X145.675 Y80.687 E18.82814
G1 X128.813 Y63.825 E20.21918
G1 X128.104 Y63.825 E20.26054
G1 X145.675 Y81.396 E21.71007
G1 X145.675 Y82.104 E21.75137
G1 X127.396 Y63.825 E23.25931
G1 X126.687 Y63.825 E23.30067
G1 X145.675 Y82.813 E24.8671
G1 X145.675 Y83.522 E24.90846
G1 X125.978 Y63.825 E26.53338
G1 X125.27 Y63.825 E26.57468
G1 X145.675 Y84.23 E28.258
G1 X145.675 Y84.939 E28.29936
G1 X124.561 Y63.825 E30.04117
G1 X123.852 Y63.825 E30.08253
G1 X145.675 Y85.648 E31.88283
G1 X145.675 Y86.356 E31.92413
G1 X123.144 Y63.825 E33.78284
G1 X122.435 Y63.825 E33.8242
G1 X145.675 Y87.065 E35.7414
G1 X145.675 Y87.774 E35.78276
G1 X121.726 Y63.825 E37.75845
G1 X121.018 Y63.825 E37.79975
G1 X145.675 Y88.482 E39.83384
G1 X145.675 Y89.191 E39.8752
G1 X120.309 Y63.825 E41.96778
G1 X119.6 Y63.825 E42.00914
G1 X145.675 Y89.9 E44.16021
G1 X145.675 Y90.608 E44.20151
G1 X118.892 Y63.825 E46.41099
G1 X118.183 Y63.825 E46.45235
G1 X145.675 Y91.317 E48.72032
G1 X145.675 Y92.026 E48.76168
G1 X117.474 Y63.825 E51.08814
G1 X116.766 Y63.825 E51.12944
G1 X145.675 Y92.734 E53.5143
G1 X145.675 Y93.443 E53.55566
G1 X116.057 Y63.825 E55.99901
G1 X115.348 Y63.825 E56.04037
G1 X145.675 Y94.152 E58.54221
G1 X145.675 Y94.86 E58.58351
G1 X114.64 Y63.825 E61.14376
G1 X113.931 Y63.825 E61.18512
G1 X145.675 Y95.569 E63.80386
G1 X145.675 Y96.278 E63.84522
G1 X113.222 Y63.825 E66.52245
G1 X112.514 Y63.825 E66.56375
G1 X145.675 Y96.986 E69.29939
G1 X145.675 Y97.695 E69.34075
G1 X111.805 Y63.825 E72.13487
G1 X111.096 Y63.825 E72.17623
G1 X145.675 Y98.404 E75.02884
G1 X145.675 Y99.112 E75.07014
G1 X110.388 Y63.825 E77.98116
G1 X109.679 Y63.825 E78.02252
G1 X145.675 Y99.821 E80.99203
G1 X145.675 Y100.53 E81.03339
G1 X108.97 Y63.825 E84.06139
G1 X108.262 Y63.825 E84.10269
G1 X145.675 Y101.238 E87.1891
G1 X145.675 Y101.947 E87.23046
G1 X107.553 Y63.825 E90.37536
G1 X106.844 Y63.825 E90.41672
G1 X145.675 Y102.656 E93.62011
G1 X145.675 Y103.364 E93.66141
G1 X106.136 Y63.825 E96.9232
G1 X105.427 Y63.825 E96.96456
G1 X145.675 Y104.073 E100.28484
G1 X145.675 Y104.782 E100.3262
G1 X104.718 Y63.825 E103.70497
G1 X104.01 Y63.825 E103.74627
G1 X145.675 Y105.49 E107.18345
G1 X145.675 Y106.199 E107.22481
G1 X103.301 Y63.825 E110.72048
G1 X102.592 Y63.825 E110.76184
G1 X145.675 Y106.908 E114.316
G1 X145.675 Y107.616 E114.3573
G1 X101.884 Y63.825 E117.96986
G1 X101.175 Y63.825 E118.01122
G1 X145.675 Y108.325 E121.68227
G1 X145.675 Y109.034 E121.72363
G1 X100.466 Y63.825 E125.45317
G1 X99.758 Y63.825 E125.49447
G1 X145.675 Y109.742 E129.28242
G1 X145.675 Y110.451 E129.32378
G1 X99.049 Y63.825 E133.17022
G1 X98.34 Y63.825 E133.21158
G1 X145.675 Y111.16 E137.11651
G1 X145.675 Y111.868 E137.15781
G1 X97.632 Y63.825 E141.12114
G1 X96.923 Y63.825 E141.1625
G1 X145.675 Y112.577 E145.18432
G1 X145.675 Y113.286 E145.22568
G1 X96.214 Y63.825 E149.30599
G1 X95.506 Y63.825 E149.34729
G1 X145.675 Y113.994 E153.48601
G1 X145.675 Y114.703 E153.52737
G1 X94.797 Y63.825 E157.72458
G1 X94.089 Y63.825 E157.76588
G1 X145.675 Y115.411 E162.0215
G1 X145.675 Y116.12 E162.06286
G1 X93.38 Y63.825 E166.37697
G1 X92.671 Y63.825 E166.41833
G1 X145.675 Y116.829 E170.79092
G1 X145.675 Y117.537 E170.83222
G1 X91.963 Y63.825 E175.26322
G1 X91.254 Y63.825 E175.30458
G1 X145.675 Y118.246 E179.79407
G1 X145.675 Y118.955 E179.83543
G1 X90.545 Y63.825 E184.38341
G1 X89.837 Y63.825 E184.42471
G1 X145.675 Y119.663 E189.0311
G1 X145.675 Y120.372 E189.07246
G1 X89.128 Y63.825 E193.73734
G1 X88.419 Y63.825 E193.7787
G1 X145.675 Y121.081 E198.50207
G1 X145.675 Y121.789 E198.54337
G1 X87.711 Y63.825 E203.32514
G1 X87.002 Y63.825 E203.3665
G1 X145.675 Y122.498 E208.20676
G1 X145.675 Y123.207 E208.24812
G1 X86.293 Y63.825 E213.14687
G1 X85.585 Y63.825 E213.18817
G1 X145.675 Y123.915 E218.14533
G1 X145.675 Y124.624 E218.18669
G1 X84.876 Y63.825 E223.20234
G1 X84.325 Y63.825 E223.23448
G1 X84.325 Y63.982 E223.24364
G1 X145.675 Y125.333 E228.30478
G1 X145.675 Y126.041 E228.34608
G1 X84.325 Y64.691 E233.40718
G1 X84.325 Y65.4 E233.44854
G1 X145.675 Y126.75 E238.50964
G1 X145.675 Y127.459 E238.551
G1 X84.325 Y66.108 E243.61214
G1 X84.325 Y66.817 E243.6535
G1 X145.675 Y128.167 E248.7146
G1 X145.675 Y128.876 E248.75596
G1 X84.325 Y67.526 E253.81706
G1 X84.325 Y68.234 E253.85836
G1 X145.675 Y129.585 E258.9195
G1 X145.675 Y130.293 E258.9608
G1 X84.325 Y68.943 E264.0219
G1 X84.325 Y69.652 E264.06326
G1 X145.675 Y131.002 E269.12436
G1 X145.675 Y131.711 E269.16572
G1 X84.325 Y70.36 E274.22686
G1 X84.325 Y71.069 E274.26822
G1 X145.675 Y132.419 E279.32932
G1 X145.675 Y133.128 E279.37068
G1 X84.325 Y71.778 E284.43178
G1 X84.325 Y72.486 E284.47308
G1 X145.675 Y133.837 E289.53422
G1 X145.675 Y134.545 E289.57552
G1 X84.325 Y73.195 E294.63662
G1 X84.325 Y73.903 E294.67792
G1 X145.675 Y135.254 E299.73906
G1 X145.675 Y135.963 E299.78042
G1 X84.325 Y74.612 E304.84156
G1 X84.325 Y75.321 E304.88292
G1 X145.675 Y136.671 E309.94402
G1 X145.675 Y137.38 E309.98538
G1 X84.325 Y76.029 E315.04652
G1 X84.325 Y76.738 E315.08788
G1 X145.675 Y138.089 E320.14902
G1 X145.675 Y138.797 E320.19032
G1 X84.325 Y77.447 E325.25142
G1 X84.325 Y78.155 E325.29272
G1 X145.675 Y139.506 E330.35386
G1 X145.675 Y140.215 E330.39522
G1 X84.325 Y78.864 E335.45636
G1 X84.325 Y79.573 E335.49772
G1 X145.675 Y140.923 E340.55882
G1 X145.675 Y141.632 E340.60018
G1 X84.325 Y80.281 E345.66132
G1 X84.325 Y80.99 E345.70268
G1 X145.675 Y142.341 E350.76382
G1 X145.675 Y143.049 E350.80512
G1 X84.325 Y81.699 E355.86622
G1 X84.325 Y82.407 E355.90752
G1 X145.675 Y143.758 E360.96866
G1 X145.675 Y144.467 E361.01002
G1 X84.325 Y83.116 E366.07116
G1 X84.325 Y83.825 E366.11252
G1 X145.675 Y145.175 E371.17362
G1 X145.675 Y145.884 E371.21498
G1 X84.325 Y84.533 E376.27612
G1 X84.325 Y85.242 E376.31748
G1 X145.675 Y146.593 E381.37862
G1 X145.675 Y147.301 E381.41992
G1 X84.325 Y85.951 E386.48102
G1 X84.325 Y86.659 E386.52232
G1 X145.675 Y148.01 E391.58346
G1 X145.675 Y148.719 E391.62482
G1 X84.325 Y87.368 E396.68596
G1 X84.325 Y88.077 E396.72732
G1 X145.675 Y149.427 E401.78842
G1 X145.675 Y150.136 E401.82978
G1 X84.325 Y88.785 E406.89092
G1 X84.325 Y89.494 E406.93228
G1 X145.675 Y150.845 E411.99342
G1 X145.675 Y151.553 E412.03472
G1 X84.325 Y90.203 E417.09582
G1 X84.325 Y90.911 E417.13712
G1 X145.675 Y152.262 E422.19826
G1 X145.675 Y152.971 E422.23962
G1 X84.325 Y91.62 E427.30076
G1 X84.325 Y92.329 E427.34212
G1 X145.675 Y153.679 E432.40322
G1 X145.675 Y154.388 E432.44458
G1 X84.325 Y93.037 E437.50572
G1 X84.325 Y93.746 E437.54708
G1 X145.675 Y155.097 E442.60822
G1 X145.675 Y155.805 E442.64952
G1 X84.325 Y94.455 E447.71062
G1 X84.325 Y95.163 E447.75192
G1 X145.675 Y156.514 E452.81306
G1 X145.675 Y157.222 E452.85436
G1 X84.325 Y95.872 E457.91546
G1 X84.325 Y96.581 E457.95682
G1 X145.675 Y157.931 E463.01792
G1 X145.675 Y158.64 E463.05928
G1 X84.325 Y97.289 E468.12042
G1 X84.325 Y97.998 E468.16178
G1 X145.675 Y159.348 E473.22288
G1 X145.675 Y160.057 E473.26424
G1 X84.325 Y98.707 E478.32534
G1 X84.325 Y99.415 E478.36664
G1 X145.675 Y160.766 E483.42778
G1 X145.675 Y161.474 E483.46908
G1 X84.325 Y100.124 E488.53018
G1 X84.325 Y100.833 E488.57154
G1 X145.675 Y162.183 E493.63264
G1 X145.675 Y162.892 E493.674
G1 X84.325 Y101.541 E498.73514
G1 X84.325 Y102.25 E498.7765
G1 X145.675 Y163.6 E503.8376
G1 X145.675 Y164.309 E503.87896
G1 X84.325 Y102.959 E508.94006
G1 X84.325 Y103.667 E508.98136
G1 X145.675 Y165.018 E514.0425
G1 X145.675 Y165.175 E514.05166
G1 X145.124 Y165.175 E514.0838
G1 X84.325 Y104.376 E519.09945
G1 X84.325 Y105.085 E519.14081
G1 X144.415 Y165.175 E524.09797
G1 X143.707 Y165.175 E524.13927
G1 X84.325 Y105.793 E529.03802
G1 X84.325 Y106.502 E529.07938
G1 X142.998 Y165.175 E533.91964
G1 X142.289 Y165.175 E533.961
G1 X84.325 Y107.211 E538.74277
G1 X84.325 Y107.919 E538.78407
G1 X141.581 Y165.175 E543.50744
G1 X140.872 Y165.175 E543.5488
G1 X84.325 Y108.628 E548.21368
G1 X84.325 Y109.337 E548.25504
G1 X140.163 Y165.175 E552.86143
G1 X139.455 Y165.175 E552.90273
G1 X84.325 Y110.045 E557.45071
G1 X84.325 Y110.754 E557.49207
G1 X138.746 Y165.175 E561.98156
G1 X138.037 Y165.175 E562.02292
G1 X84.325 Y111.463 E566.45392
G1 X84.325 Y112.171 E566.49522
G1 X137.329 Y165.175 E570.86781
G1 X136.62 Y165.175 E570.90917
G1 X84.325 Y112.88 E575.22328
G1 X84.325 Y113.589 E575.26464
G1 X135.911 Y165.175 E579.52026
G1 X135.203 Y165.175 E579.56156
G1 X84.325 Y114.297 E583.75877
G1 X84.325 Y115.006 E583.80013
G1 X134.494 Y165.175 E587.93885
G1 X133.786 Y165.175 E587.98015
G1 X84.325 Y115.714 E592.06046
G1 X84.325 Y116.423 E592.10182
G1 X133.077 Y165.175 E596.12364
G1 X132.368 Y165.175 E596.165
G1 X84.325 Y117.132 E600.12833
G1 X84.325 Y117.84 E600.16963
G1 X131.66 Y165.175 E604.07456
G1 X130.951 Y165.175 E604.11592
G1 X84.325 Y118.549 E607.96236
G1 X84.325 Y119.258 E608.00372
G1 X130.242 Y165.175 E611.79167
G1 X129.534 Y165.175 E611.83297
G1 X84.325 Y119.966 E615.56251
G1 X84.325 Y120.675 E615.60387
G1 X128.825 Y165.175 E619.27492
G1 X128.116 Y165.175 E619.31628
G1 X84.325 Y121.384 E622.92884
G1 X84.325 Y122.092 E622.97014
G1 X127.408 Y165.175 E626.5243
G1 X126.699 Y165.175 E626.56566
G1 X84.325 Y122.801 E630.06133
G1 X84.325 Y123.51 E630.10269
G1 X125.99 Y165.175 E633.53987
G1 X125.282 Y165.175 E633.58117
G1 X84.325 Y124.218 E636.95994
G1 X84.325 Y124.927 E637.0013
G1 X124.573 Y165.175 E640.32158
G1 X123.864 Y165.175 E640.36294
G1 X84.325 Y125.636 E643.62473
G1 X84.325 Y126.344 E643.66603
G1 X123.156 Y165.175 E646.86942
G1 X122.447 Y165.175 E646.91078
G1 X84.325 Y127.053 E650.05568
G1 X84.325 Y127.762 E650.09704
G1 X121.738 Y165.175 E653.18345
G1 X121.03 Y165.175 E653.22475
G1 X84.325 Y128.47 E656.25275
G1 X84.325 Y129.179 E656.29411
G1 X120.321 Y165.175 E659.26362
G1 X119.612 Y165.175 E659.30498
G1 X84.325 Y129.888 E662.216
G1 X84.325 Y130.596 E662.2573
G1 X118.904 Y165.175 E665.10991
G1 X118.195 Y165.175 E665.15127
G1 X84.325 Y131.305 E667.94539
G1 X84.325 Y132.014 E667.98675
G1 X117.486 Y165.175 E670.72239
G1 X116.778 Y165.175 E670.76369
G1 X84.325 Y132.722 E673.44092
G1 X84.325 Y133.431 E673.48228
G1 X116.069 Y165.175 E676.10102
G1 X115.36 Y165.175 E676.14238
G1 X84.325 Y134.14 E678.70263
G1 X84.325 Y134.848 E678.74393
G1 X114.652 Y165.175 E681.24577
G1 X113.943 Y165.175 E681.28713
G1 X84.325 Y135.557 E683.73048
G1 X84.325 Y136.266 E683.77184
G1 X113.234 Y165.175 E686.1567
G1 X112.526 Y165.175 E686.198
G1 X84.325 Y136.974 E688.52446
G1 X84.325 Y137.683 E688.56582
G1 X111.817 Y165.175 E690.83379
G1 X111.108 Y165.175 E690.87515
G1 X84.325 Y138.392 E693.08463
G1 X84.325 Y139.1 E693.12593
G1 X110.4 Y165.175 E695.277
G1 X109.691 Y165.175 E695.31836
G1 X84.325 Y139.809 E697.41094
G1 X84.325 Y140.518 E697.4523
G1 X108.982 Y165.175 E699.48639
G1 X108.274 Y165.175 E699.52769
G1 X84.325 Y141.226 E701.50338
G1 X84.325 Y141.935 E701.54474
G1 X107.565 Y165.175 E703.46194
G1 X106.856 Y165.175 E703.5033
G1 X84.325 Y142.644 E705.36201
G1 X84.325 Y143.352 E705.40331
G1 X106.148 Y165.175 E707.20361
G1 X105.439 Y165.175 E707.24497
G1 X84.325 Y144.061 E708.98678
G1 X84.325 Y144.77 E709.02814
G1 X104.73 Y165.175 E710.71146
G1 X104.022 Y165.175 E710.75276
G1 X84.325 Y145.478 E712.37768
G1 X84.325 Y146.187 E712.41904
G1 X103.313 Y165.175 E713.98547
G1 X102.604 Y165.175 E714.02683
G1 X84.325 Y146.896 E715.53477
G1 X84.325 Y147.604 E715.57607
G1 X101.896 Y165.175 E717.0256
G1 X101.187 Y165.175 E717.06696
G1 X84.325 Y148.313 E718.458
G1 X84.325 Y149.022 E718.49936
G1 X100.478 Y165.175 E719.83191
G1 X99.77 Y165.175 E719.87321
G1 X84.325 Y149.73 E721.14735
G1 X84.325 Y150.439 E721.18871
G1 X99.061 Y165.175 E722.40436
G1 X98.352 Y165.175 E722.44572
G1 X84.325 Y151.148 E723.60289
G1 X84.325 Y151.856 E723.64419
G1 X97.644 Y165.175 E724.74295
G1 X96.935 Y165.175 E724.78431
G1 X84.325 Y152.565 E725.82458
G1 X84.325 Y153.274 E725.86594
G1 X96.226 Y165.175 E726.84772
G1 X95.518 Y165.175 E726.88902
G1 X84.325 Y153.982 E727.81239
G1 X84.325 Y154.691 E727.85375
G1 X94.809 Y165.175 E728.71863
G1 X94.1 Y165.175 E728.75999
G1 X84.325 Y155.4 E729.56638
G1 X84.325 Y156.108 E729.60768
G1 X93.392 Y165.175 E730.35567
G1 X92.683 Y165.175 E730.39703
G1 X84.325 Y156.817 E731.08653
G1 X84.325 Y157.525 E731.12783
G1 X91.975 Y165.175 E731.75892
G1 X91.266 Y165.175 E731.80028
G1 X84.325 Y158.234 E732.37288
G1 X84.325 Y158.943 E732.41424
G1 X90.557 Y165.175 E732.92835
G1 X89.849 Y165.175 E732.96965
G1 X84.325 Y159.651 E733.42536
G1 X84.325 Y160.36 E733.46672
