; generated by PrusaSlicer 2.6.0+MacOS-x64 on 2023-08-10 at 17:02:43 UTC

; 

; external perimeters extrusion width = 0.45mm
; perimeters extrusion width = 0.40mm
; infill extrusion width = 0.45mm
; solid infill extrusion width = 0.50mm
; top infill extrusion width = 0.45mm
; first layer extrusion width = 0.56mm

M201 X2500 Y2500 Z800 E2500 ; sets maximum accelerations, mm/sec^2
M203 X300 Y250 Z8 E80 ; sets maximum feedrates, mm / sec
M204 S2500 T2500 ; sets acceleration (S) and retract acceleration (R), mm/sec^2
M205 X15.00 Y10.00 Z2.00 E10.00 ; sets the jerk limits, mm/sec
M205 S0 T0 ; sets the minimum extruding and travel feed rate, mm/sec
;TYPE:Custom
G90 ; use absolute coordinates
M83 ; extruder relative mode
M104 S215 ; set extruder temp
M140 S65 ; set bed temp
M190 S65 ; wait for bed temp
M109 S215 ; wait for extruder temp
G28                                        ; move X/Y/Z to min endstops
G1 Z0.28                                   ; lift nozzle a bit 
G92 E0 
G1 Y3 F1800                                    ; zero the extruded length 
G1 X60  E25 F500                       ; Extrude 25mm of filament in a 5cm line. 
G92 E0                                     ; zero the extruded length again 
G1 E-2 F500                                ; Retract a little 
G1 X70 F4000                              ; Quickly wipe away from the filament line
M117
G21 ; set units to millimeters
G90 ; use absolute coordinates
M82 ; use absolute distances for extrusion
G92 E0
M107
;LAYER_CHANGE
;Z:0.28
;HEIGHT:0.28
; BEFORE_LAYER_CHANGE 0 @ 0.28mm
G1 E-2 F4800
G92 E0
G1 Z.28 F7200
; AFTER_LAYER_CHANGE 0 @ 0.28mm
G1 X114.8 Y114.8
G1 E2 F4800
M204 S2000
;TYPE:External perimeter
;WIDTH:0.56
G1 F1500
G1 X115.2 Y114.8 E2.02328
G1 X115.2 Y115.2 E2.04656
G1 X114.8 Y115.2 E2.06984
G1 X114.8 Y114.86 E2.08963
M204 S2500
G1 X115.186 Y114.904 F7200
;LAYER_CHANGE
;Z:0.48
;HEIGHT:0.2
; BEFORE_LAYER_CHANGE 1 @ 0.48mm
G1 E.68963 F4800
;WIPE_START
G1 F5760
G1 X115.2 Y114.8 E.36942
G1 X115.2 Y115.153 E.08963
;WIPE_END
G92 E0
G1 Z.48 F7200
; AFTER_LAYER_CHANGE 1 @ 0.48mm
M104 S195 ; set temperature
G1 X115.255 Y115.255
G1 E2 F4800
;WIDTH:0.45
G1 F1500
G1 X114.745 Y115.255 E2.01726
G1 X114.745 Y114.745 E2.03452
G1 X115.255 Y114.745 E2.05178
G1 X115.255 Y115.195 E2.06701
G1 X114.869 Y115.151 F7200
M106 S255
;LAYER_CHANGE
;Z:0.68
;HEIGHT:0.2
; BEFORE_LAYER_CHANGE 2 @ 0.68mm
G1 E.66701 F4800
;WIPE_START
G1 F5760
G1 X114.745 Y115.255 E.26048
G1 X114.745 Y115.011 E.06701
;WIPE_END
G92 E0
G1 Z.68 F7200
; AFTER_LAYER_CHANGE 2 @ 0.68mm
G1 X115.255 Y115.255
G1 E2 F4800
G1 F1500
G1 X114.745 Y115.255 E2.01726
G1 X114.745 Y114.745 E2.03452
G1 X115.255 Y114.745 E2.05178
G1 X115.255 Y115.195 E2.06701
G1 X114.869 Y115.151 F7200
;LAYER_CHANGE
;Z:0.88
;HEIGHT:0.2
; BEFORE_LAYER_CHANGE 3 @ 0.88mm
G1 E.66701 F4800
;WIPE_START
G1 F5760
G1 X114.745 Y115.255 E.26048
G1 X114.745 Y115.011 E.06701
;WIPE_END
G92 E0
G1 Z.88 F7200
; AFTER_LAYER_CHANGE 3 @ 0.88mm
G1 X115.255 Y115.255
G1 E2 F4800
G1 F1500
G1 X114.745 Y115.255 E2.01726
G1 X114.745 Y114.745 E2.03452
G1 X115.255 Y114.745 E2.05178
G1 X115.255 Y115.195 E2.06701
G1 X114.869 Y115.151 F7200
;LAYER_CHANGE
;Z:1.08
;HEIGHT:0.2
; BEFORE_LAYER_CHANGE 4 @ 1.08mm
G1 E.66701 F4800
;WIPE_START
G1 F5760
G1 X114.745 Y115.255 E.26048
G1 X114.745 Y115.011 E.06701
;WIPE_END
G92 E0
G1 Z1.08 F7200
; AFTER_LAYER_CHANGE 4 @ 1.08mm
G1 X115.255 Y115.255
G1 E2 F4800
G1 F1500
G1 X114.745 Y115.255 E2.01726
G1 X114.745 Y114.745 E2.03452
G1 X115.255 Y114.745 E2.05178
G1 X115.255 Y115.195 E2.06701
G1 X114.869 Y115.151 F7200
G1 E.66701 F4800
;WIPE_START
G1 F5760;_WIPE
G1 X114.745 Y115.255 E.26048
G1 F5760;_WIPE
G1 X114.745 Y115.011 E.06701
;WIPE_END
G92 E0
M107
;TYPE:Custom
M104 S0                                    ; Extruder off 
M140 S0                                    ; Heatbed off 
M107                                       ; Fan off 
G91                                        ; relative positioning 
G1 E-5 F3000  
G1 Z+0.3 F3000                             ; lift print head 
G28 X0  F3000


M84                                        ; disable stepper motors
; filament used [mm] = 25.00
; filament used [cm3] = 0.06
; filament used [g] = 0.07
; total filament used [g] = 0.07
; total filament cost = 0.00
; estimated printing time (normal mode) = 10s
; estimated first layer printing time (normal mode) = 9s

; prusaslicer_config = begin
; autoemit_temperature_commands = 1
; avoid_crossing_curled_overhangs = 0
; avoid_crossing_perimeters = 0
; avoid_crossing_perimeters_max_detour = 0
; bed_custom_model = 
; bed_custom_texture = 
; bed_shape = 0x0,230x0,230x230,0x230
; bed_temperature = 65
; before_layer_gcode = ; BEFORE_LAYER_CHANGE [layer_num] @ [layer_z]mm
; between_objects_gcode = 
; bottom_fill_pattern = monotonic
; bottom_solid_layers = 3
; bottom_solid_min_thickness = 0.6
; bridge_acceleration = 2500
; bridge_angle = 45
; bridge_fan_speed = 100
; bridge_flow_ratio = 0.85
; bridge_speed = 40
; brim_separation = 0.12
; brim_type = outer_only
; brim_width = 0
; color_change_gcode = M600
; complete_objects = 0
; cooling = 1
; cooling_tube_length = 5
; cooling_tube_retraction = 91.5
; default_acceleration = 2500
; default_filament_profile = "Anycubic PLA @MEGA0"
; default_print_profile = 0.20mm NORMAL @MEGA0
; deretract_speed = 0
; disable_fan_first_layers = 2
; dont_support_bridges = 1
; draft_shield = disabled
; duplicate_distance = 6
; elefant_foot_compensation = 0.1
; enable_dynamic_fan_speeds = 0
; enable_dynamic_overhang_speeds = 0
; end_filament_gcode = ""
; end_gcode = M104 S0                                    ; Extruder off \nM140 S0                                    ; Heatbed off \nM107                                       ; Fan off \nG91                                        ; relative positioning \nG1 E-5 F3000  \nG1 Z+0.3 F3000                             ; lift print head \nG28 X0  F3000\n\n\nM84                                        ; disable stepper motors
; external_perimeter_acceleration = 0
; external_perimeter_extrusion_width = 0.45
; external_perimeter_speed = 80
; external_perimeters_first = 1
; extra_loading_move = -2
; extra_perimeters = 0
; extra_perimeters_on_overhangs = 0
; extruder_clearance_height = 20
; extruder_clearance_radius = 20
; extruder_colour = #FFFF00
; extruder_offset = 0x0
; extrusion_axis = E
; extrusion_multiplier = 1
; extrusion_width = 0.42
; fan_always_on = 0
; fan_below_layer_time = 1000
; filament_colour = #29B2B2
; filament_cooling_final_speed = 3.4
; filament_cooling_initial_speed = 2.2
; filament_cooling_moves = 4
; filament_cost = 0
; filament_density = 1.24
; filament_diameter = 1.75
; filament_load_time = 0
; filament_loading_speed = 28
; filament_loading_speed_start = 3
; filament_max_volumetric_speed = 0
; filament_minimal_purge_on_wipe_tower = 15
; filament_notes = ""
; filament_ramming_parameters = "120 100 6.6 6.8 7.2 7.6 7.9 8.2 8.7 9.4 9.9 10.0| 0.05 6.6 0.45 6.8 0.95 7.8 1.45 8.3 1.95 9.7 2.45 10 2.95 7.6 3.45 7.6 3.95 7.6 4.45 7.6 4.95 7.6"
; filament_settings_id = "Anycubic PLA"
; filament_soluble = 0
; filament_spool_weight = 0
; filament_toolchange_delay = 0
; filament_type = PLA
; filament_unload_time = 0
; filament_unloading_speed = 90
; filament_unloading_speed_start = 100
; filament_vendor = (Unknown)
; fill_angle = 45
; fill_density = 0%
; fill_pattern = rectilinear
; first_layer_acceleration = 2000
; first_layer_acceleration_over_raft = 0
; first_layer_bed_temperature = 65
; first_layer_extrusion_width = 200%
; first_layer_height = 0.28
; first_layer_speed = 50
; first_layer_speed_over_raft = 30
; first_layer_temperature = 215
; full_fan_speed_layer = 0
; fuzzy_skin = none
; fuzzy_skin_point_dist = 0.8
; fuzzy_skin_thickness = 0.3
; gap_fill_enabled = 1
; gap_fill_speed = 100
; gcode_comments = 0
; gcode_flavor = marlin
; gcode_label_objects = 0
; gcode_resolution = 0.012
; gcode_substitutions = 
; high_current_on_filament_swap = 0
; host_type = octoprint
; infill_acceleration = 3000
; infill_anchor = 10
; infill_anchor_max = 10
; infill_every_layers = 1
; infill_extruder = 1
; infill_extrusion_width = 0.45
; infill_first = 0
; infill_overlap = 15%
; infill_speed = 150
; interface_shells = 0
; ironing = 0
; ironing_flowrate = 15%
; ironing_spacing = 0.1
; ironing_speed = 15
; ironing_type = top
; layer_gcode = ; AFTER_LAYER_CHANGE [layer_num] @ [layer_z]mm
; layer_height = 0.2
; machine_limits_usage = emit_to_gcode
; machine_max_acceleration_e = 2500
; machine_max_acceleration_extruding = 2500
; machine_max_acceleration_retracting = 2500
; machine_max_acceleration_travel = 3000,1250
; machine_max_acceleration_x = 2500
; machine_max_acceleration_y = 2500
; machine_max_acceleration_z = 800
; machine_max_feedrate_e = 80
; machine_max_feedrate_x = 300
; machine_max_feedrate_y = 250
; machine_max_feedrate_z = 8
; machine_max_jerk_e = 10
; machine_max_jerk_x = 15
; machine_max_jerk_y = 10
; machine_max_jerk_z = 2
; machine_min_extruding_rate = 0
; machine_min_travel_rate = 0
; max_fan_speed = 100
; max_layer_height = 0.28
; max_print_height = 260
; max_print_speed = 150
; max_volumetric_extrusion_rate_slope_negative = 0
; max_volumetric_extrusion_rate_slope_positive = 0
; max_volumetric_speed = 0
; min_bead_width = 85%
; min_fan_speed = 100
; min_feature_size = 25%
; min_layer_height = 0.04
; min_print_speed = 25
; min_skirt_length = 0
; mmu_segmented_region_max_width = 0
; notes = 
; nozzle_diameter = 0.4
; only_retract_when_crossing_perimeters = 0
; ooze_prevention = 0
; output_filename_format = {input_filename_base}-{layer_height}-{print_time}-{month}-{day}.gcode
; overhang_fan_speed_0 = 0
; overhang_fan_speed_1 = 0
; overhang_fan_speed_2 = 0
; overhang_fan_speed_3 = 0
; overhang_speed_0 = 15
; overhang_speed_1 = 15
; overhang_speed_2 = 20
; overhang_speed_3 = 25
; overhangs = 1
; parking_pos_retraction = 92
; pause_print_gcode = M601
; perimeter_acceleration = 2500
; perimeter_extruder = 1
; perimeter_extrusion_width = 0.4
; perimeter_generator = classic
; perimeter_speed = 150
; perimeters = 3
; physical_printer_settings_id = 
; post_process = 
; print_settings_id = PLA 0.20mm Normal（0.4mm Nozzle）
; printer_model = 
; printer_notes = Do not remove the following keywords! These keywords are used in the "compatible printer" condition of the print and filament profiles to link the particular print and filament profiles to this printer profile.\nPRINTER_VENDOR_ANYCUBIC\nPRINTER_MODEL_MEGA0
; printer_settings_id = Anycubic Kobra2-PLA
; printer_technology = FFF
; printer_variant = 0.4
; printer_vendor = 
; raft_contact_distance = 0.1
; raft_expansion = 1.5
; raft_first_layer_density = 90%
; raft_first_layer_expansion = 3
; raft_layers = 0
; remaining_times = 0
; resolution = 0.012
; retract_before_travel = 1
; retract_before_wipe = 70%
; retract_layer_change = 1
; retract_length = 2
; retract_length_toolchange = 1
; retract_lift = 0
; retract_lift_above = 0
; retract_lift_below = 0
; retract_restart_extra = 0
; retract_restart_extra_toolchange = 0
; retract_speed = 80
; seam_position = aligned
; silent_mode = 0
; single_extruder_multi_material = 0
; single_extruder_multi_material_priming = 1
; skirt_distance = 2
; skirt_height = 1
; skirts = 0
; slice_closing_radius = 0.049
; slicing_mode = regular
; slowdown_below_layer_time = 9
; small_perimeter_speed = 54%
; solid_infill_acceleration = 0
; solid_infill_below_area = 0
; solid_infill_every_layers = 0
; solid_infill_extruder = 1
; solid_infill_extrusion_width = 0.5
; solid_infill_speed = 150
; spiral_vase = 0
; staggered_inner_seams = 0
; standby_temperature_delta = -5
; start_filament_gcode = ""
; start_gcode = G90 ; use absolute coordinates\nM83 ; extruder relative mode\nM104 S[first_layer_temperature] ; set extruder temp\nM140 S[first_layer_bed_temperature] ; set bed temp\nM190 S[first_layer_bed_temperature] ; wait for bed temp\nM109 S[first_layer_temperature] ; wait for extruder temp\nG28                                        ; move X/Y/Z to min endstops\nG1 Z0.28                                   ; lift nozzle a bit \nG92 E0 \nG1 Y3 F1800                                    ; zero the extruded length \nG1 X60  E25 F500                       ; Extrude 25mm of filament in a 5cm line. \nG92 E0                                     ; zero the extruded length again \nG1 E-2 F500                                ; Retract a little \nG1 X70 F4000                              ; Quickly wipe away from the filament line\nM117
; support_material = 0
; support_material_angle = 0
; support_material_auto = 0
; support_material_bottom_contact_distance = 0
; support_material_bottom_interface_layers = -1
; support_material_buildplate_only = 0
; support_material_closing_radius = 2
; support_material_contact_distance = 0.2
; support_material_enforce_layers = 0
; support_material_extruder = 1
; support_material_extrusion_width = 0
; support_material_interface_contact_loops = 0
; support_material_interface_extruder = 1
; support_material_interface_layers = 3
; support_material_interface_pattern = rectilinear
; support_material_interface_spacing = 0
; support_material_interface_speed = 100%
; support_material_pattern = rectilinear
; support_material_spacing = 2.5
; support_material_speed = 100
; support_material_style = grid
; support_material_synchronize_layers = 0
; support_material_threshold = 10
; support_material_with_sheath = 1
; support_material_xy_spacing = 50%
; support_tree_angle = 40
; support_tree_angle_slow = 25
; support_tree_branch_diameter = 2
; support_tree_branch_diameter_angle = 5
; support_tree_branch_diameter_double_wall = 3
; support_tree_branch_distance = 1
; support_tree_tip_diameter = 0.8
; support_tree_top_rate = 15%
; temperature = 195
; template_custom_gcode = 
; thick_bridges = 0
; thin_walls = 1
; threads = 8
; thumbnails = 
; thumbnails_format = PNG
; toolchange_gcode = 
; top_fill_pattern = monotonic
; top_infill_extrusion_width = 0.45
; top_solid_infill_acceleration = 0
; top_solid_infill_speed = 120
; top_solid_layers = 3
; top_solid_min_thickness = 0.6
; travel_acceleration = 0
; travel_speed = 120
; travel_speed_z = 120
; use_firmware_retraction = 0
; use_relative_e_distances = 0
; use_volumetric_e = 0
; variable_layer_height = 1
; wall_distribution_count = 1
; wall_transition_angle = 10
; wall_transition_filter_deviation = 25%
; wall_transition_length = 100%
; wipe = 1
; wipe_into_infill = 0
; wipe_into_objects = 0
; wipe_tower = 0
; wipe_tower_bridging = 10
; wipe_tower_brim_width = 2
; wipe_tower_cone_angle = 0
; wipe_tower_extra_spacing = 100%
; wipe_tower_extruder = 0
; wipe_tower_no_sparse_layers = 0
; wipe_tower_rotation_angle = 0
; wipe_tower_width = 60
; wipe_tower_x = 180
; wipe_tower_y = 140
; wiping_volumes_extruders = 70,70
; wiping_volumes_matrix = 0
; xy_size_compensation = -0.02
; z_offset = 0
; prusaslicer_config = end
