; generated by PrusaSlicer 2.5.2+MacOS-x64 on 2023-05-29 at 16:31:02 UTC

; 

; external perimeters extrusion width = 0.45mm
; perimeters extrusion width = 0.40mm
; infill extrusion width = 0.45mm
; solid infill extrusion width = 0.50mm
; top infill extrusion width = 0.45mm
; first layer extrusion width = 0.56mm

; external perimeters extrusion width = 0.45mm
; perimeters extrusion width = 0.40mm
; infill extrusion width = 0.45mm
; solid infill extrusion width = 0.50mm
; top infill extrusion width = 0.45mm
; first layer extrusion width = 0.56mm

; external perimeters extrusion width = 0.45mm
; perimeters extrusion width = 0.40mm
; infill extrusion width = 0.45mm
; solid infill extrusion width = 0.50mm
; top infill extrusion width = 0.45mm
; first layer extrusion width = 0.56mm

; external perimeters extrusion width = 0.45mm
; perimeters extrusion width = 0.40mm
; infill extrusion width = 0.45mm
; solid infill extrusion width = 0.50mm
; top infill extrusion width = 0.45mm
; first layer extrusion width = 0.56mm

M201 X2500 Y2500 Z800 E2500 ; sets maximum accelerations, mm/sec^2
M203 X300 Y250 Z8 E80 ; sets maximum feedrates, mm / sec
M204 P2500 R2500 T2500 ; sets acceleration (P, T) and retract acceleration (R), mm/sec^2
M205 X15.00 Y10.00 Z2.00 E10.00 ; sets the jerk limits, mm/sec
M205 S0 T0 ; sets the minimum extruding and travel feed rate, mm/sec
M107
;TYPE:Custom
G90 ; use absolute coordinates
M83 ; extruder relative mode
M104 S215 ; set extruder temp
M140 S60 ; set bed temp
M190 S60 ; wait for bed temp
M109 S215 ; wait for extruder temp
G28                                        ; move X/Y/Z to min endstops
G1 Z0.28                                   ; lift nozzle a bit 
G92 E0 
G1 Y3 F1800                                    ; zero the extruded length 
G1 X60  E25 F500                       ; Extrude 25mm of filament in a 5cm line. 
G92 E0                                     ; zero the extruded length again 
G1 E-2 F500                                ; Retract a little 
G1 X70 F4000                              ; Quickly wipe away from the filament line
M117
G21 ; set units to millimeters
G90 ; use absolute coordinates
M82 ; use absolute distances for extrusion
G92 E0
M107
;LAYER_CHANGE
;Z:0.28
;HEIGHT:0.28
; BEFORE_LAYER_CHANGE 0 @ 0.28mm
G1 E-2 F4800
G92 E0
G1 Z.28 F7200
; AFTER_LAYER_CHANGE 0 @ 0.28mm
G1 X36.966 Y56.753
G1 E2 F4800
M204 S2000
;TYPE:Skirt/Brim
;WIDTH:0.56
G1 F3000
G1 X37.32 Y56.542 E2.02398
G1 X37.724 Y56.375 E2.04945
G1 X38.349 Y56.25 E2.08651
G1 X191.707 Y56.255 E11.01114
G1 X192.252 Y56.369 E11.04358
G1 X192.801 Y56.606 E11.07838
G1 X193.191 Y56.879 E11.10608
G1 X193.602 Y57.286 E11.13974
G1 X193.908 Y57.727 E11.17099
G1 X194.125 Y58.223 E11.2025
G1 X194.25 Y58.849 E11.23964
G1 X194.25 Y166.042 E17.47773
G1 X194.183 Y167.009 E17.53415
G1 X193.997 Y167.962 E17.59062
G1 X193.687 Y168.899 E17.64808
G1 X193.269 Y169.773 E17.70447
G1 X192.711 Y170.631 E17.76402
G1 X192.065 Y171.392 E17.8221
G1 X191.123 Y172.22 E17.89509
G1 X190.27 Y172.77 E17.95414
G1 X189.461 Y173.16 E18.00644
G1 X188.607 Y173.459 E18.05909
G1 X187.613 Y173.668 E18.11818
G1 X186.543 Y173.75 E18.18066
G1 X43.461 Y173.75 E26.50727
G1 X42.49 Y173.682 E26.56394
G1 X41.529 Y173.495 E26.62089
G1 X40.604 Y173.187 E26.67763
G1 X39.726 Y172.769 E26.73423
G1 X38.698 Y172.082 E26.80616
G1 X37.945 Y171.402 E26.86525
G1 X37.286 Y170.63 E26.92431
G1 X36.736 Y169.781 E26.98316
G1 X36.296 Y168.859 E27.04264
G1 X36.014 Y168.002 E27.09513
G1 X35.833 Y167.121 E27.14746
G1 X35.75 Y166.043 E27.2104
G1 X35.75 Y58.848 E33.4486
G1 X35.866 Y58.256 E33.48369
G1 X36.133 Y57.651 E33.52218
G1 X36.416 Y57.266 E33.54997
G1 X36.922 Y56.794 E33.59027
M204 S2500
G1 X37.249 Y57.166 F7200
M204 S2000
G1 F3000
G1 X37.53 Y56.997 E33.60935
G1 X37.893 Y56.846 E33.63225
G1 X38.374 Y56.75 E33.66076
G1 X191.679 Y56.755 E42.58233
G1 X192.12 Y56.851 E42.60859
G1 X192.574 Y57.052 E42.63751
G1 X192.882 Y57.272 E42.65956
G1 X193.231 Y57.621 E42.68829
G1 X193.481 Y57.987 E42.71403
G1 X193.654 Y58.394 E42.73982
G1 X193.75 Y58.874 E42.76825
G1 X193.75 Y166.033 E49.00441
G1 X193.685 Y166.959 E49.05839
G1 X193.51 Y167.849 E49.11122
G1 X193.218 Y168.726 E49.16498
G1 X192.826 Y169.542 E49.21766
G1 X192.302 Y170.344 E49.27344
G1 X191.697 Y171.054 E49.32771
G1 X190.835 Y171.81 E49.3944
G1 X190.039 Y172.326 E49.44966
G1 X189.257 Y172.704 E49.50018
G1 X188.458 Y172.981 E49.54937
G1 X187.527 Y173.176 E49.60472
G1 X186.533 Y173.25 E49.66272
G1 X43.47 Y173.25 E57.98831
G1 X42.569 Y173.189 E58.04085
G1 X41.671 Y173.016 E58.09404
G1 X40.777 Y172.718 E58.14888
G1 X39.958 Y172.326 E58.20172
G1 X39.019 Y171.698 E58.26745
G1 X38.313 Y171.064 E58.32268
G1 X37.695 Y170.343 E58.37793
G1 X37.18 Y169.55 E58.43297
G1 X36.766 Y168.686 E58.48876
G1 X36.5 Y167.887 E58.53775
G1 X36.326 Y167.036 E58.58826
G1 X36.25 Y166.034 E58.64679
G1 X36.25 Y58.874 E64.88295
G1 X36.349 Y58.385 E64.91198
G1 X36.577 Y57.883 E64.94405
G1 X36.776 Y57.614 E64.96353
G1 X37.205 Y57.207 E64.99794
M204 S2500
G1 X37.535 Y57.576 F7200
M204 S2000
G1 F3000
G1 X37.74 Y57.45 E65.01194
G1 X38.062 Y57.317 E65.03219
G1 X38.398 Y57.25 E65.05215
G1 X191.651 Y57.255 E73.97071
G1 X191.94 Y57.318 E73.98793
G1 X192.347 Y57.498 E74.01382
G1 X192.542 Y57.639 E74.02782
G1 X192.86 Y57.957 E74.05394
G1 X193.05 Y58.242 E74.0739
G1 X193.183 Y58.562 E74.09406
G1 X193.25 Y58.898 E74.11402
G1 X193.25 Y166.024 E80.34823
G1 X193.187 Y166.907 E80.39974
G1 X193.023 Y167.736 E80.44889
G1 X192.749 Y168.551 E80.49895
G1 X192.383 Y169.309 E80.54792
G1 X191.893 Y170.056 E80.59993
G1 X191.329 Y170.715 E80.65041
G1 X190.548 Y171.401 E80.7109
G1 X189.806 Y171.884 E80.7624
G1 X189.079 Y172.236 E80.80943
G1 X188.31 Y172.503 E80.85679
G1 X187.443 Y172.683 E80.90833
G1 X186.524 Y172.75 E80.96191
G1 X43.478 Y172.75 E89.28648
G1 X42.619 Y172.691 E89.33661
G1 X41.783 Y172.528 E89.38613
G1 X40.951 Y172.249 E89.4372
G1 X40.191 Y171.883 E89.48631
G1 X39.339 Y171.314 E89.54594
G1 X38.681 Y170.725 E89.59731
G1 X38.105 Y170.055 E89.64876
G1 X37.623 Y169.318 E89.69999
G1 X37.235 Y168.513 E89.75203
G1 X36.979 Y167.744 E89.79919
G1 X36.819 Y166.953 E89.84615
G1 X36.75 Y166.025 E89.90031
G1 X36.75 Y58.898 E96.13452
G1 X36.818 Y58.56 E96.15457
G1 X36.998 Y58.153 E96.18051
G1 X37.14 Y57.957 E96.19458
G1 X37.492 Y57.618 E96.22303
M204 S2500
G1 X37.827 Y57.983 F7200
M204 S2000
G1 F3000
G1 X37.953 Y57.903 E96.23167
G1 X38.23 Y57.788 E96.24915
G1 X38.423 Y57.75 E96.26056
G1 X191.623 Y57.755 E105.17605
G1 X191.765 Y57.787 E105.18453
G1 X192.083 Y57.923 E105.20468
G1 X192.205 Y58.009 E105.21334
G1 X192.489 Y58.293 E105.23668
G1 X192.598 Y58.456 E105.24809
G1 X192.712 Y58.73 E105.26539
G1 X192.75 Y58.923 E105.2768
G1 X192.75 Y166.016 E111.50909
G1 X192.694 Y166.827 E111.5564
G1 X192.543 Y167.594 E111.60187
G1 X192.292 Y168.349 E111.64817
G1 X191.94 Y169.076 E111.6952
G1 X191.485 Y169.767 E111.74337
G1 X190.961 Y170.376 E111.79008
G1 X190.259 Y170.992 E111.84447
G1 X189.573 Y171.441 E111.89216
G1 X188.874 Y171.78 E111.93736
G1 X188.163 Y172.025 E111.98115
G1 X187.359 Y172.189 E112.02891
G1 X186.516 Y172.25 E112.0781
G1 X43.486 Y172.25 E120.40169
G1 X42.699 Y172.197 E120.44764
G1 X41.896 Y172.041 E120.49523
G1 X41.127 Y171.781 E120.54246
G1 X40.425 Y171.441 E120.58787
G1 X39.658 Y170.929 E120.64149
G1 X39.048 Y170.386 E120.68904
G1 X38.513 Y169.766 E120.73667
G1 X38.065 Y169.085 E120.7841
G1 X37.704 Y168.338 E120.8324
G1 X37.466 Y167.629 E120.87595
G1 X37.312 Y166.869 E120.92105
G1 X37.25 Y166.016 E120.97085
G1 X37.25 Y58.923 E127.20312
G1 X37.288 Y58.732 E127.21444
G1 X37.423 Y58.417 E127.23441
G1 X37.508 Y58.296 E127.243
G1 X37.785 Y58.025 E127.26552
M204 S2500
G1 X38.129 Y58.382 F7200
M204 S2000
G1 F3000
G1 X38.447 Y58.25 E127.28558
G1 X191.553 Y58.25 E136.19554
G1 X191.871 Y58.382 E136.2156
G1 X192.118 Y58.629 E136.23591
G1 X192.25 Y58.947 E136.25597
G1 X192.25 Y166.007 E142.48632
G1 X192.196 Y166.776 E142.53116
G1 X192.056 Y167.48 E142.57293
G1 X191.824 Y168.174 E142.61553
G1 X191.498 Y168.842 E142.65876
G1 X191.077 Y169.477 E142.70312
G1 X190.594 Y170.036 E142.74608
G1 X189.97 Y170.584 E142.79448
G1 X189.339 Y170.999 E142.83838
G1 X188.697 Y171.312 E142.87998
G1 X188.016 Y171.547 E142.92189
G1 X187.276 Y171.696 E142.96579
G1 X186.507 Y171.75 E143.01066
G1 X43.495 Y171.75 E151.33326
G1 X42.748 Y171.699 E151.37679
G1 X42.009 Y171.554 E151.42063
G1 X41.304 Y171.313 E151.46402
G1 X40.659 Y170.999 E151.50575
G1 X39.977 Y170.544 E151.55348
G1 X39.415 Y170.045 E151.59723
G1 X38.921 Y169.477 E151.64104
G1 X38.507 Y168.851 E151.68466
G1 X38.173 Y168.164 E151.72916
G1 X37.945 Y167.485 E151.77081
G1 X37.805 Y166.787 E151.81225
G1 X37.75 Y166.007 E151.85774
G1 X37.75 Y58.947 E158.08809
G1 X37.855 Y58.67 E158.10535
G1 X38.086 Y58.424 E158.12498
M204 S2500
G1 X38.43 Y58.788 F7200
M204 S2000
G1 F3000
G1 X38.522 Y58.75 E158.13077
G1 X191.478 Y58.75 E167.03208
G1 X191.57 Y58.788 E167.03787
G1 X191.712 Y58.93 E167.04952
G1 X191.75 Y59.022 E167.05531
G1 X191.75 Y165.999 E173.28085
G1 X191.703 Y166.696 E173.32149
G1 X191.577 Y167.337 E173.3595
G1 X191.355 Y167.999 E173.40015
G1 X191.057 Y168.606 E173.43952
G1 X190.671 Y169.186 E173.48006
G1 X190.228 Y169.695 E173.5193
G1 X189.679 Y170.177 E173.56182
G1 X189.105 Y170.557 E173.60189
G1 X188.492 Y170.856 E173.6416
G1 X187.871 Y171.068 E173.67981
G1 X187.195 Y171.203 E173.71987
G1 X186.499 Y171.25 E173.76049
G1 X43.503 Y171.25 E182.08214
G1 X42.828 Y171.206 E182.12152
G1 X42.153 Y171.075 E182.1615
G1 X41.508 Y170.856 E182.20113
G1 X40.893 Y170.557 E182.24093
G1 X40.295 Y170.157 E182.28281
G1 X39.78 Y169.703 E182.32277
G1 X39.327 Y169.186 E182.36278
G1 X38.949 Y168.616 E182.40258
G1 X38.641 Y167.988 E182.44329
G1 X38.432 Y167.371 E182.48119
G1 X38.299 Y166.705 E182.52073
G1 X38.25 Y165.999 E182.56191
G1 X38.25 Y59.022 E188.78744
G1 X38.288 Y58.93 E188.79323
G1 X38.387 Y58.831 E188.80139
M204 S2500
G1 X38.9 Y59.401 F7200
M204 S2000
;TYPE:External perimeter
G1 F3000
G1 X191.1 Y59.401 E197.65866
G1 X191.1 Y165.988 E203.86145
G1 X191.059 Y166.6 E203.89719
G1 X190.941 Y167.192 E203.9323
G1 X190.749 Y167.762 E203.96729
G1 X190.483 Y168.3 E204.00222
G1 X190.148 Y168.799 E204.0372
G1 X189.752 Y169.252 E204.07221
G1 X189.3 Y169.649 E204.10723
G1 X188.798 Y169.984 E204.14234
G1 X188.258 Y170.249 E204.17734
G1 X187.69 Y170.444 E204.2123
G1 X187.1 Y170.559 E204.24727
G1 X186.487 Y170.599 E204.28303
G1 X43.511 Y170.599 E212.60352
G1 X42.9 Y170.56 E212.63917
G1 X42.31 Y170.444 E212.67416
G1 X41.74 Y170.249 E212.70922
G1 X41.2 Y169.984 E212.74419
G1 X40.7 Y169.649 E212.77921
G1 X40.247 Y169.252 E212.81427
G1 X39.85 Y168.799 E212.84933
G1 X39.517 Y168.3 E212.88422
G1 X39.25 Y167.761 E212.91921
G1 X39.057 Y167.192 E212.95421
G1 X38.941 Y166.601 E212.98926
G1 X38.9 Y165.988 E213.02503
G1 X38.9 Y59.461 E219.22433
M204 S2500
G1 X39.246 Y59.601 F7200
G1 X39.4 Y59.901
M204 S2000
;TYPE:Perimeter
G1 F3000
G1 X190.6 Y59.901 E228.02342
G1 X190.6 Y165.971 E234.19614
G1 X190.562 Y166.534 E234.22901
G1 X190.457 Y167.063 E234.26039
G1 X190.286 Y167.571 E234.29156
G1 X190.05 Y168.049 E234.32258
G1 X189.751 Y168.494 E234.35379
G1 X189.398 Y168.898 E234.38503
G1 X188.995 Y169.251 E234.4162
G1 X188.548 Y169.549 E234.44747
G1 X188.066 Y169.786 E234.47872
G1 X187.56 Y169.96 E234.50984
G1 X187.036 Y170.063 E234.54094
G1 X186.471 Y170.099 E234.57388
G1 X43.527 Y170.099 E242.89249
G1 X42.964 Y170.063 E242.92532
G1 X42.439 Y169.96 E242.95645
G1 X41.931 Y169.786 E242.98768
G1 X41.451 Y169.55 E243.01886
G1 X41.005 Y169.252 E243.05003
G1 X40.602 Y168.897 E243.0813
G1 X40.247 Y168.494 E243.11255
G1 X39.951 Y168.05 E243.14364
G1 X39.713 Y167.57 E243.17481
G1 X39.542 Y167.063 E243.20593
G1 X39.438 Y166.536 E243.23721
G1 X39.4 Y165.971 E243.27016
G1 X39.4 Y59.961 E249.43939
M204 S2500
G1 X39.9 Y60.401 F7200
M204 S2000
G1 F3000
G1 X190.1 Y60.401 E258.18029
G1 X190.1 Y165.954 E264.32294
G1 X190.065 Y166.468 E264.35295
G1 X189.973 Y166.934 E264.38059
G1 X189.823 Y167.379 E264.40793
G1 X189.616 Y167.797 E264.43506
G1 X189.353 Y168.189 E264.4625
G1 X189.043 Y168.544 E264.48997
G1 X188.69 Y168.854 E264.51728
G1 X188.298 Y169.115 E264.54471
G1 X187.874 Y169.324 E264.5722
G1 X187.43 Y169.476 E264.5995
G1 X186.971 Y169.566 E264.62671
G1 X186.455 Y169.599 E264.65684
G1 X43.543 Y169.599 E272.97358
G1 X43.029 Y169.566 E273.00358
G1 X42.569 Y169.476 E273.03085
G1 X42.123 Y169.323 E273.05825
G1 X41.701 Y169.116 E273.08564
G1 X41.311 Y168.855 E273.11297
G1 X40.956 Y168.543 E273.14044
G1 X40.645 Y168.189 E273.16788
G1 X40.384 Y167.799 E273.19517
G1 X40.176 Y167.378 E273.22252
G1 X40.026 Y166.934 E273.24977
G1 X39.935 Y166.47 E273.27728
G1 X39.9 Y165.954 E273.3074
G1 X39.9 Y60.461 E279.44656
M204 S2500
G1 E278.04656 F4800
;WIPE_START
G1 F5760
G1 X40.62 Y60.461 E277.47656
;WIPE_END
G1 E277.44656 F4800
G92 E0
G1 X44.456 Y167.095 F7200
G1 E2 F4800
M204 S2000
;TYPE:External perimeter
G1 F3000
G1 X44 Y167.16 E2.02682
G1 X43.572 Y167.107 E2.05192
G1 X43.173 Y166.94 E2.07709
G1 X42.831 Y166.676 E2.10225
G1 X42.569 Y166.335 E2.12726
G1 X42.403 Y165.937 E2.15238
G1 X42.344 Y165.509 E2.17749
G1 X42.403 Y165.077 E2.20285
G1 X42.569 Y164.679 E2.22798
G1 X42.832 Y164.336 E2.25311
G1 X43.178 Y164.075 E2.27834
G1 X43.597 Y163.908 E2.30461
G1 X44 Y163.853 E2.32827
G1 X44.428 Y163.912 E2.35341
G1 X44.825 Y164.078 E2.37845
G1 X45.166 Y164.336 E2.40335
G1 X45.431 Y164.678 E2.4285
G1 X45.598 Y165.079 E2.45377
G1 X45.653 Y165.509 E2.47904
G1 X45.598 Y165.936 E2.50406
G1 X45.431 Y166.336 E2.52931
G1 X45.167 Y166.676 E2.55434
G1 X44.837 Y166.932 E2.57868
G1 X44.511 Y167.071 E2.59925
M204 S2500
G1 X44.357 Y167.482 F7200
G1 X44.607 Y167.574
M204 S2000
;TYPE:Perimeter
G1 F3000
G1 X44.559 Y167.594 E2.60232
G1 X44 Y167.664 E2.63506
G1 X43.442 Y167.595 E2.66778
G1 X42.92 Y167.375 E2.70076
G1 X42.474 Y167.032 E2.7335
G1 X42.133 Y166.588 E2.76612
G1 X41.916 Y166.069 E2.79882
G1 X41.84 Y165.51 E2.83168
G1 X41.916 Y164.946 E2.86481
G1 X42.133 Y164.426 E2.89756
G1 X42.477 Y163.978 E2.93044
G1 X42.931 Y163.636 E2.96352
G1 X43.469 Y163.421 E2.99726
G1 X44 Y163.349 E3.02846
G1 X44.56 Y163.425 E3.06136
G1 X45.077 Y163.641 E3.09392
G1 X45.521 Y163.978 E3.12636
G1 X45.866 Y164.424 E3.15921
G1 X46.085 Y164.948 E3.19225
G1 X46.157 Y165.51 E3.2252
G1 X46.085 Y166.067 E3.25788
G1 X45.866 Y166.59 E3.29088
G1 X45.523 Y167.032 E3.32346
G1 X45.092 Y167.367 E3.35523
G1 X44.662 Y167.55 E3.38242
M204 S2500
G1 X44.791 Y168.039 F7200
M204 S2000
G1 F3000
G1 X44.69 Y168.082 E3.38878
G1 X44.001 Y168.168 E3.42921
G1 X43.312 Y168.083 E3.46956
G1 X42.666 Y167.811 E3.51033
G1 X42.117 Y167.389 E3.55066
G1 X41.696 Y166.84 E3.59088
G1 X41.43 Y166.201 E3.63117
G1 X41.335 Y165.51 E3.67178
G1 X41.429 Y164.814 E3.71268
G1 X41.696 Y164.174 E3.75304
G1 X42.121 Y163.62 E3.79367
G1 X42.683 Y163.196 E3.8346
G1 X43.341 Y162.934 E3.87582
G1 X44.001 Y162.844 E3.91456
G1 X44.693 Y162.939 E3.95522
G1 X45.328 Y163.204 E3.9953
G1 X45.875 Y163.62 E4.03528
G1 X46.302 Y164.17 E4.07582
G1 X46.572 Y164.818 E4.11664
G1 X46.662 Y165.51 E4.15727
G1 X46.572 Y166.197 E4.19761
G1 X46.302 Y166.844 E4.23836
G1 X45.88 Y167.389 E4.27849
G1 X45.348 Y167.801 E4.31768
G1 X44.846 Y168.015 E4.34943
M204 S2500
G1 E2.94943 F4800
;WIPE_START
G1 F5760
G1 X44.69 Y168.082 E2.81547
G1 X44.143 Y168.15 E2.37943
;WIPE_END
G1 E2.34943 F4800
G92 E0
G1 X69.185 Y143.753 F7200
G1 E2 F4800
M204 S2000
;TYPE:External perimeter
G1 F3000
G1 X69.17 Y143.637 E2.00682
G1 X69.262 Y143.65 E2.0122
G1 X69.262 Y143.152 E2.04116
G1 X69.525 Y142.174 E2.1001
G1 X70.032 Y141.299 E2.15896
G1 X70.749 Y140.585 E2.21782
G1 X71.626 Y140.078 E2.27677
G1 X72.604 Y139.817 E2.33569
G1 X73.615 Y139.819 E2.39455
G1 X74.593 Y140.082 E2.45347
G1 X75.468 Y140.589 E2.51232
G1 X76.182 Y141.306 E2.57119
G1 X76.689 Y142.183 E2.63012
G1 X76.873 Y142.871 E2.6716
G1 X76.939 Y142.885 E2.67551
G1 X77.923 Y150.565 E3.12611
G1 X77.846 Y150.576 E3.1306
G1 X77.844 Y151.189 E3.16628
G1 X77.578 Y152.167 E3.22523
G1 X77.069 Y153.04 E3.28404
G1 X76.353 Y153.752 E3.34281
G1 X75.475 Y154.256 E3.4017
G1 X74.495 Y154.515 E3.46071
G1 X73.484 Y154.511 E3.51958
