; generated by PrusaSlicer 2.6.0+MacOS-x64 on 2023-08-07 at 03:22:15 UTC

; 

; external perimeters extrusion width = 0.45mm
; perimeters extrusion width = 0.40mm
; infill extrusion width = 0.45mm
; solid infill extrusion width = 0.50mm
; top infill extrusion width = 0.45mm
; first layer extrusion width = 0.56mm

M201 X2500 Y2500 Z800 E2500 ; sets maximum accelerations, mm/sec^2
M203 X300 Y250 Z8 E80 ; sets maximum feedrates, mm / sec
M204 S2500 T2500 ; sets acceleration (S) and retract acceleration (R), mm/sec^2
M205 X15.00 Y10.00 Z2.00 E10.00 ; sets the jerk limits, mm/sec
M205 S0 T0 ; sets the minimum extruding and travel feed rate, mm/sec
;TYPE:Custom
G90 ; use absolute coordinates
M83 ; extruder relative mode
M104 S215 ; set extruder temp
M140 S60 ; set bed temp
M190 S60 ; wait for bed temp
M109 S215 ; wait for extruder temp
G28                                        ; move X/Y/Z to min endstops
G1 Z0.28                                   ; lift nozzle a bit 
G92 E0 
G1 Y3 F1800                                    ; zero the extruded length 
G1 X60  E25 F500                       ; Extrude 25mm of filament in a 5cm line. 
G92 E0                                     ; zero the extruded length again 
G1 E-2 F500                                ; Retract a little 
G1 X70 F4000                              ; Quickly wipe away from the filament line
M117
G21 ; set units to millimeters
G90 ; use absolute coordinates
M82 ; use absolute distances for extrusion
G92 E0
M107
;LAYER_CHANGE
;Z:0.28
;HEIGHT:0.28
; BEFORE_LAYER_CHANGE 0 @ 0.28mm
G1 E-2 F4800
G92 E0
G1 Z.28 F7200
; AFTER_LAYER_CHANGE 0 @ 0.28mm
G1 X139.6 Y139.6
G1 E2 F4800
M204 S2000
;TYPE:External perimeter
;WIDTH:0.56
G1 F3000
G1 X90.4 Y139.6 E4.86319
G1 X90.4 Y90.4 E7.72638
G1 X139.6 Y90.4 E10.58957
G1 X139.6 Y139.54 E13.44927
M204 S2500
G1 X139.214 Y139.496 F7200
G1 X139.1 Y139.1
M204 S2000
;TYPE:Perimeter
G1 F3000
G1 X90.9 Y139.1 E16.25427
G1 X90.9 Y90.9 E19.05927
G1 X139.1 Y90.9 E21.86427
G1 X139.1 Y139.04 E24.66577
M204 S2500
G1 X138.6 Y138.6 F7200
M204 S2000
G1 F3000
G1 X91.4 Y138.6 E27.41257
G1 X91.4 Y91.4 E30.15937
G1 X138.6 Y91.4 E32.90617
G1 X138.6 Y138.54 E35.64948
M204 S2500
G1 E34.24948 F4800
;WIPE_START
G1 F5760
G1 X137.842 Y138.541 E33.64948
;WIPE_END
G92 E0
G1 X137.385 Y91.6 F7200
G1 E2 F4800
M204 S2000
;TYPE:Solid infill
;WIDTH:0.562032
G1 F3000
G1 X138.175 Y92.39 E2.06528
G1 X138.175 Y93.1 E2.10677
G1 X136.9 Y91.825 E2.21213
G1 X136.191 Y91.825 E2.25356
G1 X138.175 Y93.809 E2.41751
G1 X138.175 Y94.519 E2.459
G1 X135.481 Y91.825 E2.68162
G1 X134.771 Y91.825 E2.72311
G1 X138.175 Y95.229 E3.0044
G1 X138.175 Y95.939 E3.04589
G1 X134.061 Y91.825 E3.38585
G1 X133.351 Y91.825 E3.42734
G1 X138.175 Y96.649 E3.82597
G1 X138.175 Y97.359 E3.86746
G1 X132.641 Y91.825 E4.32476
G1 X131.931 Y91.825 E4.36625
G1 X138.175 Y98.069 E4.88222
G1 X138.175 Y98.778 E4.92365
G1 X131.222 Y91.825 E5.49821
G1 X130.512 Y91.825 E5.5397
G1 X138.175 Y99.488 E6.17293
G1 X138.175 Y100.198 E6.21442
G1 X129.802 Y91.825 E6.90632
G1 X129.092 Y91.825 E6.94781
G1 X138.175 Y100.908 E7.69838
G1 X138.175 Y101.618 E7.73987
G1 X128.382 Y91.825 E8.54911
G1 X127.672 Y91.825 E8.5906
G1 X138.175 Y102.328 E9.45851
G1 X138.175 Y103.038 E9.5
G1 X126.962 Y91.825 E10.42658
G1 X126.253 Y91.825 E10.46801
G1 X138.175 Y103.747 E11.45318
G1 X138.175 Y104.457 E11.49467
G1 X125.543 Y91.825 E12.53851
G1 X124.833 Y91.825 E12.58
G1 X138.175 Y105.167 E13.68251
G1 X138.175 Y105.877 E13.724
G1 X124.123 Y91.825 E14.88518
G1 X123.413 Y91.825 E14.92667
G1 X138.175 Y106.587 E16.14652
G1 X138.175 Y107.297 E16.18801
G1 X122.703 Y91.825 E17.46653
G1 X121.994 Y91.825 E17.50796
G1 X138.175 Y108.006 E18.84507
G1 X138.175 Y108.716 E18.88656
G1 X121.284 Y91.825 E20.28234
G1 X120.574 Y91.825 E20.32383
G1 X138.175 Y109.426 E21.77828
G1 X138.175 Y110.136 E21.81977
G1 X119.864 Y91.825 E23.33289
G1 X119.154 Y91.825 E23.37438
G1 X138.175 Y110.846 E24.94617
G1 X138.175 Y111.556 E24.98766
G1 X118.444 Y91.825 E26.61812
G1 X117.734 Y91.825 E26.65961
G1 X138.175 Y112.266 E28.34874
G1 X138.175 Y112.975 E28.39017
G1 X117.025 Y91.825 E30.13789
G1 X116.315 Y91.825 E30.17938
G1 X138.175 Y113.685 E31.98577
G1 X138.175 Y114.395 E32.02726
G1 X115.605 Y91.825 E33.89232
G1 X114.895 Y91.825 E33.93381
G1 X138.175 Y115.105 E35.85754
G1 X138.175 Y115.815 E35.89903
G1 X114.185 Y91.825 E37.88143
G1 X113.475 Y91.825 E37.92292
G1 X138.175 Y116.525 E39.96399
G1 X138.175 Y117.235 E40.00548
G1 X112.765 Y91.825 E42.10522
G1 X112.056 Y91.825 E42.14665
G1 X138.175 Y117.944 E44.30498
G1 X138.175 Y118.654 E44.34647
G1 X111.346 Y91.825 E46.56347
G1 X110.636 Y91.825 E46.60496
G1 X138.175 Y119.364 E48.88063
G1 X138.175 Y120.074 E48.92212
G1 X109.926 Y91.825 E51.25646
G1 X109.216 Y91.825 E51.29795
G1 X138.175 Y120.784 E53.69096
G1 X138.175 Y121.494 E53.73245
G1 X108.506 Y91.825 E56.18413
G1 X107.796 Y91.825 E56.22562
G1 X138.175 Y122.204 E58.73597
G1 X138.175 Y122.913 E58.7774
G1 X107.087 Y91.825 E61.34634
G1 X106.377 Y91.825 E61.38783
G1 X138.175 Y123.623 E64.01544
G1 X138.175 Y124.333 E64.05693
G1 X105.667 Y91.825 E66.74321
G1 X104.957 Y91.825 E66.7847
G1 X138.175 Y125.043 E69.52965
G1 X138.175 Y125.753 E69.57114
G1 X104.247 Y91.825 E72.37476
G1 X103.537 Y91.825 E72.41625
G1 X138.175 Y126.463 E75.27854
G1 X138.175 Y127.173 E75.32003
G1 X102.827 Y91.825 E78.24099
G1 X102.118 Y91.825 E78.28242
G1 X138.175 Y127.882 E81.26197
G1 X138.175 Y128.592 E81.30346
G1 X101.408 Y91.825 E84.34168
G1 X100.698 Y91.825 E84.38317
G1 X138.175 Y129.302 E87.48006
G1 X138.175 Y130.012 E87.52155
G1 X99.988 Y91.825 E90.67711
G1 X99.278 Y91.825 E90.7186
G1 X138.175 Y130.722 E93.93283
G1 X138.175 Y131.432 E93.97432
G1 X98.568 Y91.825 E97.24723
G1 X97.858 Y91.825 E97.28872
G1 X138.175 Y132.142 E100.6203
G1 X138.175 Y132.851 E100.66173
G1 X97.149 Y91.825 E104.05189
G1 X96.439 Y91.825 E104.09338
G1 X138.175 Y133.561 E107.54221
G1 X138.175 Y134.271 E107.5837
G1 X95.729 Y91.825 E111.0912
G1 X95.019 Y91.825 E111.13269
G1 X138.175 Y134.981 E114.69886
G1 X138.175 Y135.691 E114.74035
G1 X94.309 Y91.825 E118.3652
G1 X93.599 Y91.825 E118.40669
G1 X138.175 Y136.401 E122.09021
G1 X138.175 Y137.111 E122.1317
G1 X92.889 Y91.825 E125.87389
G1 X92.18 Y91.825 E125.91532
G1 X138.175 Y137.82 E129.71609
G1 X138.175 Y138.175 E129.73683
G1 X137.82 Y138.175 E129.75757
G1 X91.825 Y92.18 E133.55834
G1 X91.825 Y92.89 E133.59983
G1 X137.11 Y138.175 E137.34193
G1 X136.401 Y138.175 E137.38336
G1 X91.825 Y93.599 E141.06688
G1 X91.825 Y94.309 E141.10837
G1 X135.691 Y138.175 E144.73322
G1 X134.981 Y138.175 E144.77471
G1 X91.825 Y95.019 E148.34088
G1 X91.825 Y95.729 E148.38237
G1 X134.271 Y138.175 E151.88987
G1 X133.561 Y138.175 E151.93136
G1 X91.825 Y96.439 E155.38019
G1 X91.825 Y97.149 E155.42168
G1 X132.851 Y138.175 E158.81184
G1 X132.141 Y138.175 E158.85333
G1 X91.825 Y97.859 E162.18482
G1 X91.825 Y98.568 E162.22625
G1 X131.432 Y138.175 E165.49916
G1 X130.722 Y138.175 E165.54065
G1 X91.825 Y99.278 E168.75488
G1 X91.825 Y99.988 E168.79637
G1 X130.012 Y138.175 E171.95193
G1 X129.302 Y138.175 E171.99342
G1 X91.825 Y100.698 E175.09031
G1 X91.825 Y101.408 E175.1318
G1 X128.592 Y138.175 E178.17002
G1 X127.882 Y138.175 E178.21151
G1 X91.825 Y102.118 E181.19106
G1 X91.825 Y102.828 E181.23255
G1 X127.172 Y138.175 E184.15343
G1 X126.463 Y138.175 E184.19486
G1 X91.825 Y103.537 E187.05715
G1 X91.825 Y104.247 E187.09864
G1 X125.753 Y138.175 E189.90226
G1 X125.043 Y138.175 E189.94375
G1 X91.825 Y104.957 E192.6887
G1 X91.825 Y105.667 E192.73019
G1 X124.333 Y138.175 E195.41647
G1 X123.623 Y138.175 E195.45796
G1 X91.825 Y106.377 E198.08557
G1 X91.825 Y107.087 E198.12706
G1 X122.913 Y138.175 E200.696
G1 X122.203 Y138.175 E200.73749
G1 X91.825 Y107.797 E203.24776
G1 X91.825 Y108.506 E203.28919
G1 X121.494 Y138.175 E205.74087
G1 X120.784 Y138.175 E205.78236
G1 X91.825 Y109.216 E208.17537
G1 X91.825 Y109.926 E208.21686
G1 X120.074 Y138.175 E210.5512
G1 X119.364 Y138.175 E210.59269
G1 X91.825 Y110.636 E212.86836
G1 X91.825 Y111.346 E212.90985
G1 X118.654 Y138.175 E215.12685
G1 X117.944 Y138.175 E215.16834
G1 X91.825 Y112.056 E217.32667
G1 X91.825 Y112.766 E217.36816
G1 X117.234 Y138.175 E219.46782
G1 X116.525 Y138.175 E219.50925
G1 X91.825 Y113.475 E221.55032
G1 X91.825 Y114.185 E221.59181
G1 X115.815 Y138.175 E223.57421
G1 X115.105 Y138.175 E223.6157
G1 X91.825 Y114.895 E225.53943
G1 X91.825 Y115.605 E225.58092
G1 X114.395 Y138.175 E227.44598
G1 X113.685 Y138.175 E227.48747
G1 X91.825 Y116.315 E229.29386
G1 X91.825 Y117.025 E229.33535
G1 X112.975 Y138.175 E231.08307
G1 X112.266 Y138.175 E231.1245
G1 X91.825 Y117.734 E232.81363
G1 X91.825 Y118.444 E232.85512
G1 X111.556 Y138.175 E234.48558
G1 X110.846 Y138.175 E234.52707
G1 X91.825 Y119.154 E236.09886
G1 X91.825 Y119.864 E236.14035
G1 X110.136 Y138.175 E237.65347
G1 X109.426 Y138.175 E237.69496
G1 X91.825 Y120.574 E239.14941
G1 X91.825 Y121.284 E239.1909
G1 X108.716 Y138.175 E240.58668
G1 X108.006 Y138.175 E240.62817
G1 X91.825 Y121.994 E241.96528
G1 X91.825 Y122.703 E242.00671
G1 X107.297 Y138.175 E243.28523
G1 X106.587 Y138.175 E243.32672
G1 X91.825 Y123.413 E244.54657
G1 X91.825 Y124.123 E244.58806
G1 X105.877 Y138.175 E245.74924
G1 X105.167 Y138.175 E245.79073
G1 X91.825 Y124.833 E246.89324
G1 X91.825 Y125.543 E246.93473
G1 X104.457 Y138.175 E247.97857
G1 X103.747 Y138.175 E248.02006
G1 X91.825 Y126.253 E249.00523
G1 X91.825 Y126.963 E249.04672
G1 X103.037 Y138.175 E249.97322
G1 X102.328 Y138.175 E250.01465
G1 X91.825 Y127.672 E250.88256
G1 X91.825 Y128.382 E250.92405
G1 X101.618 Y138.175 E251.73329
G1 X100.908 Y138.175 E251.77478
G1 X91.825 Y129.092 E252.52535
G1 X91.825 Y129.802 E252.56684
G1 X100.198 Y138.175 E253.25874
G1 X99.488 Y138.175 E253.30023
G1 X91.825 Y130.512 E253.93346
G1 X91.825 Y131.222 E253.97495
G1 X98.778 Y138.175 E254.54951
G1 X98.068 Y138.175 E254.591
G1 X91.825 Y131.932 E255.10689
G1 X91.825 Y132.641 E255.14832
G1 X97.359 Y138.175 E255.60562
G1 X96.649 Y138.175 E255.64711
G1 X91.825 Y133.351 E256.04574
G1 X91.825 Y134.061 E256.08723
G1 X95.939 Y138.175 E256.42719
G1 X95.229 Y138.175 E256.46868
G1 X91.825 Y134.771 E256.74997
G1 X91.825 Y135.481 E256.79146
G1 X94.519 Y138.175 E257.01408
G1 X93.809 Y138.175 E257.05557
G1 X91.825 Y136.191 E257.21952
G1 X91.825 Y136.901 E257.26101
G1 X93.099 Y138.175 E257.36629
G1 X92.39 Y138.175 E257.40772
G1 X91.6 Y137.385 E257.473
M204 S2500
;LAYER_CHANGE
;Z:0.48
;HEIGHT:0.2
; BEFORE_LAYER_CHANGE 1 @ 0.48mm
G1 E256.073 F4800
;WIPE_START
G1 F5760
G1 X92.136 Y137.921 E255.473
;WIPE_END
G92 E0
G1 Z.48 F7200
; AFTER_LAYER_CHANGE 1 @ 0.48mm
M104 S190 ; set temperature
G1 X139.755 Y139.755
G1 E2 F4800
;TYPE:External perimeter
;WIDTH:0.45
G1 X90.245 Y139.755 E3.67585
G1 X90.245 Y90.245 E5.3517
G1 X139.755 Y90.245 E7.02755
G1 X139.755 Y139.695 E8.70137
G1 X139.369 Y139.651 F7200
G1 X139.373 Y139.373
;TYPE:Perimeter
;WIDTH:0.4
G1 F9000
G1 X90.627 Y139.373 E10.1487
G1 X90.627 Y90.627 E11.59603
G1 X139.373 Y90.627 E13.04336
G1 X139.373 Y139.313 E14.48891
G1 X139.016 Y139.016 F7200
G1 F9000
G1 X90.984 Y139.016 E15.91504
G1 X90.984 Y90.984 E17.34117
G1 X139.016 Y90.984 E18.7673
G1 X139.016 Y138.956 E20.19165
G1 E18.79165 F4800
;WIPE_START
G1 F5760
G1 X138.258 Y138.957 E18.19165
;WIPE_END
G92 E0
G1 X91.454 Y91.367 F7200
G1 E2 F4800
;TYPE:Solid infill
;WIDTH:0.610898
G1 F9000
G1 X91.404 Y91.317 E2.00334
G1 X91.335 Y91.335 E2.00671
G1 X91.317 Y91.404 E2.01008
G1 X91.367 Y91.454 E2.01342
G1 X91.436 Y91.436 E2.01679
;WIDTH:0.499999
G1 X91.33 Y92.166 E2.04483
G1 X92.166 Y91.33 E2.08976
G1 X92.812 Y91.33 E2.11431
G1 X91.33 Y92.812 E2.19397
G1 X91.33 Y93.459 E2.21856
G1 X93.459 Y91.33 E2.33299
G1 X94.105 Y91.33 E2.35754
G1 X91.33 Y94.105 E2.50669
G1 X91.33 Y94.752 E2.53128
G1 X94.752 Y91.33 E2.71521
G1 X95.398 Y91.33 E2.73976
G1 X91.33 Y95.398 E2.95841
G1 X91.33 Y96.044 E2.98296
G1 X96.044 Y91.33 E3.23633
G1 X96.691 Y91.33 E3.26092
G1 X91.33 Y96.691 E3.54907
G1 X91.33 Y97.337 E3.57362
G1 X97.337 Y91.33 E3.89649
G1 X97.984 Y91.33 E3.92108
G1 X91.33 Y97.984 E4.27873
G1 X91.33 Y98.63 E4.30328
G1 X98.63 Y91.33 E4.69565
G1 X99.276 Y91.33 E4.7202
G1 X91.33 Y99.276 E5.14729
G1 X91.33 Y99.923 E5.17188
G1 X99.923 Y91.33 E5.63375
G1 X100.569 Y91.33 E5.6583
G1 X91.33 Y100.569 E6.15489
G1 X91.33 Y101.216 E6.17948
G1 X101.216 Y91.33 E6.71084
G1 X101.862 Y91.33 E6.73539
G1 X91.33 Y101.862 E7.30147
G1 X91.33 Y102.508 E7.32602
G1 X102.508 Y91.33 E7.92683
G1 X103.155 Y91.33 E7.95142
G1 X91.33 Y103.155 E8.587
G1 X91.33 Y103.801 E8.61155
G1 X103.801 Y91.33 E9.28185
G1 X104.448 Y91.33 E9.30644
G1 X91.33 Y104.448 E10.01152
G1 X91.33 Y105.094 E10.03607
G1 X105.094 Y91.33 E10.77587
G1 X105.74 Y91.33 E10.80042
G1 X91.33 Y105.74 E11.57494
G1 X91.33 Y106.387 E11.59953
G1 X106.387 Y91.33 E12.40883
G1 X107.033 Y91.33 E12.43338
G1 X91.33 Y107.033 E13.2774
G1 X91.33 Y107.68 E13.30199
G1 X107.68 Y91.33 E14.18079
G1 X108.326 Y91.33 E14.20534
G1 X91.33 Y108.326 E15.11886
G1 X91.33 Y108.972 E15.14341
G1 X108.973 Y91.33 E16.09168
G1 X109.619 Y91.33 E16.11623
G1 X91.33 Y109.619 E17.09925
G1 X91.33 Y110.265 E17.1238
G1 X110.265 Y91.33 E18.14154
G1 X110.912 Y91.33 E18.16613
G1 X91.33 Y110.912 E19.21864
G1 X91.33 Y111.558 E19.24319
G1 X111.558 Y91.33 E20.33042
G1 X112.205 Y91.33 E20.35501
G1 X91.33 Y112.205 E21.47702
G1 X91.33 Y112.851 E21.50157
G1 X112.851 Y91.33 E22.6583
G1 X113.497 Y91.33 E22.68285
G1 X91.33 Y113.497 E23.8743
G1 X91.33 Y114.144 E23.89889
G1 X114.144 Y91.33 E25.12512
G1 X114.79 Y91.33 E25.14967
G1 X91.33 Y114.79 E26.41062
G1 X91.33 Y115.437 E26.43521
G1 X115.437 Y91.33 E27.73094
G1 X116.083 Y91.33 E27.75549
G1 X91.33 Y116.083 E29.08594
G1 X91.33 Y116.729 E29.11049
G1 X116.729 Y91.33 E30.47566
G1 X117.376 Y91.33 E30.50025
G1 X91.33 Y117.376 E31.9002
G1 X91.33 Y118.022 E31.92475
G1 X118.022 Y91.33 E33.35942
G1 X118.669 Y91.33 E33.38401
G1 X91.33 Y118.669 E34.85345
G1 X91.33 Y119.315 E34.878
G1 X119.315 Y91.33 E36.38217
G1 X119.961 Y91.33 E36.40672
G1 X91.33 Y119.961 E37.94561
G1 X91.33 Y120.608 E37.9702
G1 X120.608 Y91.33 E39.54386
G1 X121.254 Y91.33 E39.56841
G1 X91.33 Y121.254 E41.17679
G1 X91.33 Y121.901 E41.20138
G1 X121.901 Y91.33 E42.84454
G1 X122.547 Y91.33 E42.86909
G1 X91.33 Y122.547 E44.54697
G1 X91.33 Y123.193 E44.57152
G1 X123.193 Y91.33 E46.28412
G1 X123.84 Y91.33 E46.30871
G1 X91.33 Y123.84 E48.05609
G1 X91.33 Y124.486 E48.08064
G1 X124.486 Y91.33 E49.86274
G1 X125.133 Y91.33 E49.88733
G1 X91.33 Y125.133 E51.70421
G1 X91.33 Y125.779 E51.72876
G1 X125.779 Y91.33 E53.58036
G1 X126.426 Y91.33 E53.60495
G1 X91.33 Y126.425 E55.4913
G1 X91.33 Y127.072 E55.51589
G1 X127.072 Y91.33 E57.43699
G1 X127.718 Y91.33 E57.46154
G1 X91.33 Y127.718 E59.41736
G1 X91.33 Y128.365 E59.44195
G1 X128.365 Y91.33 E61.43254
G1 X129.011 Y91.33 E61.45709
G1 X91.33 Y129.011 E63.48241
G1 X91.33 Y129.658 E63.507
G1 X129.658 Y91.33 E65.56709
G1 X130.304 Y91.33 E65.59164
G1 X91.33 Y130.304 E67.68645
G1 X91.33 Y130.95 E67.711
G1 X130.95 Y91.33 E69.84053
G1 X131.597 Y91.33 E69.86512
G1 X91.33 Y131.597 E72.02943
G1 X91.33 Y132.243 E72.05398
G1 X132.243 Y91.33 E74.25301
G1 X132.89 Y91.33 E74.2776
G1 X91.33 Y132.89 E76.51141
G1 X91.33 Y133.536 E76.53596
G1 X133.536 Y91.33 E78.80449
G1 X134.182 Y91.33 E78.82904
G1 X91.33 Y134.182 E81.13229
G1 X91.33 Y134.829 E81.15688
G1 X134.829 Y91.33 E83.49491
G1 X135.475 Y91.33 E83.51946
G1 X91.33 Y135.475 E85.89221
G1 X91.33 Y136.122 E85.9168
G1 X136.122 Y91.33 E88.32432
G1 X136.768 Y91.33 E88.34887
G1 X91.33 Y136.768 E90.79112
G1 X91.33 Y137.414 E90.81567
G1 X137.414 Y91.33 E93.29264
G1 X138.061 Y91.33 E93.31723
G1 X91.33 Y138.061 E95.82897
G1 X91.368 Y138.67 E95.85216
G1 X138.67 Y91.368 E98.39459
G1 X138.67 Y92.014 E98.41914
G1 X92.014 Y138.67 E100.92685
G1 X92.66 Y138.67 E100.9514
G1 X138.67 Y92.66 E103.42439
G1 X138.67 Y93.307 E103.44898
G1 X93.307 Y138.67 E105.8872
G1 X93.953 Y138.67 E105.91175
G1 X138.67 Y93.953 E108.31524
G1 X138.67 Y94.6 E108.33983
G1 X94.6 Y138.67 E110.70855
G1 X95.246 Y138.67 E110.7331
G1 X138.67 Y95.246 E113.0671
G1 X138.67 Y95.892 E113.09165
G1 X95.892 Y138.67 E115.39092
G1 X96.539 Y138.67 E115.41551
