; generated by PrusaSlicer 2.6.0+MacOS-x64 on 2023-08-10 at 16:19:05 UTC

; 

; external perimeters extrusion width = 0.45mm
; perimeters extrusion width = 0.40mm
; infill extrusion width = 0.45mm
; solid infill extrusion width = 0.50mm
; top infill extrusion width = 0.45mm
; first layer extrusion width = 0.56mm

M201 X2500 Y2500 Z800 E2500 ; sets maximum accelerations, mm/sec^2
M203 X300 Y250 Z8 E80 ; sets maximum feedrates, mm / sec
M204 S2500 T2500 ; sets acceleration (S) and retract acceleration (R), mm/sec^2
M205 X15.00 Y10.00 Z2.00 E10.00 ; sets the jerk limits, mm/sec
M205 S0 T0 ; sets the minimum extruding and travel feed rate, mm/sec
;TYPE:Custom
G90 ; use absolute coordinates
M83 ; extruder relative mode
M104 S215 ; set extruder temp
M140 S65 ; set bed temp
M190 S65 ; wait for bed temp
M109 S215 ; wait for extruder temp
G28                                        ; move X/Y/Z to min endstops
G1 Z0.28                                   ; lift nozzle a bit 
G92 E0 
G1 Y3 F1800                                    ; zero the extruded length 
G1 X60  E25 F500                       ; Extrude 25mm of filament in a 5cm line. 
G92 E0                                     ; zero the extruded length again 
G1 E-2 F500                                ; Retract a little 
G1 X70 F4000                              ; Quickly wipe away from the filament line
M117
G21 ; set units to millimeters
G90 ; use absolute coordinates
M82 ; use absolute distances for extrusion
G92 E0
M107
;LAYER_CHANGE
;Z:0.28
;HEIGHT:0.28
; BEFORE_LAYER_CHANGE 0 @ 0.28mm
G1 Z.28 F7200
; AFTER_LAYER_CHANGE 0 @ 0.28mm
G1 E-2 F4800
G92 E0
G1 X102.484 Y102.484 F7200
G1 E2 F4800
M204 S2000
;TYPE:External perimeter
;WIDTH:0.56
G1 F1702
G1 X103.33 Y101.693 E2.0674
G1 X104.225 Y100.958 E2.1348
G1 X105.166 Y100.283 E2.20219
G1 X106.15 Y99.671 E2.26963
G1 X107.172 Y99.126 E2.33703
G1 X108.227 Y98.647 E2.40446
G1 X109.311 Y98.239 E2.47186
G1 X110.419 Y97.903 E2.53924
G1 X111.547 Y97.64 E2.60664
G1 X112.69 Y97.452 E2.67405
G1 X113.842 Y97.338 E2.74142
G1 X115.003 Y97.3 E2.80902
G1 X116.158 Y97.338 E2.87627
G1 X117.31 Y97.452 E2.94364
G1 X118.453 Y97.64 E3.01105
G1 X119.584 Y97.904 E3.07864
G1 X120.689 Y98.239 E3.14584
G1 X121.773 Y98.647 E3.21324
G1 X122.828 Y99.126 E3.28067
G1 X123.85 Y99.671 E3.34807
G1 X124.834 Y100.283 E3.41551
G1 X125.775 Y100.958 E3.4829
G1 X126.67 Y101.693 E3.5503
G1 X127.516 Y102.484 E3.6177
G1 X128.307 Y103.33 E3.6851
G1 X129.042 Y104.225 E3.7525
G1 X129.717 Y105.167 E3.81994
G1 X130.329 Y106.15 E3.88733
G1 X130.875 Y107.172 E3.95476
G1 X131.353 Y108.227 E4.02216
G1 X131.761 Y109.311 E4.08956
G1 X132.097 Y110.419 E4.15694
G1 X132.36 Y111.547 E4.22434
G1 X132.548 Y112.69 E4.29175
G1 X132.662 Y113.842 E4.35912
G1 X132.7 Y115 E4.42655
G1 X132.662 Y116.158 E4.49398
G1 X132.549 Y117.307 E4.56117
G1 X132.36 Y118.453 E4.62876
G1 X132.097 Y119.581 E4.69616
G1 X131.761 Y120.689 E4.76354
G1 X131.353 Y121.773 E4.83094
G1 X130.875 Y122.828 E4.89834
G1 X130.329 Y123.85 E4.96577
G1 X129.717 Y124.834 E5.03321
G1 X129.042 Y125.775 E5.1006
G1 X128.307 Y126.67 E5.168
G1 X127.516 Y127.516 E5.2354
G1 X126.67 Y128.307 E5.3028
G1 X125.775 Y129.042 E5.3702
G1 X124.834 Y129.717 E5.43759
G1 X123.85 Y130.329 E5.50503
G1 X122.828 Y130.875 E5.57246
G1 X121.773 Y131.353 E5.63986
G1 X120.686 Y131.761 E5.70743
G1 X119.581 Y132.097 E5.77464
G1 X118.453 Y132.36 E5.84204
G1 X117.31 Y132.548 E5.90945
G1 X116.158 Y132.662 E5.97682
G1 X115 Y132.7 E6.04425
G1 X113.842 Y132.662 E6.11168
G1 X112.69 Y132.548 E6.17905
G1 X111.547 Y132.36 E6.24646
G1 X110.419 Y132.097 E6.31386
G1 X109.311 Y131.761 E6.38124
G1 X108.227 Y131.353 E6.44864
G1 X107.172 Y130.875 E6.51604
G1 X106.15 Y130.329 E6.58347
G1 X105.167 Y129.717 E6.65086
G1 X104.225 Y129.042 E6.7183
G1 X103.33 Y128.307 E6.7857
G1 X102.484 Y127.516 E6.8531
G1 X101.693 Y126.67 E6.9205
G1 X100.958 Y125.775 E6.9879
G1 X100.283 Y124.833 E7.05534
G1 X99.671 Y123.85 E7.12273
G1 X99.125 Y122.828 E7.19016
G1 X98.647 Y121.773 E7.25756
G1 X98.239 Y120.689 E7.32496
G1 X97.904 Y119.584 E7.39216
G1 X97.64 Y118.453 E7.45975
G1 X97.452 Y117.31 E7.52716
G1 X97.338 Y116.158 E7.59453
G1 X97.3 Y115 E7.66196
G1 X97.338 Y113.842 E7.72939
G1 X97.451 Y112.693 E7.79658
G1 X97.64 Y111.547 E7.86417
G1 X97.903 Y110.419 E7.93157
G1 X98.239 Y109.311 E7.99895
G1 X98.647 Y108.227 E8.06635
G1 X99.126 Y107.172 E8.13378
G1 X99.671 Y106.15 E8.20118
G1 X100.283 Y105.166 E8.26862
G1 X100.958 Y104.225 E8.33601
G1 X101.69 Y103.332 E8.40321
G1 X102.443 Y102.528 E8.46731
M204 S2500
G1 X102.735 Y102.801 F7200
M204 S2000
G1 F1702
G1 X103.593 Y101.993 E8.5359
G1 X104.468 Y101.275 E8.60177
G1 X105.389 Y100.615 E8.66771
G1 X106.35 Y100.018 E8.73355
G1 X107.348 Y99.484 E8.79942
G1 X108.38 Y99.017 E8.86534
G1 X109.439 Y98.618 E8.9312
G1 X110.522 Y98.289 E8.99707
G1 X111.625 Y98.032 E9.06298
G1 X112.742 Y97.848 E9.12886
G1 X113.869 Y97.737 E9.19476
G1 X114.997 Y97.7 E9.26044
G1 X116.131 Y97.737 E9.32647
G1 X117.258 Y97.848 E9.39237
G1 X118.375 Y98.032 E9.45825
G1 X119.478 Y98.289 E9.52416
G1 X120.561 Y98.618 E9.59003
G1 X121.62 Y99.017 E9.65589
G1 X122.652 Y99.484 E9.72181
G1 X123.65 Y100.018 E9.78768
G1 X124.611 Y100.615 E9.85352
G1 X125.532 Y101.275 E9.91946
G1 X126.407 Y101.993 E9.98533
G1 X127.233 Y102.767 E10.0512
G1 X128.009 Y103.596 E10.11728
G1 X128.725 Y104.468 E10.18294
G1 X129.385 Y105.389 E10.24888
G1 X129.982 Y106.35 E10.31472
G1 X130.516 Y107.348 E10.38059
G1 X130.983 Y108.38 E10.44651
G1 X131.383 Y109.442 E10.51255
G1 X131.711 Y110.522 E10.57824
G1 X131.968 Y111.625 E10.64415
G1 X132.152 Y112.742 E10.71003
G1 X132.263 Y113.869 E10.77593
G1 X132.3 Y115 E10.84178
G1 X132.263 Y116.131 E10.90763
G1 X132.152 Y117.258 E10.97353
G1 X131.968 Y118.375 E11.03941
G1 X131.711 Y119.478 E11.10532
G1 X131.382 Y120.561 E11.17119
G1 X130.983 Y121.62 E11.23705
G1 X130.516 Y122.652 E11.30297
G1 X129.982 Y123.65 E11.36884
G1 X129.385 Y124.611 E11.43468
G1 X128.725 Y125.532 E11.50062
G1 X128.007 Y126.407 E11.56649
G1 X127.233 Y127.233 E11.63236
G1 X126.407 Y128.007 E11.69823
G1 X125.532 Y128.725 E11.7641
G1 X124.611 Y129.385 E11.83004
G1 X123.65 Y129.982 E11.89588
G1 X122.652 Y130.516 E11.96175
G1 X121.62 Y130.983 E12.02767
G1 X120.561 Y131.382 E12.09353
G1 X119.478 Y131.711 E12.1594
G1 X118.375 Y131.968 E12.22531
G1 X117.258 Y132.152 E12.29119
G1 X116.131 Y132.263 E12.35709
G1 X115 Y132.3 E12.42294
G1 X113.869 Y132.263 E12.48879
G1 X112.742 Y132.152 E12.55469
G1 X111.625 Y131.968 E12.62057
G1 X110.522 Y131.711 E12.68648
G1 X109.439 Y131.382 E12.75235
G1 X108.38 Y130.983 E12.81821
G1 X107.348 Y130.516 E12.88413
G1 X106.35 Y129.982 E12.95
G1 X105.389 Y129.385 E13.01584
G1 X104.468 Y128.725 E13.08178
G1 X103.593 Y128.007 E13.14765
G1 X102.767 Y127.233 E13.21352
G1 X101.991 Y126.404 E13.2796
G1 X101.275 Y125.532 E13.34526
G1 X100.615 Y124.611 E13.4112
G1 X100.016 Y123.647 E13.47725
G1 X99.484 Y122.652 E13.54291
G1 X99.017 Y121.62 E13.60883
G1 X98.617 Y120.558 E13.67487
G1 X98.289 Y119.478 E13.74056
G1 X98.032 Y118.375 E13.80647
G1 X97.848 Y117.258 E13.87235
G1 X97.737 Y116.131 E13.93825
G1 X97.7 Y115 E14.0041
G1 X97.737 Y113.865 E14.07019
G1 X97.848 Y112.742 E14.13586
G1 X98.032 Y111.625 E14.20174
G1 X98.289 Y110.522 E14.26765
G1 X98.618 Y109.439 E14.33352
G1 X99.017 Y108.38 E14.39938
G1 X99.485 Y107.346 E14.46543
G1 X100.018 Y106.35 E14.53117
G1 X100.615 Y105.389 E14.59701
G1 X101.275 Y104.468 E14.66295
G1 X101.993 Y103.593 E14.72882
G1 X102.694 Y102.845 E14.78848
M204 S2500
;LAYER_CHANGE
;Z:0.48
;HEIGHT:0.2
; BEFORE_LAYER_CHANGE 1 @ 0.48mm
G1 Z.48 F7200
; AFTER_LAYER_CHANGE 1 @ 0.48mm
M104 S195 ; set temperature
G1 X102.362 Y102.534
;WIDTH:0.45
G1 F1500
G1 X103.3 Y101.646 E14.8322
G1 X104.192 Y100.914 E14.87126
G1 X105.136 Y100.237 E14.91058
G1 X106.13 Y99.62 E14.95018
G1 X107.147 Y99.076 E14.98922
G1 X108.206 Y98.597 E15.02856
G1 X109.293 Y98.187 E15.06788
G1 X110.405 Y97.85 E15.10721
G1 X111.536 Y97.586 E15.14652
G1 X112.683 Y97.397 E15.18587
G1 X113.839 Y97.283 E15.22519
G1 X115.009 Y97.245 E15.26481
G1 X116.161 Y97.283 E15.30383
G1 X117.317 Y97.397 E15.34315
G1 X118.464 Y97.586 E15.3825
G1 X119.595 Y97.85 E15.42181
G1 X120.707 Y98.187 E15.46114
G1 X121.794 Y98.597 E15.50046
G1 X122.861 Y99.08 E15.5401
G1 X123.877 Y99.624 E15.57911
G1 X124.864 Y100.237 E15.61844
G1 X125.808 Y100.914 E15.65776
G1 X126.707 Y101.651 E15.69711
G1 X127.555 Y102.445 E15.73643
G1 X128.349 Y103.293 E15.77575
G1 X129.086 Y104.192 E15.8151
G1 X129.763 Y105.136 E15.85442
G1 X130.376 Y106.123 E15.89375
G1 X130.924 Y107.147 E15.93306
G1 X131.403 Y108.206 E15.9724
G1 X131.813 Y109.293 E16.01172
G1 X132.147 Y110.396 E16.05073
G1 X132.414 Y111.536 E16.09036
G1 X132.603 Y112.683 E16.12971
G1 X132.717 Y113.839 E16.16903
G1 X132.755 Y115 E16.20835
G1 X132.717 Y116.161 E16.24767
G1 X132.604 Y117.309 E16.28672
G1 X132.414 Y118.464 E16.32634
G1 X132.15 Y119.595 E16.36565
G1 X131.813 Y120.707 E16.40498
G1 X131.403 Y121.794 E16.4443
G1 X130.924 Y122.853 E16.48364
G1 X130.376 Y123.877 E16.52295
G1 X129.763 Y124.864 E16.56228
G1 X129.086 Y125.808 E16.6016
G1 X128.354 Y126.7 E16.64066
G1 X127.555 Y127.555 E16.68027
G1 X126.7 Y128.354 E16.71988
G1 X125.808 Y129.086 E16.75894
G1 X124.864 Y129.763 E16.79826
G1 X123.877 Y130.376 E16.83759
G1 X122.853 Y130.924 E16.8769
G1 X121.794 Y131.403 E16.91624
G1 X120.707 Y131.813 E16.95556
G1 X119.595 Y132.15 E16.99489
G1 X118.464 Y132.414 E17.0342
G1 X117.317 Y132.603 E17.07355
G1 X116.161 Y132.717 E17.11287
G1 X115 Y132.755 E17.15219
G1 X113.839 Y132.717 E17.19151
G1 X112.683 Y132.603 E17.23083
G1 X111.536 Y132.414 E17.27018
G1 X110.405 Y132.15 E17.30949
G1 X109.293 Y131.813 E17.34882
G1 X108.206 Y131.403 E17.38814
G1 X107.139 Y130.92 E17.42778
G1 X106.123 Y130.376 E17.46679
G1 X105.136 Y129.763 E17.50612
G1 X104.192 Y129.086 E17.54544
G1 X103.293 Y128.349 E17.58479
G1 X102.445 Y127.555 E17.62411
G1 X101.651 Y126.707 E17.66343
G1 X100.914 Y125.808 E17.70278
G1 X100.237 Y124.864 E17.7421
G1 X99.624 Y123.877 E17.78143
G1 X99.08 Y122.861 E17.82044
G1 X98.597 Y121.794 E17.86008
G1 X98.187 Y120.707 E17.8994
G1 X97.853 Y119.604 E17.93841
G1 X97.586 Y118.464 E17.97804
G1 X97.397 Y117.317 E18.01739
G1 X97.283 Y116.161 E18.05671
G1 X97.245 Y115 E18.09603
G1 X97.283 Y113.839 E18.13535
G1 X97.396 Y112.691 E18.1744
G1 X97.586 Y111.536 E18.21402
G1 X97.85 Y110.405 E18.25333
G1 X98.187 Y109.293 E18.29266
G1 X98.597 Y108.206 E18.33198
G1 X99.076 Y107.147 E18.37132
G1 X99.62 Y106.13 E18.41036
G1 X100.237 Y105.136 E18.44996
G1 X100.914 Y104.192 E18.48928
G1 X101.646 Y103.3 E18.52834
G1 X102.321 Y102.578 E18.5618
G1 X102.693 Y102.927 F7200
G1 F1500
G1 X103.629 Y102.034 E18.60559
G1 X104.502 Y101.319 E18.64379
G1 X105.419 Y100.661 E18.68199
G1 X106.377 Y100.065 E18.72018
G1 X107.373 Y99.533 E18.7584
G1 X108.401 Y99.068 E18.79659
G1 X109.457 Y98.67 E18.83479
G1 X110.537 Y98.342 E18.873
G1 X111.636 Y98.086 E18.9112
G1 X112.749 Y97.902 E18.94939
G1 X113.872 Y97.792 E18.98758
G1 X114.991 Y97.755 E19.02548
G1 X116.128 Y97.792 E19.06399
G1 X117.251 Y97.902 E19.10218
G1 X118.364 Y98.086 E19.14037
G1 X119.463 Y98.342 E19.17857
G1 X120.535 Y98.668 E19.2165
G1 X121.599 Y99.068 E19.25498
G1 X122.627 Y99.533 E19.29317
G1 X123.623 Y100.065 E19.33139
G1 X124.581 Y100.661 E19.36958
G1 X125.498 Y101.319 E19.40778
G1 X126.364 Y102.029 E19.44569
G1 X127.194 Y102.806 E19.48417
G1 X127.966 Y103.63 E19.52239
G1 X128.681 Y104.502 E19.56056
G1 X129.339 Y105.419 E19.59876
G1 X129.935 Y106.377 E19.63695
G1 X130.467 Y107.373 E19.67517
G1 X130.932 Y108.401 E19.71336
G1 X131.332 Y109.465 E19.75184
G1 X131.658 Y110.537 E19.78977
G1 X131.914 Y111.636 E19.82797
G1 X132.098 Y112.749 E19.86616
G1 X132.208 Y113.872 E19.90435
G1 X132.245 Y115 E19.94255
G1 X132.208 Y116.128 E19.98075
G1 X132.098 Y117.251 E20.01894
G1 X131.914 Y118.364 E20.05713
G1 X131.658 Y119.463 E20.09533
G1 X131.33 Y120.543 E20.13354
G1 X130.932 Y121.599 E20.17174
G1 X130.467 Y122.627 E20.20993
G1 X129.935 Y123.623 E20.24815
G1 X129.339 Y124.581 E20.28634
G1 X128.681 Y125.498 E20.32454
G1 X127.966 Y126.371 E20.36274
G1 X127.194 Y127.194 E20.40094
G1 X126.371 Y127.966 E20.43914
G1 X125.498 Y128.681 E20.47734
G1 X124.581 Y129.339 E20.51554
G1 X123.623 Y129.935 E20.55373
G1 X122.627 Y130.467 E20.59195
G1 X121.599 Y130.932 E20.63014
G1 X120.543 Y131.33 E20.66834
G1 X119.463 Y131.658 E20.70655
G1 X118.364 Y131.914 E20.74475
G1 X117.251 Y132.098 E20.78294
G1 X116.128 Y132.208 E20.82113
G1 X115 Y132.245 E20.85933
G1 X113.872 Y132.208 E20.89753
G1 X112.749 Y132.098 E20.93572
G1 X111.636 Y131.914 E20.97391
G1 X110.537 Y131.658 E21.01211
G1 X109.457 Y131.33 E21.05032
G1 X108.401 Y130.932 E21.08852
G1 X107.373 Y130.467 E21.12671
G1 X106.377 Y129.935 E21.16493
G1 X105.419 Y129.339 E21.20312
G1 X104.502 Y128.681 E21.24132
G1 X103.629 Y127.966 E21.27952
G1 X102.806 Y127.194 E21.31772
G1 X102.029 Y126.364 E21.3562
G1 X101.319 Y125.498 E21.39411
G1 X100.661 Y124.581 E21.43231
G1 X100.065 Y123.623 E21.4705
G1 X99.533 Y122.627 E21.50872
G1 X99.068 Y121.599 E21.54691
G1 X98.668 Y120.535 E21.58539
G1 X98.342 Y119.463 E21.62332
G1 X98.086 Y118.364 E21.66152
G1 X97.902 Y117.251 E21.69971
G1 X97.792 Y116.128 E21.7379
G1 X97.755 Y115 E21.7761
G1 X97.793 Y113.864 E21.81457
G1 X97.902 Y112.749 E21.85249
G1 X98.086 Y111.636 E21.89068
G1 X98.342 Y110.537 E21.92888
G1 X98.67 Y109.457 E21.96709
G1 X99.068 Y108.401 E22.00529
G1 X99.537 Y107.365 E22.04378
G1 X100.065 Y106.377 E22.0817
G1 X100.661 Y105.419 E22.11989
G1 X101.319 Y104.502 E22.15809
G1 X102.034 Y103.629 E22.19629
G1 X102.652 Y102.97 E22.22687
M106 S255
;LAYER_CHANGE
;Z:0.68
;HEIGHT:0.2
; BEFORE_LAYER_CHANGE 2 @ 0.68mm
G1 Z.68 F7200
; AFTER_LAYER_CHANGE 2 @ 0.68mm
G1 X102.28 Y102.622
G1 F1500
G1 X102.445 Y102.445 E22.23506
G1 X103.293 Y101.651 E22.27438
G1 X104.192 Y100.914 E22.31373
G1 X105.136 Y100.237 E22.35305
G1 X106.123 Y99.624 E22.39238
G1 X107.147 Y99.076 E22.43169
G1 X108.206 Y98.597 E22.47103
G1 X109.293 Y98.187 E22.51035
G1 X110.405 Y97.85 E22.54968
G1 X111.536 Y97.586 E22.58899
G1 X112.683 Y97.397 E22.62834
G1 X113.839 Y97.283 E22.66766
G1 X115.014 Y97.246 E22.70745
G1 X116.161 Y97.283 E22.74629
G1 X117.317 Y97.397 E22.78561
G1 X118.464 Y97.586 E22.82496
G1 X119.595 Y97.85 E22.86427
G1 X120.707 Y98.187 E22.9036
G1 X121.794 Y98.597 E22.94292
G1 X122.853 Y99.076 E22.98226
G1 X123.877 Y99.624 E23.02157
G1 X124.864 Y100.237 E23.0609
G1 X125.808 Y100.914 E23.10022
G1 X126.707 Y101.651 E23.13957
G1 X127.555 Y102.445 E23.17889
G1 X128.349 Y103.293 E23.21821
G1 X129.086 Y104.192 E23.25756
G1 X129.763 Y105.136 E23.29688
G1 X130.376 Y106.123 E23.33621
G1 X130.924 Y107.147 E23.37552
G1 X131.403 Y108.206 E23.41486
G1 X131.813 Y109.293 E23.45418
G1 X132.15 Y110.405 E23.49351
G1 X132.414 Y111.536 E23.53282
G1 X132.603 Y112.683 E23.57217
G1 X132.717 Y113.839 E23.61149
G1 X132.755 Y115 E23.65081
G1 X132.717 Y116.161 E23.69013
G1 X132.603 Y117.317 E23.72945
G1 X132.414 Y118.464 E23.7688
G1 X132.15 Y119.595 E23.80811
G1 X131.813 Y120.707 E23.84744
G1 X131.403 Y121.794 E23.88676
G1 X130.924 Y122.853 E23.9261
G1 X130.376 Y123.877 E23.96541
G1 X129.763 Y124.864 E24.00474
G1 X129.086 Y125.808 E24.04406
G1 X128.349 Y126.707 E24.08341
G1 X127.555 Y127.555 E24.12273
G1 X126.707 Y128.349 E24.16205
G1 X125.808 Y129.086 E24.2014
G1 X124.864 Y129.763 E24.24072
G1 X123.877 Y130.376 E24.28005
G1 X122.853 Y130.924 E24.31936
G1 X121.794 Y131.403 E24.3587
G1 X120.707 Y131.813 E24.39802
G1 X119.595 Y132.15 E24.43735
G1 X118.464 Y132.414 E24.47666
G1 X117.317 Y132.603 E24.51601
G1 X116.161 Y132.717 E24.55533
G1 X115 Y132.755 E24.59465
G1 X113.839 Y132.717 E24.63397
G1 X112.683 Y132.603 E24.67329
G1 X111.536 Y132.414 E24.71264
G1 X110.405 Y132.15 E24.75195
G1 X109.293 Y131.813 E24.79128
G1 X108.206 Y131.403 E24.8306
G1 X107.147 Y130.924 E24.86994
G1 X106.123 Y130.376 E24.90925
G1 X105.136 Y129.763 E24.94858
G1 X104.192 Y129.086 E24.9879
G1 X103.293 Y128.349 E25.02725
G1 X102.445 Y127.555 E25.06657
G1 X101.651 Y126.707 E25.10589
G1 X100.914 Y125.808 E25.14524
G1 X100.237 Y124.864 E25.18456
G1 X99.624 Y123.877 E25.22389
