; generated by PrusaSlicer 2.6.0+MacOS-x64 on 2023-08-10 at 02:28:32 UTC

; 

; external perimeters extrusion width = 0.45mm
; perimeters extrusion width = 0.40mm
; infill extrusion width = 0.45mm
; solid infill extrusion width = 0.50mm
; top infill extrusion width = 0.45mm
; first layer extrusion width = 0.56mm

M201 X2500 Y2500 Z800 E2500 ; sets maximum accelerations, mm/sec^2
M203 X300 Y250 Z8 E80 ; sets maximum feedrates, mm / sec
M204 S2500 T2500 ; sets acceleration (S) and retract acceleration (R), mm/sec^2
M205 X15.00 Y10.00 Z2.00 E10.00 ; sets the jerk limits, mm/sec
M205 S0 T0 ; sets the minimum extruding and travel feed rate, mm/sec
;TYPE:Custom
G90 ; use absolute coordinates
M83 ; extruder relative mode
M104 S215 ; set extruder temp
M140 S65 ; set bed temp
M190 S65 ; wait for bed temp
M109 S215 ; wait for extruder temp
G28                                        ; move X/Y/Z to min endstops
G1 Z0.28                                   ; lift nozzle a bit 
G92 E0 
G1 Y3 F1800                                    ; zero the extruded length 
G1 X60  E25 F500                       ; Extrude 25mm of filament in a 5cm line. 
G92 E0                                     ; zero the extruded length again 
G1 E-2 F500                                ; Retract a little 
G1 X70 F4000                              ; Quickly wipe away from the filament line
M117
G21 ; set units to millimeters
G90 ; use absolute coordinates
M82 ; use absolute distances for extrusion
G92 E0
M107
;LAYER_CHANGE
;Z:0.28
;HEIGHT:0.28
; BEFORE_LAYER_CHANGE 0 @ 0.28mm
G1 Z.28 F7200
; AFTER_LAYER_CHANGE 0 @ 0.28mm
G1 E-2 F4800
G92 E0
G1 X100.255 Y100.259 F7200
G1 E2 F4800
M204 S2000
;TYPE:Skirt/Brim
;WIDTH:0.56
G1 F3000
G1 X101.214 Y99.359 E2.07654
G1 X102.349 Y98.427 E2.16201
G1 X103.418 Y97.663 E2.23848
G1 X104.53 Y96.97 E2.31473
G1 X105.825 Y96.278 E2.40018
G1 X107.02 Y95.738 E2.47649
G1 X108.249 Y95.274 E2.55294
G1 X109.654 Y94.848 E2.63838
G1 X110.931 Y94.552 E2.71467
G1 X112.227 Y94.336 E2.79113
G1 X113.688 Y94.192 E2.87656
G1 X114.952 Y94.151 E2.95016
G1 X116.418 Y94.199 E3.03552
G1 X117.774 Y94.336 E3.11483
G1 X119.069 Y94.552 E3.19123
G1 X120.349 Y94.849 E3.2677
G1 X121.751 Y95.274 E3.35296
G1 X122.977 Y95.737 E3.42923
G1 X124.175 Y96.278 E3.50573
G1 X125.47 Y96.97 E3.59118
G1 X126.582 Y97.663 E3.66743
G1 X127.651 Y98.427 E3.7439
G1 X128.786 Y99.359 E3.82937
G1 X129.742 Y100.256 E3.90566
G1 X130.641 Y101.214 E3.98211
G1 X131.573 Y102.349 E4.06758
G1 X132.335 Y103.415 E4.14384
G1 X133.03 Y104.53 E4.2203
G1 X133.722 Y105.825 E4.30575
G1 X134.262 Y107.019 E4.38201
G1 X134.726 Y108.249 E4.45851
G1 X135.152 Y109.654 E4.54395
G1 X135.448 Y110.931 E4.62024
G1 X135.664 Y112.227 E4.6967
G1 X135.808 Y113.688 E4.78213
G1 X135.849 Y114.998 E4.8584
G1 X135.808 Y116.311 E4.93485
G1 X135.665 Y117.765 E5.01987
G1 X135.449 Y119.065 E5.09656
G1 X135.153 Y120.345 E5.17302
G1 X134.726 Y121.751 E5.25853
G1 X134.263 Y122.977 E5.3348
G1 X133.722 Y124.175 E5.4113
G1 X133.03 Y125.47 E5.49675
G1 X132.337 Y126.582 E5.573
G1 X131.573 Y127.651 E5.64947
G1 X130.641 Y128.786 E5.73494
G1 X129.744 Y129.741 E5.81119
G1 X128.786 Y130.641 E5.88768
G1 X127.651 Y131.572 E5.97311
G1 X126.585 Y132.334 E6.04937
G1 X125.47 Y133.03 E6.12586
G1 X124.178 Y133.72 E6.2111
G1 X122.98 Y134.262 E6.28762
G1 X121.748 Y134.727 E6.36425
G1 X120.346 Y135.152 E6.44951
G1 X119.069 Y135.448 E6.5258
G1 X117.773 Y135.664 E6.60226
G1 X116.312 Y135.808 E6.68769
G1 X115.002 Y135.849 E6.76396
G1 X113.689 Y135.808 E6.84041
G1 X112.227 Y135.664 E6.9259
G1 X110.934 Y135.449 E7.00218
G1 X109.654 Y135.152 E7.07865
G1 X108.249 Y134.726 E7.16409
G1 X107.023 Y134.263 E7.24036
G1 X105.825 Y133.722 E7.31686
G1 X104.53 Y133.03 E7.40231
G1 X103.418 Y132.337 E7.47856
G1 X102.349 Y131.573 E7.55503
G1 X101.214 Y130.641 E7.6405
G1 X100.259 Y129.744 E7.71675
G1 X99.359 Y128.786 E7.79324
G1 X98.427 Y127.651 E7.87871
G1 X97.665 Y126.585 E7.95497
G1 X96.97 Y125.47 E8.03143
G1 X96.28 Y124.178 E8.11667
G1 X95.738 Y122.98 E8.19319
G1 X95.273 Y121.747 E8.26988
G1 X94.85 Y120.354 E8.3546
G1 X94.552 Y119.07 E8.43131
G1 X94.335 Y117.769 E8.50807
G1 X94.192 Y116.316 E8.59304
G1 X94.151 Y115.002 E8.66955
G1 X94.192 Y113.689 E8.746
G1 X94.335 Y112.235 E8.83102
G1 X94.551 Y110.935 E8.90771
G1 X94.847 Y109.655 E8.98417
G1 X95.274 Y108.249 E9.06968
G1 X95.737 Y107.023 E9.14595
G1 X96.278 Y105.825 E9.22245
G1 X96.97 Y104.53 E9.3079
G1 X97.663 Y103.418 E9.38415
G1 X98.427 Y102.349 E9.46062
G1 X99.354 Y101.22 E9.54563
G1 X100.214 Y100.303 E9.61879
M204 S2500
G1 X100.578 Y100.645 F7200
M204 S2000
G1 F3000
G1 X101.55 Y99.729 E9.69652
G1 X102.647 Y98.829 E9.7791
G1 X103.689 Y98.083 E9.85368
G1 X104.787 Y97.399 E9.92896
G1 X106.039 Y96.73 E10.01157
G1 X107.218 Y96.197 E10.08687
G1 X108.418 Y95.745 E10.16149
G1 X109.775 Y95.333 E10.24402
G1 X111.021 Y95.043 E10.31847
G1 X112.301 Y94.83 E10.39398
G1 X113.712 Y94.691 E10.47649
G1 X114.96 Y94.651 E10.54915
G1 X116.376 Y94.697 E10.6316
G1 X117.7 Y94.83 E10.70904
G1 X118.964 Y95.04 E10.78361
G1 X120.228 Y95.334 E10.85913
G1 X121.582 Y95.745 E10.94148
G1 X122.793 Y96.202 E11.01681
G1 X123.961 Y96.73 E11.0914
G1 X125.213 Y97.399 E11.17401
G1 X126.311 Y98.083 E11.24929
G1 X127.353 Y98.829 E11.32387
G1 X128.45 Y99.729 E11.40645
G1 X129.394 Y100.615 E11.48179
G1 X130.271 Y101.55 E11.55639
G1 X131.171 Y102.647 E11.63897
G1 X131.923 Y103.7 E11.71427
G1 X132.601 Y104.788 E11.78887
G1 X133.27 Y106.039 E11.87143
G1 X133.803 Y107.218 E11.94673
G1 X134.255 Y108.417 E12.0213
G1 X134.667 Y109.775 E12.10389
G1 X134.96 Y111.036 E12.17923
G1 X135.17 Y112.301 E12.25385
G1 X135.309 Y113.712 E12.33636
G1 X135.349 Y115.005 E12.41164
G1 X135.309 Y116.287 E12.48628
G1 X135.171 Y117.691 E12.56838
G1 X134.961 Y118.959 E12.64318
G1 X134.667 Y120.224 E12.71876
G1 X134.255 Y121.582 E12.80135
G1 X133.798 Y122.793 E12.87668
G1 X133.27 Y123.961 E12.95127
G1 X132.601 Y125.213 E13.03388
G1 X131.925 Y126.298 E13.10827
G1 X131.171 Y127.353 E13.18373
G1 X130.271 Y128.45 E13.26631
G1 X129.385 Y129.393 E13.34161
G1 X128.45 Y130.271 E13.41625
G1 X127.354 Y131.171 E13.49878
G1 X126.314 Y131.914 E13.57316
G1 X125.213 Y132.601 E13.64868
G1 X123.965 Y133.268 E13.73103
G1 X122.782 Y133.803 E13.80659
G1 X121.579 Y134.257 E13.88142
G1 X120.225 Y134.667 E13.96375
G1 X118.979 Y134.957 E14.0382
G1 X117.699 Y135.17 E14.11371
G1 X116.288 Y135.309 E14.19622
G1 X114.994 Y135.349 E14.27156
G1 X113.713 Y135.309 E14.34614
G1 X112.301 Y135.17 E14.42871
G1 X111.024 Y134.957 E14.50405
G1 X109.775 Y134.667 E14.57867
G1 X108.418 Y134.255 E14.6612
G1 X107.207 Y133.798 E14.73653
G1 X106.039 Y133.27 E14.81112
G1 X104.787 Y132.601 E14.89373
G1 X103.689 Y131.917 E14.96901
G1 X102.647 Y131.171 E15.04359
G1 X101.55 Y130.271 E15.12617
G1 X100.607 Y129.385 E15.20147
G1 X99.729 Y128.45 E15.27611
G1 X98.829 Y127.353 E15.35869
G1 X98.077 Y126.3 E15.43399
G1 X97.399 Y125.212 E15.50859
G1 X96.732 Y123.965 E15.59089
G1 X96.197 Y122.782 E15.66645
G1 X95.743 Y121.578 E15.74133
G1 X95.335 Y120.232 E15.82318
G1 X95.044 Y118.98 E15.89798
G1 X94.83 Y117.696 E15.97373
G1 X94.692 Y116.292 E16.05583
G1 X94.651 Y114.994 E16.1314
G1 X94.691 Y113.713 E16.20598
G1 X94.829 Y112.309 E16.28808
G1 X95.039 Y111.041 E16.36288
G1 X95.333 Y109.776 E16.43846
G1 X95.745 Y108.418 E16.52105
G1 X96.202 Y107.207 E16.59638
G1 X96.73 Y106.039 E16.67097
G1 X97.399 Y104.787 E16.75358
G1 X98.083 Y103.689 E16.82886
G1 X98.829 Y102.647 E16.90344
G1 X99.724 Y101.556 E16.98556
G1 X100.537 Y100.689 E17.05473
M204 S2500
G1 X100.902 Y101.03 F7200
M204 S2000
G1 F3000
G1 X101.886 Y100.1 E17.13352
G1 X102.944 Y99.231 E17.2132
G1 X103.974 Y98.495 E17.28687
G1 X105.045 Y97.827 E17.36033
G1 X106.252 Y97.182 E17.43997
G1 X107.402 Y96.662 E17.51342
G1 X108.586 Y96.215 E17.58707
G1 X109.897 Y95.818 E17.66678
G1 X111.126 Y95.532 E17.74021
G1 X112.374 Y95.325 E17.81383
G1 X113.737 Y95.191 E17.89353
G1 X114.969 Y95.151 E17.96526
G1 X116.334 Y95.195 E18.04474
G1 X117.626 Y95.325 E18.12031
G1 X118.874 Y95.532 E18.19393
G1 X120.107 Y95.819 E18.2676
G1 X121.414 Y96.215 E18.34708
G1 X122.594 Y96.661 E18.42049
G1 X123.748 Y97.182 E18.49417
G1 X124.955 Y97.827 E18.57381
G1 X126.026 Y98.495 E18.64727
G1 X127.056 Y99.231 E18.72094
G1 X128.114 Y100.1 E18.80062
G1 X129.035 Y100.963 E18.87407
G1 X129.901 Y101.886 E18.94772
G1 X130.769 Y102.944 E19.02736
G1 X131.503 Y103.971 E19.10082
G1 X132.173 Y105.045 E19.17449
G1 X132.818 Y106.252 E19.25413
G1 X133.338 Y107.402 E19.32758
G1 X133.785 Y108.586 E19.40123
G1 X134.182 Y109.897 E19.48094
G1 X134.468 Y111.126 E19.55437
G1 X134.675 Y112.374 E19.62799
G1 X134.809 Y113.737 E19.70769
G1 X134.85 Y114.998 E19.78111
G1 X134.809 Y116.263 E19.85477
G1 X134.676 Y117.618 E19.934
G1 X134.469 Y118.87 E20.00785
G1 X134.182 Y120.103 E20.08152
G1 X133.785 Y121.414 E20.16123
G1 X133.339 Y122.594 E20.23464
G1 X132.818 Y123.748 E20.30832
G1 X132.173 Y124.955 E20.38796
G1 X131.505 Y126.026 E20.46142
G1 X130.769 Y127.056 E20.53509
G1 X129.901 Y128.114 E20.61473
G1 X129.037 Y129.034 E20.68818
G1 X128.114 Y129.9 E20.76183
G1 X127.056 Y130.769 E20.84151
G1 X126.03 Y131.503 E20.91492
G1 X124.955 Y132.172 E20.9886
G1 X123.751 Y132.816 E21.06806
G1 X122.598 Y133.338 E21.14171
G1 X121.41 Y133.786 E21.2156
G1 X120.103 Y134.182 E21.29508
G1 X118.874 Y134.468 E21.36851
G1 X117.626 Y134.675 E21.44213
G1 X116.263 Y134.809 E21.52183
G1 X115.002 Y134.85 E21.59525
G1 X113.737 Y134.809 E21.66891
G1 X112.374 Y134.675 E21.74861
G1 X111.13 Y134.469 E21.82199
G1 X109.897 Y134.182 E21.89566
G1 X108.586 Y133.785 E21.97537
G1 X107.406 Y133.339 E22.04878
G1 X106.252 Y132.818 E22.12246
G1 X105.045 Y132.173 E22.2021
G1 X103.974 Y131.505 E22.27556
G1 X102.944 Y130.769 E22.34923
G1 X101.886 Y129.901 E22.42887
G1 X100.966 Y129.037 E22.50232
G1 X100.1 Y128.114 E22.57597
G1 X99.231 Y127.056 E22.65565
G1 X98.497 Y126.029 E22.72911
G1 X97.827 Y124.955 E22.80278
G1 X97.184 Y123.751 E22.88221
G1 X96.662 Y122.598 E22.95586
G1 X96.214 Y121.41 E23.02975
G1 X95.82 Y120.111 E23.10875
G1 X95.532 Y118.875 E23.18261
G1 X95.324 Y117.622 E23.25653
G1 X95.191 Y116.267 E23.33576
G1 X95.15 Y115.002 E23.40942
G1 X95.191 Y113.737 E23.48308
G1 X95.324 Y112.382 E23.56231
G1 X95.531 Y111.13 E23.63616
G1 X95.818 Y109.897 E23.70983
G1 X96.215 Y108.586 E23.78954
G1 X96.661 Y107.406 E23.86295
G1 X97.182 Y106.252 E23.93663
G1 X97.827 Y105.045 E24.01627
G1 X98.495 Y103.974 E24.08973
G1 X99.231 Y102.944 E24.1634
G1 X100.094 Y101.892 E24.24259
G1 X100.861 Y101.074 E24.30785
M204 S2500
G1 X101.226 Y101.416 F7200
M204 S2000
G1 F3000
G1 X102.222 Y100.47 E24.38779
G1 X103.242 Y99.633 E24.46458
G1 X104.245 Y98.915 E24.53636
G1 X105.302 Y98.256 E24.60885
G1 X106.466 Y97.634 E24.68565
G1 X107.601 Y97.121 E24.75813
G1 X108.755 Y96.686 E24.8299
G1 X110.018 Y96.303 E24.90671
G1 X111.231 Y96.021 E24.97918
G1 X112.448 Y95.819 E25.05097
G1 X113.761 Y95.69 E25.12775
G1 X114.977 Y95.65 E25.19855
G1 X116.293 Y95.694 E25.27518
G1 X117.552 Y95.819 E25.34881
G1 X118.769 Y96.021 E25.4206
G1 X119.986 Y96.304 E25.49331
G1 X121.245 Y96.686 E25.56988
G1 X122.41 Y97.126 E25.64235
G1 X123.534 Y97.634 E25.71413
G1 X124.698 Y98.256 E25.79093
G1 X125.755 Y98.915 E25.86342
G1 X126.758 Y99.633 E25.9352
G1 X127.778 Y100.47 E26.01199
G1 X128.687 Y101.322 E26.08449
G1 X129.53 Y102.222 E26.15625
G1 X130.367 Y103.242 E26.23304
G1 X131.092 Y104.255 E26.30553
G1 X131.744 Y105.302 E26.37731
G1 X132.366 Y106.466 E26.45411
G1 X132.879 Y107.601 E26.52659
G1 X133.314 Y108.755 E26.59836
G1 X133.697 Y110.018 E26.67517
G1 X133.979 Y111.231 E26.74764
G1 X134.181 Y112.448 E26.81943
G1 X134.31 Y113.761 E26.89621
G1 X134.35 Y114.99 E26.96777
G1 X134.31 Y116.239 E27.04049
G1 X134.181 Y117.545 E27.11686
G1 X133.98 Y118.765 E27.18881
G1 X133.697 Y119.982 E27.26152
G1 X133.314 Y121.245 E27.33833
G1 X132.874 Y122.41 E27.4108
G1 X132.366 Y123.534 E27.48258
G1 X131.744 Y124.698 E27.55938
G1 X131.085 Y125.755 E27.63187
G1 X130.367 Y126.758 E27.70365
G1 X129.53 Y127.778 E27.78044
G1 X128.678 Y128.686 E27.8529
G1 X127.778 Y129.53 E27.9247
G1 X126.758 Y130.367 E28.00149
G1 X125.759 Y131.083 E28.07302
G1 X124.698 Y131.744 E28.14577
G1 X123.538 Y132.364 E28.22231
G1 X122.414 Y132.873 E28.29412
G1 X121.242 Y133.315 E28.36701
G1 X119.982 Y133.697 E28.44363
G1 X118.769 Y133.979 E28.5161
G1 X117.552 Y134.181 E28.58789
G1 X116.239 Y134.31 E28.66467
G1 X115.01 Y134.35 E28.73623
G1 X113.761 Y134.31 E28.80895
G1 X112.448 Y134.181 E28.88573
G1 X111.235 Y133.98 E28.95728
G1 X110.018 Y133.697 E29.02999
G1 X108.755 Y133.314 E29.1068
G1 X107.59 Y132.874 E29.17927
G1 X106.466 Y132.366 E29.25105
G1 X105.302 Y131.744 E29.32785
G1 X104.245 Y131.085 E29.40034
G1 X103.242 Y130.367 E29.47212
G1 X102.222 Y129.53 E29.54891
G1 X101.325 Y128.689 E29.62047
G1 X100.47 Y127.778 E29.69318
G1 X99.633 Y126.758 E29.76997
G1 X98.908 Y125.745 E29.84246
G1 X98.256 Y124.698 E29.91424
G1 X97.636 Y123.538 E29.99078
G1 X97.121 Y122.399 E30.06352
G1 X96.685 Y121.241 E30.13553
G1 X96.305 Y119.99 E30.21162
G1 X96.024 Y118.785 E30.28363
G1 X95.819 Y117.548 E30.3566
G1 X95.69 Y116.243 E30.43291
G1 X95.65 Y114.994 E30.50563
G1 X95.69 Y113.761 E30.57742
G1 X95.819 Y112.455 E30.65379
G1 X96.02 Y111.235 E30.72574
G1 X96.303 Y110.018 E30.79845
G1 X96.686 Y108.755 E30.87526
G1 X97.126 Y107.59 E30.94773
G1 X97.634 Y106.466 E31.01951
G1 X98.256 Y105.302 E31.09631
G1 X98.915 Y104.245 E31.1688
G1 X99.633 Y103.242 E31.24058
G1 X100.465 Y102.228 E31.31691
G1 X101.184 Y101.459 E31.37818
M204 S2500
G1 X101.549 Y101.801 F7200
M204 S2000
G1 F3000
G1 X102.558 Y100.84 E31.45927
G1 X103.54 Y100.034 E31.5332
G1 X104.529 Y99.326 E31.60398
G1 X105.559 Y98.685 E31.67458
G1 X106.68 Y98.086 E31.74855
G1 X107.785 Y97.586 E31.81913
G1 X108.924 Y97.157 E31.88996
G1 X110.139 Y96.788 E31.96386
G1 X111.321 Y96.513 E32.03448
G1 X112.521 Y96.314 E32.10527
G1 X113.786 Y96.189 E32.17925
G1 X114.985 Y96.15 E32.24906
G1 X116.251 Y96.192 E32.32278
G1 X117.479 Y96.314 E32.3946
G1 X118.679 Y96.513 E32.46539
G1 X119.864 Y96.789 E32.5362
G1 X121.077 Y97.157 E32.60997
G1 X122.212 Y97.584 E32.68054
G1 X123.321 Y98.086 E32.75138
G1 X124.441 Y98.685 E32.82529
G1 X125.471 Y99.326 E32.89589
G1 X126.46 Y100.034 E32.96667
G1 X127.442 Y100.84 E33.0406
G1 X128.327 Y101.67 E33.11121
G1 X129.16 Y102.558 E33.18207
G1 X129.966 Y103.54 E33.256
G1 X130.672 Y104.526 E33.32657
G1 X131.315 Y105.559 E33.39738
G1 X131.914 Y106.679 E33.47129
G1 X132.414 Y107.785 E33.54193
G1 X132.843 Y108.923 E33.61271
G1 X133.212 Y110.139 E33.68666
G1 X133.487 Y111.321 E33.75728
G1 X133.686 Y112.521 E33.82807
G1 X133.811 Y113.785 E33.90199
G1 X133.85 Y114.998 E33.97262
G1 X133.811 Y116.214 E34.04342
G1 X133.687 Y117.471 E34.11693
G1 X133.488 Y118.675 E34.18795
G1 X133.212 Y119.861 E34.25881
G1 X132.843 Y121.077 E34.33276
G1 X132.416 Y122.212 E34.40333
G1 X131.914 Y123.321 E34.47417
G1 X131.315 Y124.441 E34.54808
G1 X130.674 Y125.471 E34.61868
G1 X129.966 Y126.46 E34.68946
G1 X129.16 Y127.442 E34.76339
G1 X128.33 Y128.327 E34.834
G1 X127.442 Y129.16 E34.90486
G1 X126.46 Y129.966 E34.97879
G1 X125.474 Y130.672 E35.04936
G1 X124.441 Y131.315 E35.12017
G1 X123.324 Y131.912 E35.19388
G1 X122.215 Y132.414 E35.26472
G1 X121.073 Y132.844 E35.33573
G1 X119.861 Y133.212 E35.40944
G1 X118.679 Y133.487 E35.48006
G1 X117.479 Y133.686 E35.55085
G1 X116.215 Y133.811 E35.62477
G1 X115.002 Y133.85 E35.6954
G1 X113.786 Y133.811 E35.7662
G1 X112.521 Y133.686 E35.84018
G1 X111.324 Y133.488 E35.91079
G1 X110.139 Y133.212 E35.9816
G1 X108.923 Y132.843 E36.05555
G1 X107.788 Y132.416 E36.12612
G1 X106.679 Y131.914 E36.19696
G1 X105.559 Y131.315 E36.27087
G1 X104.529 Y130.674 E36.34147
G1 X103.54 Y129.966 E36.41225
G1 X102.558 Y129.16 E36.48618
G1 X101.673 Y128.33 E36.55679
G1 X100.84 Y127.442 E36.62765
G1 X100.034 Y126.46 E36.70158
G1 X99.328 Y125.474 E36.77215
G1 X98.685 Y124.441 E36.84296
G1 X98.088 Y123.324 E36.91667
G1 X97.586 Y122.215 E36.98751
G1 X97.155 Y121.073 E37.05854
G1 X96.79 Y119.868 E37.13181
G1 X96.513 Y118.68 E37.2028
G1 X96.313 Y117.475 E37.27388
G1 X96.19 Y116.219 E37.34732
G1 X96.15 Y115.002 E37.41818
G1 X96.189 Y113.786 E37.48898
