; generated by PrusaSlicer 2.6.0+MacOS-x64 on 2023-08-06 at 17:49:47 UTC

; 

; external perimeters extrusion width = 0.45mm
; perimeters extrusion width = 0.40mm
; infill extrusion width = 0.45mm
; solid infill extrusion width = 0.50mm
; top infill extrusion width = 0.45mm
; first layer extrusion width = 0.56mm

M201 X2500 Y2500 Z800 E2500 ; sets maximum accelerations, mm/sec^2
M203 X300 Y250 Z8 E80 ; sets maximum feedrates, mm / sec
M204 S2500 T2500 ; sets acceleration (S) and retract acceleration (R), mm/sec^2
M205 X15.00 Y10.00 Z2.00 E10.00 ; sets the jerk limits, mm/sec
M205 S0 T0 ; sets the minimum extruding and travel feed rate, mm/sec
;TYPE:Custom
G90 ; use absolute coordinates
M83 ; extruder relative mode
M104 S215 ; set extruder temp
M140 S60 ; set bed temp
M190 S60 ; wait for bed temp
M109 S215 ; wait for extruder temp
G28                                        ; move X/Y/Z to min endstops
G1 Z0.28                                   ; lift nozzle a bit 
G92 E0 
G1 Y3 F1800                                    ; zero the extruded length 
G1 X60  E25 F500                       ; Extrude 25mm of filament in a 5cm line. 
G92 E0                                     ; zero the extruded length again 
G1 E-2 F500                                ; Retract a little 
G1 X70 F4000                              ; Quickly wipe away from the filament line
M117
G21 ; set units to millimeters
G90 ; use absolute coordinates
M82 ; use absolute distances for extrusion
G92 E0
M107
;LAYER_CHANGE
;Z:0.28
;HEIGHT:0.28
; BEFORE_LAYER_CHANGE 0 @ 0.28mm
G1 Z.28 F7200
; AFTER_LAYER_CHANGE 0 @ 0.28mm
G1 E-2 F4800
G92 E0
G1 X102.483 Y102.486 F7200
G1 E2 F4800
M204 S2000
;TYPE:External perimeter
;WIDTH:0.56
G1 F1702
G1 X103.331 Y101.691 E2.06764
G1 X103.771 Y101.318 E2.10121
G1 X104.226 Y100.957 E2.13501
G1 X105.168 Y100.282 E2.20245
G1 X105.651 Y99.97 E2.23591
G1 X106.656 Y99.39 E2.30344
G1 X107.697 Y98.877 E2.37098
G1 X108.767 Y98.434 E2.43837
G1 X109.864 Y98.062 E2.50578
G1 X110.417 Y97.904 E2.53925
G1 X111.547 Y97.64 E2.60678
G1 X112.692 Y97.451 E2.67431
G1 X113.263 Y97.386 E2.70775
G1 X114.421 Y97.31 E2.77528
G1 X115.39 Y97.313 E2.83167
G1 X116.16 Y97.338 E2.8765
G1 X116.735 Y97.385 E2.91007
G1 X117.312 Y97.452 E2.94387
G1 X118.455 Y97.641 E3.01129
G1 X119.021 Y97.763 E3.04498
G1 X120.14 Y98.063 E3.1124
G1 X120.691 Y98.24 E3.14608
G1 X121.776 Y98.648 E3.21354
G1 X122.306 Y98.879 E3.24719
G1 X123.346 Y99.391 E3.31465
G1 X123.848 Y99.67 E3.34807
G1 X124.836 Y100.284 E3.41576
G1 X125.308 Y100.611 E3.44918
G1 X126.229 Y101.318 E3.51675
G1 X127.101 Y102.083 E3.58426
G1 X127.516 Y102.484 E3.61784
G1 X127.917 Y102.899 E3.65142
G1 X128.684 Y103.773 E3.71909
G1 X129.041 Y104.223 E3.75252
G1 X129.717 Y105.167 E3.82009
G1 X130.328 Y106.149 E3.8874
G1 X130.61 Y106.656 E3.92116
G1 X130.874 Y107.169 E3.95474
G1 X131.354 Y108.229 E4.02246
G1 X131.565 Y108.763 E4.05587
G1 X131.938 Y109.864 E4.12352
G1 X132.096 Y110.417 E4.15699
G1 X132.36 Y111.547 E4.22452
G1 X132.549 Y112.692 E4.29205
G1 X132.615 Y113.265 E4.32562
G1 X132.662 Y113.84 E4.35919
G1 X132.7 Y115 E4.42673
G1 X132.662 Y116.156 E4.49404
G1 X132.615 Y116.735 E4.52785
G1 X132.549 Y117.308 E4.56142
G1 X132.36 Y118.453 E4.62895
G1 X132.097 Y119.579 E4.69624
G1 X131.938 Y120.136 E4.72995
G1 X131.566 Y121.233 E4.79736
G1 X131.353 Y121.774 E4.8312
G1 X131.123 Y122.303 E4.86477
G1 X130.609 Y123.346 E4.93244
G1 X130.33 Y123.848 E4.96586
G1 X129.716 Y124.836 E5.03355
G1 X129.389 Y125.308 E5.06697
G1 X128.682 Y126.229 E5.13454
G1 X127.917 Y127.101 E5.20205
G1 X127.516 Y127.516 E5.23563
G1 X127.101 Y127.917 E5.26921
G1 X126.229 Y128.682 E5.33672
G1 X125.308 Y129.389 E5.40429
G1 X124.836 Y129.716 E5.43771
G1 X123.848 Y130.33 E5.5054
G1 X123.346 Y130.609 E5.53882
G1 X122.303 Y131.123 E5.60649
G1 X121.773 Y131.353 E5.64011
G1 X121.237 Y131.565 E5.67365
G1 X120.136 Y131.938 E5.7413
G1 X119.583 Y132.096 E5.77477
G1 X118.453 Y132.36 E5.8423
G1 X117.308 Y132.549 E5.90983
G1 X116.735 Y132.615 E5.9434
G1 X116.16 Y132.662 E5.97697
G1 X115 Y132.7 E6.04451
G1 X113.84 Y132.662 E6.11205
G1 X113.265 Y132.615 E6.14562
G1 X112.692 Y132.549 E6.17919
G1 X111.547 Y132.36 E6.24672
G1 X110.417 Y132.096 E6.31425
G1 X109.862 Y131.938 E6.34783
G1 X109.313 Y131.761 E6.3814
G1 X108.224 Y131.352 E6.4491
G1 X107.697 Y131.123 E6.48254
G1 X106.654 Y130.609 E6.55021
G1 X106.152 Y130.33 E6.58363
G1 X105.164 Y129.716 E6.65132
G1 X104.692 Y129.389 E6.68474
G1 X103.769 Y128.681 E6.75244
G1 X103.331 Y128.309 E6.78588
G1 X102.483 Y127.514 E6.85352
G1 X102.083 Y127.101 E6.88698
G1 X101.316 Y126.227 E6.95465
G1 X100.959 Y125.777 E6.98808
G1 X100.283 Y124.833 E7.05565
G1 X99.672 Y123.851 E7.12296
G1 X99.391 Y123.346 E7.15659
G1 X98.879 Y122.306 E7.22405
G1 X98.647 Y121.773 E7.25788
G1 X98.435 Y121.237 E7.29142
G1 X98.062 Y120.138 E7.35896
G1 X97.763 Y119.021 E7.42625
G1 X97.641 Y118.455 E7.45994
G1 X97.452 Y117.312 E7.52736
G1 X97.385 Y116.735 E7.56116
G1 X97.338 Y116.16 E7.59473
G1 X97.3 Y115 E7.66227
G1 X97.338 Y113.844 E7.72958
G1 X97.385 Y113.265 E7.76339
G1 X97.451 Y112.692 E7.79696
G1 X97.641 Y111.545 E7.86462
G1 X97.762 Y110.983 E7.89808
G1 X98.062 Y109.862 E7.96561
G1 X98.434 Y108.767 E8.03291
G1 X98.647 Y108.227 E8.06669
G1 X98.877 Y107.697 E8.10031
G1 X99.391 Y106.654 E8.16798
G1 X99.67 Y106.152 E8.2014
G1 X100.284 Y105.164 E8.26909
G1 X100.611 Y104.692 E8.30251
G1 X101.318 Y103.771 E8.37008
G1 X102.08 Y102.902 E8.43734
G1 X102.441 Y102.529 E8.46755
M204 S2500
G1 X102.733 Y102.803 F7200
M204 S2000
G1 F1702
G1 X103.591 Y101.995 E8.53614
G1 X104.027 Y101.625 E8.56942
G1 X104.921 Y100.939 E8.635
G1 X105.391 Y100.614 E8.66825
G1 X106.344 Y100.021 E8.73357
G1 X106.847 Y99.742 E8.76704
G1 X107.854 Y99.245 E8.83239
G1 X108.382 Y99.016 E8.86588
G1 X109.433 Y98.62 E8.93124
G1 X109.98 Y98.444 E8.96468
G1 X111.071 Y98.152 E9.03041
G1 X112.182 Y97.931 E9.09633
G1 X113.305 Y97.783 E9.16225
G1 X114.243 Y97.725 E9.21694
G1 X114.994 Y97.7 E9.26067
G1 X115.568 Y97.709 E9.29408
G1 X116.696 Y97.783 E9.35986
G1 X117.816 Y97.931 E9.4256
G1 X118.377 Y98.033 E9.45878
G1 X119.474 Y98.288 E9.52432
G1 X120.561 Y98.618 E9.59043
G1 X121.618 Y99.016 E9.65616
G1 X122.142 Y99.243 E9.68939
G1 X123.155 Y99.743 E9.75513
G1 X124.134 Y100.307 E9.82088
G1 X124.613 Y100.617 E9.85408
G1 X125.532 Y101.275 E9.91986
G1 X126.407 Y101.993 E9.98573
G1 X127.233 Y102.767 E10.0516
G1 X128.005 Y103.591 E10.11731
G1 X128.375 Y104.027 E10.15059
G1 X129.062 Y104.923 E10.2163
G1 X129.691 Y105.864 E10.28217
G1 X130.257 Y106.845 E10.34808
G1 X130.757 Y107.858 E10.41382
G1 X130.984 Y108.382 E10.44705
G1 X131.381 Y109.437 E10.51265
G1 X131.556 Y109.98 E10.54585
G1 X131.848 Y111.071 E10.61158
G1 X132.07 Y112.186 E10.67774
G1 X132.217 Y113.304 E10.74336
G1 X132.291 Y114.434 E10.80926
G1 X132.291 Y115.566 E10.87514
G1 X132.217 Y116.696 E10.94104
G1 X132.069 Y117.818 E11.0069
G1 X131.848 Y118.929 E11.07282
G1 X131.556 Y120.02 E11.13855
G1 X131.38 Y120.567 E11.17199
G1 X130.984 Y121.618 E11.23735
G1 X130.755 Y122.146 E11.27084
G1 X130.257 Y123.155 E11.33632
G1 X129.691 Y124.136 E11.40223
G1 X129.062 Y125.077 E11.4681
G1 X128.373 Y125.975 E11.53397
G1 X127.628 Y126.824 E11.5997
G1 X127.231 Y127.235 E11.63295
G1 X126.409 Y128.005 E11.6985
G1 X125.973 Y128.375 E11.73178
G1 X125.079 Y129.061 E11.79736
G1 X124.609 Y129.386 E11.83061
G1 X123.652 Y129.981 E11.89619
G1 X123.153 Y130.258 E11.9294
G1 X122.146 Y130.755 E11.99475
G1 X121.618 Y130.984 E12.02824
G1 X120.567 Y131.38 E12.0936
G1 X120.02 Y131.556 E12.12704
G1 X118.929 Y131.848 E12.19277
G1 X117.818 Y132.069 E12.25869
G1 X116.696 Y132.217 E12.32455
G1 X115.566 Y132.291 E12.39045
G1 X114.434 Y132.291 E12.45633
G1 X113.304 Y132.217 E12.52223
G1 X112.186 Y132.07 E12.58785
G1 X111.071 Y131.848 E12.65401
G1 X109.98 Y131.556 E12.71974
G1 X109.437 Y131.381 E12.75294
G1 X108.382 Y130.984 E12.81854
G1 X107.858 Y130.757 E12.85177
G1 X106.845 Y130.257 E12.91751
G1 X105.866 Y129.693 E12.98326
G1 X105.387 Y129.383 E13.01646
G1 X104.47 Y128.727 E13.08207
G1 X104.023 Y128.372 E13.11529
G1 X103.176 Y127.628 E13.1809
G1 X102.765 Y127.231 E13.21415
G1 X101.993 Y126.407 E13.27986
G1 X101.275 Y125.532 E13.34573
G1 X100.617 Y124.613 E13.41151
G1 X100.307 Y124.134 E13.44471
G1 X99.743 Y123.155 E13.51046
G1 X99.243 Y122.142 E13.5762
G1 X99.016 Y121.618 E13.60943
G1 X98.619 Y120.563 E13.67503
G1 X98.444 Y120.02 E13.70823
G1 X98.152 Y118.929 E13.77396
G1 X97.93 Y117.814 E13.84012
G1 X97.783 Y116.696 E13.90574
G1 X97.709 Y115.566 E13.97164
G1 X97.709 Y114.43 E14.03775
G1 X97.783 Y113.304 E14.10342
G1 X97.931 Y112.182 E14.16928
G1 X98.153 Y111.068 E14.23538
G1 X98.444 Y109.98 E14.30092
G1 X98.62 Y109.433 E14.33436
G1 X99.016 Y108.382 E14.39972
G1 X99.245 Y107.854 E14.43321
G1 X99.742 Y106.847 E14.49856
G1 X100.021 Y106.344 E14.53203
G1 X100.614 Y105.391 E14.59735
G1 X100.941 Y104.918 E14.63081
G1 X101.625 Y104.027 E14.69618
G1 X101.995 Y103.591 E14.72946
G1 X102.692 Y102.847 E14.78879
M204 S2500
;LAYER_CHANGE
;Z:0.48
;HEIGHT:0.2
; BEFORE_LAYER_CHANGE 1 @ 0.48mm
G1 Z.48 F7200
; AFTER_LAYER_CHANGE 1 @ 0.48mm
M104 S190 ; set temperature
G1 X102.361 Y102.536
;WIDTH:0.45
G1 F1500
G1 X102.87 Y102.035 E14.81296
G1 X103.736 Y101.275 E14.85196
G1 X104.66 Y100.567 E14.89136
G1 X105.134 Y100.238 E14.91089
G1 X106.124 Y99.623 E14.95034
G1 X106.629 Y99.343 E14.96989
G1 X107.673 Y98.828 E15.00929
G1 X108.746 Y98.383 E15.04861
G1 X109.848 Y98.009 E15.088
G1 X110.403 Y97.851 E15.10753
G1 X111.536 Y97.586 E15.14692
G1 X112.685 Y97.397 E15.18633
G1 X113.258 Y97.331 E15.20585
G1 X114.421 Y97.255 E15.2453
G1 X115.009 Y97.245 E15.26521
G1 X116.161 Y97.283 E15.30423
G1 X117.317 Y97.397 E15.34355
G1 X118.466 Y97.587 E15.38297
G1 X119.03 Y97.708 E15.4025
G1 X120.156 Y98.01 E15.44196
G1 X120.716 Y98.19 E15.46187
G1 X121.796 Y98.597 E15.50094
G1 X122.326 Y98.827 E15.5205
G1 X123.371 Y99.342 E15.55993
G1 X123.876 Y99.623 E15.57949
G1 X124.866 Y100.238 E15.61894
G1 X125.349 Y100.573 E15.63884
G1 X126.265 Y101.276 E15.67792
G1 X126.713 Y101.657 E15.69783
G1 X127.555 Y102.445 E15.73687
G1 X128.343 Y103.287 E15.77591
G1 X128.724 Y103.735 E15.79582
G1 X129.427 Y104.651 E15.8349
G1 X129.762 Y105.134 E15.8548
G1 X130.377 Y106.124 E15.89425
G1 X130.658 Y106.629 E15.91381
G1 X131.172 Y107.673 E15.9532
G1 X131.617 Y108.746 E15.99252
G1 X131.991 Y109.848 E16.03191
G1 X132.149 Y110.403 E16.05144
G1 X132.414 Y111.536 E16.09083
G1 X132.603 Y112.683 E16.13018
G1 X132.717 Y113.839 E16.1695
G1 X132.755 Y115 E16.20882
G1 X132.717 Y116.161 E16.24814
G1 X132.603 Y117.317 E16.28746
G1 X132.414 Y118.464 E16.32681
G1 X132.152 Y119.586 E16.36581
G1 X131.991 Y120.152 E16.38573
G1 X131.616 Y121.256 E16.4252
G1 X131.403 Y121.795 E16.44482
G1 X131.173 Y122.326 E16.46441
G1 X130.658 Y123.371 E16.50384
G1 X130.377 Y123.876 E16.5234
G1 X129.762 Y124.866 E16.56285
G1 X129.433 Y125.34 E16.58238
G1 X128.725 Y126.264 E16.62178
G1 X127.957 Y127.139 E16.66119
G1 X127.556 Y127.553 E16.6807
G1 X126.706 Y128.349 E16.72012
G1 X125.809 Y129.086 E16.75942
G1 X124.862 Y129.764 E16.79884
G1 X124.377 Y130.076 E16.81836
G1 X123.37 Y130.658 E16.85773
G1 X122.326 Y131.173 E16.89713
G1 X121.795 Y131.403 E16.91672
G1 X121.256 Y131.616 E16.93634
G1 X120.152 Y131.991 E16.97581
G1 X119.597 Y132.149 E16.99534
G1 X118.464 Y132.414 E17.03473
G1 X117.315 Y132.603 E17.07414
G1 X116.74 Y132.669 E17.09373
G1 X116.163 Y132.717 E17.11333
G1 X115 Y132.755 E17.15272
G1 X113.839 Y132.717 E17.19204
G1 X112.683 Y132.603 E17.23136
G1 X111.534 Y132.413 E17.27078
G1 X110.97 Y132.292 E17.29031
G1 X109.844 Y131.99 E17.32977
G1 X109.295 Y131.813 E17.34929
G1 X108.204 Y131.403 E17.38874
G1 X107.674 Y131.173 E17.4083
G1 X106.629 Y130.658 E17.44773
G1 X106.124 Y130.377 E17.46729
G1 X105.134 Y129.762 E17.50674
G1 X104.66 Y129.433 E17.52627
G1 X103.735 Y128.724 E17.56572
G1 X103.287 Y128.343 E17.58563
G1 X102.444 Y127.553 E17.62474
G1 X102.043 Y127.139 E17.64425
G1 X101.275 Y126.264 E17.68366
G1 X100.573 Y125.349 E17.7227
G1 X100.238 Y124.866 E17.7426
G1 X99.628 Y123.885 E17.7817
G1 X99.342 Y123.371 E17.80161
G1 X98.832 Y122.337 E17.84064
G1 X98.383 Y121.254 E17.88032
G1 X98.009 Y120.152 E17.91971
G1 X97.851 Y119.597 E17.93924
G1 X97.586 Y118.464 E17.97863
G1 X97.399 Y117.328 E18.0176
G1 X97.283 Y116.161 E18.0573
G1 X97.245 Y115 E18.09662
G1 X97.283 Y113.85 E18.13557
G1 X97.397 Y112.683 E18.17526
G1 X97.587 Y111.534 E18.21468
G1 X97.708 Y110.97 E18.23421
G1 X98.01 Y109.846 E18.27361
G1 X98.379 Y108.756 E18.31256
G1 X98.828 Y107.673 E18.35224
G1 X99.343 Y106.629 E18.39164
G1 X99.623 Y106.124 E18.41119
G1 X100.238 Y105.134 E18.45064
G1 X100.567 Y104.66 E18.47017
G1 X101.277 Y103.735 E18.50964
G1 X101.65 Y103.295 E18.52916
G1 X102.319 Y102.58 E18.5623
G1 X102.691 Y102.928 F7200
G1 F1500
G1 X103.628 Y102.036 E18.60609
G1 X104.061 Y101.668 E18.62532
G1 X104.946 Y100.989 E18.66308
G1 X105.893 Y100.355 E18.70166
G1 X106.871 Y99.791 E18.73987
G1 X107.871 Y99.297 E18.77762
G1 X108.402 Y99.067 E18.79721
G1 X109.455 Y98.671 E18.83529
G1 X109.996 Y98.497 E18.85453
G1 X111.072 Y98.208 E18.89224
G1 X111.638 Y98.086 E18.91184
G1 X112.738 Y97.904 E18.94958
G1 X113.872 Y97.792 E18.98815
G1 X114.987 Y97.755 E19.02591
G1 X115.566 Y97.764 E19.04551
G1 X116.69 Y97.838 E19.08364
G1 X117.807 Y97.985 E19.12178
G1 X118.366 Y98.087 E19.14101
G1 X119.453 Y98.34 E19.17879
G1 X120.543 Y98.67 E19.21734
G1 X121.599 Y99.068 E19.25554
G1 X122.616 Y99.528 E19.29332
G1 X123.131 Y99.792 E19.31291
G1 X124.096 Y100.349 E19.35062
G1 X124.582 Y100.662 E19.37019
G1 X125.498 Y101.318 E19.40833
G1 X126.371 Y102.035 E19.44657
G1 X127.193 Y102.805 E19.48469
G1 X127.595 Y103.221 E19.50427
G1 X128.331 Y104.06 E19.54205
G1 X129.018 Y104.955 E19.58024
G1 X129.65 Y105.903 E19.61881
G1 X130.208 Y106.869 E19.65657
G1 X130.468 Y107.374 E19.6758
G1 X130.932 Y108.401 E19.71395
G1 X131.329 Y109.455 E19.75207
G1 X131.503 Y109.996 E19.77131
G1 X131.795 Y111.084 E19.80944
G1 X132.015 Y112.191 E19.84764
G1 X132.162 Y113.31 E19.88584
G1 X132.236 Y114.434 E19.92397
G1 X132.245 Y115.002 E19.9432
G1 X132.208 Y116.126 E19.98127
G1 X132.162 Y116.692 E20.00049
G1 X132.015 Y117.807 E20.03856
G1 X131.913 Y118.366 E20.05779
G1 X131.658 Y119.463 E20.09591
G1 X131.326 Y120.553 E20.13448
G1 X130.933 Y121.598 E20.17227
G1 X130.707 Y122.119 E20.19149
G1 X130.209 Y123.129 E20.22961
G1 X129.646 Y124.105 E20.26775
G1 X129.338 Y124.583 E20.287
G1 X128.682 Y125.498 E20.32511
G1 X127.958 Y126.379 E20.36371
G1 X127.194 Y127.194 E20.40152
G1 X126.371 Y127.965 E20.43969
G1 X125.498 Y128.682 E20.47793
G1 X124.581 Y129.339 E20.51611
G1 X123.624 Y129.934 E20.55425
G1 X123.128 Y130.21 E20.57346
G1 X122.119 Y130.707 E20.61153
G1 X121.598 Y130.933 E20.63075
G1 X120.545 Y131.329 E20.66883
G1 X120.004 Y131.503 E20.68807
G1 X118.916 Y131.795 E20.7262
G1 X117.809 Y132.015 E20.7644
G1 X116.69 Y132.162 E20.8026
G1 X115.564 Y132.236 E20.8408
G1 X114.436 Y132.236 E20.87898
G1 X113.31 Y132.162 E20.91718
G1 X112.191 Y132.015 E20.95538
G1 X111.084 Y131.795 E20.99358
G1 X109.996 Y131.503 E21.03171
G1 X109.455 Y131.329 E21.05095
G1 X108.401 Y130.932 E21.08907
G1 X107.375 Y130.468 E21.12719
G1 X106.869 Y130.208 E21.14645
G1 X105.895 Y129.646 E21.18451
G1 X105.418 Y129.338 E21.20373
G1 X104.512 Y128.689 E21.24145
G1 X104.058 Y128.329 E21.26106
G1 X103.221 Y127.595 E21.29874
G1 X102.805 Y127.193 E21.31832
G1 X102.034 Y126.371 E21.35647
G1 X101.312 Y125.489 E21.39505
G1 X100.661 Y124.581 E21.43287
G1 X100.066 Y123.624 E21.47101
G1 X99.79 Y123.128 E21.49022
G1 X99.293 Y122.119 E21.52829
G1 X99.067 Y121.598 E21.54751
G1 X98.671 Y120.545 E21.58559
G1 X98.497 Y120.004 E21.60483
G1 X98.205 Y118.916 E21.64296
G1 X97.984 Y117.798 E21.68154
G1 X97.838 Y116.69 E21.71937
G1 X97.764 Y115.564 E21.75757
G1 X97.765 Y114.425 E21.79612
G1 X97.838 Y113.31 E21.83394
G1 X97.985 Y112.191 E21.87214
G1 X98.208 Y111.074 E21.9107
G1 X98.497 Y109.996 E21.94848
G1 X98.671 Y109.455 E21.96772
G1 X99.067 Y108.402 E22.0058
G1 X99.297 Y107.871 E22.02539
G1 X99.791 Y106.871 E22.06314
G1 X100.354 Y105.895 E22.10128
G1 X100.662 Y105.417 E22.12053
G1 X101.318 Y104.502 E22.15864
