; generated by PrusaSlicer 2.6.0+MacOS-x64 on 2023-08-09 at 02:03:46 UTC

; 

; external perimeters extrusion width = 0.45mm
; perimeters extrusion width = 0.40mm
; infill extrusion width = 0.45mm
; solid infill extrusion width = 0.50mm
; top infill extrusion width = 0.45mm
; first layer extrusion width = 0.56mm

M201 X2500 Y2500 Z800 E2500 ; sets maximum accelerations, mm/sec^2
M203 X300 Y250 Z8 E80 ; sets maximum feedrates, mm / sec
M204 S2500 T2500 ; sets acceleration (S) and retract acceleration (R), mm/sec^2
M205 X15.00 Y10.00 Z2.00 E10.00 ; sets the jerk limits, mm/sec
M205 S0 T0 ; sets the minimum extruding and travel feed rate, mm/sec
;TYPE:Custom
G90 ; use absolute coordinates
M83 ; extruder relative mode
M104 S215 ; set extruder temp
M140 S65 ; set bed temp
M190 S65 ; wait for bed temp
M109 S215 ; wait for extruder temp
G28                                        ; move X/Y/Z to min endstops
G1 Z0.28                                   ; lift nozzle a bit 
G92 E0 
G1 Y3 F1800                                    ; zero the extruded length 
G1 X60  E25 F500                       ; Extrude 25mm of filament in a 5cm line. 
G92 E0                                     ; zero the extruded length again 
G1 E-2 F500                                ; Retract a little 
G1 X70 F4000                              ; Quickly wipe away from the filament line
M117
G21 ; set units to millimeters
G90 ; use absolute coordinates
M82 ; use absolute distances for extrusion
G92 E0
M107
;LAYER_CHANGE
;Z:0.28
;HEIGHT:0.28
; BEFORE_LAYER_CHANGE 0 @ 0.28mm
G1 Z.28 F7200
; AFTER_LAYER_CHANGE 0 @ 0.28mm
G1 E-2 F4800
G92 E0
G1 X96.827 Y96.827 F7200
G1 E2 F4800
M204 S2000
;TYPE:External perimeter
;WIDTH:0.56
G1 F2460
G1 X98.055 Y95.678 E2.09787
G1 X99.355 Y94.611 E2.19574
G1 X100.722 Y93.631 E2.29362
G1 X102.15 Y92.743 E2.39148
G1 X103.633 Y91.951 E2.48932
G1 X105.165 Y91.256 E2.58722
G1 X106.744 Y90.663 E2.68538
G1 X108.348 Y90.176 E2.78293
G1 X109.986 Y89.794 E2.88081
G1 X111.646 Y89.52 E2.97872
G1 X113.319 Y89.355 E3.07655
G1 X115.005 Y89.3 E3.17472
G1 X116.681 Y89.355 E3.27231
G1 X118.355 Y89.52 E3.3702
G1 X120.014 Y89.794 E3.46805
G1 X121.652 Y90.176 E3.56593
G1 X123.261 Y90.664 E3.66378
G1 X124.835 Y91.256 E3.76164
G1 X126.371 Y91.953 E3.8598
G1 X127.85 Y92.743 E3.95738
G1 X129.278 Y93.631 E4.05524
G1 X130.645 Y94.611 E4.15312
G1 X131.945 Y95.678 E4.25099
G1 X133.173 Y96.827 E4.34886
G1 X134.322 Y98.055 E4.44673
G1 X135.389 Y99.355 E4.5446
G1 X136.369 Y100.722 E4.64248
G1 X137.257 Y102.15 E4.74034
G1 X138.049 Y103.633 E4.83818
G1 X138.744 Y105.165 E4.93608
G1 X139.336 Y106.739 E5.03394
G1 X139.824 Y108.348 E5.13179
G1 X140.206 Y109.986 E5.22967
G1 X140.48 Y111.645 E5.32752
G1 X140.644 Y113.314 E5.42512
G1 X140.7 Y115 E5.52329
G1 X140.645 Y116.681 E5.62117
G1 X140.48 Y118.355 E5.71906
G1 X140.206 Y120.014 E5.81691
G1 X139.824 Y121.652 E5.91479
G1 X139.336 Y123.261 E6.01264
G1 X138.744 Y124.835 E6.1105
G1 X138.049 Y126.367 E6.2084
G1 X137.257 Y127.85 E6.30624
G1 X136.369 Y129.278 E6.4041
G1 X135.389 Y130.645 E6.50198
G1 X134.322 Y131.945 E6.59985
G1 X133.173 Y133.173 E6.69772
G1 X131.945 Y134.322 E6.79559
G1 X130.645 Y135.389 E6.89346
G1 X129.278 Y136.369 E6.99134
G1 X127.85 Y137.257 E7.0892
G1 X126.367 Y138.049 E7.18704
G1 X124.835 Y138.744 E7.28494
G1 X123.261 Y139.336 E7.3828
G1 X121.652 Y139.824 E7.48065
G1 X120.014 Y140.206 E7.57853
G1 X118.355 Y140.48 E7.67638
G1 X116.681 Y140.645 E7.77427
G1 X115 Y140.7 E7.87215
G1 X113.319 Y140.645 E7.97003
G1 X111.645 Y140.48 E8.06792
G1 X109.986 Y140.206 E8.16577
G1 X108.348 Y139.824 E8.26365
G1 X106.739 Y139.336 E8.3615
G1 X105.165 Y138.744 E8.45936
G1 X103.633 Y138.049 E8.55726
G1 X102.15 Y137.257 E8.6551
G1 X100.722 Y136.369 E8.75296
G1 X99.355 Y135.389 E8.85084
G1 X98.055 Y134.322 E8.94871
G1 X96.827 Y133.173 E9.04658
G1 X95.678 Y131.945 E9.14445
G1 X94.614 Y130.649 E9.24203
G1 X93.631 Y129.278 E9.3402
G1 X92.743 Y127.85 E9.43806
G1 X91.953 Y126.371 E9.53564
G1 X91.256 Y124.835 E9.6338
G1 X90.664 Y123.261 E9.73166
G1 X90.177 Y121.656 E9.82927
G1 X89.794 Y120.014 E9.92739
G1 X89.52 Y118.355 E10.02524
G1 X89.356 Y116.686 E10.12284
G1 X89.3 Y115 E10.22101
G1 X89.355 Y113.319 E10.31889
G1 X89.52 Y111.65 E10.41649
G1 X89.794 Y109.986 E10.51463
G1 X90.176 Y108.348 E10.61251
G1 X90.663 Y106.744 E10.71006
G1 X91.256 Y105.165 E10.80822
G1 X91.951 Y103.633 E10.90612
G1 X92.743 Y102.15 E11.00396
G1 X93.631 Y100.722 E11.10182
G1 X94.611 Y99.355 E11.1997
G1 X95.678 Y98.055 E11.29757
G1 X96.786 Y96.871 E11.39194
M204 S2500
G1 X97.078 Y97.144 F7200
M204 S2000
G1 F2460
G1 X98.318 Y95.978 E11.49099
G1 X99.595 Y94.931 E11.58709
G1 X100.944 Y93.964 E11.68368
G1 X102.35 Y93.089 E11.78005
G1 X103.81 Y92.309 E11.87638
G1 X105.318 Y91.626 E11.97272
G1 X106.868 Y91.043 E12.06909
G1 X108.452 Y90.562 E12.16543
G1 X110.064 Y90.186 E12.26176
G1 X111.698 Y89.916 E12.35814
G1 X113.345 Y89.754 E12.45445
G1 X114.995 Y89.7 E12.55052
G1 X116.655 Y89.754 E12.64717
G1 X118.302 Y89.916 E12.74348
G1 X119.936 Y90.186 E12.83986
G1 X121.548 Y90.562 E12.93619
G1 X123.132 Y91.043 E13.03253
G1 X124.682 Y91.626 E13.1289
G1 X126.19 Y92.309 E13.22524
G1 X127.646 Y93.087 E13.32131
G1 X129.056 Y93.964 E13.41794
G1 X130.402 Y94.928 E13.51429
G1 X131.682 Y95.978 E13.61064
G1 X132.89 Y97.11 E13.70698
G1 X134.022 Y98.318 E13.80332
G1 X135.072 Y99.598 E13.89967
G1 X136.036 Y100.944 E13.99602
G1 X136.911 Y102.35 E14.09239
G1 X137.691 Y103.81 E14.18872
G1 X138.374 Y105.318 E14.28506
G1 X138.957 Y106.868 E14.38143
G1 X139.438 Y108.452 E14.47777
G1 X139.814 Y110.064 E14.5741
G1 X140.084 Y111.698 E14.67048
G1 X140.246 Y113.345 E14.76679
G1 X140.3 Y115 E14.86315
G1 X140.246 Y116.655 E14.95951
G1 X140.084 Y118.302 E15.05582
G1 X139.814 Y119.936 E15.1522
G1 X139.438 Y121.548 E15.24853
G1 X138.957 Y123.132 E15.34487
G1 X138.374 Y124.682 E15.44124
G1 X137.691 Y126.19 E15.53758
G1 X136.911 Y127.65 E15.63391
G1 X136.036 Y129.056 E15.73028
G1 X135.072 Y130.402 E15.82663
G1 X134.022 Y131.682 E15.92298
G1 X132.89 Y132.89 E16.01932
G1 X131.682 Y134.022 E16.11566
G1 X130.402 Y135.072 E16.21201
G1 X129.056 Y136.036 E16.30836
G1 X127.65 Y136.911 E16.40473
G1 X126.19 Y137.691 E16.50106
G1 X124.682 Y138.374 E16.5974
G1 X123.132 Y138.957 E16.69377
G1 X121.548 Y139.438 E16.79011
G1 X119.936 Y139.814 E16.88644
G1 X118.302 Y140.084 E16.98282
G1 X116.655 Y140.246 E17.07913
G1 X115 Y140.3 E17.17549
G1 X113.345 Y140.246 E17.27185
G1 X111.698 Y140.084 E17.36816
G1 X110.064 Y139.814 E17.46454
G1 X108.452 Y139.438 E17.56087
G1 X106.868 Y138.957 E17.65721
G1 X105.318 Y138.374 E17.75358
G1 X103.81 Y137.691 E17.84992
G1 X102.35 Y136.911 E17.94625
G1 X100.944 Y136.036 E18.04262
G1 X99.598 Y135.072 E18.13897
G1 X98.318 Y134.022 E18.23532
G1 X97.11 Y132.89 E18.33166
G1 X95.978 Y131.682 E18.428
G1 X94.928 Y130.402 E18.52435
G1 X93.964 Y129.056 E18.6207
G1 X93.087 Y127.646 E18.71733
G1 X92.309 Y126.19 E18.8134
G1 X91.626 Y124.682 E18.90974
G1 X91.043 Y123.132 E19.00611
G1 X90.562 Y121.548 E19.10245
G1 X90.186 Y119.936 E19.19878
G1 X89.916 Y118.302 E19.29516
G1 X89.754 Y116.655 E19.39147
G1 X89.7 Y115 E19.48783
G1 X89.754 Y113.345 E19.58419
G1 X89.916 Y111.698 E19.6805
G1 X90.186 Y110.064 E19.77688
G1 X90.562 Y108.452 E19.87321
G1 X91.043 Y106.868 E19.96955
G1 X91.626 Y105.318 E20.06592
G1 X92.309 Y103.81 E20.16226
G1 X93.089 Y102.35 E20.25859
G1 X93.964 Y100.944 E20.35496
G1 X94.931 Y99.595 E20.45155
G1 X95.978 Y98.318 E20.54765
G1 X97.037 Y97.188 E20.63777
M204 S2500
;LAYER_CHANGE
;Z:0.48
;HEIGHT:0.2
; BEFORE_LAYER_CHANGE 1 @ 0.48mm
G1 Z.48 F7200
; AFTER_LAYER_CHANGE 1 @ 0.48mm
M104 S195 ; set temperature
G1 X96.705 Y96.877
;WIDTH:0.45
G1 F2135
G1 X98.029 Y95.628 E20.69938
G1 X99.321 Y94.567 E20.75597
G1 X100.691 Y93.586 E20.81301
G1 X102.123 Y92.696 E20.87008
G1 X103.609 Y91.901 E20.92713
G1 X105.144 Y91.206 E20.98417
G1 X106.734 Y90.608 E21.04167
G1 X108.334 Y90.123 E21.09826
G1 X109.975 Y89.74 E21.1553
G1 X111.638 Y89.465 E21.21236
G1 X113.315 Y89.3 E21.2694
G1 X115.013 Y89.246 E21.3269
G1 X116.684 Y89.3 E21.38349
G1 X118.362 Y89.465 E21.44056
G1 X120.025 Y89.74 E21.49762
G1 X121.666 Y90.123 E21.55466
G1 X123.279 Y90.612 E21.61171
G1 X124.856 Y91.206 E21.66875
G1 X126.391 Y91.901 E21.72579
G1 X127.877 Y92.696 E21.78284
G1 X129.309 Y93.586 E21.83991
G1 X130.679 Y94.567 E21.89695
G1 X131.981 Y95.636 E21.95397
G1 X133.211 Y96.789 E22.01104
G1 X134.364 Y98.019 E22.06811
G1 X135.425 Y99.311 E22.1247
G1 X136.414 Y100.691 E22.18217
G1 X137.304 Y102.123 E22.23924
G1 X138.099 Y103.609 E22.29629
G1 X138.794 Y105.144 E22.35333
G1 X139.388 Y106.721 E22.41037
G1 X139.877 Y108.334 E22.46742
G1 X140.26 Y109.975 E22.52446
G1 X140.535 Y111.638 E22.58152
G1 X140.7 Y113.316 E22.63859
G1 X140.755 Y115 E22.69562
G1 X140.7 Y116.684 E22.75265
G1 X140.535 Y118.362 E22.80972
G1 X140.26 Y120.025 E22.86678
G1 X139.877 Y121.666 E22.92382
G1 X139.388 Y123.279 E22.98087
G1 X138.794 Y124.856 E23.03791
G1 X138.099 Y126.391 E23.09495
G1 X137.304 Y127.877 E23.152
G1 X136.414 Y129.309 E23.20907
G1 X135.433 Y130.679 E23.26611
G1 X134.364 Y131.981 E23.32313
G1 X133.211 Y133.211 E23.3802
G1 X131.981 Y134.364 E23.43727
G1 X130.679 Y135.433 E23.49429
G1 X129.309 Y136.414 E23.55133
G1 X127.877 Y137.304 E23.6084
G1 X126.391 Y138.099 E23.66545
G1 X124.856 Y138.794 E23.72249
G1 X123.279 Y139.388 E23.77953
G1 X121.666 Y139.877 E23.83658
G1 X120.025 Y140.26 E23.89362
G1 X118.362 Y140.535 E23.95068
G1 X116.684 Y140.7 E24.00775
G1 X115 Y140.755 E24.06478
G1 X113.316 Y140.7 E24.12181
G1 X111.638 Y140.535 E24.17888
G1 X109.975 Y140.26 E24.23594
G1 X108.334 Y139.877 E24.29298
G1 X106.721 Y139.388 E24.35003
G1 X105.144 Y138.794 E24.40707
G1 X103.609 Y138.099 E24.46411
G1 X102.123 Y137.304 E24.52116
G1 X100.691 Y136.414 E24.57823
G1 X99.321 Y135.433 E24.63527
G1 X98.019 Y134.364 E24.69229
G1 X96.789 Y133.211 E24.74936
G1 X95.636 Y131.981 E24.80643
G1 X94.575 Y130.689 E24.86302
G1 X93.586 Y129.309 E24.92049
G1 X92.696 Y127.877 E24.97756
G1 X91.901 Y126.391 E25.03461
G1 X91.206 Y124.856 E25.09165
G1 X90.612 Y123.279 E25.14869
G1 X90.123 Y121.666 E25.20574
G1 X89.74 Y120.025 E25.26278
G1 X89.465 Y118.362 E25.31984
G1 X89.3 Y116.684 E25.37691
G1 X89.245 Y115 E25.43394
G1 X89.3 Y113.316 E25.49097
G1 X89.464 Y111.651 E25.5476
G1 X89.74 Y109.975 E25.60509
G1 X90.123 Y108.334 E25.66213
G1 X90.608 Y106.734 E25.71872
G1 X91.206 Y105.144 E25.77622
G1 X91.901 Y103.609 E25.83326
G1 X92.696 Y102.123 E25.89031
G1 X93.586 Y100.691 E25.94738
G1 X94.567 Y99.321 E26.00442
G1 X95.636 Y98.019 E26.06144
G1 X96.664 Y96.921 E26.11235
G1 X97.036 Y97.27 F7200
G1 F2135
G1 X98.355 Y96.02 E26.17386
G1 X99.622 Y94.98 E26.22934
G1 X100.975 Y94.009 E26.28571
G1 X102.377 Y93.137 E26.3416
G1 X103.823 Y92.364 E26.3971
G1 X105.339 Y91.677 E26.45344
G1 X106.885 Y91.095 E26.50936
G1 X108.466 Y90.615 E26.56529
G1 X110.075 Y90.24 E26.62121
G1 X111.705 Y89.971 E26.67713
G1 X113.349 Y89.809 E26.73305
G1 X114.988 Y89.755 E26.78856
G1 X116.651 Y89.809 E26.84488
G1 X118.295 Y89.971 E26.9008
G1 X119.925 Y90.24 E26.95672
G1 X121.534 Y90.615 E27.01264
G1 X123.103 Y91.091 E27.06814
G1 X124.661 Y91.677 E27.12448
G1 X126.166 Y92.358 E27.18039
G1 X127.623 Y93.137 E27.23631
G1 X129.025 Y94.009 E27.2922
G1 X130.368 Y94.972 E27.34814
G1 X131.645 Y96.02 E27.40406
G1 X132.851 Y97.149 E27.45998
G1 X133.988 Y98.364 E27.51631
G1 X135.028 Y99.632 E27.57182
G1 X135.991 Y100.975 E27.62776
G1 X136.863 Y102.377 E27.68365
G1 X137.642 Y103.834 E27.73957
G1 X138.323 Y105.339 E27.79548
G1 X138.905 Y106.885 E27.8514
G1 X139.385 Y108.466 E27.90733
G1 X139.76 Y110.075 E27.96325
G1 X140.03 Y111.717 E28.01958
G1 X140.191 Y113.349 E28.07509
G1 X140.245 Y115 E28.131
G1 X140.191 Y116.651 E28.18691
G1 X140.029 Y118.295 E28.24283
G1 X139.76 Y119.925 E28.29875
G1 X139.385 Y121.534 E28.35467
G1 X138.905 Y123.115 E28.4106
G1 X138.323 Y124.661 E28.46652
G1 X137.636 Y126.177 E28.52286
G1 X136.863 Y127.623 E28.57836
G1 X135.991 Y129.025 E28.63425
G1 X135.028 Y130.368 E28.69019
G1 X133.98 Y131.645 E28.74611
G1 X132.851 Y132.851 E28.80203
G1 X131.645 Y133.98 E28.85795
G1 X130.368 Y135.028 E28.91387
G1 X129.025 Y135.991 E28.96981
G1 X127.623 Y136.863 E29.0257
G1 X126.166 Y137.642 E29.08162
G1 X124.661 Y138.323 E29.13753
G1 X123.115 Y138.905 E29.19345
G1 X121.534 Y139.385 E29.24938
G1 X119.925 Y139.76 E29.3053
G1 X118.295 Y140.029 E29.36122
G1 X116.651 Y140.191 E29.41714
G1 X115 Y140.245 E29.47305
G1 X113.349 Y140.191 E29.52896
G1 X111.705 Y140.029 E29.58488
G1 X110.075 Y139.76 E29.6408
G1 X108.466 Y139.385 E29.69672
G1 X106.885 Y138.905 E29.75265
G1 X105.339 Y138.323 E29.80857
G1 X103.834 Y137.642 E29.86448
G1 X102.377 Y136.863 E29.9204
G1 X100.975 Y135.991 E29.97629
G1 X99.632 Y135.028 E30.03223
G1 X98.355 Y133.98 E30.08815
G1 X97.149 Y132.851 E30.14407
G1 X96.02 Y131.645 E30.19999
G1 X94.972 Y130.368 E30.25591
G1 X94.009 Y129.025 E30.31185
G1 X93.137 Y127.623 E30.36774
G1 X92.358 Y126.166 E30.42366
G1 X91.677 Y124.661 E30.47957
G1 X91.095 Y123.115 E30.53549
G1 X90.615 Y121.534 E30.59142
G1 X90.24 Y119.925 E30.64734
G1 X89.97 Y118.283 E30.70367
G1 X89.809 Y116.651 E30.75918
G1 X89.755 Y115 E30.81509
G1 X89.809 Y113.349 E30.871
G1 X89.971 Y111.705 E30.92692
G1 X90.24 Y110.075 E30.98284
G1 X90.615 Y108.466 E31.03876
G1 X91.095 Y106.885 E31.09469
G1 X91.677 Y105.339 E31.15061
G1 X92.364 Y103.823 E31.20695
G1 X93.137 Y102.377 E31.26245
G1 X94.009 Y100.975 E31.31834
G1 X94.98 Y99.622 E31.37471
G1 X96.02 Y98.355 E31.43019
G1 X96.995 Y97.313 E31.47849
M106 S255
;LAYER_CHANGE
;Z:0.68
;HEIGHT:0.2
; BEFORE_LAYER_CHANGE 2 @ 0.68mm
G1 Z.68 F7200
; AFTER_LAYER_CHANGE 2 @ 0.68mm
G1 X96.623 Y96.965
G1 F2135
G1 X96.789 Y96.789 E31.48668
G1 X98.019 Y95.636 E31.54375
G1 X99.321 Y94.567 E31.60077
G1 X100.691 Y93.586 E31.65781
G1 X102.123 Y92.696 E31.71488
G1 X103.609 Y91.901 E31.77193
G1 X105.144 Y91.206 E31.82897
G1 X106.74 Y90.606 E31.88668
G1 X108.334 Y90.123 E31.94306
G1 X109.975 Y89.74 E32.0001
G1 X111.638 Y89.465 E32.05716
G1 X113.315 Y89.3 E32.1142
G1 X115.02 Y89.246 E32.17194
G1 X116.684 Y89.3 E32.22829
G1 X118.362 Y89.465 E32.28536
G1 X120.025 Y89.74 E32.34242
G1 X121.666 Y90.123 E32.39946
G1 X123.279 Y90.612 E32.45651
G1 X124.856 Y91.206 E32.51355
G1 X126.391 Y91.901 E32.57059
G1 X127.877 Y92.696 E32.62764
G1 X129.309 Y93.586 E32.68471
G1 X130.694 Y94.58 E32.74241
G1 X131.981 Y95.636 E32.79876
G1 X133.211 Y96.789 E32.85583
G1 X134.364 Y98.019 E32.9129
G1 X135.42 Y99.306 E32.96925
G1 X136.414 Y100.691 E33.02695
G1 X137.304 Y102.123 E33.08402
G1 X138.099 Y103.609 E33.14107
G1 X138.794 Y105.144 E33.19811
G1 X139.388 Y106.721 E33.25515
G1 X139.877 Y108.334 E33.3122
G1 X140.26 Y109.975 E33.36924
G1 X140.535 Y111.638 E33.4263
G1 X140.7 Y113.316 E33.48337
G1 X140.755 Y115 E33.5404
G1 X140.7 Y116.684 E33.59743
G1 X140.536 Y118.342 E33.65383
G1 X140.26 Y120.025 E33.71156
G1 X139.877 Y121.666 E33.7686
G1 X139.394 Y123.26 E33.82498
G1 X138.794 Y124.856 E33.88269
G1 X138.099 Y126.391 E33.93973
G1 X137.304 Y127.877 E33.99678
G1 X136.414 Y129.309 E34.05385
G1 X135.433 Y130.679 E34.11089
G1 X134.364 Y131.981 E34.16791
G1 X133.211 Y133.211 E34.22498
G1 X131.981 Y134.364 E34.28205
G1 X130.679 Y135.433 E34.33907
G1 X129.309 Y136.414 E34.39611
G1 X127.877 Y137.304 E34.45318
G1 X126.391 Y138.099 E34.51023
G1 X124.856 Y138.794 E34.56727
G1 X123.279 Y139.388 E34.62431
G1 X121.666 Y139.877 E34.68136
G1 X120.025 Y140.26 E34.7384
G1 X118.362 Y140.535 E34.79546
G1 X116.684 Y140.7 E34.85253
G1 X115 Y140.755 E34.90956
G1 X113.316 Y140.7 E34.96659
G1 X111.638 Y140.535 E35.02366
G1 X109.975 Y140.26 E35.08072
G1 X108.334 Y139.877 E35.13776
G1 X106.721 Y139.388 E35.19481
G1 X105.144 Y138.794 E35.25185
G1 X103.609 Y138.099 E35.30889
G1 X102.123 Y137.304 E35.36594
G1 X100.691 Y136.414 E35.42301
G1 X99.306 Y135.42 E35.48071
G1 X98.019 Y134.364 E35.53706
G1 X96.789 Y133.211 E35.59413
G1 X95.636 Y131.981 E35.6512
G1 X94.58 Y130.694 E35.70755
G1 X93.586 Y129.309 E35.76525
G1 X92.696 Y127.877 E35.82232
G1 X91.901 Y126.391 E35.87937
G1 X91.206 Y124.856 E35.93641
G1 X90.612 Y123.279 E35.99345
G1 X90.123 Y121.666 E36.0505
