; generated by PrusaSlicer 2.6.0+MacOS-x64 on 2023-08-15 at 01:39:35 UTC

; 

; external perimeters extrusion width = 0.45mm
; perimeters extrusion width = 0.40mm
; infill extrusion width = 0.45mm
; solid infill extrusion width = 0.50mm
; top infill extrusion width = 0.45mm
; support material extrusion width = 0.42mm
; first layer extrusion width = 0.56mm

M201 X2500 Y2500 Z800 E2500 ; sets maximum accelerations, mm/sec^2
M203 X300 Y250 Z8 E80 ; sets maximum feedrates, mm / sec
M204 S2500 T2500 ; sets acceleration (S) and retract acceleration (R), mm/sec^2
M205 X15.00 Y10.00 Z2.00 E10.00 ; sets the jerk limits, mm/sec
M205 S0 T0 ; sets the minimum extruding and travel feed rate, mm/sec
;TYPE:Custom
G90 ; use absolute coordinates
M83 ; extruder relative mode
M104 S215 ; set extruder temp
M140 S65 ; set bed temp
M190 S65 ; wait for bed temp
M109 S215 ; wait for extruder temp
G28                                        ; move X/Y/Z to min endstops
G1 Z0.28                                   ; lift nozzle a bit 
G92 E0 
G1 Y3 F1800                                    ; zero the extruded length 
G1 X60  E25 F500                       ; Extrude 25mm of filament in a 5cm line. 
G92 E0                                     ; zero the extruded length again 
G1 E-2 F500                                ; Retract a little 
G1 X70 F4000                              ; Quickly wipe away from the filament line
M117
G21 ; set units to millimeters
G90 ; use absolute coordinates
M82 ; use absolute distances for extrusion
G92 E0
M107
;LAYER_CHANGE
;Z:0.28
;HEIGHT:0.28
; BEFORE_LAYER_CHANGE 0 @ 0.28mm
G1 E-2 F4800
G92 E0
G1 Z.28 F7200
; AFTER_LAYER_CHANGE 0 @ 0.28mm
G1 X72.344 Y97.593
G1 E2 F4800
M204 S2000
;TYPE:Skirt/Brim
;WIDTH:0.56
G1 F3000
G1 X72.925 Y97.253 E2.03918
G1 X73.547 Y96.99 E2.07848
G1 X74.75 Y96.751 E2.14986
G1 X155.308 Y96.756 E6.83793
G1 X156.246 Y96.928 E6.89343
G1 X157.176 Y97.305 E6.95183
G1 X157.896 Y97.78 E7.00203
G1 X158.574 Y98.427 E7.05657
G1 X159.282 Y99.493 E7.13104
G1 X159.606 Y100.377 E7.18583
G1 X159.749 Y101.259 E7.23783
G1 X159.739 Y128.849 E8.84343
G1 X159.506 Y129.962 E8.90961
G1 X159.21 Y130.648 E8.95309
G1 X158.83 Y131.259 E8.99496
G1 X157.656 Y132.407 E9.09052
G1 X157.075 Y132.747 E9.1297
G1 X156.453 Y133.01 E9.169
G1 X155.25 Y133.249 E9.24038
G1 X74.75 Y133.249 E13.92507
G1 X73.537 Y133.006 E13.99706
G1 X72.852 Y132.71 E14.04049
G1 X72.241 Y132.33 E14.08236
G1 X71.093 Y131.156 E14.17792
G1 X70.753 Y130.575 E14.2171
G1 X70.49 Y129.953 E14.2564
G1 X70.251 Y128.75 E14.32778
G1 X70.251 Y101.25 E15.92814
G1 X70.494 Y100.037 E16.00013
G1 X70.79 Y99.352 E16.04356
G1 X71.17 Y98.741 E16.08543
G1 X72.301 Y97.635 E16.17749
M204 S2500
G1 X72.623 Y98.009 F7200
M204 S2000
G1 F3000
G1 X73.163 Y97.693 E16.2139
G1 X73.717 Y97.461 E16.24885
G1 X74.774 Y97.251 E16.31156
G1 X155.284 Y97.256 E20.99683
G1 X156.127 Y97.414 E21.04674
G1 X156.962 Y97.757 E21.09927
G1 X157.599 Y98.183 E21.14387
G1 X158.208 Y98.768 E21.19301
G1 X158.824 Y99.695 E21.25778
G1 X159.117 Y100.483 E21.30671
G1 X159.249 Y101.28 E21.35372
G1 X159.244 Y128.774 E22.95373
G1 X159.036 Y129.79 E23.01408
G1 X158.775 Y130.401 E23.05275
G1 X158.421 Y130.97 E23.09175
G1 X157.377 Y131.991 E23.17673
G1 X156.837 Y132.307 E23.21314
G1 X156.283 Y132.539 E23.24809
G1 X155.226 Y132.749 E23.3108
G1 X74.774 Y132.749 E27.9927
G1 X73.71 Y132.536 E28.05585
G1 X73.099 Y132.275 E28.09452
G1 X72.53 Y131.921 E28.13352
G1 X71.509 Y130.877 E28.2185
G1 X71.193 Y130.337 E28.25491
G1 X70.961 Y129.783 E28.28986
G1 X70.751 Y128.726 E28.35257
G1 X70.751 Y101.274 E29.95014
G1 X70.964 Y100.21 E30.01329
G1 X71.225 Y99.599 E30.05196
G1 X71.579 Y99.03 E30.09096
G1 X72.58 Y98.051 E30.17244
M204 S2500
G1 X72.903 Y98.424 F7200
M204 S2000
G1 F3000
G1 X73.372 Y98.148 E30.20411
G1 X73.887 Y97.932 E30.23661
G1 X74.799 Y97.751 E30.29072
G1 X155.26 Y97.755 E34.97314
G1 X156.006 Y97.9 E35.01737
G1 X156.746 Y98.208 E35.06402
G1 X157.3 Y98.584 E35.10298
G1 X157.84 Y99.108 E35.14677
G1 X158.367 Y99.899 E35.20208
G1 X158.629 Y100.592 E35.2452
G1 X158.749 Y101.302 E35.2871
G1 X158.749 Y128.701 E36.88158
G1 X158.566 Y129.617 E36.93594
G1 X158.323 Y130.186 E36.97195
G1 X158.014 Y130.679 E37.00581
G1 X157.097 Y131.576 E37.08046
G1 X156.628 Y131.852 E37.11213
G1 X156.113 Y132.068 E37.14463
G1 X155.201 Y132.249 E37.19874
G1 X74.799 Y132.249 E41.87773
G1 X73.883 Y132.066 E41.93209
G1 X73.314 Y131.823 E41.9681
G1 X72.821 Y131.514 E42.00196
G1 X71.924 Y130.597 E42.07661
G1 X71.648 Y130.128 E42.10828
G1 X71.432 Y129.613 E42.14078
G1 X71.251 Y128.701 E42.19489
G1 X71.251 Y101.299 E43.78955
G1 X71.434 Y100.383 E43.84391
G1 X71.677 Y99.814 E43.87992
G1 X71.986 Y99.321 E43.91378
G1 X72.86 Y98.466 E43.98493
M204 S2500
G1 X73.183 Y98.839 F7200
M204 S2000
G1 F3000
G1 X73.611 Y98.587 E44.01383
G1 X74.055 Y98.403 E44.0418
G1 X74.824 Y98.251 E44.08742
G1 X155.234 Y98.255 E48.76687
G1 X155.882 Y98.385 E48.80533
G1 X156.526 Y98.658 E48.84604
G1 X156.998 Y98.982 E48.87936
G1 X157.472 Y99.447 E48.918
G1 X157.91 Y100.105 E48.964
G1 X158.141 Y100.703 E49.00131
G1 X158.249 Y101.324 E49.03799
G1 X158.249 Y128.677 E50.6298
G1 X158.096 Y129.447 E50.67549
G1 X157.888 Y129.938 E50.70652
G1 X157.606 Y130.389 E50.73747
G1 X156.817 Y131.161 E50.80171
G1 X156.389 Y131.413 E50.83061
G1 X155.945 Y131.597 E50.85858
G1 X155.177 Y131.749 E50.90414
G1 X74.823 Y131.749 E55.58034
G1 X74.053 Y131.596 E55.62603
G1 X73.562 Y131.388 E55.65706
G1 X73.111 Y131.106 E55.68801
G1 X72.339 Y130.317 E55.75225
G1 X72.087 Y129.889 E55.78115
G1 X71.903 Y129.445 E55.80912
G1 X71.751 Y128.677 E55.85468
G1 X71.751 Y101.323 E57.44654
G1 X71.904 Y100.553 E57.49223
G1 X72.112 Y100.062 E57.52326
G1 X72.394 Y99.611 E57.55421
G1 X73.14 Y98.881 E57.61495
M204 S2500
G1 X73.465 Y99.253 F7200
M204 S2000
G1 F3000
G1 X73.819 Y99.042 E57.63893
G1 X74.223 Y98.875 E57.66437
G1 X74.848 Y98.75 E57.70146
G1 X155.208 Y98.755 E62.378
G1 X155.753 Y98.869 E62.4104
G1 X156.302 Y99.106 E62.4452
G1 X156.692 Y99.379 E62.4729
G1 X157.102 Y99.784 E62.50644
G1 X157.455 Y100.314 E62.5435
G1 X157.654 Y100.818 E62.57503
G1 X157.75 Y101.347 E62.60632
G1 X157.75 Y128.652 E64.19533
G1 X157.625 Y129.276 E64.23237
G1 X157.436 Y129.723 E64.26061
G1 X157.2 Y130.096 E64.2863
G1 X156.535 Y130.747 E64.34046
G1 X156.181 Y130.958 E64.36444
G1 X155.777 Y131.125 E64.38988
G1 X155.152 Y131.25 E64.42697
G1 X74.848 Y131.25 E69.10026
G1 X74.224 Y131.125 E69.1373
G1 X73.777 Y130.936 E69.16554
G1 X73.404 Y130.7 E69.19123
G1 X72.753 Y130.035 E69.24539
G1 X72.542 Y129.681 E69.26937
G1 X72.375 Y129.277 E69.29481
G1 X72.25 Y128.652 E69.3319
G1 X72.25 Y101.348 E70.92085
G1 X72.375 Y100.724 E70.95789
G1 X72.564 Y100.277 E70.98613
G1 X72.8 Y99.904 E71.01182
G1 X73.422 Y99.295 E71.06248
M204 S2500
G1 X73.749 Y99.666 F7200
M204 S2000
G1 F3000
G1 X74.029 Y99.497 E71.08151
G1 X74.392 Y99.346 E71.10439
G1 X74.873 Y99.25 E71.13293
G1 X155.18 Y99.255 E75.80639
G1 X155.621 Y99.351 E75.83266
G1 X156.075 Y99.552 E75.86155
G1 X156.383 Y99.772 E75.88358
G1 X156.731 Y100.119 E75.91218
G1 X157.002 Y100.526 E75.94064
G1 X157.168 Y100.937 E75.96644
G1 X157.25 Y101.371 E75.99214
G1 X157.25 Y128.627 E77.5783
G1 X157.154 Y129.108 E77.60684
G1 X157.002 Y129.474 E77.6299
G1 X156.793 Y129.804 E77.65263
G1 X156.251 Y130.334 E77.69675
G1 X155.971 Y130.503 E77.71578
G1 X155.608 Y130.654 E77.73866
G1 X155.127 Y130.75 E77.7672
G1 X74.873 Y130.75 E82.43758
G1 X74.392 Y130.654 E82.46612
G1 X74.026 Y130.502 E82.48918
G1 X73.696 Y130.293 E82.51191
G1 X73.166 Y129.751 E82.55603
G1 X72.997 Y129.471 E82.57506
G1 X72.846 Y129.108 E82.59794
G1 X72.75 Y128.627 E82.62648
G1 X72.75 Y101.373 E84.21252
G1 X72.846 Y100.892 E84.24106
G1 X72.998 Y100.526 E84.26412
G1 X73.207 Y100.196 E84.28685
G1 X73.706 Y99.707 E84.32751
M204 S2500
G1 X74.035 Y100.076 F7200
M204 S2000
G1 F3000
G1 X74.239 Y99.95 E84.34146
G1 X74.561 Y99.817 E84.36173
G1 X74.897 Y99.75 E84.38167
G1 X155.152 Y99.755 E89.0521
G1 X155.441 Y99.818 E89.06931
G1 X155.848 Y99.998 E89.09521
G1 X156.043 Y100.139 E89.10921
G1 X156.36 Y100.456 E89.1353
G1 X156.55 Y100.741 E89.15523
G1 X156.683 Y101.061 E89.1754
G1 X156.75 Y101.397 E89.19534
G1 X156.75 Y128.603 E90.77859
G1 X156.683 Y128.939 E90.79853
G1 X156.55 Y129.261 E90.8188
G1 X156.39 Y129.508 E90.83593
G1 X155.965 Y129.924 E90.87054
G1 X155.761 Y130.05 E90.88449
G1 X155.439 Y130.183 E90.90476
G1 X155.103 Y130.25 E90.9247
G1 X74.897 Y130.25 E95.59228
G1 X74.561 Y130.183 E95.61222
G1 X74.239 Y130.05 E95.63249
G1 X73.992 Y129.89 E95.64962
G1 X73.576 Y129.465 E95.68423
G1 X73.45 Y129.261 E95.69818
G1 X73.317 Y128.939 E95.71845
G1 X73.25 Y128.603 E95.73839
G1 X73.25 Y101.397 E97.32164
G1 X73.317 Y101.061 E97.34158
G1 X73.45 Y100.739 E97.36185
G1 X73.61 Y100.492 E97.37898
G1 X73.993 Y100.118 E97.41013
M204 S2500
G1 X74.326 Y100.483 F7200
M204 S2000
G1 F3000
G1 X74.452 Y100.403 E97.41882
G1 X74.729 Y100.288 E97.43627
G1 X74.922 Y100.25 E97.44772
G1 X155.124 Y100.255 E102.11507
G1 X155.266 Y100.287 E102.12354
G1 X155.584 Y100.423 E102.14367
G1 X155.706 Y100.509 E102.15236
G1 X155.989 Y100.792 E102.17565
G1 X156.098 Y100.955 E102.18706
G1 X156.212 Y101.229 E102.20433
G1 X156.25 Y101.422 E102.21578
G1 X156.25 Y128.578 E103.79612
G1 X156.212 Y128.771 E103.80757
G1 X156.098 Y129.045 E103.82484
G1 X155.989 Y129.207 E103.8362
G1 X155.674 Y129.517 E103.86192
G1 X155.548 Y129.597 E103.87061
G1 X155.271 Y129.712 E103.88806
G1 X155.078 Y129.75 E103.89951
G1 X74.922 Y129.75 E108.56418
G1 X74.729 Y129.712 E108.57563
G1 X74.455 Y129.598 E108.5929
G1 X74.293 Y129.489 E108.60426
G1 X73.983 Y129.174 E108.62998
G1 X73.903 Y129.048 E108.63867
G1 X73.788 Y128.771 E108.65612
G1 X73.75 Y128.578 E108.66757
G1 X73.75 Y101.422 E110.24791
G1 X73.788 Y101.229 E110.25936
G1 X73.902 Y100.955 E110.27663
G1 X74.011 Y100.793 E110.28799
G1 X74.284 Y100.525 E110.31025
M204 S2500
G1 X74.628 Y100.882 F7200
M204 S2000
G1 F3000
G1 X74.946 Y100.75 E110.33029
G1 X155.102 Y100.76 E114.99496
G1 X155.372 Y100.882 E115.0122
G1 X155.618 Y101.128 E115.03245
G1 X155.75 Y101.446 E115.05249
G1 X155.74 Y128.602 E116.63283
G1 X155.618 Y128.872 E116.65007
G1 X155.372 Y129.118 E116.67032
G1 X155.054 Y129.25 E116.69036
G1 X74.898 Y129.24 E121.35503
G1 X74.628 Y129.118 E121.37227
G1 X74.382 Y128.872 E121.39252
G1 X74.25 Y128.554 E121.41256
G1 X74.25 Y101.446 E122.99011
G1 X74.355 Y101.169 E123.00735
G1 X74.585 Y100.924 E123.02691
M204 S2500
G1 X74.929 Y101.288 F7200
M204 S2000
G1 F3000
G1 X75.021 Y101.25 E123.0327
G1 X154.979 Y101.25 E127.68585
G1 X155.071 Y101.288 E127.69164
G1 X155.212 Y101.429 E127.70324
G1 X155.25 Y101.521 E127.70903
G1 X155.25 Y128.479 E129.27785
G1 X155.212 Y128.571 E129.28364
G1 X155.071 Y128.712 E129.29524
G1 X154.979 Y128.75 E129.30103
G1 X75.021 Y128.75 E133.95418
G1 X74.929 Y128.712 E133.95997
G1 X74.788 Y128.571 E133.97157
G1 X74.75 Y128.479 E133.97736
G1 X74.75 Y101.521 E135.54618
G1 X74.788 Y101.429 E135.55197
G1 X74.886 Y101.331 E135.56004
M204 S2500
G1 E134.16004 F4800
;WIPE_START
G1 F5760
G1 X75.021 Y101.25 E134.0354
G1 X75.621 Y101.25 E133.56004
;WIPE_END
G92 E0
G1 X154.6 Y101.9 F7200
G1 E2 F4800
M204 S2000
;TYPE:External perimeter
G1 F3000
G1 X154.6 Y128.1 E3.52471
G1 X75.4 Y128.1 E8.13375
G1 X75.4 Y101.9 E9.65846
G1 X154.54 Y101.9 E14.26401
M204 S2500
G1 X154.438 Y102.266 F7200
G1 E12.86401 F4800
;WIPE_START
G1 F5760
G1 X154.542 Y102.658 E12.26401
;WIPE_END
G92 E0
G1 X150.758 Y108.11 F7200
G1 E2 F4800
M204 S2000
;TYPE:Perimeter
G1 F3000
G1 X150.443 Y108.1 E2.01834
G1 X149.834 Y108.162 E2.05396
G1 X149.197 Y108.355 E2.09269
G1 X148.609 Y108.669 E2.13148
G1 X148.093 Y109.093 E2.17035
G1 X147.669 Y109.609 E2.20922
G1 X147.355 Y110.197 E2.24801
G1 X147.161 Y110.836 E2.28687
G1 X147.096 Y111.5 E2.3257
G1 X147.161 Y112.164 E2.36453
G1 X147.355 Y112.803 E2.40339
G1 X147.669 Y113.391 E2.44218
G1 X148.093 Y113.907 E2.48105
G1 X148.609 Y114.331 E2.51992
G1 X149.197 Y114.645 E2.55871
G1 X149.836 Y114.839 E2.59757
G1 X150.5 Y114.904 E2.6364
G1 X151.164 Y114.839 E2.67523
G1 X151.803 Y114.645 E2.71409
G1 X152.391 Y114.331 E2.75288
G1 X152.907 Y113.907 E2.79175
G1 X153.331 Y113.391 E2.83062
G1 X153.645 Y112.803 E2.86941
G1 X153.844 Y112.147 E2.9093
G1 X154.1 Y112.185 E2.92436
G1 X154.1 Y127.6 E3.82143
G1 X75.9 Y127.6 E8.37227
G1 X75.9 Y102.4 E9.83878
G1 X154.1 Y102.4 E14.38962
G1 X154.1 Y110.815 E14.87933
G1 X153.844 Y110.853 E14.89439
G1 X153.645 Y110.197 E14.93428
G1 X153.331 Y109.609 E14.97307
G1 X152.907 Y109.093 E15.01194
G1 X152.391 Y108.669 E15.05081
G1 X151.803 Y108.355 E15.0896
G1 X151.178 Y108.165 E15.12762
G1 X150.817 Y108.118 E15.14881
M204 S2500
G1 X150.821 Y107.614 F7200
M204 S2000
G1 F3000
G1 X150.423 Y107.599 E15.17199
G1 X149.736 Y107.669 E15.21218
G1 X149.005 Y107.891 E15.25664
G1 X148.33 Y108.252 E15.30119
G1 X147.738 Y108.738 E15.34576
G1 X147.252 Y109.33 E15.39033
G1 X146.891 Y110.005 E15.43488
G1 X146.668 Y110.738 E15.47947
G1 X146.593 Y111.5 E15.52403
G1 X146.668 Y112.262 E15.56859
G1 X146.891 Y112.995 E15.61318
G1 X147.252 Y113.67 E15.65773
G1 X147.738 Y114.262 E15.7023
G1 X148.33 Y114.748 E15.74687
G1 X149.005 Y115.109 E15.79142
G1 X149.738 Y115.332 E15.83601
G1 X150.5 Y115.407 E15.88057
G1 X151.262 Y115.332 E15.92513
G1 X151.995 Y115.109 E15.96972
G1 X152.67 Y114.748 E16.01427
G1 X153.262 Y114.262 E16.05884
G1 X153.6 Y113.851 E16.08981
G1 X153.6 Y127.1 E16.86083
G1 X76.4 Y127.1 E21.35348
G1 X76.4 Y102.9 E22.7618
G1 X153.6 Y102.9 E27.25445
G1 X153.6 Y109.149 E27.61811
G1 X153.262 Y108.738 E27.64908
G1 X152.67 Y108.252 E27.69365
G1 X151.995 Y107.891 E27.7382
G1 X151.284 Y107.675 E27.78144
G1 X150.881 Y107.622 E27.80509
M204 S2500
G1 E26.40509 F4800
;WIPE_START
G1 F5760
G1 X150.423 Y107.599 E26.04205
G1 X150.125 Y107.629 E25.80509
;WIPE_END
G92 E0
G1 X120.195 Y108.606 F7200
G1 E2 F4800
M204 S2000
;TYPE:External perimeter
G1 F3000
G1 X120.572 Y108.656 E2.02213
G1 X121.111 Y108.819 E2.0549
G1 X121.612 Y109.087 E2.08797
G1 X122.052 Y109.448 E2.12109
G1 X122.413 Y109.888 E2.15421
G1 X122.681 Y110.389 E2.18728
G1 X122.846 Y110.934 E2.22042
G1 X122.902 Y111.5 E2.25352
G1 X122.846 Y112.066 E2.28662
G1 X122.681 Y112.611 E2.31976
G1 X122.413 Y113.112 E2.35283
G1 X122.052 Y113.552 E2.38595
G1 X121.612 Y113.913 E2.41907
G1 X121.111 Y114.181 E2.45214
G1 X120.566 Y114.346 E2.48528
G1 X120 Y114.402 E2.51838
G1 X119.434 Y114.346 E2.55148
G1 X118.889 Y114.181 E2.58462
G1 X118.388 Y113.913 E2.61769
G1 X117.948 Y113.552 E2.65081
G1 X117.587 Y113.112 E2.68393
G1 X117.319 Y112.611 E2.717
G1 X117.154 Y112.066 E2.75014
G1 X117.098 Y111.5 E2.78324
G1 X117.154 Y110.934 E2.81634
G1 X117.319 Y110.389 E2.84948
G1 X117.587 Y109.888 E2.88255
G1 X117.948 Y109.448 E2.91567
G1 X118.388 Y109.087 E2.94879
G1 X118.889 Y108.819 E2.98186
G1 X119.433 Y108.654 E3.01494
G1 X119.962 Y108.6 E3.04589
G1 X120.135 Y108.605 E3.05596
M204 S2500
G1 X120.407 Y108.289 F7200
G1 X120.258 Y108.11
M204 S2000
;TYPE:Perimeter
G1 F3000
G1 X120.678 Y108.165 E3.08061
G1 X121.303 Y108.355 E3.11863
G1 X121.891 Y108.669 E3.15742
G1 X122.407 Y109.093 E3.19629
G1 X122.831 Y109.609 E3.23516
G1 X123.145 Y110.197 E3.27395
G1 X123.339 Y110.836 E3.31281
G1 X123.404 Y111.5 E3.35164
G1 X123.339 Y112.164 E3.39047
G1 X123.145 Y112.803 E3.42933
G1 X122.831 Y113.391 E3.46812
G1 X122.407 Y113.907 E3.50699
G1 X121.891 Y114.331 E3.54586
G1 X121.303 Y114.645 E3.58465
G1 X120.664 Y114.839 E3.62351
G1 X120 Y114.904 E3.66234
G1 X119.336 Y114.839 E3.70117
G1 X118.697 Y114.645 E3.74003
G1 X118.109 Y114.331 E3.77882
G1 X117.593 Y113.907 E3.81769
G1 X117.169 Y113.391 E3.85656
G1 X116.855 Y112.803 E3.89535
G1 X116.661 Y112.164 E3.93421
G1 X116.596 Y111.5 E3.97304
G1 X116.661 Y110.836 E4.01187
G1 X116.855 Y110.197 E4.05073
G1 X117.169 Y109.609 E4.08952
G1 X117.593 Y109.093 E4.12839
G1 X118.109 Y108.669 E4.16726
G1 X118.697 Y108.355 E4.20605
G1 X119.334 Y108.162 E4.24478
G1 X119.943 Y108.1 E4.2804
G1 X120.198 Y108.106 E4.29524
M204 S2500
G1 X120.321 Y107.614 F7200
M204 S2000
G1 F3000
G1 X120.784 Y107.675 E4.32242
G1 X121.495 Y107.891 E4.36566
G1 X122.17 Y108.252 E4.41021
G1 X122.762 Y108.738 E4.45478
G1 X123.248 Y109.33 E4.49935
