; generated by PrusaSlicer 2.6.0+MacOS-x64 on 2023-08-19 at 15:53:40 UTC

; 

; external perimeters extrusion width = 0.45mm
; perimeters extrusion width = 0.40mm
; infill extrusion width = 0.45mm
; solid infill extrusion width = 0.50mm
; top infill extrusion width = 0.45mm
; first layer extrusion width = 0.56mm

M201 X2500 Y2500 Z800 E2500 ; sets maximum accelerations, mm/sec^2
M203 X300 Y250 Z8 E80 ; sets maximum feedrates, mm / sec
M204 S2500 T2500 ; sets acceleration (S) and retract acceleration (R), mm/sec^2
M205 X15.00 Y10.00 Z2.00 E10.00 ; sets the jerk limits, mm/sec
M205 S0 T0 ; sets the minimum extruding and travel feed rate, mm/sec
;TYPE:Custom
G90 ; use absolute coordinates
M83 ; extruder relative mode
M104 S215 ; set extruder temp
M140 S65 ; set bed temp
M190 S65 ; wait for bed temp
M109 S215 ; wait for extruder temp
G28                                        ; move X/Y/Z to min endstops
G1 Z0.28                                   ; lift nozzle a bit
 
G0 Y235      ; move to max Y (within soft-limit)


G92 E0 
G1 Y3 F1800                                    ; zero the extruded length 
G1 X60  E25 F500                       ; Extrude 25mm of filament in a 5cm line. 
G92 E0                                     ; zero the extruded length again 
G1 E-2 F500                                ; Retract a little 
G1 X70 F4000                              ; Quickly wipe away from the filament line

M211 S0      ; disable software endstop
G0 Y245 X80       ; push forward past the endstop to the nozzle wiper

G0 X90       ; move X to the nozzle wiper
G0 X80       ; move X to wipe the nozzle


M117

G28          ; home all
M211 S1      ; enable software endstop
G21 ; set units to millimeters
G90 ; use absolute coordinates
M82 ; use absolute distances for extrusion
G92 E0
M107
;LAYER_CHANGE
;Z:0.28
;HEIGHT:0.28
; BEFORE_LAYER_CHANGE 0 @ 0.28mm
G1 E-2 F4800
G92 E0
G1 Z.28 F7200
; AFTER_LAYER_CHANGE 0 @ 0.28mm
G1 X120.6 Y119.6
G1 E2 F4800
M204 S2000
;TYPE:External perimeter
;WIDTH:0.56
G1 F1758
G1 X110.4 Y119.6 E2.59359
G1 X110.4 Y109.4 E3.18718
G1 X120.6 Y109.4 E3.78077
G1 X120.6 Y119.54 E4.37087
M204 S2500
G1 X120.214 Y119.496 F7200
G1 X120.1 Y119.1
M204 S2000
;TYPE:Perimeter
G1 F1758
G1 X110.9 Y119.1 E4.90626
G1 X110.9 Y109.9 E5.44165
G1 X120.1 Y109.9 E5.97704
G1 X120.1 Y119.04 E6.50894
M204 S2500
G1 X119.6 Y118.6 F7200
M204 S2000
G1 F1758
G1 X111.4 Y118.6 E6.98614
G1 X111.4 Y110.4 E7.46334
G1 X119.6 Y110.4 E7.94054
G1 X119.6 Y118.54 E8.41425
M204 S2500
G1 E7.01425 F4800
;WIPE_START
G1 F5760
G1 X118.842 Y118.546 E6.41425
;WIPE_END
G92 E0
G1 X114.945 Y116.931 F7200
G1 E2 F4800
M204 S2000
;TYPE:External perimeter
G1 F1758
G1 X113.253 Y115.582 E2.12593
G1 X113.253 Y113.418 E2.25186
G1 X114.945 Y112.069 E2.37779
G1 X117.055 Y112.55 E2.50373
G1 X117.994 Y114.5 E2.62968
G1 X117.055 Y116.45 E2.75563
G1 X115.004 Y116.918 E2.87806
M204 S2500
G1 X114.673 Y117.225 F7200
G1 X114.912 Y117.452
M204 S2000
;TYPE:Perimeter
G1 F1758
G1 X114.822 Y117.472 E2.88343
G1 X112.753 Y115.823 E3.0374
G1 X112.753 Y113.177 E3.19138
G1 X114.822 Y111.528 E3.34535
G1 X117.401 Y112.116 E3.49929
G1 X118.549 Y114.5 E3.65327
G1 X117.401 Y116.884 E3.80725
G1 X114.971 Y117.438 E3.95229
M204 S2500
G1 X114.879 Y117.972 F7200
M204 S2000
G1 F1758
G1 X114.698 Y118.013 E3.96309
G1 X112.253 Y116.064 E4.14505
G1 X112.253 Y112.936 E4.32708
G1 X114.698 Y110.987 E4.50904
G1 X117.747 Y111.683 E4.69104
G1 X119.104 Y114.5 E4.873
G1 X117.747 Y117.317 E5.05496
G1 X114.938 Y117.959 E5.22264
M204 S2500
G1 E3.82264 F4800
;WIPE_START
G1 F5760
G1 X114.698 Y118.013 E3.62789
G1 X114.298 Y117.694 E3.22264
;WIPE_END
G92 E0
G1 X118.38 Y110.6 F7200
G1 E2 F4800
M204 S2000
;TYPE:Solid infill
;WIDTH:0.564732
G1 F1758
G1 X119.175 Y111.395 E2.06605
G1 X119.175 Y112.109 E2.10799
G1 X117.891 Y110.825 E2.21466
G1 X117.177 Y110.825 E2.2566
G1 X117.555 Y111.203 E2.288
G1 X118.041 Y111.314 E2.31729
G1 X118.389 Y112.036 E2.36437
G1 X119.4 Y113.048 E2.4484
M204 S2500
G1 X118.57 Y112.931 F7200
M204 S2000
G1 F1758
G1 X119.4 Y113.761 E2.51736
M204 S2500
G1 E1.11736 F4800
;WIPE_START
G1 F5760
G1 X118.864 Y113.225 E.51736
;WIPE_END
G92 E0
G1 X118.894 Y115.396 F7200
G1 E2 F4800
M204 S2000
G1 F1758
G1 X119.175 Y115.677 E2.02335
G1 X119.175 Y116.391 E2.06529
G1 X118.831 Y116.046 E2.09391
G1 X118.599 Y116.528 E2.12533
G1 X119.175 Y117.105 E2.17323
G1 X119.175 Y117.818 E2.21512
G1 X118.367 Y117.01 E2.28225
G1 X118.135 Y117.492 E2.31367
G1 X118.818 Y118.175 E2.37041
G1 X118.105 Y118.175 E2.4123
G1 X117.695 Y117.765 E2.44636
G1 X117.114 Y117.898 E2.48137
G1 X117.391 Y118.175 E2.50438
G1 X116.677 Y118.175 E2.54632
G1 X116.533 Y118.03 E2.55832
G1 X115.952 Y118.163 E2.59333
G1 X116.189 Y118.4 E2.61302
M204 S2500
G1 E1.21302 F4800
;WIPE_START
G1 F5760
G1 X115.952 Y118.163 E.94768
G1 X116.364 Y118.069 E.61302
;WIPE_END
G92 E0
G1 X116.93 Y111.291 F7200
G1 E2 F4800
M204 S2000
G1 F1758
G1 X116.239 Y110.6 E2.05741
M204 S2500
G1 E.65741 F4800
;WIPE_START
G1 F5760
G1 X116.775 Y111.136 E.05741
;WIPE_END
G92 E0
G1 X114.04 Y111.256 F7200
G1 E2 F4800
M204 S2000
G1 F1758
G1 X113.609 Y110.825 E2.03581
G1 X112.895 Y110.825 E2.07775
G1 X113.483 Y111.412 E2.12656
G1 X113.086 Y111.729 E2.1564
G1 X112.182 Y110.825 E2.2315
G1 X111.825 Y110.825 E2.25247
G1 X111.825 Y111.182 E2.27344
G1 X112.689 Y112.046 E2.34522
G1 X112.292 Y112.362 E2.37503
G1 X111.825 Y111.895 E2.41383
G1 X111.825 Y112.609 E2.45577
G1 X111.895 Y112.679 E2.46159
G1 X111.828 Y112.732 E2.46661
G1 X111.825 Y115.464 E2.6271
G1 X112.053 Y115.692 E2.64604
M204 S2500
G1 E1.24604 F4800
;WIPE_START
G1 F5760
G1 X111.825 Y115.464 E.99077
G1 X111.825 Y115.029 E.64604
;WIPE_END
G92 E0
G1 X114.048 Y118.4 F7200
G1 E2 F4800
M204 S2000
G1 F1758
G1 X111.825 Y116.177 E2.18468
G1 X111.825 Y116.891 E2.22662
G1 X113.109 Y118.175 E2.33329
G1 X112.395 Y118.175 E2.37523
G1 X111.6 Y117.38 E2.44128
M204 S2500
;LAYER_CHANGE
;Z:0.48
;HEIGHT:0.2
; BEFORE_LAYER_CHANGE 1 @ 0.48mm
G1 E1.04128 F4800
;WIPE_START
G1 F5760
G1 X112.136 Y117.916 E.44128
;WIPE_END
G92 E0
G1 Z.48 F7200
; AFTER_LAYER_CHANGE 1 @ 0.48mm
M104 S195 ; set temperature
G1 X120.755 Y119.755
G1 E2 F4800
;TYPE:External perimeter
;WIDTH:0.45
G1 F2016
G1 X110.245 Y119.755 E2.35575
G1 X110.245 Y109.245 E2.7115
G1 X120.755 Y109.245 E3.06725
G1 X120.755 Y119.695 E3.42097
G1 X120.369 Y119.651 F7200
G1 X120.373 Y119.373
;TYPE:Perimeter
;WIDTH:0.4
G1 F2016
G1 X110.627 Y119.373 E3.71034
G1 X110.627 Y109.627 E3.99971
G1 X120.373 Y109.627 E4.28908
G1 X120.373 Y119.313 E4.57667
G1 X120.016 Y119.016 F7200
G1 F2016
G1 X110.984 Y119.016 E4.84484
G1 X110.984 Y109.984 E5.11301
G1 X120.016 Y109.984 E5.38118
G1 X120.016 Y118.956 E5.64757
G1 E4.24757 F4800
;WIPE_START
G1 F5760
G1 X119.258 Y118.961 E3.64757
;WIPE_END
G92 E0
G1 X117.822 Y114.5 F7200
G1 E2 F4800
;TYPE:External perimeter
;WIDTH:0.45
G1 F2016
G1 X116.948 Y116.315 E2.06819
G1 X114.983 Y116.764 E2.13642
G1 X113.408 Y115.507 E2.20463
G1 X113.408 Y113.493 E2.2728
G1 X114.983 Y112.236 E2.34101
G1 X116.948 Y112.685 E2.40924
G1 X117.796 Y114.446 E2.4754
G1 X118.168 Y114.7 F7200
G1 X118.215 Y114.564
;TYPE:Perimeter
;WIDTH:0.4
G1 F2016
G1 X117.212 Y116.647 E2.54404
G1 X114.889 Y117.177 E2.61479
G1 X113.026 Y115.691 E2.68555
G1 X113.026 Y113.309 E2.75627
G1 X114.889 Y111.823 E2.82703
G1 X117.212 Y112.353 E2.89778
G1 X118.241 Y114.51 E2.96874
G1 X118.583 Y114.624 F7200
G1 F2016
G1 X117.459 Y116.957 E3.04563
G1 X114.801 Y117.564 E3.12658
G1 X112.669 Y115.863 E3.20756
G1 X112.669 Y113.137 E3.2885
G1 X114.801 Y111.436 E3.36948
G1 X117.459 Y112.043 E3.45043
G1 X118.642 Y114.5 E3.5314
G1 X118.609 Y114.57 E3.5337
G1 E2.1337 F4800
;WIPE_START
G1 F5760
G1 X118.28 Y115.253 E1.5337
;WIPE_END
G92 E0
G1 X115.136 Y110.401 F7200
G1 E2 F4800
;TYPE:Solid infill
;WIDTH:0.642013
G1 F2016
G1 X116.007 Y110.378 E2.0434
;WIDTH:0.594675
G1 X116.877 Y110.354 E2.08333
;WIDTH:0.547337
G1 X117.748 Y110.33 E2.11988
;WIDTH:0.499999
G1 X119.67 Y110.33 E2.19293
G1 X119.67 Y111.403 E2.23371
;WIDTH:0.532878
G1 X119.653 Y112.823 E2.29157
;WIDTH:0.565756
G1 X119.637 Y114.243 E2.35331
;WIDTH:0.610008
G1 X119.615 Y114.402 E2.36088
G1 X119.633 Y114.579 E2.36927
;WIDTH:0.573695
G1 X119.651 Y114.757 E2.37717
;WIDTH:0.537382
G1 X119.67 Y117.597 E2.49394
;WIDTH:0.499999
G1 X119.67 Y118.67 E2.53472
G1 X117.748 Y118.67 E2.60777
;WIDTH:0.546526
G1 X116.801 Y118.647 E2.64744
;WIDTH:0.593052
G1 X115.854 Y118.623 E2.69077
;WIDTH:0.639578
G1 X114.908 Y118.6 E2.73772
;WIDTH:0.651347
G1 X114.745 Y118.613 E2.74599
;WIDTH:0.61351
G1 X114.613 Y118.632 E2.75232
;WIDTH:0.575673
G1 X114.481 Y118.651 E2.75823
;WIDTH:0.537836
G1 X114.349 Y118.67 E2.76372
;WIDTH:0.499999
G1 X111.33 Y118.67 E2.87846
G1 X111.33 Y110.33 E3.19543
G1 X112.446 Y110.33 E3.23785
;WIDTH:0.528393
G1 X114.349 Y110.344 E3.31467
;WIDTH:0.570408
G1 X114.535 Y110.365 E3.32288
;WIDTH:0.612422
G1 X114.722 Y110.386 E3.33179
;WIDTH:0.654436
G1 X114.908 Y110.407 E3.34131
G1 E1.94131 F4800
;WIPE_START
G1 F5760
G1 X114.722 Y110.386 E1.79312
G1 X114.535 Y110.365 E1.64415
G1 X114.349 Y110.344 E1.49596
G1 X114.154 Y110.343 E1.34131
;WIPE_END
G92 E0
G1 X113.06 Y111.231 F7200
G1 E2 F4800
;WIDTH:0.472657
G1 F2016
G1 X112.231 Y111.231 E2.02962
G1 X112.231 Y111.892 E2.05324
G1 X112.881 Y111.373 E2.08296
G1 E.68296 F4800
;WIPE_START
G1 F5760
G1 X112.289 Y111.846 E.08296
;WIPE_END
G92 E0
G1 X114.148 Y110.93 F7200
G1 E2 F4800
;WIDTH:0.499999
G1 F2016
G1 X112.124 Y112.544 E2.09839
;WIDTH:0.539253
G1 X111.975 Y112.812 E2.11104
;WIDTH:0.578506
G1 X111.827 Y113.08 E2.12467
G1 X111.807 Y112.731 E2.14024
;WIDTH:0.539253
G1 X111.787 Y112.382 E2.15467
;WIDTH:0.499999
G1 X111.787 Y110.787 E2.21529
G1 X114.327 Y110.787 E2.31183
;WIDTH:0.530762
G1 X114.487 Y110.939 E2.32078
;WIDTH:0.561524
G1 X114.647 Y111.09 E2.33027
G1 X114.62 Y111.12 E2.33201
;WIDTH:0.528393
G1 X113.141 Y112.318 E2.40884
;WIDTH:0.499999
G1 X112.409 Y112.901 E2.44441
G1 X112.323 Y113.08 E2.45196
G1 X112.323 Y115.92 E2.5599
G1 X112.409 Y116.099 E2.56745
G1 X114.629 Y117.869 E2.67536
;WIDTH:0.548923
G1 X114.677 Y117.91 E2.67802
;WIDTH:0.597847
G1 X114.724 Y117.952 E2.68093
;WIDTH:0.646771
G1 X114.772 Y117.993 E2.6841
G1 X114.838 Y117.982 E2.68746
;WIDTH:0.639578
G1 X115.756 Y117.748 E2.73446
;WIDTH:0.593052
G1 X116.674 Y117.515 E2.77778
;WIDTH:0.546526
G1 X117.591 Y117.282 E2.8174
;WIDTH:0.499999
G1 X117.746 Y117.158 E2.82494
;WIDTH:0.537382
G1 X118.995 Y114.607 E2.94172
;WIDTH:0.571563
G1 X119.025 Y114.554 E2.9444
;WIDTH:0.605743
G1 X119.054 Y114.5 E2.94727
G1 X119.008 Y114.387 E2.95298
;WIDTH:0.565756
G1 X118.377 Y113.114 E3.01475
;WIDTH:0.532878
G1 X117.746 Y111.842 E3.0726
;WIDTH:0.499999
G1 X117.591 Y111.718 E3.08014
;WIDTH:0.538609
G1 X116.903 Y111.542 E3.10941
;WIDTH:0.577218
G1 X116.216 Y111.365 E3.14093
;WIDTH:0.615827
G1 X115.528 Y111.188 E3.17477
;WIDTH:0.654436
G1 X114.84 Y111.011 E3.21089
;WIDTH:0.499999
G1 X115.566 Y110.787 E3.23977
G1 X117.693 Y111.273 E3.32269
G1 X118.146 Y111.62 E3.34438
G1 X119.213 Y113.834 E3.43779
G1 X119.213 Y110.787 E3.5536
G1 X115.794 Y110.787 E3.68354
G1 E2.28354 F4800
;WIPE_START
G1 F5760
G1 X116.552 Y110.787 E1.68354
;WIPE_END
G92 E0
G1 X118.173 Y111.185 F7200
G1 E2 F4800
;WIDTH:0.380889
G1 F2016
G1 X118.516 Y111.471 E2.01255
G1 X118.815 Y112.092 E2.03192
G1 X118.815 Y111.185 E2.05741
G1 X118.401 Y111.185 E2.06904
G1 E.66904 F4800
;WIPE_START
G1 F5760
G1 X118.815 Y111.185 E.34129
G1 X118.815 Y111.529 E.06904
;WIPE_END
G92 E0
G1 X119.213 Y115.166 F7200
G1 E2 F4800
;WIDTH:0.499999
G1 F2016
G1 X118.146 Y117.38 E2.09341
G1 X117.693 Y117.727 E2.1151
G1 X115.566 Y118.213 E2.19802
G1 X119.213 Y118.213 E2.33663
G1 X119.213 Y115.395 E2.44373
G1 E1.04373 F4800
;WIPE_START
G1 F5760
G1 X119.213 Y116.153 E.44373
;WIPE_END
G92 E0
G1 X118.815 Y116.908 F7200
G1 E2 F4800
;WIDTH:0.380891
G1 F2016
G1 X118.497 Y117.567 E2.02056
G1 X118.173 Y117.815 E2.03203
G1 X118.815 Y117.815 E2.05007
G1 X118.815 Y117.137 E2.06912
G1 E.66912 F4800
;WIPE_START
G1 F5760
G1 X118.815 Y117.815 E.13237
G1 X118.735 Y117.815 E.06912
;WIPE_END
G92 E0
G1 X111.832 Y116.046 F7200
G1 E2 F4800
;WIDTH:0.589492
G1 F2016
G1 X111.81 Y116.332 E2.01304
;WIDTH:0.544746
G1 X111.787 Y116.618 E2.02501
;WIDTH:0.499999
G1 X111.787 Y118.213 E2.08563
G1 X114.327 Y118.213 E2.18217
G1 X112.124 Y116.456 E2.28927
;WIDTH:0.548845
G1 X111.965 Y116.232 E2.30083
;WIDTH:0.589492
G1 X111.832 Y116.046 E2.31122
G1 X111.827 Y115.92 E2.31695
;WIDTH:0.578506
G1 X111.827 Y113.08 E2.44343
G1 E1.04343 F4800
;WIPE_START
G1 F5760
G1 X111.827 Y113.838 E.44343
;WIPE_END
G92 E0
G1 X112.231 Y117.108 F7200
G1 E2 F4800
;WIDTH:0.472656
G1 F2016
G1 X112.231 Y117.769 E2.02362
G1 X113.06 Y117.769 E2.05324
G1 X112.409 Y117.251 E2.08297
M106 S255
;LAYER_CHANGE
;Z:0.68
;HEIGHT:0.2
; BEFORE_LAYER_CHANGE 2 @ 0.68mm
G1 E.68297 F4800
;WIPE_START
G1 F5760
G1 X113.002 Y117.723 E.08297
;WIPE_END
G92 E0
G1 Z.68 F7200
; AFTER_LAYER_CHANGE 2 @ 0.68mm
G1 X120.755 Y119.755
G1 E2 F4800
;TYPE:External perimeter
;WIDTH:0.45
G1 F2002
G1 X110.245 Y119.755 E2.35575
G1 X110.245 Y109.245 E2.7115
G1 X120.755 Y109.245 E3.06725
G1 X120.755 Y119.695 E3.42097
G1 X120.369 Y119.651 F7200
G1 X120.373 Y119.373
;TYPE:Perimeter
;WIDTH:0.4
G1 F2002
G1 X110.627 Y119.373 E3.71034
G1 X110.627 Y109.627 E3.99971
G1 X120.373 Y109.627 E4.28908
G1 X120.373 Y119.313 E4.57667
G1 X120.016 Y119.016 F7200
G1 F2002
G1 X110.984 Y119.016 E4.84484
G1 X110.984 Y109.984 E5.11301
G1 X120.016 Y109.984 E5.38118
G1 X120.016 Y118.956 E5.64757
G1 E4.24757 F4800
;WIPE_START
G1 F5760
G1 X119.258 Y118.961 E3.64757
;WIPE_END
G92 E0
G1 X114.983 Y116.764 F7200
G1 E2 F4800
;TYPE:External perimeter
;WIDTH:0.45
G1 F2002
G1 X113.408 Y115.507 E2.06821
G1 X113.408 Y113.493 E2.13638
G1 X114.983 Y112.236 E2.20459
G1 X116.948 Y112.685 E2.27282
G1 X117.822 Y114.5 E2.34101
G1 X116.948 Y116.315 E2.4092
G1 X115.042 Y116.75 E2.47537
G1 X114.711 Y117.057 F7200
G1 X114.958 Y117.161
;TYPE:Perimeter
;WIDTH:0.4
G1 F2002
G1 X114.889 Y117.177 E2.47747
G1 X113.026 Y115.691 E2.54823
G1 X113.026 Y113.309 E2.61895
G1 X114.889 Y111.823 E2.68971
G1 X117.212 Y112.353 E2.76046
G1 X118.246 Y114.5 E2.83121
G1 X117.212 Y116.647 E2.90196
G1 X115.017 Y117.148 E2.96881
G1 X114.935 Y117.533 F7200
G1 F2002
G1 X114.801 Y117.564 E2.97289
G1 X112.669 Y115.863 E3.05387
G1 X112.669 Y113.137 E3.13481
G1 X114.801 Y111.436 E3.21579
G1 X117.459 Y112.043 E3.29674
G1 X118.642 Y114.5 E3.37771
G1 X117.459 Y116.957 E3.45868
G1 X114.993 Y117.52 E3.53378
G1 E2.13378 F4800
;WIPE_START
G1 F5760
G1 X114.801 Y117.564 E1.97784
G1 X114.363 Y117.214 E1.53378
;WIPE_END
G92 E0
G1 X119.878 Y110.961 F7200
G1 E2 F4800
;TYPE:Top solid infill
;WIDTH:0.457603
G1 F2002
G1 X119.222 Y110.305 E2.03199
G1 X118.636 Y110.305 E2.0522
G1 X119.695 Y111.364 E2.10384
G1 X119.695 Y111.951 E2.12408
G1 X118.098 Y110.353 E2.20198
G1 X117.511 Y110.353 E2.22222
G1 X119.695 Y112.537 E2.32872
G1 X119.695 Y113.124 E2.34896
G1 X116.925 Y110.353 E2.48406
G1 X116.338 Y110.353 E2.5043
G1 X119.695 Y113.71 E2.668
G1 X119.695 Y114.297 E2.68824
G1 X118.163 Y112.765 E2.76295
G1 X117.681 Y111.765 E2.80123
G1 X117.01 Y111.611 E2.82497
G1 X115.569 Y110.17 E2.89524
G1 E1.49524 F4800
;WIPE_START
G1 F5760
G1 X116.105 Y110.706 E.89524
;WIPE_END
G92 E0
G1 X116.493 Y111.681 F7200
G1 E2 F4800
G1 F2002
G1 X115.165 Y110.353 E2.06476
G1 X114.579 Y110.353 E2.08497
G1 X115.49 Y111.264 E2.12939
G1 X114.73 Y111.091 E2.15627
G1 X113.992 Y110.353 E2.19226
G1 X113.406 Y110.353 E2.21247
G1 X114.399 Y111.346 E2.26089
G1 X114.073 Y111.607 E2.27529
G1 X112.771 Y110.305 E2.33878
G1 X112.185 Y110.305 E2.35899
G1 X113.746 Y111.867 E2.43513
G1 X113.42 Y112.127 E2.44951
G1 X111.598 Y110.305 E2.53836
G1 X111.305 Y110.305 E2.54846
G1 X111.305 Y110.598 E2.55856
G1 X113.094 Y112.387 E2.6458
G1 X112.768 Y112.647 E2.66018
G1 X111.305 Y111.185 E2.7315
G1 X111.305 Y111.771 E2.75171
G1 X112.441 Y112.907 E2.80711
G1 X112.348 Y112.982 E2.81123
G1 X112.348 Y113.4 E2.82564
G1 X111.305 Y112.358 E2.87648
G1 X111.305 Y112.944 E2.89669
G1 X112.348 Y113.987 E2.94755
G1 X112.348 Y114.573 E2.96776
G1 X111.305 Y113.531 E3.0186
G1 X111.305 Y114.117 E3.03881
G1 X112.531 Y115.343 E3.09859
