; generated by PrusaSlicer 2.6.0+MacOS-x64 on 2023-08-13 at 21:43:16 UTC

; 

; external perimeters extrusion width = 0.45mm
; perimeters extrusion width = 0.40mm
; infill extrusion width = 0.45mm
; solid infill extrusion width = 0.50mm
; top infill extrusion width = 0.45mm
; support material extrusion width = 0.42mm
; first layer extrusion width = 0.56mm

M201 X2500 Y2500 Z800 E2500 ; sets maximum accelerations, mm/sec^2
M203 X300 Y250 Z8 E80 ; sets maximum feedrates, mm / sec
M204 S2500 T2500 ; sets acceleration (S) and retract acceleration (R), mm/sec^2
M205 X15.00 Y10.00 Z2.00 E10.00 ; sets the jerk limits, mm/sec
M205 S0 T0 ; sets the minimum extruding and travel feed rate, mm/sec
;TYPE:Custom
G90 ; use absolute coordinates
M83 ; extruder relative mode
M104 S215 ; set extruder temp
M140 S65 ; set bed temp
M190 S65 ; wait for bed temp
M109 S215 ; wait for extruder temp
G28                                        ; move X/Y/Z to min endstops
G1 Z0.28                                   ; lift nozzle a bit 
G92 E0 
G1 Y3 F1800                                    ; zero the extruded length 
G1 X60  E25 F500                       ; Extrude 25mm of filament in a 5cm line. 
G92 E0                                     ; zero the extruded length again 
G1 E-2 F500                                ; Retract a little 
G1 X70 F4000                              ; Quickly wipe away from the filament line
M117
G21 ; set units to millimeters
G90 ; use absolute coordinates
M82 ; use absolute distances for extrusion
G92 E0
M107
;LAYER_CHANGE
;Z:0.28
;HEIGHT:0.28
; BEFORE_LAYER_CHANGE 0 @ 0.28mm
G1 E-2 F4800
G92 E0
G1 Z.28 F7200
; AFTER_LAYER_CHANGE 0 @ 0.28mm
G1 X106.838 Y105.194
G1 E2 F4800
M204 S2000
;TYPE:External perimeter
;WIDTH:0.229041
G1 F3000
G1 X106.762 Y105.55 E2.00716
;WIDTH:0.30028
G1 X106.724 Y105.728 E2.01225
G1 X106.677 Y106.492 E2.03365
G1 X106.724 Y107.189 E2.05318
M204 S2500
G1 X106.586 Y106.427 F7200
M204 S2000
;WIDTH:0.366568
G1 F3000
G1 X107.105 Y107.706 E2.10243
G1 X107.255 Y107.942 E2.11241
G1 X107.469 Y108.152 E2.12311
;WIDTH:0.4224
G1 X107.811 Y108.468 E2.14275
G1 X108.274 Y108.768 E2.16602
;WIDTH:0.353926
G1 X108.57 Y108.95 E2.17791
;WIDTH:0.435072
G1 X108.778 Y109.019 E2.18748
G1 X109.825 Y109.188 E2.23378
G1 X110.095 Y109.185 E2.24557
;WIDTH:0.352314
G1 X110.294 Y109.175 E2.25235
;WIDTH:0.413862
G1 X110.771 Y109.06 E2.27256
G1 X110.924 Y108.991 E2.27947
;WIDTH:0.333296
G1 X111.231 Y108.853 E2.29017
;WIDTH:0.252814
G1 X111.424 Y108.759 E2.29499
;WIDTH:0.309638
G1 X111.608 Y108.615 E2.30178
G1 X111.815 Y108.377 E2.31094
;WIDTH:0.23216
G1 X112.231 Y107.9 E2.32362
M204 S2500
G1 E.92362 F4800
;WIPE_START
G1 F5760
G1 X112.023 Y108.139 E.67279
G1 X111.815 Y108.377 E.42256
G1 X111.733 Y108.471 E.32362
;WIPE_END
G92 E0
G1 X112.543 Y103.144 F7200
G1 E2 F4800
M204 S2000
;WIDTH:0.504103
G1 F3000
G1 X112.207 Y103.426 E2.02267
;WIDTH:0.432029
G1 X111.534 Y103.99 E2.06069
G1 X111.372 Y104.079 E2.06869
;WIDTH:0.482352
G1 X111.28 Y104.123 E2.0737
G1 X110.422 Y104.358 E2.11743
G1 X110.367 Y104.359 E2.12013
;WIDTH:0.411453
G1 X110.239 Y104.354 E2.12537
G1 X109.626 Y104.24 E2.15087
;WIDTH:0.352299
G1 X108.949 Y103.749 E2.17932
G1 X108.798 Y103.601 E2.18651
G1 X108.648 Y103.38 E2.1956
;WIDTH:0.260671
G1 X108.475 Y103.115 E2.20299
;WIDTH:0.338209
G1 X108.394 Y102.888 E2.21079
;WIDTH:0.415748
G1 X108.312 Y102.661 E2.22078
G1 X108.3 Y102.5 E2.22746
;WIDTH:0.344812
G1 X108.289 Y102.288 E2.2345
;WIDTH:0.43373
G1 X108.401 Y101.213 E2.28151
M204 S2500
G1 X108.634 Y100.958 F7200
M204 S2000
;WIDTH:0.272896
G1 F3000
G1 X108.971 Y100.565 E2.29434
G1 X109.518 Y100.118 E2.31184
G1 X110.308 Y99.999 E2.33163
;WIDTH:0.219408
G1 X110.521 Y99.998 E2.33558
M204 S2500
G1 X111.067 Y100.103 F7200
M204 S2000
;WIDTH:0.22058
G1 F3000
G1 X111.328 Y100.168 E2.34061
G1 X111.481 Y100.241 E2.34378
M204 S2500
G1 X111.682 Y100.371 F7200
M204 S2000
;WIDTH:0.237725
G1 F3000
G1 X111.82 Y100.49 E2.34755
;WIDTH:0.32633
G1 X112.094 Y100.728 E2.3588
G1 X112.188 Y100.858 E2.36377
;WIDTH:0.270373
G1 X112.306 Y101.034 E2.36896
;WIDTH:0.354362
G1 X112.398 Y101.275 E2.3778
;WIDTH:0.420134
G1 X112.491 Y101.515 E2.38859
G1 X112.579 Y102.097 E2.41326
G1 X112.575 Y102.272 E2.4206
;WIDTH:0.489605
G1 X112.561 Y102.481 E2.43107
G1 X112.455 Y102.83 E2.44931
;WIDTH:0.416261
G1 X112.348 Y103.179 E2.46445
G1 X112.049 Y103.817 E2.49366
M204 S2500
G1 E1.09366 F4800
;WIPE_START
G1 F5760
G1 X112.348 Y103.179 E.53586
G1 X112.364 Y103.128 E.49366
;WIPE_END
G92 E0
G1 X122.033 Y103.94 F7200
G1 E2 F4800
M204 S2000
;WIDTH:0.527067
G1 F3000
G1 X122.946 Y104.312 E2.05359
G1 X123.097 Y104.337 E2.06191
;WIDTH:0.472755
G1 X123.352 Y104.365 E2.07423
G1 X123.621 Y104.333 E2.08724
G1 X124.6 Y104.044 E2.13628
G1 X124.753 Y103.959 E2.14469
;WIDTH:0.528428
G1 X125.733 Y102.816 E2.22678
M204 S2500
G1 X125.339 Y103.62 F7200
M204 S2000
;WIDTH:0.397786
G1 F3000
G1 X125.566 Y102.832 E2.25902
G1 X125.59 Y102.621 E2.26737
;WIDTH:0.456511
G1 X125.639 Y102.201 E2.28688
G1 X125.584 Y101.813 E2.30496
;WIDTH:0.362864
G1 X125.547 Y101.554 E2.31418
;WIDTH:0.275393
G1 X125.463 Y101.352 E2.31966
;WIDTH:0.348534
G1 X125.331 Y101.064 E2.3303
G1 X124.965 Y100.587 E2.35049
;WIDTH:0.261915
G1 X124.827 Y100.411 E2.35574
G1 X124.024 Y100.086 E2.37609
G1 X123.285 Y99.93 E2.39384
M204 S2500
G1 X123.434 Y99.947 F7200
M204 S2000
;WIDTH:0.309974
G1 F3000
G1 X122.09 Y100.422 E2.43531
M204 S2500
G1 X122.526 Y100.125 F7200
M204 S2000
;WIDTH:0.227084
G1 F3000
G1 X122.119 Y100.509 E2.44619
G1 X121.999 Y100.667 E2.45005
;WIDTH:0.311185
G1 X121.758 Y100.984 E2.46169
;WIDTH:0.400742
G1 X121.638 Y101.143 E2.46959
G1 X121.438 Y101.57 E2.48829
;WIDTH:0.306759
G1 X121.338 Y101.784 E2.49507
G1 X121.172 Y102.372 E2.51261
M204 S2500
G1 X121.213 Y101.838 F7200
M204 S2000
;WIDTH:0.406485
G1 F3000
G1 X121.271 Y102.102 E2.52351
;WIDTH:0.323469
G1 X121.385 Y102.63 E2.54007
;WIDTH:0.241529
G1 X121.457 Y102.935 E2.54669
;WIDTH:0.329878
G1 X121.603 Y103.229 E2.557
G1 X121.839 Y103.538 E2.56921
;WIDTH:0.256631
G1 X122.074 Y103.847 E2.57809
G1 X122.737 Y104.47 E2.59891
M204 S2500
G1 E1.19891 F4800
;WIPE_START
G1 F5760
G1 X122.185 Y103.951 E.59891
;WIPE_END
G92 E0
G1 X85.323 Y118.313 F7200
G1 E2 F4800
M204 S2000
;WIDTH:0.73592
G1 F3000
G1 X87.478 Y118.955 E2.17691
;WIDTH:0.795934
G1 X90.02 Y119.661 E2.4029
M204 S2500
G1 E1.0029 F4800
;WIPE_START
G1 F5760
G1 X89.29 Y119.458 E.4029
;WIPE_END
G92 E0
G1 X84.837 Y117.479 F7200
G1 E2 F4800
M204 S2000
;WIDTH:0.56
G1 F3000
G1 X85.032 Y118.301 E2.04916
G1 X84.353 Y118.102 E2.09034
G1 X83.886 Y117.938 E2.11914
G1 X83.083 Y117.732 E2.16738
G1 X83.071 Y117.52 E2.17974
G1 X83.487 Y117.349 E2.20591
G1 X83.9 Y117.222 E2.23106
G1 X84.317 Y117.053 E2.25724
G1 X85.509 Y116.482 E2.33416
G1 X86.397 Y115.87 E2.39692
G1 X88.707 Y115.023 E2.5401
G1 X91.263 Y114.433 E2.69276
G1 X91.744 Y114.669 E2.72394
G1 X92.188 Y115.426 E2.77501
G1 X92.814 Y116.96 E2.87143
G1 X93.74 Y117.159 E2.92655
G1 X99.424 Y117.207 E3.25734
G1 X103.749 Y117.112 E3.50909
G1 X104.243 Y116.894 E3.54051
G1 X104.681 Y116.666 E3.56925
G1 X104.993 Y116.435 E3.59184
G1 X105.175 Y116.593 E3.60587
G1 X104.706 Y117.452 E3.66283
G1 X104.38 Y117.988 E3.69934
G1 X103.684 Y117.853 E3.7406
G1 X103.178 Y117.796 E3.77023
G1 X102.181 Y117.735 E3.82836
G1 X91.613 Y117.846 E4.4434
G1 X91.493 Y119.364 E4.53202
G1 X91.411 Y120.087 E4.57436
G1 X90.862 Y120.005 E4.60666
G1 X90.255 Y119.828 E4.64346
G1 X90.915 Y119.244 E4.69475
G1 X90.315 Y118.716 E4.74126
G1 X88.558 Y117.335 E4.87131
G1 X86.125 Y117.4 E5.01295
G1 X84.897 Y117.475 E5.08455
M204 S2500
G1 X84.443 Y117.546 F7200
G1 E3.68455 F4800
;WIPE_START
G1 F5760
G1 X85.019 Y118.223 E3.08455
;WIPE_END
G92 E0
G1 X86.094 Y116.686 F7200
G1 E2 F4800
M204 S2000
;TYPE:Perimeter
G1 F3000
G1 X86.629 Y116.317 E2.03782
G1 X88.85 Y115.503 E2.17548
G1 X91.202 Y114.96 E2.31595
G1 X91.389 Y115.052 E2.32808
G1 X91.739 Y115.648 E2.3683
G1 X92.428 Y117.338 E2.47451
G1 X91.151 Y117.351 E2.54883
G1 X91.045 Y118.692 E2.62711
G1 X90.635 Y118.331 E2.6589
G1 X88.726 Y116.83 E2.80022
G1 X86.163 Y116.899 E2.94943
G1 X86.112 Y116.743 E2.95898
M204 S2500
G1 E1.55898 F4800
;WIPE_START
G1 F5760
G1 X86.629 Y116.317 E1.02864
G1 X86.712 Y116.287 E.95898
;WIPE_END
G92 E0
G1 X88.732 Y116.078 F7200
G1 E2 F4800
M204 S2000
G1 F3000
G1 X88.993 Y115.983 E2.01616
G1 X91.074 Y115.503 E2.14044
G1 X91.29 Y115.87 E2.16522
G1 X91.687 Y116.845 E2.22648
G1 X90.689 Y116.856 E2.28456
G1 X90.623 Y117.686 E2.33301
G1 X88.893 Y116.326 E2.46107
G1 X88.78 Y116.329 E2.46765
G1 X88.744 Y116.137 E2.47902
M204 S2500
G1 E1.07902 F4800
;WIPE_START
G1 F5760
G1 X88.993 Y115.983 E.84724
G1 X89.446 Y115.878 E.47902
;WIPE_END
G92 E0
G1 X141.18 Y118.453 F7200
G1 E2 F4800
M204 S2000
;TYPE:External perimeter
G1 F3000
G1 X140.987 Y119.097 E2.03912
G1 X140.641 Y118.776 E2.06659
G1 X140.335 Y118.407 E2.09449
G1 X139.97 Y118.054 E2.12404
G1 X139.495 Y117.674 E2.15944
G1 X134.56 Y117.717 E2.44664
G1 X131.4 Y117.863 E2.63073
G1 X130.09 Y117.98 E2.70727
G1 X130.319 Y118.765 E2.75486
G1 X130.597 Y120.214 E2.84072
G1 X130.324 Y120.284 E2.85712
G1 X129.999 Y119.278 E2.91864
G1 X129.472 Y118.053 E2.99625
G1 X128.451 Y116.055 E3.12683
G1 X128.204 Y115.622 E3.15584
G1 X127.939 Y115.226 E3.18357
G1 X127.502 Y114.34 E3.24106
G1 X127.743 Y114.199 E3.25731
G1 X128.045 Y114.638 E3.28832
G1 X128.379 Y114.94 E3.31452
G1 X128.661 Y115.265 E3.33956
G1 X128.982 Y115.585 E3.36594
G1 X130.35 Y116.799 E3.47238
G1 X131.58 Y117.153 E3.54687
G1 X134.836 Y117.208 E3.73638
G1 X139.472 Y117.175 E4.00618
G1 X139.855 Y116.853 E4.0353
G1 X140.378 Y116.338 E4.07802
G1 X143.988 Y113.293 E4.35286
G1 X145.638 Y113.074 E4.44972
G1 X146.241 Y113.178 E4.48533
G1 X146.449 Y113.36 E4.50141
G1 X146.768 Y113.748 E4.53064
G1 X147.432 Y113.846 E4.5697
G1 X147.216 Y114.174 E4.59256
G1 X146.868 Y114.494 E4.62007
G1 X146.514 Y114.869 E4.65008
G1 X145.037 Y116.701 E4.78703
G1 X145.551 Y117.662 E4.85045
G1 X146.182 Y118.683 E4.9203
G1 X146.298 Y119.318 E4.95787
G1 X146.836 Y120.176 E5.01681
G1 X147.129 Y120.568 E5.04529
G1 X147.473 Y120.966 E5.0759
G1 X146.267 Y120.966 E5.14608
G1 X146.516 Y120.366 E5.18388
G1 X145.328 Y120.07 E5.25513
G1 X143.723 Y119.744 E5.35044
G1 X141.234 Y118.48 E5.51289
M204 S2500
G1 X140.8 Y118.328 F7200
G1 X140.873 Y117.736
M204 S2000
;TYPE:Perimeter
G1 F3000
G1 X140.758 Y118.12 E5.53622
G1 X140.301 Y117.678 E5.57322
G1 X139.968 Y117.412 E5.59802
G1 X140.192 Y117.223 E5.61508
G1 X140.716 Y116.707 E5.65788
G1 X144.198 Y113.77 E5.92297
G1 X145.628 Y113.58 E6.00692
G1 X146.018 Y113.647 E6.02995
G1 X146.09 Y113.709 E6.03548
G1 X146.476 Y114.18 E6.07092
G1 X146.137 Y114.541 E6.09974
G1 X144.44 Y116.645 E6.25705
G1 X145.117 Y117.912 E6.34065
G1 X145.707 Y118.866 E6.40593
G1 X145.857 Y119.686 E6.45444
G1 X145.438 Y119.582 E6.47956
G1 X143.889 Y119.267 E6.57155
G1 X140.926 Y117.764 E6.7649
M204 S2500
G1 X140.912 Y117.196 F7200
M204 S2000
G1 F3000
G1 X144.409 Y114.246 E7.03115
G1 X145.89 Y114.05 E7.11809
G1 X143.844 Y116.589 E7.30785
G1 X144.684 Y118.161 E7.41157
G1 X145.219 Y119.027 E7.47081
G1 X144.055 Y118.791 E7.53993
G1 X140.965 Y117.223 E7.74158
M204 S2500
G1 E6.34158 F4800
;WIPE_START
G1 F5760
G1 X141.538 Y116.727 E5.74158
;WIPE_END
G92 E0
G1 X129.734 Y116.92 F7200
G1 E2 F4800
M204 S2000
G1 F3000
G1 X130.338 Y117.456 E2.04699
G1 X129.76 Y117.507 E2.08076
G1 X129.537 Y117.073 E2.10916
G1 X129.686 Y116.957 E2.12015
M204 S2500
G1 E.72015 F4800
;WIPE_START
G1 F5760
G1 X130.288 Y117.418 E.12015
;WIPE_END
G92 E0
G1 X145.953 Y120.99 F7200
G1 E2 F4800
M204 S2000
;TYPE:External perimeter
;WIDTH:0.552252
G1 F3000
G1 X144.843 Y121.029 E2.06363
;WIDTH:0.493273
G1 X143.138 Y121.021 E2.14961
;WIDTH:0.556516
G1 X142.993 Y120.997 E2.1581
G1 X142.973 Y120.98 E2.15962
G1 X141.901 Y119.994 E2.24379
G1 X141.211 Y119.325 E2.29933
M204 S2500
G1 E.89933 F4800
;WIPE_START
G1 F5760
G1 X141.755 Y119.852 E.29933
;WIPE_END
G92 E0
G1 X125.777 Y127.888 F7200
G1 E2 F4800
M204 S2000
;WIDTH:0.877536
G1 F3000
G1 X127.148 Y126.979 E2.15653
G1 X127.256 Y126.879 E2.17054
;WIDTH:0.78022
G1 X127.473 Y126.679 E2.19528
;WIDTH:0.682904
G1 X127.676 Y126.468 E2.21651
;WIDTH:0.745937
G1 X127.966 Y126.032 E2.25832
G1 X128.163 Y125.643 E2.29313
;WIDTH:0.672328
G1 X128.559 Y124.866 E2.35528
;WIDTH:0.598124
G1 X128.646 Y124.634 E2.3708
;WIDTH:0.54178
G1 X128.889 Y123.427 E2.43984
G1 X128.904 Y123.074 E2.45965
;WIDTH:0.471098
G1 X128.909 Y122.84 E2.47085
G1 X128.805 Y121.905 E2.51586
G1 X128.76 Y121.721 E2.52492
;WIDTH:0.389589
G1 X128.672 Y121.352 E2.53947
;WIDTH:0.308082
G1 X128.617 Y121.134 E2.54596
;WIDTH:0.365132
G1 X128.145 Y119.958 E2.59096
G1 X127.298 Y118.162 E2.66147
M204 S2500
G1 E1.26147 F4800
;WIPE_START
G1 F5760
G1 X127.621 Y118.848 E.66147
;WIPE_END
G92 E0
G1 X126.523 Y116.721 F7200
G1 E2 F4800
M204 S2000
;WIDTH:0.487579
G1 F3000
G1 X126.21 Y115.849 E2.04611
;WIDTH:0.406004
G1 X125.897 Y114.978 E2.08338
;WIDTH:0.324427
G1 X125.187 Y112.377 E2.16635
G1 X125.111 Y112.044 E2.17686
;WIDTH:0.273348
G1 X124.921 Y111.067 E2.20157
G1 X124.788 Y110.658 E2.21225
M204 S2500
G1 E.81225 F4800
;WIPE_START
G1 F5760
G1 X124.921 Y111.067 E.47177
G1 X124.984 Y111.389 E.21225
;WIPE_END
G92 E0
G1 X121.861 Y110.042 F7200
G1 E2 F4800
M204 S2000
;WIDTH:0.219749
G1 F3000
G1 X121.792 Y109.998 E2.00152
;WIDTH:0.290882
G1 X121.722 Y109.954 E2.00374
G1 X120.487 Y108.586 E2.05326
G1 X120.433 Y108.493 E2.05615
;WIDTH:0.347661
G1 X120.407 Y108.443 E2.05804
G1 X120.047 Y106.748 E2.11605
G1 X120.128 Y104.96 E2.17597
G1 X120.157 Y104.84 E2.1801
M204 S2500
G1 E.7801 F4800
;WIPE_START
G1 F5760
G1 X120.153 Y104.855 E.76781
G1 X120.139 Y104.897 E.73276
G1 X120.128 Y104.96 E.68213
G1 X120.099 Y105.593 E.1801
;WIPE_END
G92 E0
G1 X120.169 Y103.673 F7200
G1 E2 F4800
M204 S2000
;WIDTH:0.47298
G1 F3000
G1 X120.075 Y103.458 E2.01128
;WIDTH:0.421802
G1 X120.001 Y103.293 E2.01889
G1 X119.949 Y103.058 E2.02902
;WIDTH:0.502276
G1 X119.867 Y102.583 E2.05383
G1 X119.857 Y101.491 E2.11004
G1 X120.003 Y101.099 E2.13157
;WIDTH:0.586849
G1 X120.254 Y100.456 E2.1739
G1 X120.368 Y100.258 E2.18791
;WIDTH:0.518186
G1 X120.597 Y99.861 E2.21235
G1 X120.763 Y99.672 E2.22576
;WIDTH:0.60733
G1 X120.87 Y99.562 E2.23554
G1 X121.261 Y99.243 E2.26769
;WIDTH:0.691002
G1 X122.05 Y98.598 E2.34254
M204 S2500
G1 E.94254 F4800
;WIPE_START
G1 F5760
G1 X122.042 Y98.605 E.93412
G1 X121.651 Y98.924 E.53463
G1 X121.463 Y99.078 E.34254
;WIPE_END
G92 E0
G1 X126.965 Y100.709 F7200
G1 E2 F4800
M204 S2000
;WIDTH:0.56
G1 F3000
G1 X126.291 Y99.63 E2.07404
G1 X125.992 Y99.344 E2.09812
G1 X125.381 Y98.859 E2.14352
G1 X125.013 Y98.683 E2.16726
G1 X124.281 Y98.392 E2.2131
G1 X123.125 Y98.377 E2.28038
G1 X122.643 Y98.481 E2.30908
G1 X122.551 Y98.243 E2.32393
G1 X123.143 Y97.895 E2.36389
G1 X124.062 Y97.822 E2.41754
G1 X125.058 Y98.041 E2.47689
G1 X126.519 Y99.061 E2.58058
G1 X126.698 Y99.389 E2.60233
G1 X127.212 Y100.58 E2.67782
G1 X127.019 Y100.681 E2.6905
M204 S2500
G1 X126.795 Y100.347 F7200
G1 E1.2905 F4800
;WIPE_START
G1 F5760
G1 X126.587 Y100.058 E.6905
;WIPE_END
G92 E0
G1 X127.297 Y102.666 F7200
G1 E2 F4800
M204 S2000
G1 F3000
G1 X127.324 Y102.582 E2.00513
G1 X127.16 Y101.132 E2.09005
G1 X127.425 Y101.074 E2.10584
G1 X127.84 Y102.344 E2.18359
G1 X128.139 Y103.182 E2.23537
G1 X128.377 Y104.036 E2.28696
G1 X128.112 Y104.129 E2.3033
G1 X127.945 Y103.734 E2.32826
G1 X127.328 Y102.718 E2.39743
M204 S2500
G1 X127.375 Y102.625 F7200
G1 X127.193 Y103.035
M204 S2000
;WIDTH:0.58406
G1 F3000
G1 X126.909 Y103.711 E2.44215
;WIDTH:0.509259
G1 X126.799 Y104.045 E2.46054
G1 X126.728 Y104.188 E2.46889
G1 X126.771 Y104.251 E2.47288
;WIDTH:0.42681
G1 X126.808 Y104.312 E2.47593
;WIDTH:0.347064
G1 X126.852 Y104.401 E2.47925
;WIDTH:0.296749
G1 X126.99 Y104.89 E2.49325
G1 X127.082 Y105.367 E2.50663
;WIDTH:0.227865
G1 X127.128 Y105.606 E2.51138
M204 S2500
G1 X127.22 Y106.377 F7200
M204 S2000
;WIDTH:0.204683
G1 F3000
G1 X127.085 Y107.301 E2.5271
;WIDTH:0.262393
G1 X127.056 Y107.383 E2.52915
;WIDTH:0.33264
G1 X126.654 Y107.961 E2.55149
G1 X126.294 Y108.301 E2.5672
;WIDTH:0.248164
G1 X125.895 Y108.561 E2.57763
;WIDTH:0.33652
