; generated by PrusaSlicer 2.6.0+MacOS-x64 on 2023-08-19 at 01:42:59 UTC

; 

; external perimeters extrusion width = 0.45mm
; perimeters extrusion width = 0.40mm
; infill extrusion width = 0.45mm
; solid infill extrusion width = 0.50mm
; top infill extrusion width = 0.45mm
; support material extrusion width = 0.42mm
; first layer extrusion width = 0.56mm

M201 X2500 Y2500 Z800 E2500 ; sets maximum accelerations, mm/sec^2
M203 X300 Y250 Z8 E80 ; sets maximum feedrates, mm / sec
M204 S2500 T2500 ; sets acceleration (S) and retract acceleration (R), mm/sec^2
M205 X15.00 Y10.00 Z2.00 E10.00 ; sets the jerk limits, mm/sec
M205 S0 T0 ; sets the minimum extruding and travel feed rate, mm/sec
;TYPE:Custom
G90 ; use absolute coordinates
M83 ; extruder relative mode
M104 S215 ; set extruder temp
M140 S65 ; set bed temp
M190 S65 ; wait for bed temp
M109 S215 ; wait for extruder temp
G28                                        ; move X/Y/Z to min endstops
G1 Z0.28                                   ; lift nozzle a bit
 
M211 S0      ; disable software endstop
G0 Y245 X80       ; push forward past the endstop to the nozzle wiper

G0 X90       ; move X to the nozzle wiper
G0 X80       ; move X to wipe the nozzle

M211 S1      ; enable software endstop

G0 Y235      ; move to max Y (within soft-limit)

G92 E0 
G1 Y3 F1800                                    ; zero the extruded length 
G1 X60  E25 F500                       ; Extrude 25mm of filament in a 5cm line. 
G92 E0                                     ; zero the extruded length again 
G1 E-2 F500                                ; Retract a little 
G1 X70 F4000                              ; Quickly wipe away from the filament line

M117
G21 ; set units to millimeters
G90 ; use absolute coordinates
M82 ; use absolute distances for extrusion
G92 E0
M107
;LAYER_CHANGE
;Z:0.28
;HEIGHT:0.28
; BEFORE_LAYER_CHANGE 0 @ 0.28mm
G1 E-2 F4800
G92 E0
G1 Z.28 F7200
; AFTER_LAYER_CHANGE 0 @ 0.28mm
G1 X74.473 Y105.421
G1 E2 F4800
M204 S2000
;TYPE:External perimeter
;WIDTH:0.56
G1 F3000
G1 X71.843 Y105.421 E2.15305
G1 X71.843 Y103.694 E2.25355
G1 X74.473 Y103.694 E2.4066
G1 X74.473 Y105.361 E2.50361
M204 S2500
G1 X74.081 Y105.344 F7200
G1 X73.973 Y104.921
M204 S2000
;TYPE:Perimeter
G1 F3000
G1 X72.343 Y104.921 E2.59847
G1 X72.343 Y104.194 E2.64078
G1 X73.973 Y104.194 E2.73564
G1 X73.973 Y104.861 E2.77446
M204 S2500
G1 X73.723 Y104.557 F7200
M204 S2000
;TYPE:Gap fill
;WIDTH:0.287013
G1 F3000
G1 X72.593 Y104.557 E2.80431
M204 S2500
G1 E1.40431 F4800
;WIPE_START
G1 F5760
G1 X73.351 Y104.557 E.80431
;WIPE_END
G92 E0
G1 X81.452 Y110.12 F7200
G1 E2 F4800
M204 S2000
;TYPE:External perimeter
;WIDTH:0.56
G1 F3000
G1 X81.452 Y117.393 E2.42325
G1 X81.489 Y117.975 E2.45719
G1 X81.541 Y118.259 E2.47399
G1 X81.655 Y118.621 E2.49608
G1 X81.767 Y118.851 E2.51097
G1 X81.905 Y119.053 E2.52521
G1 X82.071 Y119.23 E2.53933
G1 X82.263 Y119.377 E2.5534
G1 X82.477 Y119.493 E2.56757
G1 X82.71 Y119.577 E2.58198
G1 X82.957 Y119.631 E2.59669
G1 X83.218 Y119.657 E2.61195
G1 X83.507 Y119.656 E2.62877
G1 X83.856 Y119.62 E2.64919
G1 X84.1 Y119.573 E2.66365
G1 X84.1 Y120.91 E2.74146
G1 X83.806 Y120.992 E2.75922
G1 X82.978 Y121.143 E2.8082
G1 X82.08 Y121.218 E2.86064
G1 X81.4 Y121.223 E2.90021
G1 X80.814 Y121.156 E2.93453
G1 X80.481 Y121.071 E2.95453
G1 X80.178 Y120.953 E2.97345
G1 X79.913 Y120.807 E2.99106
G1 X79.56 Y120.52 E3.01754
G1 X79.368 Y120.295 E3.03475
G1 X79.205 Y120.031 E3.05281
G1 X79.074 Y119.731 E3.07186
G1 X78.93 Y119.185 E3.10472
G1 X78.863 Y118.539 E3.14252
G1 X78.858 Y110.12 E3.63246
G1 X77.186 Y110.12 E3.72976
G1 X77.186 Y108.601 E3.81816
G1 X78.914 Y108.601 E3.91872
G1 X79.988 Y105.501 E4.10964
G1 X81.452 Y105.501 E4.19484
G1 X81.452 Y108.601 E4.37524
G1 X83.954 Y108.601 E4.52084
G1 X83.954 Y110.12 E4.60924
G1 X81.512 Y110.12 E4.75135
M204 S2500
G1 X81.058 Y110.193 F7200
G1 X80.952 Y109.62
M204 S2000
;TYPE:Perimeter
G1 F3000
G1 X80.952 Y117.409 E5.20463
G1 X80.992 Y118.036 E5.24119
G1 X81.054 Y118.379 E5.26147
G1 X81.189 Y118.807 E5.28759
G1 X81.334 Y119.103 E5.30677
G1 X81.514 Y119.367 E5.32536
G1 X81.734 Y119.602 E5.34409
G1 X81.99 Y119.798 E5.36285
G1 X82.272 Y119.951 E5.38152
G1 X82.571 Y120.059 E5.40002
G1 X82.878 Y120.126 E5.41831
G1 X83.195 Y120.157 E5.43685
G1 X83.6 Y120.155 E5.46042
G1 X83.6 Y120.521 E5.48172
G1 X82.912 Y120.647 E5.52242
G1 X82.058 Y120.719 E5.57229
G1 X81.427 Y120.723 E5.60901
G1 X80.905 Y120.663 E5.63959
G1 X80.634 Y120.594 E5.65586
G1 X80.391 Y120.499 E5.67104
G1 X80.194 Y120.39 E5.68414
G1 X79.911 Y120.161 E5.70533
G1 X79.774 Y120 E5.71763
G1 X79.649 Y119.798 E5.73145
G1 X79.548 Y119.566 E5.74618
G1 X79.424 Y119.094 E5.77458
G1 X79.363 Y118.513 E5.80858
G1 X79.358 Y109.62 E6.32611
G1 X77.686 Y109.62 E6.42341
G1 X77.686 Y109.101 E6.45361
G1 X79.27 Y109.101 E6.54579
G1 X80.344 Y106.001 E6.73671
G1 X80.952 Y106.001 E6.77209
G1 X80.952 Y109.101 E6.95249
G1 X83.454 Y109.101 E7.09809
G1 X83.454 Y109.62 E7.12829
G1 X81.012 Y109.62 E7.2704
M204 S2500
G1 X80.452 Y109.12 F7200
M204 S2000
G1 F3000
G1 X80.452 Y117.425 E7.75371
G1 X80.495 Y118.097 E7.7929
G1 X80.568 Y118.5 E7.81673
G1 X80.724 Y118.993 E7.84682
G1 X80.901 Y119.355 E7.87027
G1 X81.122 Y119.681 E7.89319
G1 X81.653 Y120.246 E7.93831
G1 X80.995 Y120.17 E7.97686
G1 X80.787 Y120.117 E7.98935
G1 X80.474 Y119.974 E8.00938
G1 X80.262 Y119.802 E8.02527
G1 X80.093 Y119.566 E8.04216
G1 X80.021 Y119.401 E8.05264
G1 X79.917 Y119.004 E8.07652
G1 X79.863 Y118.487 E8.10677
G1 X79.857 Y109.12 E8.65188
G1 X79.792 Y109.12 E8.65566
G1 X80.202 Y107.938 E8.72847
G1 X80.452 Y107.98 E8.74322
G1 X80.452 Y109.06 E8.80607
M204 S2500
G1 X80.174 Y108.868 F7200
M204 S2000
;TYPE:Gap fill
;WIDTH:0.194531
G1 F3000
G1 X80.155 Y108.982 E8.80788
G1 X80.157 Y117.433 E8.94014
G1 X80.18 Y118.139 E8.9512
;WIDTH:0.264431
G1 X80.228 Y118.59 E8.96199
;WIDTH:0.331534
G1 X80.355 Y119.129 E8.97949
G1 X80.456 Y119.376 E8.98792
G1 X80.559 Y119.542 E8.99409
G1 X80.869 Y119.88 E9.00858
M204 S2500
G1 X81.831 Y120.028 F7200
M204 S2000
;WIDTH:0.163663
G1 F3000
G1 X81.93 Y120.104 E9.01008
;WIDTH:0.241712
G1 X82.385 Y120.44 E9.02204
M204 S2500
G1 X82.069 Y120.323 F7200
M204 S2000
;WIDTH:0.16043
G1 F3000
G1 X82.742 Y120.381 E9.02993
M204 S2500
G1 E7.62993 F4800
;WIPE_START
G1 F5760
G1 X82.615 Y120.373 E7.52919
G1 X82.487 Y120.365 E7.42766
G1 X82.069 Y120.323 E7.09508
;WIPE_END
G1 E7.02993 F4800
G92 E0
G1 X80.368 Y107.713 F7200
G1 E2 F4800
M204 S2000
;WIDTH:0.632203
G1 F3000
G1 X80.43 Y107.347 E2.02472
;WIDTH:0.541721
G1 X80.491 Y106.982 E2.04547
;WIDTH:0.45124
G1 X80.553 Y106.616 E2.06237
;WIDTH:0.360758
G1 X80.614 Y106.25 E2.07536
M204 S2500
G1 E.67536 F4800
;WIPE_START
G1 F5760
G1 X80.584 Y106.433 E.52855
G1 X80.553 Y106.616 E.38161
G1 X80.522 Y106.799 E.23467
G1 X80.491 Y106.982 E.08773
G1 X80.488 Y106.997 E.07536
;WIPE_END
G92 E0
G1 X74.473 Y121.008 F7200
G1 E2 F4800
M204 S2000
;TYPE:External perimeter
;WIDTH:0.56
G1 F3000
G1 X71.843 Y121.008 E2.15305
G1 X71.843 Y108.601 E2.87507
G1 X74.473 Y108.601 E3.02812
G1 X74.473 Y120.948 E3.74665
M204 S2500
G1 X74.114 Y120.833 F7200
G1 X73.973 Y120.508
M204 S2000
;TYPE:Perimeter
G1 F3000
G1 X72.343 Y120.508 E3.84151
G1 X72.343 Y109.101 E4.50534
G1 X73.973 Y109.101 E4.6002
G1 X73.973 Y120.448 E5.26054
M204 S2500
G1 X73.474 Y120.008 F7200
M204 S2000
G1 F3000
G1 X72.843 Y120.008 E5.29726
G1 X72.843 Y109.601 E5.90289
G1 X73.474 Y109.601 E5.93961
G1 X73.474 Y119.948 E6.54175
M204 S2500
G1 X73.158 Y119.758 F7200
M204 S2000
;TYPE:Gap fill
;WIDTH:0.190619
G1 F3000
G1 X73.158 Y109.851 E6.69229
M204 S2500
G1 E5.29229 F4800
;WIPE_START
G1 F5760
G1 X73.158 Y110.609 E4.69229
;WIPE_END
G92 E0
G1 X95.132 Y110.5 F7200
G1 E2 F4800
M204 S2000
;TYPE:External perimeter
;WIDTH:0.56
G1 F3000
G1 X95.105 Y108.113 E2.13892
G1 X95.105 Y103.694 E2.39608
G1 X97.735 Y103.694 E2.54913
G1 X97.735 Y118.532 E3.41263
G1 X97.764 Y119.983 E3.49709
G1 X97.813 Y121.008 E3.55681
G1 X95.264 Y121.008 E3.70515
G1 X95.186 Y120.341 E3.74423
G1 X95.107 Y118.977 E3.82374
G1 X94.466 Y118.917 E3.86121
G1 X93.966 Y119.709 E3.91572
G1 X93.758 Y119.976 E3.93542
G1 X93.531 Y120.217 E3.95469
G1 X93.284 Y120.431 E3.97371
G1 X93.015 Y120.62 E3.99284
G1 X92.724 Y120.785 E4.01231
G1 X92.409 Y120.926 E4.03239
G1 X92.07 Y121.042 E4.05324
G1 X91.706 Y121.133 E4.07507
G1 X91.316 Y121.199 E4.09809
G1 X90.903 Y121.238 E4.12223
G1 X90.136 Y121.242 E4.16687
G1 X89.529 Y121.163 E4.20249
G1 X88.974 Y121.008 E4.23602
G1 X88.468 Y120.778 E4.26837
G1 X88.243 Y120.64 E4.28373
G1 X87.803 Y120.294 E4.3163
G1 X87.4 Y119.861 E4.35072
G1 X87.225 Y119.628 E4.36768
G1 X86.891 Y119.077 E4.40518
G1 X86.612 Y118.463 E4.44443
G1 X86.385 Y117.773 E4.4867
G1 X86.295 Y117.412 E4.50835
G1 X86.184 Y116.819 E4.54346
G1 X86.101 Y116.194 E4.58015
G1 X86.043 Y115.29 E4.63287
G1 X86.036 Y114.82 E4.66022
G1 X86.067 Y113.869 E4.71559
G1 X86.158 Y112.991 E4.76696
G1 X86.225 Y112.587 E4.79079
G1 X86.307 Y112.201 E4.81375
G1 X86.516 Y111.473 E4.85783
G1 X86.784 Y110.818 E4.89901
G1 X86.931 Y110.531 E4.91778
G1 X87.284 Y109.983 E4.95571
G1 X87.683 Y109.515 E4.9915
G1 X88.119 Y109.135 E5.02516
G1 X88.6 Y108.833 E5.05821
G1 X89.144 Y108.599 E5.09267
G1 X89.72 Y108.447 E5.12734
G1 X90.372 Y108.368 E5.16556
G1 X91.11 Y108.371 E5.20851
G1 X91.67 Y108.438 E5.24133
G1 X92.008 Y108.513 E5.26148
G1 X92.495 Y108.675 E5.29135
G1 X92.941 Y108.892 E5.32021
G1 X93.207 Y109.063 E5.33861
G1 X93.457 Y109.26 E5.35713
G1 X93.683 Y109.478 E5.3754
G1 X93.999 Y109.863 E5.40439
G1 X94.463 Y110.598 E5.45497
G1 X95.073 Y110.509 E5.49084
M204 S2500
G1 X95.527 Y110.565 F7200
G1 E4.09084 F4800
;WIPE_START
G1 F5760
G1 X95.083 Y109.751 E3.49084
;WIPE_END
G92 E0
G1 X92.277 Y109.397 F7200
G1 E2 F4800
M204 S2000
;TYPE:Perimeter
G1 F3000
G1 X91.802 Y109.391 E2.02764
G1 X91.399 Y109.422 E2.05116
G1 X90.895 Y109.529 E2.08114
G1 X90.417 Y109.715 E2.11099
G1 X89.972 Y109.983 E2.14122
G1 X89.599 Y110.307 E2.16997
G1 X89.402 Y110.527 E2.18716
G1 X89.121 Y110.926 E2.21556
G1 X88.977 Y111.184 E2.23275
G1 X88.766 Y111.667 E2.26342
G1 X88.596 Y112.208 E2.29642
G1 X88.468 Y112.798 E2.33155
G1 X88.35 Y113.749 E2.38732
G1 X88.312 Y114.812 E2.44922
G1 X88.329 Y115.527 E2.49084
G1 X88.382 Y116.192 E2.52966
G1 X88.47 Y116.812 E2.5661
G1 X88.598 Y117.39 E2.60055
G1 X88.769 Y117.926 E2.63329
G1 X88.987 Y118.421 E2.66477
G1 X89.257 Y118.871 E2.69531
G1 X89.584 Y119.271 E2.72538
G1 X89.969 Y119.61 E2.75523
G1 X90.405 Y119.877 E2.78498
G1 X90.881 Y120.066 E2.81478
G1 X91.385 Y120.176 E2.8448
G1 X91.912 Y120.211 E2.87554
G1 X92.209 Y120.19 E2.89287
G1 X92.262 Y120.448 E2.9082
G1 X91.928 Y120.562 E2.92874
G1 X91.603 Y120.643 E2.94823
G1 X91.25 Y120.703 E2.96907
G1 X90.878 Y120.739 E2.99082
G1 X90.167 Y120.742 E3.0322
G1 X89.628 Y120.672 E3.06383
G1 X89.146 Y120.537 E3.09296
G1 X88.702 Y120.335 E3.12135
G1 X88.529 Y120.229 E3.13316
G1 X88.143 Y119.925 E3.16175
G1 X87.784 Y119.54 E3.19238
G1 X87.64 Y119.347 E3.20639
G1 X87.334 Y118.843 E3.2407
G1 X87.078 Y118.281 E3.27664
G1 X86.866 Y117.635 E3.31621
G1 X86.784 Y117.305 E3.336
G1 X86.678 Y116.74 E3.36945
G1 X86.599 Y116.146 E3.40432
G1 X86.543 Y115.27 E3.4554
G1 X86.536 Y114.825 E3.4813
G1 X86.566 Y113.903 E3.53498
G1 X86.654 Y113.058 E3.58442
G1 X86.792 Y112.322 E3.628
G1 X86.989 Y111.637 E3.66948
G1 X87.238 Y111.027 E3.70782
G1 X87.365 Y110.781 E3.72393
G1 X87.686 Y110.281 E3.75851
G1 X88.045 Y109.861 E3.79066
G1 X88.222 Y109.694 E3.80482
G1 X88.418 Y109.537 E3.81943
G1 X88.824 Y109.28 E3.84739
G1 X89.316 Y109.069 E3.87854
G1 X89.806 Y108.94 E3.90803
G1 X90.402 Y108.868 E3.94297
G1 X91.079 Y108.87 E3.98237
G1 X91.585 Y108.932 E4.01204
G1 X91.875 Y108.996 E4.02932
G1 X92.32 Y109.144 E4.05661
G1 X92.287 Y109.338 E4.06806
M204 S2500
G1 E2.66806 F4800
;WIPE_START
G1 F5760
G1 X91.802 Y109.391 E2.28182
G1 X91.533 Y109.412 E2.06806
;WIPE_END
G92 E0
G1 X89.322 Y109.867 F7200
G1 E2 F4800
M204 S2000
G1 F3000
G1 X89.01 Y110.215 E2.0272
G1 X88.697 Y110.66 E2.05886
G1 X88.529 Y110.962 E2.07897
G1 X88.297 Y111.492 E2.11264
G1 X88.113 Y112.079 E2.14844
G1 X87.974 Y112.715 E2.18633
G1 X87.852 Y113.71 E2.24467
G1 X87.812 Y114.809 E2.30867
G1 X87.83 Y115.553 E2.35198
G1 X87.884 Y116.247 E2.39249
G1 X87.978 Y116.901 E2.43094
G1 X88.115 Y117.52 E2.46783
G1 X88.3 Y118.103 E2.50342
G1 X88.542 Y118.651 E2.53828
G1 X88.847 Y119.16 E2.57281
G1 X89.223 Y119.619 E2.60734
G1 X89.512 Y119.874 E2.62977
G1 X89.372 Y120.091 E2.6448
G1 X88.937 Y119.893 E2.67261
G1 X88.815 Y119.818 E2.68094
G1 X88.482 Y119.556 E2.7056
G1 X88.168 Y119.219 E2.73241
G1 X88.054 Y119.067 E2.74347
G1 X87.776 Y118.609 E2.77465
G1 X87.545 Y118.099 E2.80723
G1 X87.346 Y117.496 E2.84418
G1 X87.172 Y116.662 E2.89376
G1 X87.097 Y116.097 E2.92693
G1 X87.043 Y115.25 E2.97632
G1 X87.036 Y114.829 E3.00082
G1 X87.065 Y113.937 E3.05276
G1 X87.149 Y113.125 E3.10027
G1 X87.208 Y112.772 E3.1211
G1 X87.277 Y112.443 E3.14066
G1 X87.462 Y111.801 E3.17954
G1 X87.693 Y111.236 E3.21506
G1 X87.798 Y111.031 E3.22846
G1 X88.088 Y110.58 E3.25966
G1 X88.407 Y110.206 E3.28827
G1 X88.551 Y110.072 E3.29972
G1 X88.889 Y109.82 E3.32426
G1 X89.181 Y109.671 E3.34334
G1 X89.287 Y109.818 E3.35389
M204 S2500
G1 E1.95389 F4800
;WIPE_START
G1 F5760
G1 X89.01 Y110.215 E1.57066
G1 X88.852 Y110.439 E1.35389
;WIPE_END
G92 E0
G1 X93.805 Y110.554 F7200
G1 E2 F4800
M204 S2000
;TYPE:External perimeter
G1 F3000
G1 X94.094 Y110.87 E2.02492
G1 X94.371 Y111.228 E2.05126
G1 X94.604 Y111.649 E2.07926
G1 X94.793 Y112.119 E2.10874
G1 X94.995 Y112.891 E2.15518
G1 X95.115 Y113.762 E2.20635
G1 X95.154 Y114.729 E2.26267
G1 X95.136 Y115.407 E2.30214
G1 X95.081 Y116.041 E2.33917
G1 X94.929 Y116.892 E2.38948
G1 X94.855 Y117.171 E2.40628
G1 X94.686 Y117.661 E2.43644
G1 X94.578 Y117.907 E2.45207
G1 X94.333 Y118.335 E2.48077
G1 X93.759 Y119.023 E2.53291
G1 X93.409 Y119.298 E2.55881
G1 X93.013 Y119.504 E2.58479
G1 X92.6 Y119.634 E2.60999
G1 X92.363 Y119.678 E2.62402
G1 X91.911 Y119.71 E2.65039
G1 X91.455 Y119.679 E2.67699
G1 X91.027 Y119.586 E2.70248
G1 X90.629 Y119.429 E2.72738
G1 X90.267 Y119.206 E2.75212
G1 X89.945 Y118.923 E2.77707
G1 X89.667 Y118.583 E2.80263
G1 X89.431 Y118.191 E2.82926
G1 X89.237 Y117.749 E2.85735
G1 X89.081 Y117.26 E2.88722
G1 X88.962 Y116.722 E2.91929
G1 X88.879 Y116.137 E2.95367
G1 X88.829 Y115.502 E2.99074
G1 X88.812 Y114.815 E3.03073
G1 X88.849 Y113.789 E3.09048
G1 X88.961 Y112.882 E3.14366
G1 X89.08 Y112.336 E3.17618
G1 X89.235 Y111.843 E3.20625
G1 X89.426 Y111.406 E3.234
G1 X89.545 Y111.192 E3.24825
G1 X89.794 Y110.839 E3.27339
G1 X89.95 Y110.664 E3.28703
G1 X90.267 Y110.388 E3.31149
G1 X90.638 Y110.165 E3.33668
G1 X91.038 Y110.01 E3.36164
G1 X91.47 Y109.918 E3.38734
G1 X91.818 Y109.892 E3.40765
G1 X92.174 Y109.896 E3.42837
G1 X92.618 Y109.957 E3.45445
G1 X92.85 Y110.016 E3.46838
G1 X93.254 Y110.176 E3.49367
G1 X93.62 Y110.402 E3.5187
G1 X93.759 Y110.516 E3.52916
M204 S2500
G1 X94.188 Y110.439 F7200
G1 E2.12916 F4800
;WIPE_START
G1 F5760
G1 X94.094 Y110.87 E1.74332
G1 X94.26 Y111.084 E1.52916
;WIPE_END
G92 E0
G1 X95.607 Y110.936 F7200
G1 E2 F4800
M204 S2000
;TYPE:Perimeter
G1 F3000
G1 X95.637 Y110.931 E2.00177
G1 X95.605 Y108.11 E2.16595
G1 X95.605 Y104.194 E2.39384
G1 X97.235 Y104.194 E2.4887
G1 X97.235 Y118.536 E3.32333
G1 X97.289 Y120.508 E3.43813
G1 X95.709 Y120.508 E3.53008
G1 X95.582 Y118.518 E3.64612
G1 X94.843 Y118.45 E3.68931
G1 X95.025 Y118.132 E3.71063
G1 X95.152 Y117.844 E3.72895
G1 X95.334 Y117.317 E3.7614
G1 X95.418 Y117 E3.78048
G1 X95.577 Y116.107 E3.83327
G1 X95.635 Y115.435 E3.87252
G1 X95.655 Y114.725 E3.91385
G1 X95.614 Y113.718 E3.9725
G1 X95.486 Y112.793 E4.02684
G1 X95.268 Y111.962 E4.07684
G1 X95.057 Y111.434 E4.10993
G1 X94.842 Y111.048 E4.13564
G1 X95.548 Y110.944 E4.17717
M204 S2500
G1 X96.082 Y111.371 F7200
M204 S2000
G1 F3000
G1 X96.142 Y111.362 E4.1807
G1 X96.105 Y108.108 E4.37008
G1 X96.105 Y104.694 E4.56876
G1 X96.736 Y104.694 E4.60548
G1 X96.736 Y118.541 E5.41131
G1 X96.764 Y120.008 E5.4967
G1 X96.168 Y120.008 E5.53138
G1 X96.056 Y118.06 E5.64493
G1 X95.62 Y118.02 E5.67041
G1 X95.812 Y117.463 E5.7047
G1 X95.906 Y117.109 E5.72601
G1 X96.073 Y116.172 E5.7814
