; generated by PrusaSlicer 2.6.0+MacOS-x64 on 2023-08-22 at 21:26:37 UTC

; 

; external perimeters extrusion width = 0.45mm
; perimeters extrusion width = 0.40mm
; infill extrusion width = 0.45mm
; solid infill extrusion width = 0.50mm
; top infill extrusion width = 0.45mm
; support material extrusion width = 0.42mm
; first layer extrusion width = 0.56mm

M201 X2500 Y2500 Z800 E2500 ; sets maximum accelerations, mm/sec^2
M203 X300 Y250 Z8 E80 ; sets maximum feedrates, mm / sec
M204 S2500 T2500 ; sets acceleration (S) and retract acceleration (R), mm/sec^2
M205 X15.00 Y10.00 Z2.00 E10.00 ; sets the jerk limits, mm/sec
M205 S0 T0 ; sets the minimum extruding and travel feed rate, mm/sec
;TYPE:Custom
G90 ; use absolute coordinates
M83 ; extruder relative mode
M104 S215 ; set extruder temp
M140 S65 ; set bed temp
M190 S65 ; wait for bed temp
M109 S215 ; wait for extruder temp
G28                                        ; move X/Y/Z to min endstops
G1 Z0.28                                   ; lift nozzle a bit
 
G0 Y0      ; move to max Y (within soft-limit)


G92 E0 
G1 Y3 F1800                                    ; zero the extruded length 
G1 Y8 E25 F500                       ; Extrude 25mm of filament in a 5cm line. 
G92 E0                                     ; zero the extruded length again 
G1 E-2 F500                                ; Retract a little 
G1 X70 F4000                              ; Quickly wipe away from the filament line

M211 S0      ; disable software endstop
G0 Y245 X80       ; push forward past the endstop to the nozzle wiper

G0 X90       ; move X to the nozzle wiper
G0 X80       ; move X to wipe the nozzle

M211 S1      ; enable software endstop
M117

;G28          ; home all
G21 ; set units to millimeters
G90 ; use absolute coordinates
M82 ; use absolute distances for extrusion
G92 E0
M107
;LAYER_CHANGE
;Z:0.28
;HEIGHT:0.28
; BEFORE_LAYER_CHANGE 0 @ 0.28mm
G1 E-2 F4800
G92 E0
G1 Z.28 F7200
; AFTER_LAYER_CHANGE 0 @ 0.28mm
G1 X96.989 Y97.874
G1 E2 F4800
M204 S2000
;TYPE:Skirt/Brim
;WIDTH:0.56
G1 F3000
G1 X97.741 Y97.351 E2.05331
G1 X98.619 Y96.969 E2.10903
G1 X99.749 Y96.751 E2.176
G1 X130.308 Y96.756 E3.95438
G1 X131.246 Y96.928 E4.00988
G1 X132.176 Y97.305 E4.06828
G1 X132.896 Y97.78 E4.11848
G1 X133.574 Y98.427 E4.17302
G1 X134.281 Y99.492 E4.24741
G1 X134.593 Y100.328 E4.29934
G1 X134.742 Y101.174 E4.34933
G1 X134.749 Y128.742 E5.95365
G1 X134.589 Y129.689 E6.00954
G1 X134.242 Y130.586 E6.06551
G1 X133.678 Y131.448 E6.12546
G1 X132.992 Y132.142 E6.18225
G1 X132.107 Y132.731 E6.24412
G1 X131.218 Y133.081 E6.29972
G1 X130.24 Y133.249 E6.35747
G1 X99.758 Y133.249 E8.13137
G1 X98.811 Y133.089 E8.18726
G1 X97.914 Y132.742 E8.24323
G1 X97.052 Y132.178 E8.30318
G1 X96.358 Y131.492 E8.35997
G1 X95.77 Y130.607 E8.4218
G1 X95.419 Y129.718 E8.47742
G1 X95.251 Y128.74 E8.53517
G1 X95.251 Y101.258 E10.13448
G1 X95.411 Y100.311 E10.19037
G1 X95.758 Y99.414 E10.24634
G1 X96.322 Y98.552 E10.30629
G1 X96.947 Y97.917 E10.35814
M204 S2500
G1 X97.296 Y98.269 F7200
M204 S2000
G1 F3000
G1 X97.967 Y97.797 E10.40588
G1 X98.744 Y97.454 E10.45531
G1 X99.774 Y97.251 E10.5164
G1 X130.284 Y97.256 E12.29193
G1 X131.127 Y97.414 E12.34184
G1 X131.962 Y97.757 E12.39437
G1 X132.599 Y98.183 E12.43897
G1 X133.208 Y98.768 E12.48811
G1 X133.824 Y99.696 E12.55293
G1 X134.105 Y100.438 E12.5991
G1 X134.246 Y101.239 E12.64643
G1 X134.249 Y128.72 E14.24568
G1 X134.101 Y129.578 E14.29635
G1 X133.786 Y130.379 E14.34644
G1 X133.303 Y131.116 E14.39772
G1 X132.692 Y131.741 E14.44858
G1 X131.854 Y132.299 E14.50717
G1 X131.061 Y132.605 E14.55664
G1 X130.219 Y132.749 E14.60635
G1 X99.78 Y132.749 E16.37775
G1 X98.922 Y132.601 E16.42842
G1 X98.121 Y132.286 E16.47851
G1 X97.384 Y131.803 E16.52979
G1 X96.759 Y131.192 E16.58065
G1 X96.201 Y130.354 E16.63924
G1 X95.895 Y129.561 E16.68871
G1 X95.751 Y128.719 E16.73842
G1 X95.751 Y101.28 E18.33523
G1 X95.899 Y100.422 E18.3859
G1 X96.214 Y99.621 E18.43599
G1 X96.697 Y98.884 E18.48727
G1 X97.254 Y98.312 E18.53373
M204 S2500
G1 X97.606 Y98.662 F7200
M204 S2000
G1 F3000
G1 X98.196 Y98.242 E18.57588
G1 X98.872 Y97.938 E18.61901
G1 X99.799 Y97.751 E18.67404
G1 X130.26 Y97.755 E20.44672
G1 X131.006 Y97.9 E20.49095
G1 X131.746 Y98.208 E20.5376
G1 X132.3 Y98.584 E20.57656
G1 X132.84 Y99.108 E20.62035
G1 X133.367 Y99.899 E20.67566
G1 X133.629 Y100.592 E20.71878
G1 X133.749 Y101.302 E20.76068
G1 X133.749 Y128.699 E22.35505
G1 X133.626 Y129.419 E22.39756
G1 X133.331 Y130.172 E22.44462
G1 X132.927 Y130.786 E22.48739
G1 X132.392 Y131.34 E22.53221
G1 X131.601 Y131.867 E22.58752
G1 X130.908 Y132.129 E22.63064
G1 X130.198 Y132.249 E22.67254
G1 X99.801 Y132.249 E24.44149
G1 X99.081 Y132.126 E24.484
G1 X98.328 Y131.831 E24.53106
G1 X97.714 Y131.427 E24.57383
G1 X97.16 Y130.892 E24.61865
G1 X96.633 Y130.101 E24.67396
G1 X96.371 Y129.408 E24.71708
G1 X96.251 Y128.698 E24.75898
G1 X96.251 Y101.301 E26.35335
G1 X96.374 Y100.581 E26.39586
G1 X96.669 Y99.828 E26.44292
G1 X97.073 Y99.214 E26.48569
G1 X97.564 Y98.705 E26.52685
M204 S2500
G1 X97.922 Y99.054 F7200
M204 S2000
G1 F3000
G1 X98.462 Y98.666 E26.56555
G1 X99.048 Y98.406 E26.60286
G1 X99.824 Y98.251 E26.64891
G1 X130.234 Y98.255 E28.41862
G1 X130.882 Y98.385 E28.45708
G1 X131.526 Y98.658 E28.49779
G1 X131.998 Y98.982 E28.53111
G1 X132.472 Y99.447 E28.56975
G1 X132.91 Y100.105 E28.61575
G1 X133.141 Y100.703 E28.65306
G1 X133.249 Y101.324 E28.68974
G1 X133.249 Y128.676 E30.28149
G1 X133.138 Y129.306 E30.31872
G1 X132.877 Y129.961 E30.35975
G1 X132.525 Y130.489 E30.39668
G1 X132.053 Y130.971 E30.43594
G1 X131.395 Y131.41 E30.48197
G1 X130.797 Y131.641 E30.51928
G1 X130.176 Y131.749 E30.55596
G1 X99.824 Y131.749 E32.32229
G1 X99.195 Y131.638 E32.35946
G1 X98.539 Y131.377 E32.40055
G1 X98.011 Y131.025 E32.43748
G1 X97.529 Y130.553 E32.47674
G1 X97.09 Y129.895 E32.52277
G1 X96.859 Y129.297 E32.56008
G1 X96.751 Y128.676 E32.59676
G1 X96.751 Y101.324 E34.18851
G1 X96.862 Y100.695 E34.22568
G1 X97.123 Y100.039 E34.26677
G1 X97.475 Y99.511 E34.3037
G1 X97.88 Y99.097 E34.3374
M204 S2500
G1 X98.235 Y99.448 F7200
M204 S2000
G1 F3000
G1 X98.726 Y99.092 E34.37269
G1 X99.222 Y98.875 E34.4042
G1 X99.848 Y98.75 E34.44135
G1 X130.208 Y98.755 E36.20815
G1 X130.753 Y98.869 E36.24055
G1 X131.302 Y99.106 E36.27535
G1 X131.692 Y99.379 E36.30305
G1 X132.102 Y99.784 E36.33659
G1 X132.455 Y100.314 E36.37365
G1 X132.654 Y100.818 E36.40518
G1 X132.75 Y101.347 E36.43647
G1 X132.75 Y128.653 E38.02554
G1 X132.652 Y129.189 E38.05725
G1 X132.424 Y129.746 E38.09228
G1 X132.125 Y130.188 E38.12333
G1 X131.716 Y130.602 E38.1572
G1 X131.186 Y130.955 E38.19426
G1 X130.682 Y131.154 E38.22579
G1 X130.153 Y131.25 E38.25708
G1 X99.847 Y131.25 E40.02074
G1 X99.311 Y131.152 E40.05245
G1 X98.754 Y130.924 E40.08748
G1 X98.312 Y130.625 E40.11853
G1 X97.898 Y130.216 E40.1524
G1 X97.545 Y129.686 E40.18946
G1 X97.346 Y129.182 E40.22099
G1 X97.25 Y128.653 E40.25228
G1 X97.25 Y101.347 E41.84135
G1 X97.348 Y100.811 E41.87306
G1 X97.576 Y100.254 E41.90809
G1 X97.875 Y99.812 E41.93914
G1 X98.193 Y99.491 E41.96544
M204 S2500
G1 X98.546 Y99.843 F7200
M204 S2000
G1 F3000
G1 X98.62 Y99.769 E41.97153
G1 X98.986 Y99.519 E41.99732
G1 X99.393 Y99.346 E42.02306
G1 X99.873 Y99.25 E42.05155
G1 X130.18 Y99.255 E43.81526
G1 X130.621 Y99.351 E43.84153
G1 X131.075 Y99.552 E43.87042
G1 X131.383 Y99.772 E43.89245
G1 X131.731 Y100.119 E43.92105
G1 X132.002 Y100.526 E43.94951
G1 X132.168 Y100.937 E43.97531
G1 X132.25 Y101.371 E44.00101
G1 X132.25 Y128.629 E45.58729
G1 X132.166 Y129.068 E45.6133
G1 X131.974 Y129.528 E45.64231
G1 X131.728 Y129.883 E45.66744
G1 X131.381 Y130.231 E45.69604
G1 X130.974 Y130.502 E45.7245
G1 X130.563 Y130.668 E45.7503
G1 X130.129 Y130.75 E45.776
G1 X99.871 Y130.75 E47.53686
G1 X99.432 Y130.666 E47.56287
G1 X98.972 Y130.474 E47.59188
G1 X98.617 Y130.228 E47.61701
G1 X98.269 Y129.881 E47.64561
G1 X97.998 Y129.474 E47.67407
G1 X97.832 Y129.063 E47.69987
G1 X97.75 Y128.629 E47.72557
G1 X97.75 Y101.371 E49.31185
G1 X97.834 Y100.932 E49.33786
G1 X98.026 Y100.472 E49.36687
G1 X98.272 Y100.117 E49.392
G1 X98.503 Y99.886 E49.41101
M204 S2500
G1 X98.857 Y100.239 F7200
M204 S2000
G1 F3000
G1 X98.956 Y100.14 E49.41916
G1 X99.241 Y99.95 E49.43909
G1 X99.561 Y99.817 E49.45926
G1 X99.897 Y99.75 E49.4792
G1 X130.152 Y99.755 E51.23989
G1 X130.441 Y99.818 E51.2571
G1 X130.848 Y99.998 E51.283
G1 X131.043 Y100.139 E51.297
G1 X131.36 Y100.456 E51.32309
G1 X131.55 Y100.741 E51.34302
G1 X131.683 Y101.061 E51.36319
G1 X131.75 Y101.397 E51.38313
G1 X131.75 Y128.603 E52.96638
G1 X131.682 Y128.942 E52.9865
G1 X131.526 Y129.306 E53.00955
G1 X131.359 Y129.545 E53.02652
G1 X131.044 Y129.86 E53.05244
G1 X130.759 Y130.05 E53.07237
G1 X130.439 Y130.183 E53.09254
G1 X130.103 Y130.25 E53.11248
G1 X99.897 Y130.25 E54.87032
G1 X99.558 Y130.182 E54.89044
G1 X99.194 Y130.026 E54.91349
G1 X98.955 Y129.859 E54.93046
G1 X98.64 Y129.544 E54.95638
G1 X98.45 Y129.259 E54.97631
G1 X98.317 Y128.939 E54.99648
G1 X98.25 Y128.603 E55.01642
G1 X98.25 Y101.397 E56.59967
G1 X98.318 Y101.058 E56.61979
G1 X98.474 Y100.694 E56.64284
G1 X98.641 Y100.455 E56.65981
G1 X98.814 Y100.282 E56.67405
M204 S2500
G1 X99.168 Y100.635 F7200
M204 S2000
G1 F3000
G1 X99.292 Y100.511 E56.68426
G1 X99.455 Y100.402 E56.69567
G1 X99.729 Y100.288 E56.71294
G1 X99.922 Y100.25 E56.72439
G1 X130.124 Y100.255 E58.48199
G1 X130.266 Y100.287 E58.49046
G1 X130.584 Y100.423 E58.51059
G1 X130.706 Y100.509 E58.51928
G1 X130.989 Y100.792 E58.54257
G1 X131.098 Y100.955 E58.55398
G1 X131.212 Y101.229 E58.57125
G1 X131.25 Y101.422 E58.5827
G1 X131.25 Y128.578 E60.16304
G1 X131.212 Y128.769 E60.17437
G1 X131.077 Y129.084 E60.19431
G1 X130.991 Y129.206 E60.203
G1 X130.708 Y129.489 E60.22629
G1 X130.545 Y129.598 E60.2377
G1 X130.271 Y129.712 E60.25497
G1 X130.078 Y129.75 E60.26642
G1 X99.922 Y129.75 E62.02135
G1 X99.731 Y129.712 E62.03268
G1 X99.416 Y129.577 E62.05262
G1 X99.294 Y129.491 E62.06131
G1 X99.011 Y129.208 E62.0846
G1 X98.902 Y129.045 E62.09601
G1 X98.788 Y128.771 E62.11328
G1 X98.75 Y128.578 E62.12473
G1 X98.75 Y101.422 E63.70507
G1 X98.788 Y101.231 E63.7164
G1 X98.923 Y100.916 E63.73634
G1 X99.009 Y100.794 E63.74503
G1 X99.125 Y100.678 E63.75458
M204 S2500
G1 X99.479 Y101.031 F7200
M204 S2000
G1 F3000
G1 X99.669 Y100.855 E63.76965
G1 X99.946 Y100.75 E63.78689
G1 X130.054 Y100.75 E65.53902
G1 X130.372 Y100.882 E65.55906
G1 X130.618 Y101.128 E65.57931
G1 X130.75 Y101.446 E65.59935
G1 X130.75 Y128.554 E67.1769
G1 X130.618 Y128.872 E67.19694
G1 X130.372 Y129.118 E67.21719
G1 X130.054 Y129.25 E67.23723
G1 X99.946 Y129.25 E68.98936
G1 X99.628 Y129.118 E69.0094
G1 X99.382 Y128.872 E69.02965
G1 X99.25 Y128.554 E69.04969
G1 X99.25 Y101.446 E70.62724
G1 X99.355 Y101.169 E70.64448
G1 X99.436 Y101.074 E70.65175
M204 S2500
G1 X99.79 Y101.427 F7200
M204 S2000
G1 F3000
G1 X99.929 Y101.288 E70.66319
G1 X100.021 Y101.25 E70.66898
G1 X129.979 Y101.25 E72.41238
G1 X130.071 Y101.288 E72.41817
G1 X130.212 Y101.429 E72.42977
G1 X130.25 Y101.521 E72.43556
G1 X130.25 Y128.479 E74.00438
G1 X130.212 Y128.571 E74.01017
G1 X130.071 Y128.712 E74.02177
G1 X129.979 Y128.75 E74.02756
G1 X100.021 Y128.75 E75.77096
G1 X99.929 Y128.712 E75.77675
G1 X99.788 Y128.571 E75.78835
G1 X99.75 Y128.479 E75.79414
G1 X99.75 Y101.521 E77.36296
G1 X99.766 Y101.482 E77.36541
M204 S2500
G1 E75.96541 F4800
;WIPE_START
G1 F5760
G1 X99.929 Y101.288 E75.76481
G1 X100.021 Y101.25 E75.68601
G1 X100.426 Y101.25 E75.36541
;WIPE_END
G92 E0
G1 X129.6 Y101.9 F7200
G1 E2 F4800
M204 S2000
;TYPE:External perimeter
G1 F3000
G1 X129.6 Y128.1 E3.52471
G1 X100.4 Y128.1 E5.224
G1 X100.4 Y101.9 E6.74871
G1 X129.54 Y101.9 E8.44451
M204 S2500
G1 X129.49 Y102.284 F7200
G1 X129.1 Y102.4
M204 S2000
;TYPE:Perimeter
G1 F3000
G1 X129.1 Y127.6 E9.91102
G1 X100.9 Y127.6 E11.55212
G1 X100.9 Y102.4 E13.01863
G1 X129.04 Y102.4 E14.65624
M204 S2500
G1 X128.6 Y102.9 F7200
M204 S2000
G1 F3000
G1 X128.6 Y127.1 E16.06456
G1 X101.4 Y127.1 E17.64746
G1 X101.4 Y102.9 E19.05578
G1 X128.54 Y102.9 E20.63519
M204 S2500
G1 E19.23519 F4800
;WIPE_START
G1 F5760
G1 X128.542 Y103.658 E18.63519
;WIPE_END
G92 E0
G1 X127.379 Y103.1 F7200
G1 E2 F4800
M204 S2000
;TYPE:Solid infill
;WIDTH:0.565031
G1 F3000
G1 X128.175 Y103.896 E2.06617
G1 X128.175 Y104.61 E2.10814
G1 X126.89 Y103.325 E2.21496
G1 X126.176 Y103.325 E2.25693
G1 X128.175 Y105.324 E2.4231
G1 X128.175 Y106.038 E2.46507
G1 X125.462 Y103.325 E2.6906
G1 X124.748 Y103.325 E2.73257
G1 X128.175 Y106.752 E3.01745
G1 X128.175 Y107.467 E3.05948
G1 X124.033 Y103.325 E3.4038
G1 X123.319 Y103.325 E3.44577
G1 X128.175 Y108.181 E3.84944
G1 X128.175 Y108.895 E3.89141
G1 X122.605 Y103.325 E4.35443
G1 X121.891 Y103.325 E4.3964
G1 X128.175 Y109.609 E4.91878
G1 X128.175 Y110.323 E4.96075
G1 X121.177 Y103.325 E5.54248
G1 X120.463 Y103.325 E5.58445
G1 X128.175 Y111.037 E6.22553
G1 X128.175 Y111.751 E6.2675
G1 X119.749 Y103.325 E6.96794
G1 X119.035 Y103.325 E7.00991
G1 X128.175 Y112.465 E7.7697
G1 X128.175 Y113.179 E7.81167
G1 X118.321 Y103.325 E8.63082
G1 X117.607 Y103.325 E8.67279
G1 X128.175 Y113.893 E9.55129
G1 X128.175 Y114.607 E9.59326
G1 X116.893 Y103.325 E10.53111
G1 X116.178 Y103.325 E10.57314
G1 X128.175 Y115.322 E11.57043
G1 X128.175 Y116.036 E11.6124
G1 X115.464 Y103.325 E12.66904
G1 X114.75 Y103.325 E12.71101
G1 X128.175 Y116.75 E13.82701
G1 X128.175 Y117.464 E13.86898
G1 X114.036 Y103.325 E15.04433
G1 X113.322 Y103.325 E15.0863
G1 X128.175 Y118.178 E16.321
G1 X128.175 Y118.892 E16.36297
G1 X112.608 Y103.325 E17.65703
G1 X111.894 Y103.325 E17.699
G1 X128.175 Y119.606 E19.05241
G1 X128.175 Y120.32 E19.09438
G1 X111.18 Y103.325 E20.50714
G1 X110.466 Y103.325 E20.54911
G1 X128.175 Y121.034 E22.02123
G1 X128.175 Y121.748 E22.0632
G1 X109.752 Y103.325 E23.59467
G1 X109.037 Y103.325 E23.6367
G1 X128.175 Y122.463 E25.22761
G1 X128.175 Y123.177 E25.26958
G1 X108.323 Y103.325 E26.91984
G1 X107.609 Y103.325 E26.96181
G1 X128.175 Y123.891 E28.67143
G1 X128.175 Y124.605 E28.7134
G1 X106.895 Y103.325 E30.48237
G1 X106.181 Y103.325 E30.52434
G1 X128.175 Y125.319 E32.35266
G1 X128.175 Y126.033 E32.39463
G1 X105.467 Y103.325 E34.28231
G1 X104.753 Y103.325 E34.32428
G1 X128.103 Y126.675 E36.26532
G1 X127.389 Y126.675 E36.30729
G1 X104.039 Y103.325 E38.24833
G1 X103.325 Y103.325 E38.2903
G1 X126.675 Y126.675 E40.23134
G1 X125.961 Y126.675 E40.27331
G1 X102.611 Y103.325 E42.21435
G1 X101.897 Y103.325 E42.25632
G1 X125.247 Y126.675 E44.19736
G1 X124.533 Y126.675 E44.23933
G1 X101.825 Y103.967 E46.12701
G1 X101.825 Y104.681 E46.16898
G1 X123.819 Y126.675 E47.9973
G1 X123.105 Y126.675 E48.03927
G1 X101.825 Y105.395 E49.80824
G1 X101.825 Y106.109 E49.85021
G1 X122.391 Y126.675 E51.55983
G1 X121.677 Y126.675 E51.6018
G1 X101.825 Y106.823 E53.25206
G1 X101.825 Y107.538 E53.29409
G1 X120.962 Y126.675 E54.88492
G1 X120.248 Y126.675 E54.92689
G1 X101.825 Y108.252 E56.45836
G1 X101.825 Y108.966 E56.50033
G1 X119.534 Y126.675 E57.97245
G1 X118.82 Y126.675 E58.01442
G1 X101.825 Y109.68 E59.42718
G1 X101.825 Y110.394 E59.46915
G1 X118.106 Y126.675 E60.82256
G1 X117.392 Y126.675 E60.86453
G1 X101.825 Y111.108 E62.15859
G1 X101.825 Y111.822 E62.20056
G1 X116.678 Y126.675 E63.43526
G1 X115.964 Y126.675 E63.47723
G1 X101.825 Y112.536 E64.65258
G1 X101.825 Y113.25 E64.69455
G1 X115.25 Y126.675 E65.81055
G1 X114.536 Y126.675 E65.85252
G1 X101.825 Y113.964 E66.90916
G1 X101.825 Y114.679 E66.95119
G1 X113.821 Y126.675 E67.9484
G1 X113.107 Y126.675 E67.99037
G1 X101.825 Y115.393 E68.92822
G1 X101.825 Y116.107 E68.97019
G1 X112.393 Y126.675 E69.84869
G1 X111.679 Y126.675 E69.89066
G1 X101.825 Y116.821 E70.70981
G1 X101.825 Y117.535 E70.75178
G1 X110.965 Y126.675 E71.51157
G1 X110.251 Y126.675 E71.55354
G1 X101.825 Y118.249 E72.25398
G1 X101.825 Y118.963 E72.29595
G1 X109.537 Y126.675 E72.93703
G1 X108.823 Y126.675 E72.979
G1 X101.825 Y119.677 E73.56073
G1 X101.825 Y120.391 E73.6027
G1 X108.109 Y126.675 E74.12508
G1 X107.395 Y126.675 E74.16705
G1 X101.825 Y121.105 E74.63007
G1 X101.825 Y121.819 E74.67204
G1 X106.681 Y126.675 E75.07571
G1 X105.966 Y126.675 E75.11774
