; generated by PrusaSlicer 2.6.0 on 2023-07-28 at 16:35:14 UTC

; 

; external perimeters extrusion width = 0.45mm
; perimeters extrusion width = 0.45mm
; infill extrusion width = 0.45mm
; solid infill extrusion width = 0.45mm
; top infill extrusion width = 0.40mm
; first layer extrusion width = 0.60mm

M201 X3000 Y3000 Z800 E2500 ; sets maximum accelerations, mm/sec^2
M203 X300 Y250 Z8 E80 ; sets maximum feedrates, mm / sec
M204 S3000 T3000 ; sets acceleration (S) and retract acceleration (R), mm/sec^2
M205 X15.00 Y10.00 Z2.00 E10.00 ; sets the jerk limits, mm/sec
M205 S0 T0 ; sets the minimum extruding and travel feed rate, mm/sec
;TYPE:Custom
G90 ; use absolute coordinates
M83 ; extruder relative mode
M104 S210 ; set extruder temp
M140 S65 ; set bed temp
M190 S65 ; wait for bed temp
M109 S210 ; wait for extruder temp
G28                                        ; move X/Y/Z to min endstops
G1 Z0.28                                   ; lift nozzle a bit 
G92 E0 
G1 Y3 F1800                                    ; zero the extruded length 
G1 X60  E25 F500                       ; Extrude 25mm of filament in a 5cm line. 
G92 E0                                     ; zero the extruded length again 
G1 E-2 F500                                ; Retract a little 
G1 X70 F4000                              ; Quickly wipe away from the filament line
M117
G21 ; set units to millimeters
G90 ; use absolute coordinates
M82 ; use absolute distances for extrusion
G92 E0
M900 K0.05 ; Filament gcode LA 1.5
M900 K30 ; Filament gcode LA 1.0
M107
;LAYER_CHANGE
;Z:0.3
;HEIGHT:0.3
; BEFORE_LAYER_CHANGE 0 @ 0.3mm
G1 E-2 F4800
G92 E0
G1 Z.3 F9000
; AFTER_LAYER_CHANGE 0 @ 0.3mm
G1 X98.584 Y99.508 F15000
G1 E2 F4800
M204 S1000
;TYPE:Skirt/Brim
;WIDTH:0.6
G1 X98.889 Y99.303 E2.02455
G1 F4799.978
G1 X99.232 Y99.161 E2.04935
G1 X99.593 Y99.09 E2.07393
G1 X130.461 Y99.095 E4.13608
G1 X130.769 Y99.162 E4.15714
G1 X131.112 Y99.304 E4.18194
G1 F4798.945
G1 X131.331 Y99.439 E4.19913
G1 X131.992 Y100.083 E4.26078
G1 F4799.11
G1 X132.197 Y100.389 E4.28539
G1 X132.339 Y100.732 E4.31019
G1 X132.41 Y101.093 E4.33477
G1 X132.41 Y128.907 E6.1929
G1 X132.338 Y129.269 E6.21756
G1 X132.145 Y129.706 E6.24947
G1 F4798.471
G1 X131.994 Y129.915 E6.2667
G1 F4799.951
G1 X131.416 Y130.492 E6.32126
G1 X131.111 Y130.697 E6.34581
G1 X130.768 Y130.839 E6.37061
G1 X130.407 Y130.91 E6.39519
G1 X99.593 Y130.91 E8.45373
G1 X99.231 Y130.838 E8.47839
G1 X98.794 Y130.645 E8.5103
G1 F4798.319
G1 X98.585 Y130.494 E8.52753
G1 F4799.852
G1 X98.008 Y129.916 E8.58209
G1 X97.803 Y129.611 E8.60664
G1 X97.661 Y129.268 E8.63144
G1 X97.59 Y128.907 E8.65602
G1 X97.59 Y101.093 E10.51415
G1 X97.662 Y100.731 E10.53881
G1 X97.855 Y100.294 E10.57072
G1 F4798.461
G1 X98.006 Y100.085 E10.58795
G1 F4799.215
G1 X98.541 Y99.55 E10.6385
M204 S3000
G1 X98.92 Y99.929 F15000
M204 S1000
G1 F4800
G1 X99.119 Y99.788 E10.65479
G1 F4799.959
G1 X99.413 Y99.666 E10.67605
G1 X99.619 Y99.625 E10.69008
G1 X104.021 Y99.626 Z.3 E10.98413
G1 X108.422 Y99.626 Z.3 E11.27818
G1 X112.824 Y99.627 Z.3 E11.57223
G1 X117.225 Y99.628 Z.3 E11.86627
G1 X121.627 Y99.629 Z.3 E12.16032
G1 X126.028 Y99.629 Z.3 E12.45437
G1 X130.43 Y99.63 Z.3 E12.74842
G1 X130.584 Y99.665 E12.75897
G1 F4798.992
G1 X130.884 Y99.789 E12.78066
G1 X131.018 Y99.874 E12.79126
G1 F4799.38
G1 X131.596 Y100.445 E12.84554
G1 X131.712 Y100.619 E12.85951
G1 X131.834 Y100.913 E12.88077
G1 X131.875 Y101.119 E12.8948
G1 X131.875 Y105.746 Z.3 E13.20391
G1 X131.875 Y110.373 Z.3 E13.51302
G1 X131.875 Y115 Z.3 E13.82212
G1 X131.875 Y119.627 Z.3 E14.13123
G1 X131.875 Y124.254 Z.3 E14.44034
G1 F4800
G1 X131.875 Y128.881 Z.3 E14.74945
G1 F4798.653
G1 X131.834 Y129.086 E14.76342
G1 F4799.316
G1 X131.689 Y129.423 E14.78793
G1 X131.597 Y129.554 E14.79862
G1 F4798.998
G1 X131.056 Y130.095 E14.84973
G1 X130.881 Y130.212 E14.86379
G1 F4799.833
G1 X130.587 Y130.334 E14.88505
G1 X130.381 Y130.375 E14.89908
G1 X125.986 Y130.375 Z.3 E15.19266
G1 X121.592 Y130.375 Z.3 E15.48624
G1 X117.197 Y130.375 Z.3 E15.77982
G1 X112.803 Y130.375 Z.3 E16.07341
G1 X108.408 Y130.375 Z.3 E16.36699
G1 X104.014 Y130.375 Z.3 E16.66057
G1 F4800
G1 X99.619 Y130.375 Z.3 E16.95415
G1 F4798.375
G1 X99.414 Y130.334 E16.96812
G1 F4799.177
G1 X99.077 Y130.189 E16.99263
G1 X98.946 Y130.097 E17.00332
G1 F4798.791
G1 X98.405 Y129.556 E17.05443
G1 X98.288 Y129.381 E17.06849
G1 F4799.632
G1 X98.166 Y129.087 E17.08975
G1 X98.125 Y128.881 E17.10378
G1 X98.125 Y124.254 Z.3 E17.41289
G1 X98.125 Y119.627 Z.3 E17.722
G1 X98.125 Y115 Z.3 E18.03111
G1 X98.125 Y110.373 Z.3 E18.34021
G1 X98.125 Y105.746 Z.3 E18.64932
G1 F4800
G1 X98.125 Y101.119 Z.3 E18.95843
G1 F4798.389
G1 X98.166 Y100.914 E18.9724
G1 F4799.092
G1 X98.311 Y100.577 E18.99691
G1 X98.403 Y100.446 E19.0076
G1 F4797.083
G1 X98.878 Y99.971 E19.05248
M204 S3000
G1 X99.256 Y100.35 F15000
M204 S1000
G1 F4800
G1 X99.348 Y100.273 E19.06049
G1 F4797.199
G1 X99.645 Y100.161 E19.0817
G1 F4799.988
G1 X104.032 Y100.161 Z.3 E19.37478
G1 X108.419 Y100.161 Z.3 E19.66787
G1 X112.806 Y100.161 Z.3 E19.96095
G1 X117.194 Y100.161 Z.3 E20.25404
G1 X121.581 Y100.161 Z.3 E20.54712
G1 X125.968 Y100.161 Z.3 E20.8402
G1 X130.355 Y100.161 Z.3 E21.13329
G1 X130.696 Y100.302 E21.15794
G1 X131.198 Y100.804 E21.20537
G1 X131.339 Y101.145 E21.23002
G1 X131.339 Y105.763 Z.3 E21.53855
G1 X131.339 Y110.382 Z.3 E21.84708
G1 X131.339 Y115 Z.3 E22.15561
G1 X131.339 Y119.618 Z.3 E22.46414
G1 X131.339 Y124.237 Z.3 E22.77267
G1 X131.339 Y128.855 Z.3 E23.0812
G1 X131.198 Y129.196 E23.10585
G1 X130.696 Y129.698 E23.15328
G1 X130.355 Y129.839 E23.17793
G1 X125.968 Y129.839 Z.3 E23.47102
G1 X121.581 Y129.839 Z.3 E23.7641
G1 X117.194 Y129.839 Z.3 E24.05718
G1 X112.806 Y129.839 Z.3 E24.35027
G1 X108.419 Y129.839 Z.3 E24.64335
G1 X104.032 Y129.839 Z.3 E24.93644
G1 X99.645 Y129.839 Z.3 E25.22952
G1 X99.304 Y129.698 E25.25417
G1 X98.802 Y129.196 E25.3016
G1 X98.661 Y128.855 E25.32625
G1 X98.661 Y124.237 Z.3 E25.63478
G1 X98.661 Y119.618 Z.3 E25.94331
G1 X98.661 Y115 Z.3 E26.25184
G1 X98.661 Y110.382 Z.3 E26.56037
G1 X98.661 Y105.763 Z.3 E26.8689
G1 X98.661 Y101.145 Z.3 E27.17743
G1 X98.802 Y100.804 E27.20208
G1 X99.214 Y100.392 E27.241
M204 S3000
G1 X99.593 Y100.771 F15000
M204 S1000
G1 F4792.188
G1 X99.626 Y100.737 E27.24417
G1 X99.725 Y100.697 E27.2513
G1 F4798.846
G1 X104.089 Y100.697 Z.3 E27.54286
G1 X108.454 Y100.697 Z.3 E27.83442
G1 X112.818 Y100.697 Z.3 E28.12598
G1 X117.182 Y100.697 Z.3 E28.41753
G1 X121.546 Y100.697 Z.3 E28.70909
G1 F4797.929
G1 X125.911 Y100.697 Z.3 E29.00065
G1 X130.275 Y100.697 Z.3 E29.29221
G1 X130.374 Y100.737 E29.29934
G1 X130.763 Y101.126 E29.33609
G1 X130.803 Y101.225 E29.34322
G1 X130.803 Y105.817 Z.3 E29.64997
G1 X130.803 Y110.408 Z.3 E29.95672
G1 X130.803 Y115 Z.3 E30.26347
G1 X130.803 Y119.592 Z.3 E30.57021
G1 X130.803 Y124.183 Z.3 E30.87696
G1 X130.803 Y128.775 Z.3 E31.18371
G1 X130.763 Y128.874 E31.19084
G1 X130.374 Y129.263 E31.22759
G1 X130.275 Y129.303 E31.23472
G1 X125.911 Y129.303 Z.3 E31.52628
G1 X121.546 Y129.303 Z.3 E31.81784
G1 X117.182 Y129.303 Z.3 E32.1094
G1 X112.818 Y129.303 Z.3 E32.40096
G1 X108.454 Y129.303 Z.3 E32.69251
G1 X104.089 Y129.303 Z.3 E32.98407
G1 X99.725 Y129.303 Z.3 E33.27563
G1 X99.626 Y129.263 E33.28276
G1 X99.237 Y128.874 E33.31951
G1 X99.197 Y128.775 E33.32664
G1 X99.197 Y124.183 Z.3 E33.63339
G1 X99.197 Y119.592 Z.3 E33.94014
G1 X99.197 Y115 Z.3 E34.24689
G1 X99.197 Y110.408 Z.3 E34.55363
G1 X99.197 Y105.817 Z.3 E34.86038
G1 X99.197 Y101.225 Z.3 E35.16713
G1 X99.237 Y101.126 E35.17426
G1 F4799.01
G1 X99.55 Y100.814 E35.20378
M204 S3000
G1 X99.889 Y101.232 F15000
M204 S1000
G1 F4799.545
G1 X104.206 Y101.232 Z.3 E35.49221
G1 X108.524 Y101.232 Z.3 E35.78064
G1 X112.841 Y101.232 Z.3 E36.06906
G1 F4798.91
G1 X117.159 Y101.232 Z.3 E36.35749
G1 X121.476 Y101.232 Z.3 E36.64592
G1 X125.794 Y101.232 Z.3 E36.93435
G1 X130.111 Y101.232 Z.3 E37.22277
G1 X130.268 Y101.389 E37.2376
G1 X130.268 Y105.926 Z.3 E37.5407
G1 X130.268 Y110.463 Z.3 E37.84379
G1 X130.268 Y115 Z.3 E38.14689
G1 X130.268 Y119.537 Z.3 E38.44999
G1 X130.268 Y124.074 Z.3 E38.75308
G1 F4799.151
G1 X130.268 Y128.611 Z.3 E39.05618
G1 X130.111 Y128.768 E39.07101
G1 X125.794 Y128.768 Z.3 E39.35944
G1 X121.476 Y128.768 Z.3 E39.64787
G1 X117.159 Y128.768 Z.3 E39.93629
G1 X112.841 Y128.768 Z.3 E40.22472
G1 X108.524 Y128.768 Z.3 E40.51315
G1 X104.206 Y128.768 Z.3 E40.80157
G1 X99.889 Y128.768 Z.3 E41.09
G1 X99.732 Y128.611 E41.10483
G1 X99.732 Y124.074 Z.3 E41.40793
G1 X99.732 Y119.537 Z.3 E41.71103
G1 X99.732 Y115 Z.3 E42.01412
G1 X99.732 Y110.463 Z.3 E42.31721
G1 X99.732 Y105.926 Z.3 E42.62031
G1 F4800
G1 X99.732 Y101.389 Z.3 E42.92341
G1 F4797.9
G1 X99.847 Y101.275 E42.93423
M204 S3000
G1 E41.53423 F4800
;WIPE_START
G1 F12000
G1 X101.426 Y101.273 E40.93423
;WIPE_END
G92 E0
G1 X129.7 Y128.2 F15000
G1 E2 F4800
M204 S1000
;TYPE:External perimeter
G1 X100.3 Y128.2 E3.96408
G1 X100.3 Y101.8 E5.72774
G1 X129.7 Y101.8 E7.69182
G1 X129.7 Y128.14 E9.45147
M204 S3000
G1 X129.312 Y128.103 F15000
G1 X129.164 Y127.664
M204 S1000
;TYPE:Perimeter
G1 F4800
G1 X124.443 Y127.664 Z.3 E9.76688
G1 X119.721 Y127.664 Z.3 E10.08229
G1 X115 Y127.664 Z.3 E10.3977
G1 X110.279 Y127.664 Z.3 E10.71311
G1 X105.557 Y127.664 Z.3 E11.02852
G1 X100.836 Y127.664 Z.3 E11.34393
G1 F4799.983
G1 X100.836 Y123.443 Z.3 E11.62594
G1 X100.836 Y119.221 Z.3 E11.90795
G1 X100.836 Y115 Z.3 E12.18995
G1 X100.836 Y110.779 Z.3 E12.47196
G1 X100.836 Y106.557 Z.3 E12.75397
G1 X100.836 Y102.336 Z.3 E13.03598
G1 X129.164 Y102.336 E14.92844
G1 X129.164 Y106.547 Z.3 E15.20978
G1 X129.164 Y110.759 Z.3 E15.49112
G1 X129.164 Y114.97 Z.3 E15.77246
G1 X129.164 Y119.181 Z.3 E16.0538
G1 X129.164 Y123.393 Z.3 E16.33514
G1 F4800
G1 X129.164 Y127.604 Z.3 E16.61648
M204 S3000
G1 E15.21648
;WIPE_START
G1 F12000
G1 X127.585 Y127.607 E14.61648
;WIPE_END
G92 E0
G1 X128.897 Y103.695 F15000
G1 E2 F4800
M204 S1000
;TYPE:Solid infill
;WIDTH:0.604379
G1 F4780.457
G1 X128.046 Y102.844 E2.08106
G1 F4799.754
G1 X127.282 Y102.844 E2.13252
G1 X128.656 Y104.218 E2.26339
G1 X128.656 Y104.982 E2.31485
G1 X126.518 Y102.844 E2.51849
G1 X125.755 Y102.844 E2.56988
G1 X128.656 Y105.745 E2.8462
G1 X128.656 Y106.509 E2.89766
G1 X124.991 Y102.844 E3.24675
G1 X124.227 Y102.844 E3.29821
G1 X128.656 Y107.273 E3.72007
G1 X128.656 Y108.036 E3.77146
G1 X123.464 Y102.844 E4.266
G1 X122.7 Y102.844 E4.31746
G1 X128.656 Y108.8 E4.88477
G1 X128.656 Y109.564 E4.93623
G1 X121.936 Y102.844 E5.57631
G1 X121.173 Y102.844 E5.6277
G1 X128.656 Y110.327 E6.34045
G1 X128.656 Y111.091 E6.39191
G1 X120.409 Y102.844 E7.17743
G1 X119.645 Y102.844 E7.22889
G1 X128.656 Y111.855 E8.08718
G1 X128.656 Y112.618 E8.13857
G1 X118.882 Y102.844 E9.06954
G1 X118.118 Y102.844 E9.121
G1 X128.656 Y113.382 E10.12474
G1 X128.656 Y114.146 E10.1762
G1 X117.354 Y102.844 E11.25271
G1 X116.59 Y102.844 E11.30417
G1 X128.656 Y114.91 E12.45345
G1 X128.656 Y115.673 E12.50484
G1 X115.827 Y102.844 E13.72679
G1 X115.063 Y102.844 E13.77825
G1 X128.656 Y116.437 E15.07298
G1 X128.656 Y117.201 E15.12444
G1 X114.299 Y102.844 E16.49194
G1 X113.536 Y102.844 E16.54333
G1 X128.656 Y117.964 E17.9835
G1 X128.656 Y118.728 E18.03496
G1 X112.772 Y102.844 E19.5479
G1 X112.008 Y102.844 E19.59936
G1 X128.656 Y119.492 E21.18507
G1 X128.656 Y120.255 E21.23646
G1 X111.245 Y102.844 E22.89485
G1 X110.481 Y102.844 E22.94631
G1 X128.656 Y121.019 E24.67747
G1 X128.656 Y121.783 E24.72893
G1 X109.717 Y102.844 E26.53286
G1 X108.954 Y102.844 E26.58425
G1 X128.656 Y122.546 E28.46085
G1 X128.656 Y123.31 E28.51231
G1 X108.19 Y102.844 E30.46168
G1 X107.426 Y102.844 E30.51314
G1 X128.656 Y124.074 E32.53529
G1 X128.656 Y124.837 E32.58668
G1 X106.663 Y102.844 E34.6815
G1 X105.899 Y102.844 E34.73296
G1 X128.656 Y125.601 E36.90055
G1 X128.656 Y126.365 E36.95201
G1 X125.296 Y123.005 Z.3 E37.27206
G1 X121.936 Y119.645 Z.3 E37.59211
G1 X118.576 Y116.285 Z.3 E37.91217
G1 X115.215 Y112.924 Z.3 E38.23222
G1 X111.855 Y109.564 Z.3 E38.55227
G1 X108.495 Y106.204 Z.3 E38.87232
G1 X105.135 Y102.844 Z.3 E39.19237
G1 X104.372 Y102.844 E39.24376
G1 X107.841 Y106.313 Z.3 E39.57419
G1 X111.31 Y109.782 Z.3 E39.90463
G1 X114.779 Y113.251 Z.3 E40.23506
G1 X118.249 Y116.721 Z.3 E40.5655
G1 X121.718 Y120.19 Z.3 E40.89593
G1 X125.187 Y123.659 Z.3 E41.22637
G1 F4800
G1 X128.656 Y127.128 Z.3 E41.5568
G1 F4793.902
G1 X128.656 Y127.156 E41.55869
G1 F4799.9
G1 X127.919 Y127.156 E41.60833
G1 X103.608 Y102.844 E43.92399
G1 X102.844 Y102.844 E43.97545
G1 X106.317 Y106.317 Z.3 E44.30626
G1 X109.79 Y109.79 Z.3 E44.63707
G1 X113.263 Y113.263 Z.3 E44.96788
G1 X116.736 Y116.737 Z.3 E45.29868
G1 X120.209 Y120.21 Z.3 E45.62949
G1 X123.682 Y123.683 Z.3 E45.9603
G1 X127.155 Y127.156 Z.3 E46.29111
G1 X126.392 Y127.156 E46.3425
G1 X122.919 Y123.683 Z.3 E46.67331
G1 X119.446 Y120.21 Z.3 E47.00412
G1 X115.973 Y116.737 Z.3 E47.33493
G1 X112.5 Y113.263 Z.3 E47.66573
G1 X109.027 Y109.79 Z.3 E47.99654
G1 X105.554 Y106.317 Z.3 E48.32735
G1 F4800
G1 X102.081 Y102.844 Z.3 E48.65816
G1 F4799.88
G1 X101.344 Y102.844 E48.7078
G1 F4793.927
G1 X101.344 Y102.872 E48.70969
G1 F4799.999
G1 X104.813 Y106.341 Z.3 E49.04012
G1 X108.282 Y109.81 Z.3 E49.37056
G1 X111.751 Y113.279 Z.3 E49.70099
G1 X115.221 Y116.749 Z.3 E50.03143
G1 X118.69 Y120.218 Z.3 E50.36186
G1 X122.159 Y123.687 Z.3 E50.6923
G1 X125.628 Y127.156 Z.3 E51.02273
G1 X124.864 Y127.156 E51.07419
G1 X121.504 Y123.796 Z.3 E51.39423
G1 X118.144 Y120.436 Z.3 E51.71427
G1 X114.784 Y117.076 Z.3 E52.03431
G1 X111.424 Y113.716 Z.3 E52.35434
G1 X108.064 Y110.356 Z.3 E52.67438
G1 X104.704 Y106.996 Z.3 E52.99442
G1 X101.344 Y103.636 Z.3 E53.31446
G1 X101.344 Y104.399 E53.36585
G1 X104.595 Y107.65 Z.3 E53.6755
G1 X107.846 Y110.901 Z.3 E53.98516
G1 X111.097 Y114.152 Z.3 E54.29482
G1 X114.348 Y117.403 Z.3 E54.60447
G1 X117.599 Y120.654 Z.3 E54.91413
G1 X120.85 Y123.905 Z.3 E55.22379
G1 F4800
G1 X124.101 Y127.156 Z.3 E55.53344
G1 F4799.657
G1 X123.337 Y127.156 E55.5849
G1 X120.195 Y124.014 Z.3 E55.88416
G1 X117.053 Y120.872 Z.3 E56.18342
G1 X113.911 Y117.73 Z.3 E56.48268
G1 X110.77 Y114.589 Z.3 E56.78194
G1 X107.628 Y111.447 Z.3 E57.0812
G1 X104.486 Y108.305 Z.3 E57.38046
G1 X101.344 Y105.163 Z.3 E57.67972
G1 X101.344 Y105.927 E57.73118
G1 X104.377 Y108.96 Z.3 E58.02004
G1 X107.409 Y111.992 Z.3 E58.30891
G1 X110.442 Y115.025 Z.3 E58.59777
G1 X113.475 Y118.058 Z.3 E58.88664
G1 X116.508 Y121.091 Z.3 E59.1755
G1 X119.54 Y124.123 Z.3 E59.46437
G1 X122.573 Y127.156 Z.3 E59.75323
G1 X121.81 Y127.156 E59.80462
G1 X118.399 Y123.745 Z.3 E60.12951
G1 X114.988 Y120.334 Z.3 E60.45441
G1 X111.577 Y116.923 Z.3 E60.7793
G1 X108.166 Y113.512 Z.3 E61.1042
G1 X104.755 Y110.101 Z.3 E61.4291
G1 F4800
G1 X101.344 Y106.69 Z.3 E61.75399
G1 F4799.643
G1 X101.344 Y107.454 E61.80545
G1 X121.046 Y127.156 E63.68205
G1 X120.282 Y127.156 E63.73351
G1 X101.344 Y108.218 E65.53734
G1 X101.344 Y108.981 E65.58873
G1 X119.519 Y127.156 E67.31989
G1 X118.755 Y127.156 E67.37135
G1 X101.344 Y109.745 E69.02974
G1 X101.344 Y110.509 E69.0812
G1 X117.991 Y127.156 E70.66682
G1 X117.228 Y127.156 E70.71821
G1 X101.344 Y111.272 E72.23115
G1 X101.344 Y112.036 E72.28261
G1 X116.464 Y127.156 E73.72278
G1 X115.7 Y127.156 E73.77424
G1 X101.344 Y112.8 E75.14164
G1 X101.344 Y113.563 E75.19303
G1 X114.937 Y127.156 E76.48776
G1 X114.173 Y127.156 E76.53922
G1 X101.344 Y114.327 E77.76117
G1 X101.344 Y115.091 E77.81263
G1 X113.409 Y127.156 E78.96181
G1 X112.646 Y127.156 E79.0132
G1 X101.344 Y115.854 E80.08971
G1 X101.344 Y116.618 E80.14117
G1 X111.882 Y127.156 E81.14491
G1 X111.118 Y127.156 E81.19637
G1 X107.86 Y123.898 Z.3 E81.5067
G1 X104.602 Y120.64 Z.3 E81.81702
G1 X101.344 Y117.382 Z.3 E82.12734
G1 X101.344 Y118.145 E82.17873
G1 X104.348 Y121.149 Z.3 E82.46482
G1 X107.351 Y124.152 Z.3 E82.75092
G1 F4800
G1 X110.355 Y127.156 Z.3 E83.03702
G1 F4799.652
G1 X109.591 Y127.156 E83.08848
G1 X101.344 Y118.909 E83.874
G1 X101.344 Y119.673 E83.92546
G1 X108.827 Y127.156 E84.63821
G1 X108.064 Y127.156 E84.6896
G1 X101.344 Y120.436 E85.32968
G1 X101.344 Y121.2 E85.38114
G1 X107.3 Y127.156 E85.94845
