; generated by PrusaSlicer 2.6.0+MacOS-x64 on 2023-09-04 at 01:50:01 UTC

; 

; external perimeters extrusion width = 0.45mm
; perimeters extrusion width = 0.40mm
; infill extrusion width = 0.45mm
; solid infill extrusion width = 0.50mm
; top infill extrusion width = 0.45mm
; first layer extrusion width = 0.56mm

M201 X2000 Y2000 Z800 E2000 ; sets maximum accelerations, mm/sec^2
M203 X300 Y250 Z8 E100 ; sets maximum feedrates, mm / sec
M204 S2000 T2000 ; sets acceleration (S) and retract acceleration (R), mm/sec^2
M205 X15.00 Y10.00 Z2.00 E10.00 ; sets the jerk limits, mm/sec
M205 S0 T0 ; sets the minimum extruding and travel feed rate, mm/sec
;TYPE:Custom
G90 ; use absolute coordinates
M83 ; extruder relative mode
M104 S195 ; set extruder temp
M140 S60 ; set bed temp
M190 S60 ; wait for bed temp
M109 S195 ; wait for extruder temp
G28                                        ; move X/Y/Z to min endstops
G1 Z0.28                                   ; lift nozzle a bit 
G92 E0 
G1 Y3 F1800                                    ; zero the extruded length 
G1 X60  E25 F500                       ; Extrude 25mm of filament in a 5cm line. 
G92 E0                                     ; zero the extruded length again 
G1 E-2 F500                                ; Retract a little 
G1 X70 F4000                              ; Quickly wipe away from the filament line
M117
G21 ; set units to millimeters
G90 ; use absolute coordinates
M82 ; use absolute distances for extrusion
G92 E0
M107
;LAYER_CHANGE
;Z:0.28
;HEIGHT:0.28
; BEFORE_LAYER_CHANGE 0 @ 0.28mm
G1 E-2 F6000
G92 E0
G1 Z.28 F12000
; AFTER_LAYER_CHANGE 0 @ 0.28mm
G1 X98.285 Y99.397
G1 E2 F6000
M204 S2000
;TYPE:Skirt/Brim
;WIDTH:0.56
G1 F3000
G1 X98.726 Y99.092 E2.0312
G1 X99.222 Y98.875 E2.06271
G1 X99.848 Y98.75 E2.09986
G1 X130.208 Y98.755 E3.86666
G1 X130.753 Y98.869 E3.89906
G1 X131.302 Y99.106 E3.93386
G1 X131.692 Y99.379 E3.96156
G1 X132.102 Y99.784 E3.9951
G1 X132.455 Y100.314 E4.03216
G1 X132.654 Y100.818 E4.06369
G1 X132.75 Y101.347 E4.09498
G1 X132.75 Y128.653 E5.68405
G1 X132.652 Y129.189 E5.71576
G1 X132.424 Y129.746 E5.75079
G1 X132.125 Y130.188 E5.78184
G1 X131.716 Y130.602 E5.81571
G1 X131.186 Y130.955 E5.85277
G1 X130.682 Y131.154 E5.8843
G1 X130.153 Y131.25 E5.91559
G1 X99.847 Y131.25 E7.67925
G1 X99.311 Y131.152 E7.71096
G1 X98.754 Y130.924 E7.74599
G1 X98.312 Y130.625 E7.77704
G1 X97.898 Y130.216 E7.81091
G1 X97.545 Y129.686 E7.84797
G1 X97.346 Y129.182 E7.8795
G1 X97.25 Y128.653 E7.91079
G1 X97.25 Y101.347 E9.49986
G1 X97.348 Y100.811 E9.53157
G1 X97.576 Y100.254 E9.5666
G1 X97.875 Y99.812 E9.59765
G1 X98.242 Y99.44 E9.62806
G1 X98.596 Y99.793 F12000
G1 F3000
G1 X98.986 Y99.519 E9.6558
G1 X99.393 Y99.346 E9.68154
G1 X99.873 Y99.25 E9.71003
G1 X130.18 Y99.255 E11.47374
G1 X130.621 Y99.351 E11.50001
G1 X131.075 Y99.552 E11.5289
G1 X131.383 Y99.772 E11.55093
G1 X131.731 Y100.119 E11.57953
G1 X132.002 Y100.526 E11.60799
G1 X132.168 Y100.937 E11.63379
G1 X132.25 Y101.371 E11.65949
G1 X132.25 Y128.629 E13.24577
G1 X132.166 Y129.068 E13.27178
G1 X131.974 Y129.528 E13.30079
G1 X131.728 Y129.883 E13.32592
G1 X131.381 Y130.231 E13.35452
G1 X130.974 Y130.502 E13.38298
G1 X130.563 Y130.668 E13.40878
G1 X130.129 Y130.75 E13.43448
G1 X99.871 Y130.75 E15.19534
G1 X99.432 Y130.666 E15.22135
G1 X98.972 Y130.474 E15.25036
G1 X98.617 Y130.228 E15.27549
G1 X98.269 Y129.881 E15.30409
G1 X97.998 Y129.474 E15.33255
G1 X97.832 Y129.063 E15.35835
G1 X97.75 Y128.629 E15.38405
G1 X97.75 Y101.371 E16.97033
G1 X97.834 Y100.932 E16.99634
G1 X98.026 Y100.472 E17.02535
G1 X98.272 Y100.117 E17.05048
G1 X98.553 Y99.836 E17.07361
G1 X98.907 Y100.189 F12000
G1 F3000
G1 X99.241 Y99.95 E17.09751
G1 X99.561 Y99.817 E17.11768
G1 X99.897 Y99.75 E17.13762
G1 X130.152 Y99.755 E18.89831
G1 X130.441 Y99.818 E18.91552
G1 X130.848 Y99.998 E18.94142
G1 X131.043 Y100.139 E18.95542
G1 X131.36 Y100.456 E18.98151
G1 X131.55 Y100.741 E19.00144
G1 X131.683 Y101.061 E19.02161
G1 X131.75 Y101.397 E19.04155
G1 X131.75 Y128.603 E20.6248
G1 X131.682 Y128.942 E20.64492
G1 X131.526 Y129.306 E20.66797
G1 X131.359 Y129.545 E20.68494
G1 X131.044 Y129.86 E20.71086
G1 X130.759 Y130.05 E20.73079
G1 X130.439 Y130.183 E20.75096
G1 X130.103 Y130.25 E20.7709
G1 X99.897 Y130.25 E22.52874
G1 X99.558 Y130.182 E22.54886
G1 X99.194 Y130.026 E22.57191
G1 X98.955 Y129.859 E22.58888
G1 X98.64 Y129.544 E22.6148
G1 X98.45 Y129.259 E22.63473
G1 X98.317 Y128.939 E22.6549
G1 X98.25 Y128.603 E22.67484
G1 X98.25 Y101.397 E24.25809
G1 X98.318 Y101.058 E24.27821
G1 X98.474 Y100.694 E24.30126
G1 X98.641 Y100.455 E24.31823
G1 X98.864 Y100.232 E24.33658
G1 X99.218 Y100.585 F12000
G1 F3000
G1 X99.292 Y100.511 E24.34267
G1 X99.455 Y100.402 E24.35408
G1 X99.729 Y100.288 E24.37135
G1 X99.922 Y100.25 E24.3828
G1 X130.124 Y100.255 E26.1404
G1 X130.266 Y100.287 E26.14887
G1 X130.584 Y100.423 E26.169
G1 X130.706 Y100.509 E26.17769
G1 X130.989 Y100.792 E26.20098
G1 X131.098 Y100.955 E26.21239
G1 X131.212 Y101.229 E26.22966
G1 X131.25 Y101.422 E26.24111
G1 X131.25 Y128.578 E27.82145
G1 X131.212 Y128.769 E27.83278
G1 X131.077 Y129.084 E27.85272
G1 X130.991 Y129.206 E27.86141
G1 X130.708 Y129.489 E27.8847
G1 X130.545 Y129.598 E27.89611
G1 X130.271 Y129.712 E27.91338
G1 X130.078 Y129.75 E27.92483
G1 X99.922 Y129.75 E29.67976
G1 X99.731 Y129.712 E29.69109
G1 X99.416 Y129.577 E29.71103
G1 X99.294 Y129.491 E29.71972
G1 X99.011 Y129.208 E29.74301
G1 X98.902 Y129.045 E29.75442
G1 X98.788 Y128.771 E29.77169
G1 X98.75 Y128.578 E29.78314
G1 X98.75 Y101.422 E31.36348
G1 X98.788 Y101.231 E31.37481
G1 X98.923 Y100.916 E31.39475
G1 X99.009 Y100.794 E31.40344
G1 X99.175 Y100.628 E31.4171
G1 X99.529 Y100.981 F12000
G1 F3000
G1 X99.669 Y100.855 E31.42806
G1 X99.946 Y100.75 E31.4453
G1 X130.054 Y100.75 E33.19743
G1 X130.372 Y100.882 E33.21747
G1 X130.618 Y101.128 E33.23772
G1 X130.75 Y101.446 E33.25776
G1 X130.75 Y128.554 E34.83531
G1 X130.618 Y128.872 E34.85535
G1 X130.372 Y129.118 E34.8756
G1 X130.054 Y129.25 E34.89564
G1 X99.946 Y129.25 E36.64777
G1 X99.628 Y129.118 E36.66781
G1 X99.382 Y128.872 E36.68806
G1 X99.25 Y128.554 E36.7081
G1 X99.25 Y101.446 E38.28565
G1 X99.355 Y101.169 E38.30289
G1 X99.486 Y101.023 E38.31431
G1 X99.84 Y101.377 F12000
G1 F3000
G1 X99.929 Y101.288 E38.32163
G1 X100.021 Y101.25 E38.32742
G1 X129.979 Y101.25 E40.07082
G1 X130.071 Y101.288 E40.07661
G1 X130.212 Y101.429 E40.08821
G1 X130.25 Y101.521 E40.094
G1 X130.25 Y128.479 E41.66282
G1 X130.212 Y128.571 E41.66861
G1 X130.071 Y128.712 E41.68021
G1 X129.979 Y128.75 E41.686
G1 X100.021 Y128.75 E43.4294
G1 X99.929 Y128.712 E43.43519
G1 X99.788 Y128.571 E43.44679
G1 X99.75 Y128.479 E43.45258
G1 X99.75 Y101.521 E45.0214
G1 X99.797 Y101.419 E45.02794
G1 E43.62794 F6000
;WIPE_START
G1 F9600
G1 X99.929 Y101.288 E43.51752
G1 X100.021 Y101.25 E43.45842
G1 X100.746 Y101.25 E43.02794
;WIPE_END
G92 E0
G1 X129.6 Y128.1 F12000
G1 E2 F6000
;TYPE:External perimeter
G1 F3000
G1 X100.4 Y128.1 E3.69929
G1 X100.4 Y101.9 E5.224
G1 X129.6 Y101.9 E6.92329
G1 X129.6 Y128.04 E8.44451
G1 X129.212 Y128.003 F12000
G1 X129.1 Y127.6
;TYPE:Perimeter
G1 F3000
G1 X100.9 Y127.6 E10.08561
G1 X100.9 Y102.4 E11.55212
G1 X129.1 Y102.4 E13.19322
G1 X129.1 Y127.54 E14.65624
G1 X128.6 Y127.1 F12000
G1 F3000
G1 X101.4 Y127.1 E16.23914
G1 X101.4 Y102.9 E17.64746
G1 X128.6 Y102.9 E19.23036
G1 X128.6 Y127.04 E20.63519
G1 E19.23519 F6000
;WIPE_START
G1 F9600
G1 X127.589 Y127.042 E18.63519
;WIPE_END
G92 E0
G1 X128.172 Y103.1 F12000
G1 E2 F6000
;TYPE:Solid infill
;WIDTH:0.5667
G1 F3000
G1 X128.172 Y126.675 E3.39033
G1 X127.665 Y126.675 E3.42023
G1 X127.665 Y103.325 E4.79729
G1 X127.159 Y103.325 E4.82713
G1 X127.159 Y126.675 E6.20419
G1 X126.652 Y126.675 E6.23409
G1 X126.652 Y103.325 E7.61115
G1 X126.145 Y103.325 E7.64105
G1 X126.145 Y126.675 E9.01811
G1 X125.639 Y126.675 E9.04795
G1 X125.639 Y103.325 E10.42501
G1 X125.132 Y103.325 E10.45491
G1 X125.132 Y126.675 E11.83197
G1 X124.626 Y126.675 E11.86181
G1 X124.626 Y103.325 E13.23887
G1 X124.119 Y103.325 E13.26877
G1 X124.119 Y126.675 E14.64583
G1 X123.612 Y126.675 E14.67573
G1 X123.612 Y103.325 E16.05279
G1 X123.106 Y103.325 E16.08263
G1 X123.106 Y126.675 E17.45969
G1 X122.599 Y126.675 E17.48959
G1 X122.599 Y103.325 E18.86665
G1 X122.093 Y103.325 E18.89649
G1 X122.093 Y126.675 E20.27355
G1 X121.586 Y126.675 E20.30345
G1 X121.586 Y103.325 E21.68051
G1 X121.079 Y103.325 E21.71041
G1 X121.079 Y126.675 E23.08747
G1 X120.573 Y126.675 E23.11731
G1 X120.573 Y103.325 E24.49437
G1 X120.066 Y103.325 E24.52427
G1 X120.066 Y126.675 E25.90133
G1 X119.559 Y126.675 E25.93123
G1 X119.559 Y103.325 E27.30829
G1 X119.053 Y103.325 E27.33813
G1 X119.053 Y126.675 E28.71519
G1 X118.546 Y126.675 E28.74509
G1 X118.546 Y103.325 E30.12215
G1 X118.04 Y103.325 E30.15199
G1 X118.04 Y126.675 E31.52905
G1 X117.533 Y126.675 E31.55895
G1 X117.533 Y103.325 E32.93601
G1 X117.026 Y103.325 E32.96591
G1 X117.026 Y126.675 E34.34297
G1 X116.52 Y126.675 E34.37281
G1 X116.52 Y103.325 E35.74987
G1 X116.013 Y103.325 E35.77977
G1 X116.013 Y126.675 E37.15683
G1 X115.507 Y126.675 E37.18667
G1 X115.507 Y103.325 E38.56373
G1 X115 Y103.325 E38.59363
G1 X115 Y126.675 E39.97069
G1 X114.493 Y126.675 E40.00059
G1 X114.493 Y103.325 E41.37765
G1 X113.987 Y103.325 E41.40749
G1 X113.987 Y126.675 E42.78455
G1 X113.48 Y126.675 E42.81445
G1 X113.48 Y103.325 E44.19151
G1 X112.974 Y103.325 E44.22135
G1 X112.974 Y126.675 E45.59841
G1 X112.467 Y126.675 E45.62831
G1 X112.467 Y103.325 E47.00537
G1 X111.96 Y103.325 E47.03527
G1 X111.96 Y126.675 E48.41233
G1 X111.454 Y126.675 E48.44217
G1 X111.454 Y103.325 E49.81923
G1 X110.947 Y103.325 E49.84913
G1 X110.947 Y126.675 E51.22619
G1 X110.44 Y126.675 E51.25609
G1 X110.44 Y103.325 E52.63315
G1 X109.934 Y103.325 E52.66299
G1 X109.934 Y126.675 E54.04005
G1 X109.427 Y126.675 E54.06995
G1 X109.427 Y103.325 E55.44701
G1 X108.921 Y103.325 E55.47685
G1 X108.921 Y126.675 E56.85391
G1 X108.414 Y126.675 E56.88381
G1 X108.414 Y103.325 E58.26087
G1 X107.907 Y103.325 E58.29077
G1 X107.907 Y126.675 E59.66783
G1 X107.401 Y126.675 E59.69767
G1 X107.401 Y103.325 E61.07473
G1 X106.894 Y103.325 E61.10463
G1 X106.894 Y126.675 E62.48169
G1 X106.388 Y126.675 E62.51153
G1 X106.388 Y103.325 E63.88859
G1 X105.881 Y103.325 E63.91849
G1 X105.881 Y126.675 E65.29555
G1 X105.374 Y126.675 E65.32545
G1 X105.374 Y103.325 E66.70251
G1 X104.868 Y103.325 E66.73235
G1 X104.868 Y126.675 E68.10941
G1 X104.361 Y126.675 E68.13931
G1 X104.361 Y103.325 E69.51637
G1 X103.855 Y103.325 E69.54621
G1 X103.855 Y126.675 E70.92327
G1 X103.348 Y126.675 E70.95317
G1 X103.348 Y103.325 E72.33023
G1 X102.841 Y103.325 E72.36013
G1 X102.841 Y126.675 E73.73719
G1 X102.335 Y126.675 E73.76703
G1 X102.335 Y103.325 E75.14409
G1 X101.828 Y103.325 E75.17399
G1 X101.828 Y126.9 E76.56432
;LAYER_CHANGE
;Z:0.48
;HEIGHT:0.2
; BEFORE_LAYER_CHANGE 1 @ 0.48mm
G1 E75.16432 F6000
;WIPE_START
G1 F9600
G1 X101.828 Y125.889 E74.56432
;WIPE_END
G92 E0
G1 Z.48 F12000
; AFTER_LAYER_CHANGE 1 @ 0.48mm
M104 S190 ; set temperature
G1 X129.755 Y128.255
G1 E2 F6000
;TYPE:External perimeter
;WIDTH:0.45
G1 F4800
G1 X100.245 Y128.255 E2.99888
G1 X100.245 Y101.745 E3.89621
G1 X129.755 Y101.745 E4.89509
G1 X129.755 Y128.195 E5.79039
G1 X129.367 Y128.158 F12000
G1 X129.373 Y127.873
;TYPE:Perimeter
;WIDTH:0.4
G1 X100.627 Y127.873 E6.6439
G1 X100.627 Y102.127 E7.40833
G1 X129.373 Y102.127 E8.26184
G1 X129.373 Y127.813 E9.02449
G1 X129.016 Y127.516
G1 X100.984 Y127.516 E9.8568
G1 X100.984 Y102.484 E10.60003
G1 X129.016 Y102.484 E11.43234
G1 X129.016 Y127.456 E12.17379
G1 X128.878 Y127.192
;TYPE:Top solid infill
;WIDTH:0.456199
G1 F9000
G1 X101.305 Y127.192 E13.12132
G1 X101.305 Y126.778 E13.13555
G1 X128.695 Y126.778 E14.07679
G1 X128.695 Y126.365 E14.09098
G1 X101.305 Y126.365 E15.03222
G1 X101.305 Y125.952 E15.04641
G1 X128.695 Y125.952 E15.98765
G1 X128.695 Y125.539 E16.00184
G1 X101.305 Y125.539 E16.94308
G1 X101.305 Y125.125 E16.95731
G1 X128.695 Y125.125 E17.89855
G1 X128.695 Y124.712 E17.91274
G1 X101.305 Y124.712 E18.85398
G1 X101.305 Y124.299 E18.86817
G1 X128.695 Y124.299 E19.80941
G1 X128.695 Y123.885 E19.82364
G1 X101.305 Y123.885 E20.76488
G1 X101.305 Y123.472 E20.77907
G1 X128.695 Y123.472 E21.72031
G1 X128.695 Y123.059 E21.7345
G1 X101.305 Y123.059 E22.67574
G1 X101.305 Y122.646 E22.68993
G1 X128.695 Y122.646 E23.63117
G1 X128.695 Y122.232 E23.6454
G1 X101.305 Y122.232 E24.58664
G1 X101.305 Y121.819 E24.60083
G1 X128.695 Y121.819 E25.54207
G1 X128.695 Y121.406 E25.55626
G1 X101.305 Y121.406 E26.4975
G1 X101.305 Y120.993 E26.51169
G1 X128.695 Y120.993 E27.45293
G1 X128.695 Y120.579 E27.46716
G1 X101.305 Y120.579 E28.4084
G1 X101.305 Y120.166 E28.42259
G1 X128.695 Y120.166 E29.36383
G1 X128.695 Y119.753 E29.37802
G1 X101.305 Y119.753 E30.31926
G1 X101.305 Y119.339 E30.33349
G1 X128.695 Y119.339 E31.27473
G1 X128.695 Y118.926 E31.28892
G1 X101.305 Y118.926 E32.23016
G1 X101.305 Y118.513 E32.24435
G1 X128.695 Y118.513 E33.18559
G1 X128.695 Y118.1 E33.19978
G1 X101.305 Y118.1 E34.14102
G1 X101.305 Y117.686 E34.15525
G1 X128.695 Y117.686 E35.09649
G1 X128.695 Y117.273 E35.11068
G1 X101.305 Y117.273 E36.05192
G1 X101.305 Y116.86 E36.06611
G1 X128.695 Y116.86 E37.00735
G1 X128.695 Y116.446 E37.02158
G1 X101.305 Y116.446 E37.96282
G1 X101.305 Y116.033 E37.97701
G1 X128.695 Y116.033 E38.91825
G1 X128.695 Y115.62 E38.93244
G1 X101.305 Y115.62 E39.87368
G1 X101.305 Y115.207 E39.88787
G1 X128.695 Y115.207 E40.82911
G1 X128.695 Y114.793 E40.84334
G1 X101.305 Y114.793 E41.78458
G1 X101.305 Y114.38 E41.79877
G1 X128.695 Y114.38 E42.74001
G1 X128.695 Y113.967 E42.7542
G1 X101.305 Y113.967 E43.69544
G1 X101.305 Y113.553 E43.70967
G1 X128.695 Y113.553 E44.65091
G1 X128.695 Y113.14 E44.6651
G1 X101.305 Y113.14 E45.60634
G1 X101.305 Y112.727 E45.62053
G1 X128.695 Y112.727 E46.56177
G1 X128.695 Y112.314 E46.57596
G1 X101.305 Y112.314 E47.5172
G1 X101.305 Y111.9 E47.53143
G1 X128.695 Y111.9 E48.47267
G1 X128.695 Y111.487 E48.48686
G1 X101.305 Y111.487 E49.4281
G1 X101.305 Y111.074 E49.44229
G1 X128.695 Y111.074 E50.38353
G1 X128.695 Y110.661 E50.39772
G1 X101.305 Y110.661 E51.33896
G1 X101.305 Y110.247 E51.35319
G1 X128.695 Y110.247 E52.29443
G1 X128.695 Y109.834 E52.30862
G1 X101.305 Y109.834 E53.24986
G1 X101.305 Y109.421 E53.26405
G1 X128.695 Y109.421 E54.20529
G1 X128.695 Y109.007 E54.21952
G1 X101.305 Y109.007 E55.16076
G1 X101.305 Y108.594 E55.17495
G1 X128.695 Y108.594 E56.11619
G1 X128.695 Y108.181 E56.13038
G1 X101.305 Y108.181 E57.07162
G1 X101.305 Y107.768 E57.08581
G1 X128.695 Y107.768 E58.02705
G1 X128.695 Y107.354 E58.04128
G1 X101.305 Y107.354 E58.98252
G1 X101.305 Y106.941 E58.99671
G1 X128.695 Y106.941 E59.93795
G1 X128.695 Y106.528 E59.95214
G1 X101.305 Y106.528 E60.89338
G1 X101.305 Y106.114 E60.90761
G1 X128.695 Y106.114 E61.84885
G1 X128.695 Y105.701 E61.86304
G1 X101.305 Y105.701 E62.80428
G1 X101.305 Y105.288 E62.81847
G1 X128.695 Y105.288 E63.75971
G1 X128.695 Y104.875 E63.7739
G1 X101.305 Y104.875 E64.71514
G1 X101.305 Y104.461 E64.72937
G1 X128.695 Y104.461 E65.67061
G1 X128.695 Y104.048 E65.6848
G1 X101.305 Y104.048 E66.62604
G1 X101.305 Y103.635 E66.64023
G1 X128.695 Y103.635 E67.58147
G1 X128.695 Y103.222 E67.59566
G1 X101.305 Y103.222 E68.5369
G1 X101.305 Y102.808 E68.55113
G1 X128.878 Y102.808 E69.49866
M106 S255
;LAYER_CHANGE
;Z:0.68
;HEIGHT:0.2
; BEFORE_LAYER_CHANGE 2 @ 0.68mm
G1 E68.09866 F6000
;WIPE_START
G1 F9600
G1 X127.867 Y102.808 E67.49866
;WIPE_END
G92 E0
G1 Z.68 F12000
; AFTER_LAYER_CHANGE 2 @ 0.68mm
G1 X100.245 Y128.255
G1 E2 F6000
;TYPE:External perimeter
;WIDTH:0.45
G1 F4800
G1 X100.245 Y101.745 E2.89733
G1 X129.755 Y101.745 E3.89621
G1 X129.755 Y128.255 E4.79354
G1 X100.305 Y128.255 E5.79039
G1 X100.355 Y127.871 F12000
G1 E4.39039 F6000
;WIPE_START
G1 F9600
G1 X100.303 Y127.244 E3.79039
;WIPE_END
G92 E0
G1 X129.245 Y127.745 F12000
G1 E2 F6000
G1 F4800
G1 X100.755 Y127.745 E2.96435
G1 X100.755 Y102.255 E3.82716
G1 X129.245 Y102.255 E4.79151
G1 X129.245 Y127.685 E5.65229
G1 X129.356 Y128.129 F12000
G1 X129.5 Y127.685
;TYPE:Gap fill
;WIDTH:0.19279
G1 F7200
