; generated by PrusaSlicer 2.6.0+MacOS-x64 on 2023-08-15 at 00:39:43 UTC

; 

; external perimeters extrusion width = 0.45mm
; perimeters extrusion width = 0.40mm
; infill extrusion width = 0.45mm
; solid infill extrusion width = 0.50mm
; top infill extrusion width = 0.45mm
; support material extrusion width = 0.42mm
; first layer extrusion width = 0.56mm

M201 X2500 Y2500 Z800 E2500 ; sets maximum accelerations, mm/sec^2
M203 X300 Y250 Z8 E80 ; sets maximum feedrates, mm / sec
M204 S2500 T2500 ; sets acceleration (S) and retract acceleration (R), mm/sec^2
M205 X15.00 Y10.00 Z2.00 E10.00 ; sets the jerk limits, mm/sec
M205 S0 T0 ; sets the minimum extruding and travel feed rate, mm/sec
;TYPE:Custom
G90 ; use absolute coordinates
M83 ; extruder relative mode
M104 S215 ; set extruder temp
M140 S65 ; set bed temp
M190 S65 ; wait for bed temp
M109 S215 ; wait for extruder temp
G28                                        ; move X/Y/Z to min endstops
G1 Z0.28                                   ; lift nozzle a bit 
G92 E0 
G1 Y3 F1800                                    ; zero the extruded length 
G1 X60  E25 F500                       ; Extrude 25mm of filament in a 5cm line. 
G92 E0                                     ; zero the extruded length again 
G1 E-2 F500                                ; Retract a little 
G1 X70 F4000                              ; Quickly wipe away from the filament line
M117
G21 ; set units to millimeters
G90 ; use absolute coordinates
M82 ; use absolute distances for extrusion
G92 E0
M107
;LAYER_CHANGE
;Z:0.28
;HEIGHT:0.28
; BEFORE_LAYER_CHANGE 0 @ 0.28mm
G1 E-2 F4800
G92 E0
G1 Z.28 F7200
; AFTER_LAYER_CHANGE 0 @ 0.28mm
G1 X154.6 Y101.9
G1 E2 F4800
M204 S2000
;TYPE:External perimeter
;WIDTH:0.56
G1 F3000
G1 X154.6 Y128.1 E3.52471
G1 X75.4 Y128.1 E8.13375
G1 X75.4 Y101.9 E9.65846
G1 X154.54 Y101.9 E14.26401
M204 S2500
G1 X154.438 Y102.266 F7200
G1 E12.86401 F4800
;WIPE_START
G1 F5760
G1 X154.542 Y102.658 E12.26401
;WIPE_END
G92 E0
G1 X151.258 Y108.11 F7200
G1 E2 F4800
M204 S2000
;TYPE:Perimeter
G1 F3000
G1 X150.943 Y108.1 E2.01834
G1 X150.334 Y108.162 E2.05396
G1 X149.697 Y108.355 E2.09269
G1 X149.109 Y108.669 E2.13148
G1 X148.593 Y109.093 E2.17035
G1 X148.169 Y109.609 E2.20922
G1 X147.855 Y110.197 E2.24801
G1 X147.661 Y110.836 E2.28687
G1 X147.596 Y111.5 E2.3257
G1 X147.661 Y112.164 E2.36453
G1 X147.855 Y112.803 E2.40339
G1 X148.169 Y113.391 E2.44218
G1 X148.593 Y113.907 E2.48105
G1 X149.109 Y114.331 E2.51992
G1 X149.697 Y114.645 E2.55871
G1 X150.336 Y114.839 E2.59757
G1 X151 Y114.904 E2.6364
G1 X151.664 Y114.839 E2.67523
G1 X152.303 Y114.645 E2.71409
G1 X152.891 Y114.331 E2.75288
G1 X153.407 Y113.907 E2.79175
G1 X154.1 Y113.063 E2.8553
G1 X154.1 Y127.6 E3.70128
G1 X75.9 Y127.6 E8.25212
G1 X75.9 Y102.4 E9.71863
G1 X154.1 Y102.4 E14.26947
G1 X154.1 Y109.937 E14.70809
G1 X153.407 Y109.093 E14.77164
G1 X152.891 Y108.669 E14.81051
G1 X152.303 Y108.355 E14.8493
G1 X151.678 Y108.165 E14.88732
G1 X151.317 Y108.118 E14.90851
M204 S2500
G1 X151.321 Y107.614 F7200
M204 S2000
G1 F3000
G1 X150.923 Y107.599 E14.93169
G1 X150.236 Y107.669 E14.97188
G1 X149.505 Y107.891 E15.01634
G1 X148.83 Y108.252 E15.06089
G1 X148.238 Y108.738 E15.10546
G1 X147.752 Y109.33 E15.15003
G1 X147.391 Y110.005 E15.19458
G1 X147.168 Y110.738 E15.23917
G1 X147.093 Y111.5 E15.28373
G1 X147.168 Y112.262 E15.32829
G1 X147.391 Y112.995 E15.37288
G1 X147.752 Y113.67 E15.41743
G1 X148.238 Y114.262 E15.462
G1 X148.83 Y114.748 E15.50657
G1 X149.505 Y115.109 E15.55112
G1 X150.238 Y115.332 E15.59571
G1 X151 Y115.407 E15.64027
G1 X151.762 Y115.332 E15.68483
G1 X152.495 Y115.109 E15.72942
G1 X153.17 Y114.748 E15.77397
G1 X153.6 Y114.396 E15.80631
G1 X153.6 Y127.1 E16.54562
G1 X76.4 Y127.1 E21.03827
G1 X76.4 Y102.9 E22.44659
G1 X153.6 Y102.9 E26.93924
G1 X153.6 Y108.605 E27.27124
G1 X153.17 Y108.252 E27.30362
G1 X152.495 Y107.891 E27.34817
G1 X151.784 Y107.675 E27.39141
G1 X151.381 Y107.622 E27.41506
M204 S2500
G1 E26.01506 F4800
;WIPE_START
G1 F5760
G1 X150.923 Y107.599 E25.65202
G1 X150.625 Y107.629 E25.41506
;WIPE_END
G92 E0
G1 X120.195 Y108.606 F7200
G1 E2 F4800
M204 S2000
;TYPE:External perimeter
G1 F3000
G1 X120.572 Y108.656 E2.02213
G1 X121.111 Y108.819 E2.0549
G1 X121.612 Y109.087 E2.08797
G1 X122.052 Y109.448 E2.12109
G1 X122.413 Y109.888 E2.15421
G1 X122.681 Y110.389 E2.18728
G1 X122.846 Y110.934 E2.22042
G1 X122.902 Y111.5 E2.25352
G1 X122.846 Y112.066 E2.28662
G1 X122.681 Y112.611 E2.31976
G1 X122.413 Y113.112 E2.35283
G1 X122.052 Y113.552 E2.38595
G1 X121.612 Y113.913 E2.41907
G1 X121.111 Y114.181 E2.45214
G1 X120.566 Y114.346 E2.48528
G1 X120 Y114.402 E2.51838
G1 X119.434 Y114.346 E2.55148
G1 X118.889 Y114.181 E2.58462
G1 X118.388 Y113.913 E2.61769
G1 X117.948 Y113.552 E2.65081
G1 X117.587 Y113.112 E2.68393
G1 X117.319 Y112.611 E2.717
G1 X117.154 Y112.066 E2.75014
G1 X117.098 Y111.5 E2.78324
G1 X117.154 Y110.934 E2.81634
G1 X117.319 Y110.389 E2.84948
G1 X117.587 Y109.888 E2.88255
G1 X117.948 Y109.448 E2.91567
G1 X118.388 Y109.087 E2.94879
G1 X118.889 Y108.819 E2.98186
G1 X119.433 Y108.654 E3.01494
G1 X119.962 Y108.6 E3.04589
G1 X120.135 Y108.605 E3.05596
M204 S2500
G1 X120.407 Y108.289 F7200
G1 X120.258 Y108.11
M204 S2000
;TYPE:Perimeter
G1 F3000
G1 X120.678 Y108.165 E3.08061
G1 X121.303 Y108.355 E3.11863
G1 X121.891 Y108.669 E3.15742
G1 X122.407 Y109.093 E3.19629
G1 X122.831 Y109.609 E3.23516
G1 X123.145 Y110.197 E3.27395
G1 X123.339 Y110.836 E3.31281
G1 X123.404 Y111.5 E3.35164
G1 X123.339 Y112.164 E3.39047
G1 X123.145 Y112.803 E3.42933
G1 X122.831 Y113.391 E3.46812
G1 X122.407 Y113.907 E3.50699
G1 X121.891 Y114.331 E3.54586
G1 X121.303 Y114.645 E3.58465
G1 X120.664 Y114.839 E3.62351
G1 X120 Y114.904 E3.66234
G1 X119.336 Y114.839 E3.70117
G1 X118.697 Y114.645 E3.74003
G1 X118.109 Y114.331 E3.77882
G1 X117.593 Y113.907 E3.81769
G1 X117.169 Y113.391 E3.85656
G1 X116.855 Y112.803 E3.89535
G1 X116.661 Y112.164 E3.93421
G1 X116.596 Y111.5 E3.97304
G1 X116.661 Y110.836 E4.01187
G1 X116.855 Y110.197 E4.05073
G1 X117.169 Y109.609 E4.08952
G1 X117.593 Y109.093 E4.12839
G1 X118.109 Y108.669 E4.16726
G1 X118.697 Y108.355 E4.20605
G1 X119.334 Y108.162 E4.24478
G1 X119.943 Y108.1 E4.2804
G1 X120.198 Y108.106 E4.29524
M204 S2500
G1 X120.321 Y107.614 F7200
M204 S2000
G1 F3000
G1 X120.784 Y107.675 E4.32242
G1 X121.495 Y107.891 E4.36566
G1 X122.17 Y108.252 E4.41021
G1 X122.762 Y108.738 E4.45478
G1 X123.248 Y109.33 E4.49935
G1 X123.609 Y110.005 E4.5439
G1 X123.832 Y110.738 E4.58849
G1 X123.907 Y111.5 E4.63305
G1 X123.832 Y112.262 E4.67761
G1 X123.609 Y112.995 E4.7222
G1 X123.248 Y113.67 E4.76675
G1 X122.762 Y114.262 E4.81132
G1 X122.17 Y114.748 E4.85589
G1 X121.495 Y115.109 E4.90044
G1 X120.762 Y115.332 E4.94503
G1 X120 Y115.407 E4.98959
G1 X119.238 Y115.332 E5.03415
G1 X118.505 Y115.109 E5.07874
G1 X117.83 Y114.748 E5.12329
G1 X117.238 Y114.262 E5.16786
G1 X116.752 Y113.67 E5.21243
G1 X116.391 Y112.995 E5.25698
G1 X116.168 Y112.262 E5.30157
G1 X116.093 Y111.5 E5.34613
G1 X116.168 Y110.738 E5.39069
G1 X116.391 Y110.005 E5.43528
G1 X116.752 Y109.33 E5.47983
G1 X117.238 Y108.738 E5.5244
G1 X117.83 Y108.252 E5.56897
G1 X118.505 Y107.891 E5.61352
G1 X119.236 Y107.669 E5.65798
G1 X119.923 Y107.599 E5.69817
G1 X120.262 Y107.608 E5.71791
M204 S2500
G1 E4.31791 F4800
;WIPE_START
G1 F5760
G1 X120.784 Y107.675 E3.90127
G1 X121.006 Y107.742 E3.71791
;WIPE_END
G92 E0
G1 X151.195 Y108.606 F7200
G1 E2 F4800
M204 S2000
;TYPE:External perimeter
G1 F3000
G1 X151.572 Y108.656 E2.02213
G1 X152.111 Y108.819 E2.0549
G1 X152.612 Y109.087 E2.08797
G1 X153.052 Y109.448 E2.12109
G1 X153.413 Y109.888 E2.15421
G1 X153.681 Y110.389 E2.18728
G1 X153.846 Y110.934 E2.22042
G1 X153.902 Y111.5 E2.25352
G1 X153.846 Y112.066 E2.28662
G1 X153.681 Y112.611 E2.31976
G1 X153.413 Y113.112 E2.35283
G1 X153.052 Y113.552 E2.38595
G1 X152.612 Y113.913 E2.41907
G1 X152.111 Y114.181 E2.45214
G1 X151.566 Y114.346 E2.48528
G1 X151 Y114.402 E2.51838
G1 X150.434 Y114.346 E2.55148
G1 X149.889 Y114.181 E2.58462
G1 X149.388 Y113.913 E2.61769
G1 X148.948 Y113.552 E2.65081
G1 X148.587 Y113.112 E2.68393
G1 X148.319 Y112.611 E2.717
G1 X148.154 Y112.066 E2.75014
G1 X148.098 Y111.5 E2.78324
G1 X148.154 Y110.934 E2.81634
G1 X148.319 Y110.389 E2.84948
G1 X148.587 Y109.888 E2.88255
G1 X148.948 Y109.448 E2.91567
G1 X149.388 Y109.087 E2.94879
G1 X149.889 Y108.819 E2.98186
G1 X150.433 Y108.654 E3.01494
G1 X150.962 Y108.6 E3.04589
G1 X151.135 Y108.605 E3.05596
M204 S2500
G1 X151.407 Y108.289 F7200
G1 E1.65596 F4800
;WIPE_START
G1 F5760
G1 X151.572 Y108.656 E1.30765
G1 X151.876 Y108.748 E1.05596
;WIPE_END
G92 E0
G1 X153.794 Y110.005 F7200
G1 E2 F4800
M204 S2000
;TYPE:Gap fill
;WIDTH:0.185442
G1 F3000
G1 X154.35 Y110.905 E2.01544
M204 S2500
G1 X154.151 Y110.393 F7200
M204 S2000
;WIDTH:0.369445
G1 F3000
G1 X154.221 Y110.872 E2.03287
;WIDTH:0.318243
G1 X154.251 Y111.49 E2.05146
;WIDTH:0.257509
G1 X154.236 Y111.819 E2.05903
;WIDTH:0.318239
G1 X154.218 Y112.153 E2.06908
;WIDTH:0.369442
G1 X154.195 Y112.309 E2.07476
G1 X154.084 Y112.517 E2.08325
;WIDTH:0.277441
G1 X153.973 Y112.725 E2.08922
;WIDTH:0.185441
G1 X153.794 Y112.995 E2.09395
M204 S2500
G1 E.69395 F4800
;WIPE_START
G1 F5760
G1 X153.88 Y112.865 E.57055
G1 X153.967 Y112.735 E.44671
G1 X153.973 Y112.725 E.43748
G1 X154.029 Y112.621 E.34397
G1 X154.084 Y112.517 E.25083
G1 X154.14 Y112.413 E.15732
G1 X154.177 Y112.342 E.09395
;WIPE_END
G92 E0
G1 X153.4 Y104.114 F7200
G1 E2 F4800
M204 S2000
;TYPE:Solid infill
;WIDTH:0.561541
G1 F3000
G1 X152.611 Y103.325 E2.06513
G1 X151.902 Y103.325 E2.10652
G1 X153.175 Y104.598 E2.21161
G1 X153.175 Y105.307 E2.253
G1 X151.193 Y103.325 E2.41662
G1 X150.484 Y103.325 E2.45801
G1 X153.175 Y106.016 E2.68016
G1 X153.175 Y106.725 E2.72155
G1 X149.775 Y103.325 E3.00223
G1 X149.066 Y103.325 E3.04362
G1 X153.175 Y107.434 E3.38283
G1 X153.175 Y107.773 E3.40262
G1 X152.658 Y107.496 E3.43686
G1 X152.471 Y107.44 E3.44825
G1 X148.356 Y103.325 E3.78796
G1 X147.647 Y103.325 E3.82935
G1 X151.536 Y107.214 E4.1504
G1 X151.306 Y107.184 E4.16394
G1 X150.798 Y107.185 E4.19359
G1 X146.938 Y103.325 E4.51225
G1 X146.229 Y103.325 E4.55364
G1 X150.154 Y107.25 E4.87766
G1 X149.61 Y107.415 E4.91084
G1 X145.52 Y103.325 E5.24848
G1 X144.811 Y103.325 E5.28987
G1 X149.107 Y107.622 E5.64456
G1 X148.645 Y107.869 E5.67514
G1 X144.101 Y103.325 E6.05026
G1 X143.392 Y103.325 E6.09165
G1 X148.247 Y108.18 E6.49245
G1 X147.936 Y108.436 E6.51596
G1 X147.872 Y108.513 E6.5218
G1 X142.683 Y103.325 E6.95013
G1 X141.974 Y103.325 E6.99152
G1 X147.552 Y108.903 E7.452
G1 X147.397 Y109.092 E7.46627
G1 X147.27 Y109.33 E7.48202
G1 X141.265 Y103.325 E7.97775
G1 X140.556 Y103.325 E8.01914
G1 X147.023 Y109.792 E8.55301
G1 X146.849 Y110.327 E8.58585
G1 X139.846 Y103.325 E9.16393
G1 X139.137 Y103.325 E9.20532
G1 X146.724 Y110.912 E9.83165
G1 X146.666 Y111.5 E9.86614
G1 X146.673 Y111.57 E9.87025
G1 X138.428 Y103.325 E10.55091
G1 X137.719 Y103.325 E10.5923
G1 X147.091 Y112.697 E11.36599
M204 S2500
G1 E9.96599 F4800
;WIPE_START
G1 F5760
G1 X146.555 Y112.161 E9.36599
;WIPE_END
G92 E0
G1 X153.004 Y115.064 F7200
G1 E2 F4800
M204 S2000
G1 F3000
G1 X153.175 Y115.235 E2.01412
G1 X153.175 Y115.944 E2.05551
G1 X152.708 Y115.477 E2.09406
G1 X152.173 Y115.651 E2.1269
G1 X153.175 Y116.654 E2.20966
G1 X153.175 Y117.363 E2.25105
G1 X151.588 Y115.776 E2.38206
G1 X151 Y115.834 E2.41655
G1 X150.93 Y115.827 E2.42066
G1 X153.175 Y118.072 E2.60599
G1 X153.175 Y118.781 E2.64738
G1 X149.803 Y115.409 E2.92575
M204 S2500
G1 E1.52575 F4800
;WIPE_START
G1 F5760
G1 X150.339 Y115.945 E.92575
;WIPE_END
G92 E0
G1 X153.4 Y119.715 F7200
G1 E2 F4800
M204 S2000
G1 F3000
G1 X137.01 Y103.325 E3.35305
G1 X136.301 Y103.325 E3.39444
G1 X153.175 Y120.199 E4.78745
G1 X153.175 Y120.908 E4.82884
G1 X135.592 Y103.325 E6.28038
G1 X134.882 Y103.325 E6.32183
G1 X153.175 Y121.618 E7.83198
G1 X153.175 Y122.327 E7.87337
G1 X134.173 Y103.325 E9.44206
G1 X133.464 Y103.325 E9.48345
G1 X153.175 Y123.036 E11.11067
G1 X153.175 Y123.745 E11.15206
G1 X132.755 Y103.325 E12.83781
G1 X132.046 Y103.325 E12.8792
G1 X153.175 Y124.454 E14.62348
G1 X153.175 Y125.163 E14.66487
G1 X131.337 Y103.325 E16.46768
G1 X130.627 Y103.325 E16.50913
G1 X153.175 Y125.873 E18.37055
G1 X153.175 Y126.582 E18.41194
G1 X129.918 Y103.325 E20.33189
G1 X129.209 Y103.325 E20.37328
G1 X152.56 Y126.675 E22.30095
G1 X151.85 Y126.675 E22.3424
G1 X128.5 Y103.325 E24.27003
G1 X127.791 Y103.325 E24.31142
G1 X151.141 Y126.675 E26.23905
G1 X150.432 Y126.675 E26.28044
G1 X127.082 Y103.325 E28.20807
G1 X126.372 Y103.325 E28.24952
G1 X149.723 Y126.675 E30.17719
G1 X149.014 Y126.675 E30.21858
G1 X125.663 Y103.325 E32.14625
G1 X124.954 Y103.325 E32.18764
G1 X148.305 Y126.675 E34.11531
G1 X147.595 Y126.675 E34.15676
G1 X124.245 Y103.325 E36.08439
G1 X123.536 Y103.325 E36.12578
G1 X146.886 Y126.675 E38.05341
G1 X146.177 Y126.675 E38.0948
G1 X122.827 Y103.325 E40.02243
G1 X122.117 Y103.325 E40.06388
G1 X145.468 Y126.675 E41.99155
G1 X144.759 Y126.675 E42.03294
G1 X121.408 Y103.325 E43.96061
G1 X120.699 Y103.325 E44.002
G1 X144.05 Y126.675 E45.92967
G1 X143.34 Y126.675 E45.97112
G1 X119.99 Y103.325 E47.89875
G1 X119.281 Y103.325 E47.94014
G1 X142.631 Y126.675 E49.86777
G1 X141.922 Y126.675 E49.90916
G1 X118.572 Y103.325 E51.83679
G1 X117.863 Y103.325 E51.87818
G1 X141.213 Y126.675 E53.80581
G1 X140.504 Y126.675 E53.8472
G1 X124.149 Y110.32 E55.19737
G1 X124.25 Y110.655 E55.21779
G1 X124.302 Y111.183 E55.24876
G1 X139.795 Y126.675 E56.52772
G1 X139.086 Y126.675 E56.56911
G1 X124.296 Y111.885 E57.79008
G1 X124.25 Y112.345 E57.81707
G1 X124.203 Y112.502 E57.82664
G1 X138.376 Y126.675 E58.99667
G1 X137.667 Y126.675 E59.03806
G1 X124.038 Y113.046 E60.16318
G1 X124.004 Y113.158 E60.17001
G1 X123.808 Y113.525 E60.1943
G1 X136.958 Y126.675 E61.27988
G1 X136.249 Y126.675 E61.32127
G1 X123.548 Y113.975 E62.36974
G1 X123.229 Y114.364 E62.39911
G1 X135.54 Y126.675 E63.41543
G1 X134.831 Y126.675 E63.45682
G1 X122.875 Y114.72 E64.44379
G1 X122.485 Y115.039 E64.4732
G1 X134.121 Y126.675 E65.43379
G1 X133.412 Y126.675 E65.47518
G1 X122.038 Y115.301 E66.41415
G1 X121.658 Y115.504 E66.4393
G1 X121.561 Y115.533 E66.44521
G1 X132.703 Y126.675 E67.36502
G1 X131.994 Y126.675 E67.40641
G1 X121.017 Y115.698 E68.3126
G1 X120.845 Y115.75 E68.32309
G1 X120.403 Y115.794 E68.34902
G1 X131.285 Y126.675 E69.24733
G1 X130.576 Y126.675 E69.28872
G1 X119.705 Y115.805 E70.18612
G1 X119.155 Y115.75 E70.21839
G1 X118.849 Y115.658 E70.23704
G1 X130.091 Y126.9 E71.16511
M204 S2500
G1 E69.76511 F4800
;WIPE_START
G1 F5760
G1 X129.555 Y126.364 E69.16511
;WIPE_END
G92 E0
G1 X121.517 Y107.689 F7200
G1 E2 F4800
M204 S2000
G1 F3000
G1 X117.153 Y103.325 E2.36026
G1 X116.444 Y103.325 E2.40165
G1 X120.303 Y107.183 E2.72018
G1 X119.907 Y107.174 E2.7433
G1 X119.614 Y107.204 E2.76049
G1 X115.735 Y103.325 E3.08072
G1 X115.026 Y103.325 E3.12211
G1 X118.998 Y107.297 E3.45001
G1 X118.454 Y107.462 E3.48319
G1 X114.317 Y103.325 E3.82471
G1 X113.608 Y103.325 E3.8661
G1 X117.975 Y107.692 E4.22661
G1 X117.592 Y107.897 E4.25197
G1 X117.525 Y107.952 E4.25703
G1 X112.898 Y103.325 E4.63901
G1 X112.189 Y103.325 E4.6804
G1 X117.136 Y108.271 E5.08875
G1 X116.936 Y108.436 E5.10389
G1 X116.78 Y108.625 E5.1182
G1 X111.48 Y103.325 E5.55573
G1 X110.771 Y103.325 E5.59712
G1 X116.461 Y109.015 E6.06685
G1 X116.397 Y109.092 E6.07269
G1 X116.199 Y109.462 E6.09719
G1 X110.062 Y103.325 E6.60382
G1 X109.353 Y103.325 E6.64521
G1 X115.967 Y109.939 E7.19122
G1 X115.802 Y110.483 E7.2244
G1 X108.643 Y103.325 E7.81536
G1 X107.934 Y103.325 E7.85675
G1 X115.706 Y111.097 E8.49836
G1 X115.666 Y111.5 E8.522
G1 X115.695 Y111.795 E8.5393
G1 X107.225 Y103.325 E9.23853
G1 X106.516 Y103.325 E9.27992
G1 X116.18 Y112.989 E10.07772
M204 S2500
G1 E8.67772 F4800
;WIPE_START
G1 F5760
G1 X115.644 Y112.453 E8.07772
;WIPE_END
G92 E0
G1 X105.582 Y103.1 F7200
G1 E2 F4800
M204 S2000
G1 F3000
G1 X129.157 Y126.675 E3.9462
G1 X128.448 Y126.675 E3.98759
G1 X105.098 Y103.325 E5.91522
G1 X104.388 Y103.325 E5.95667
G1 X127.739 Y126.675 E7.88434
G1 X127.03 Y126.675 E7.92573
