; generated by PrusaSlicer 2.6.0+MacOS-x64 on 2023-08-13 at 13:42:17 UTC

; 

; external perimeters extrusion width = 0.45mm
; perimeters extrusion width = 0.40mm
; infill extrusion width = 0.45mm
; solid infill extrusion width = 0.50mm
; top infill extrusion width = 0.45mm
; support material extrusion width = 0.42mm
; first layer extrusion width = 0.56mm

M201 X2500 Y2500 Z800 E2500 ; sets maximum accelerations, mm/sec^2
M203 X300 Y250 Z8 E80 ; sets maximum feedrates, mm / sec
M204 S2500 T2500 ; sets acceleration (S) and retract acceleration (R), mm/sec^2
M205 X15.00 Y10.00 Z2.00 E10.00 ; sets the jerk limits, mm/sec
M205 S0 T0 ; sets the minimum extruding and travel feed rate, mm/sec
;TYPE:Custom
G90 ; use absolute coordinates
M83 ; extruder relative mode
M104 S215 ; set extruder temp
M140 S65 ; set bed temp
M190 S65 ; wait for bed temp
M109 S215 ; wait for extruder temp
G28                                        ; move X/Y/Z to min endstops
G1 Z0.28                                   ; lift nozzle a bit 
G92 E0 
G1 Y3 F1800                                    ; zero the extruded length 
G1 X60  E25 F500                       ; Extrude 25mm of filament in a 5cm line. 
G92 E0                                     ; zero the extruded length again 
G1 E-2 F500                                ; Retract a little 
G1 X70 F4000                              ; Quickly wipe away from the filament line
M117
G21 ; set units to millimeters
G90 ; use absolute coordinates
M82 ; use absolute distances for extrusion
G92 E0
M107
;LAYER_CHANGE
;Z:0.28
;HEIGHT:0.28
; BEFORE_LAYER_CHANGE 0 @ 0.28mm
G1 E-2 F4800
G92 E0
G1 Z.28 F7200
; AFTER_LAYER_CHANGE 0 @ 0.28mm
G1 X124.6 Y124.6
G1 E2 F4800
M204 S2000
;TYPE:External perimeter
;WIDTH:0.56
G1 F3000
G1 X105.4 Y124.6 E3.11734
G1 X105.4 Y105.4 E4.23468
G1 X124.6 Y105.4 E5.35202
G1 X124.6 Y124.54 E6.46587
M204 S2500
G1 X124.214 Y124.496 F7200
G1 X124.1 Y124.1
M204 S2000
;TYPE:Perimeter
G1 F3000
G1 X105.9 Y124.1 E7.52502
G1 X105.9 Y105.9 E8.58417
G1 X124.1 Y105.9 E9.64332
G1 X124.1 Y124.04 E10.69898
M204 S2500
G1 X123.6 Y123.6 F7200
M204 S2000
G1 F3000
G1 X106.4 Y123.6 E11.69993
G1 X106.4 Y106.4 E12.70088
G1 X123.6 Y106.4 E13.70183
G1 X123.6 Y123.54 E14.69929
M204 S2500
G1 E13.29929 F4800
;WIPE_START
G1 F5760
G1 X122.842 Y123.543 E12.69929
;WIPE_END
G92 E0
G1 X122.375 Y106.6 F7200
G1 E2 F4800
M204 S2000
;TYPE:Solid infill
;WIDTH:0.567111
G1 F3000
G1 X123.175 Y107.4 E2.06678
G1 X123.175 Y108.118 E2.10916
G1 X121.882 Y106.825 E2.21709
G1 X121.165 Y106.825 E2.25941
G1 X123.175 Y108.835 E2.42719
G1 X123.175 Y109.552 E2.46951
G1 X120.448 Y106.825 E2.69713
G1 X119.731 Y106.825 E2.73945
G1 X123.175 Y110.269 E3.02692
G1 X123.175 Y110.986 E3.06924
G1 X119.014 Y106.825 E3.41656
G1 X118.297 Y106.825 E3.45888
G1 X123.175 Y111.703 E3.86605
G1 X123.175 Y112.42 E3.90837
G1 X117.58 Y106.825 E4.37539
G1 X116.863 Y106.825 E4.41771
G1 X123.175 Y113.137 E4.94458
G1 X123.175 Y113.854 E4.9869
G1 X116.146 Y106.825 E5.57362
G1 X115.429 Y106.825 E5.61594
G1 X123.175 Y114.571 E6.2625
G1 X123.175 Y115.288 E6.30482
G1 X114.712 Y106.825 E7.01123
G1 X113.995 Y106.825 E7.05355
G1 X123.175 Y116.005 E7.81981
G1 X123.175 Y116.722 E7.86213
G1 X113.278 Y106.825 E8.68824
G1 X112.561 Y106.825 E8.73056
G1 X123.175 Y117.439 E9.61652
G1 X123.175 Y118.156 E9.65884
G1 X111.844 Y106.825 E10.60465
G1 X111.127 Y106.825 E10.64697
G1 X123.175 Y118.873 E11.65263
G1 X123.175 Y119.59 E11.69495
G1 X110.41 Y106.825 E12.76046
G1 X109.693 Y106.825 E12.80278
G1 X123.175 Y120.307 E13.92813
G1 X123.175 Y121.024 E13.97045
G1 X108.976 Y106.825 E15.15565
G1 X108.259 Y106.825 E15.19797
G1 X123.175 Y121.741 E16.44302
G1 X123.175 Y122.458 E16.48534
G1 X107.542 Y106.825 E17.79024
G1 X106.825 Y106.825 E17.83256
G1 X123.175 Y123.175 E19.19731
G1 X122.458 Y123.175 E19.23963
G1 X106.825 Y107.542 E20.54453
G1 X106.825 Y108.259 E20.58685
G1 X121.741 Y123.175 E21.8319
G1 X121.024 Y123.175 E21.87422
G1 X106.825 Y108.976 E23.05942
G1 X106.825 Y109.693 E23.10174
G1 X120.307 Y123.175 E24.22709
G1 X119.59 Y123.175 E24.26941
G1 X106.825 Y110.41 E25.33492
G1 X106.825 Y111.127 E25.37724
G1 X118.873 Y123.175 E26.3829
G1 X118.156 Y123.175 E26.42522
G1 X106.825 Y111.844 E27.37103
G1 X106.825 Y112.561 E27.41335
G1 X117.439 Y123.175 E28.29931
G1 X116.722 Y123.175 E28.34163
G1 X106.825 Y113.278 E29.16774
G1 X106.825 Y113.995 E29.21006
G1 X116.005 Y123.175 E29.97632
G1 X115.288 Y123.175 E30.01864
G1 X106.825 Y114.712 E30.72505
G1 X106.825 Y115.429 E30.76737
G1 X114.571 Y123.175 E31.41393
G1 X113.854 Y123.175 E31.45625
G1 X106.825 Y116.146 E32.04297
G1 X106.825 Y116.863 E32.08529
G1 X113.137 Y123.175 E32.61216
G1 X112.42 Y123.175 E32.65448
G1 X106.825 Y117.58 E33.1215
G1 X106.825 Y118.297 E33.16382
G1 X111.703 Y123.175 E33.57099
G1 X110.986 Y123.175 E33.61331
G1 X106.825 Y119.014 E33.96063
G1 X106.825 Y119.732 E34.00301
G1 X110.268 Y123.175 E34.2904
G1 X109.551 Y123.175 E34.33272
G1 X106.825 Y120.449 E34.56026
G1 X106.825 Y121.166 E34.60258
G1 X108.834 Y123.175 E34.77027
G1 X108.117 Y123.175 E34.81259
G1 X106.825 Y121.883 E34.92043
G1 X106.825 Y122.6 E34.96275
G1 X107.625 Y123.4 E35.02953
M204 S2500
;LAYER_CHANGE
;Z:0.48
;HEIGHT:0.2
; BEFORE_LAYER_CHANGE 1 @ 0.48mm
G1 E33.62953 F4800
;WIPE_START
G1 F5760
G1 X107.089 Y122.864 E33.02953
;WIPE_END
G92 E0
G1 Z.48 F7200
; AFTER_LAYER_CHANGE 1 @ 0.48mm
M104 S195 ; set temperature
G1 X124.755 Y124.755
G1 E2 F4800
;TYPE:External perimeter
;WIDTH:0.45
G1 X105.245 Y124.755 E2.66039
G1 X105.245 Y105.245 E3.32078
G1 X124.755 Y105.245 E3.98117
G1 X124.755 Y124.695 E4.63953
G1 X124.369 Y124.651 F7200
G1 X124.373 Y124.373
;TYPE:Perimeter
;WIDTH:0.4
G1 F6706
G1 X105.627 Y124.373 E5.19612
G1 X105.627 Y105.627 E5.75271
G1 X124.373 Y105.627 E6.3093
G1 X124.373 Y124.313 E6.86411
G1 X124.016 Y124.016 F7200
G1 F6706
G1 X105.984 Y124.016 E7.3995
G1 X105.984 Y105.984 E7.93489
G1 X124.016 Y105.984 E8.47028
G1 X124.016 Y123.956 E9.00389
G1 E7.60389 F4800
;WIPE_START
G1 F5760
G1 X123.258 Y123.959 E7.00389
;WIPE_END
G92 E0
G1 X106.454 Y106.367 F7200
G1 E2 F4800
;TYPE:Solid infill
;WIDTH:0.610898
G1 F6706
G1 X106.404 Y106.317 E2.00334
G1 X106.335 Y106.335 E2.00671
G1 X106.317 Y106.404 E2.01008
G1 X106.367 Y106.454 E2.01342
G1 X106.436 Y106.436 E2.01679
;WIDTH:0.499999
G1 X106.33 Y107.166 E2.04483
G1 X107.166 Y106.33 E2.08976
G1 X107.812 Y106.33 E2.11431
G1 X106.33 Y107.812 E2.19397
G1 X106.33 Y108.459 E2.21856
G1 X108.459 Y106.33 E2.33299
G1 X109.105 Y106.33 E2.35754
G1 X106.33 Y109.105 E2.50669
G1 X106.33 Y109.752 E2.53128
G1 X109.752 Y106.33 E2.71521
G1 X110.398 Y106.33 E2.73976
G1 X106.33 Y110.398 E2.95841
G1 X106.33 Y111.044 E2.98296
G1 X111.044 Y106.33 E3.23633
G1 X111.691 Y106.33 E3.26092
G1 X106.33 Y111.691 E3.54907
G1 X106.33 Y112.337 E3.57362
G1 X112.337 Y106.33 E3.89649
G1 X112.984 Y106.33 E3.92108
G1 X106.33 Y112.984 E4.27873
G1 X106.33 Y113.63 E4.30328
G1 X113.63 Y106.33 E4.69565
G1 X114.276 Y106.33 E4.7202
G1 X106.33 Y114.276 E5.14729
G1 X106.33 Y114.923 E5.17188
G1 X114.923 Y106.33 E5.63375
G1 X115.569 Y106.33 E5.6583
G1 X106.33 Y115.569 E6.15489
G1 X106.33 Y116.216 E6.17948
G1 X116.216 Y106.33 E6.71084
G1 X116.862 Y106.33 E6.73539
G1 X106.33 Y116.862 E7.30147
G1 X106.33 Y117.508 E7.32602
G1 X117.508 Y106.33 E7.92683
G1 X118.155 Y106.33 E7.95142
G1 X106.33 Y118.155 E8.587
G1 X106.33 Y118.801 E8.61155
G1 X118.801 Y106.33 E9.28185
G1 X119.448 Y106.33 E9.30644
G1 X106.33 Y119.448 E10.01152
G1 X106.33 Y120.094 E10.03607
G1 X120.094 Y106.33 E10.77587
G1 X120.74 Y106.33 E10.80042
G1 X106.33 Y120.74 E11.57494
G1 X106.33 Y121.387 E11.59953
G1 X121.387 Y106.33 E12.40883
G1 X122.033 Y106.33 E12.43338
G1 X106.33 Y122.033 E13.2774
G1 X106.33 Y122.68 E13.30199
G1 X122.68 Y106.33 E14.18079
G1 X123.326 Y106.33 E14.20534
G1 X106.33 Y123.326 E15.11886
G1 X106.312 Y123.469 E15.12434
;WIDTH:0.460973
G1 X106.294 Y123.611 E15.12932
;WIDTH:0.421947
G1 X106.276 Y123.754 E15.13386
;WIDTH:0.38292
G1 X106.205 Y123.735 E15.13594
G1 X106.224 Y123.806 E15.13802
G1 X106.265 Y123.795 E15.13922
;WIDTH:0.499999
G1 X106.633 Y123.67 E15.15399
G1 X123.67 Y106.633 E16.06971
G1 X123.712 Y106.51 E16.07465
;WIDTH:0.460973
G1 X123.753 Y106.388 E16.07912
;WIDTH:0.421947
G1 X123.795 Y106.265 E16.08322
;WIDTH:0.38292
G1 X123.754 Y106.276 E16.08442
G1 X123.735 Y106.205 E16.0865
G1 X123.806 Y106.224 E16.08858
G1 E14.68858 F4800
;WIPE_START
G1 F5760
G1 X123.735 Y106.205 E14.63039
G1 X123.754 Y106.276 E14.5722
G1 X123.795 Y106.265 E14.53859
G1 X123.753 Y106.388 E14.43569
G1 X123.712 Y106.51 E14.3338
G1 X123.67 Y106.633 E14.2309
G1 X123.543 Y106.76 E14.08858
;WIPE_END
G92 E0
G1 X123.67 Y107.279 F7200
G1 E2 F4800
;WIDTH:0.499999
G1 F6706
G1 X107.279 Y123.67 E2.881
G1 X107.926 Y123.67 E2.90559
G1 X123.67 Y107.926 E3.75181
G1 X123.67 Y108.572 E3.77636
G1 X108.572 Y123.67 E4.58786
G1 X109.218 Y123.67 E4.61241
G1 X123.67 Y109.218 E5.38919
G1 X123.67 Y109.865 E5.41378
G1 X109.865 Y123.67 E6.15578
G1 X110.511 Y123.67 E6.18033
G1 X123.67 Y110.511 E6.88761
G1 X123.67 Y111.158 E6.9122
G1 X111.158 Y123.67 E7.58471
G1 X111.804 Y123.67 E7.60926
G1 X123.67 Y111.804 E8.24705
G1 X123.67 Y112.451 E8.27164
G1 X112.451 Y123.67 E8.87465
G1 X113.097 Y123.67 E8.8992
G1 X123.67 Y113.097 E9.46749
G1 X123.67 Y113.743 E9.49204
G1 X113.743 Y123.67 E10.02561
G1 X114.39 Y123.67 E10.0502
G1 X123.67 Y114.39 E10.54899
G1 X123.67 Y115.036 E10.57354
G1 X115.036 Y123.67 E11.03761
G1 X115.683 Y123.67 E11.0622
G1 X123.67 Y115.683 E11.49149
G1 X123.67 Y116.329 E11.51604
G1 X116.329 Y123.67 E11.91061
G1 X116.975 Y123.67 E11.93516
G1 X123.67 Y116.975 E12.29501
G1 X123.67 Y117.622 E12.3196
G1 X117.622 Y123.67 E12.64467
G1 X118.268 Y123.67 E12.66922
G1 X123.67 Y118.268 E12.95957
G1 X123.67 Y118.915 E12.98416
G1 X118.915 Y123.67 E13.23974
G1 X119.561 Y123.67 E13.26429
G1 X123.67 Y119.561 E13.48514
G1 X123.67 Y120.207 E13.50969
G1 X120.207 Y123.67 E13.69582
G1 X120.854 Y123.67 E13.72041
G1 X123.67 Y120.854 E13.87177
G1 X123.67 Y121.5 E13.89632
G1 X121.5 Y123.67 E14.01296
G1 X122.147 Y123.67 E14.03755
G1 X123.67 Y122.147 E14.11941
G1 X123.906 Y122.607 E14.13906
;WIDTH:0.38292
G1 X123.835 Y122.588 E14.14114
G1 X123.854 Y122.659 E14.14322
G1 X123.895 Y122.648 E14.14442
;WIDTH:0.421947
G1 X123.82 Y122.696 E14.14723
;WIDTH:0.460973
G1 X123.745 Y122.745 E14.15034
;WIDTH:0.499999
G1 X123.67 Y122.793 E14.15372
G1 X122.793 Y123.67 E14.20086
G1 X123.655 Y123.655 E14.23363
;WIDTH:0.634954
G1 X123.583 Y123.674 E14.2373
G1 X123.531 Y123.622 E14.24092
G1 X123.55 Y123.55 E14.24459
G1 X123.622 Y123.531 E14.24826
G1 X123.674 Y123.583 E14.25188
M106 S255
;LAYER_CHANGE
;Z:0.68
;HEIGHT:0.2
; BEFORE_LAYER_CHANGE 2 @ 0.68mm
G1 E12.85188 F4800
;WIPE_START
G1 F5760
G1 X123.622 Y123.531 E12.79366
G1 X123.55 Y123.55 E12.73471
G1 X123.531 Y123.622 E12.67576
G1 X123.583 Y123.674 E12.61754
G1 X123.655 Y123.655 E12.55859
G1 X123.268 Y123.662 E12.25188
;WIPE_END
G92 E0
G1 Z.68 F7200
; AFTER_LAYER_CHANGE 2 @ 0.68mm
G1 X124.755 Y124.755
G1 E2 F4800
;TYPE:External perimeter
;WIDTH:0.45
G1 X105.245 Y124.755 E2.66039
G1 X105.245 Y105.245 E3.32078
G1 X124.755 Y105.245 E3.98117
G1 X124.755 Y124.695 E4.63953
G1 X124.369 Y124.651 F7200
G1 X124.373 Y124.373
;TYPE:Perimeter
;WIDTH:0.4
G1 F6590
G1 X105.627 Y124.373 E5.19612
G1 X105.627 Y105.627 E5.75271
G1 X124.373 Y105.627 E6.3093
G1 X124.373 Y124.313 E6.86411
G1 X124.016 Y124.016 F7200
G1 F6590
G1 X105.984 Y124.016 E7.3995
G1 X105.984 Y105.984 E7.93489
G1 X124.016 Y105.984 E8.47028
G1 X124.016 Y123.956 E9.00389
G1 E7.60389 F4800
;WIPE_START
G1 F5760
G1 X123.258 Y123.959 E7.00389
;WIPE_END
G92 E0
G1 X106.367 Y123.546 F7200
G1 E2 F4800
;TYPE:Solid infill
;WIDTH:0.610898
G1 F6590
G1 X106.317 Y123.596 E2.00334
G1 X106.335 Y123.665 E2.00671
G1 X106.404 Y123.683 E2.01008
G1 X106.454 Y123.633 E2.01342
G1 X106.436 Y123.564 E2.01679
;WIDTH:0.499999
G1 X106.33 Y122.834 E2.04483
G1 X107.166 Y123.67 E2.08976
G1 X107.812 Y123.67 E2.11431
G1 X106.33 Y122.188 E2.19397
G1 X106.33 Y121.541 E2.21856
G1 X108.459 Y123.67 E2.33299
G1 X109.105 Y123.67 E2.35754
G1 X106.33 Y120.895 E2.50669
G1 X106.33 Y120.248 E2.53128
G1 X109.752 Y123.67 E2.71521
G1 X110.398 Y123.67 E2.73976
G1 X106.33 Y119.602 E2.95841
G1 X106.33 Y118.956 E2.98296
G1 X111.044 Y123.67 E3.23633
G1 X111.691 Y123.67 E3.26092
G1 X106.33 Y118.309 E3.54907
G1 X106.33 Y117.663 E3.57362
G1 X112.337 Y123.67 E3.89649
G1 X112.984 Y123.67 E3.92108
G1 X106.33 Y117.016 E4.27873
G1 X106.33 Y116.37 E4.30328
G1 X113.63 Y123.67 E4.69565
G1 X114.276 Y123.67 E4.7202
G1 X106.33 Y115.724 E5.14729
G1 X106.33 Y115.077 E5.17188
G1 X114.923 Y123.67 E5.63375
G1 X115.569 Y123.67 E5.6583
G1 X106.33 Y114.431 E6.15489
G1 X106.33 Y113.784 E6.17948
G1 X116.216 Y123.67 E6.71084
G1 X116.862 Y123.67 E6.73539
G1 X106.33 Y113.138 E7.30147
G1 X106.33 Y112.492 E7.32602
G1 X117.508 Y123.67 E7.92683
G1 X118.155 Y123.67 E7.95142
G1 X106.33 Y111.845 E8.587
G1 X106.33 Y111.199 E8.61155
G1 X118.801 Y123.67 E9.28185
G1 X119.448 Y123.67 E9.30644
G1 X106.33 Y110.552 E10.01152
G1 X106.33 Y109.906 E10.03607
G1 X120.094 Y123.67 E10.77587
G1 X120.74 Y123.67 E10.80042
G1 X106.33 Y109.26 E11.57494
G1 X106.33 Y108.613 E11.59953
G1 X121.387 Y123.67 E12.40883
G1 X122.033 Y123.67 E12.43338
G1 X106.33 Y107.967 E13.2774
G1 X106.33 Y107.32 E13.30199
G1 X122.68 Y123.67 E14.18079
G1 E12.78079 F4800
;WIPE_START
G1 F5760
G1 X122.144 Y123.134 E12.18079
;WIPE_END
G92 E0
G1 X123.795 Y123.735 F7200
G1 E2 F4800
;WIDTH:0.38292
G1 F6590
G1 X123.806 Y123.776 E2.0012
G1 X123.735 Y123.795 E2.00328
G1 X123.754 Y123.724 E2.00536
;WIDTH:0.421947
G1 X123.611 Y123.706 E2.0099
;WIDTH:0.460973
G1 X123.469 Y123.688 E2.01488
;WIDTH:0.499999
G1 X123.326 Y123.67 E2.02036
G1 X106.33 Y106.674 E2.93388
G1 X106.224 Y106.194 E2.95256
;WIDTH:0.38292
G1 X106.205 Y106.265 E2.95464
G1 X106.276 Y106.246 E2.95672
G1 X106.265 Y106.205 E2.95792
;WIDTH:0.421947
G1 X106.388 Y106.247 E2.96202
;WIDTH:0.460973
G1 X106.51 Y106.288 E2.96649
;WIDTH:0.499999
G1 X106.633 Y106.33 E2.97143
G1 X123.67 Y123.367 E3.88715
G1 X123.67 Y122.721 E3.9117
G1 X107.279 Y106.33 E4.7927
G1 X107.926 Y106.33 E4.81729
G1 X123.67 Y122.074 E5.66351
G1 X123.67 Y121.428 E5.68806
G1 X108.572 Y106.33 E6.49956
G1 X109.218 Y106.33 E6.52411
G1 X123.67 Y120.782 E7.30089
G1 X123.67 Y120.135 E7.32548
G1 X109.865 Y106.33 E8.06748
G1 X110.511 Y106.33 E8.09203
G1 X123.67 Y119.489 E8.79931
G1 X123.67 Y118.842 E8.8239
G1 X111.158 Y106.33 E9.49641
G1 X111.804 Y106.33 E9.52096
G1 X123.67 Y118.196 E10.15875
G1 X123.67 Y117.549 E10.18334
G1 X112.451 Y106.33 E10.78635
G1 X113.097 Y106.33 E10.8109
G1 X123.67 Y116.903 E11.37919
G1 X123.67 Y116.257 E11.40374
G1 X113.743 Y106.33 E11.93731
G1 X114.39 Y106.33 E11.9619
G1 X123.67 Y115.61 E12.46069
G1 X123.67 Y114.964 E12.48524
G1 X115.036 Y106.33 E12.94931
G1 X115.683 Y106.33 E12.9739
G1 X123.67 Y114.317 E13.40319
G1 X123.67 Y113.671 E13.42774
G1 X116.329 Y106.33 E13.82231
G1 X116.975 Y106.33 E13.84686
G1 X123.67 Y113.025 E14.20671
G1 X123.67 Y112.378 E14.2313
G1 X117.622 Y106.33 E14.55637
G1 X118.268 Y106.33 E14.58092
G1 X123.67 Y111.732 E14.87127
G1 X123.67 Y111.085 E14.89586
G1 X118.915 Y106.33 E15.15144
G1 X119.561 Y106.33 E15.17599
G1 X123.67 Y110.439 E15.39684
G1 X123.67 Y109.793 E15.42139
G1 X120.207 Y106.33 E15.60752
G1 X120.854 Y106.33 E15.63211
G1 X123.67 Y109.146 E15.78347
G1 X123.67 Y108.5 E15.80802
G1 X121.5 Y106.33 E15.92466
G1 X122.147 Y106.33 E15.94925
G1 X123.67 Y107.853 E16.03111
G1 X123.895 Y107.352 E16.05198
;WIDTH:0.38292
G1 X123.906 Y107.393 E16.05318
G1 X123.835 Y107.412 E16.05526
G1 X123.854 Y107.341 E16.05734
;WIDTH:0.421947
G1 X123.793 Y107.297 E16.05971
;WIDTH:0.460973
G1 X123.731 Y107.252 E16.06237
;WIDTH:0.499999
G1 X122.793 Y106.33 E16.11236
G1 X122.745 Y106.255 E16.11574
;WIDTH:0.460973
G1 X122.696 Y106.18 E16.11885
;WIDTH:0.421947
G1 X122.648 Y106.105 E16.12166
;WIDTH:0.38292
G1 X122.659 Y106.146 E16.12286
G1 X122.588 Y106.165 E16.12494
G1 X122.607 Y106.094 E16.12702
G1 E14.72702 F4800
;WIPE_START
G1 F5760
G1 X122.588 Y106.165 E14.66883
G1 X122.659 Y106.146 E14.61064
G1 X122.648 Y106.105 E14.57703
G1 X122.696 Y106.18 E14.50654
