; generated by PrusaSlicer 2.6.0+MacOS-x64 on 2023-08-20 at 16:42:06 UTC

; 

; external perimeters extrusion width = 0.45mm
; perimeters extrusion width = 0.40mm
; infill extrusion width = 0.45mm
; solid infill extrusion width = 0.50mm
; top infill extrusion width = 0.45mm
; support material extrusion width = 0.42mm
; first layer extrusion width = 0.56mm

M201 X2500 Y2500 Z800 E2500 ; sets maximum accelerations, mm/sec^2
M203 X300 Y250 Z8 E80 ; sets maximum feedrates, mm / sec
M204 S2500 T2500 ; sets acceleration (S) and retract acceleration (R), mm/sec^2
M205 X15.00 Y10.00 Z2.00 E10.00 ; sets the jerk limits, mm/sec
M205 S0 T0 ; sets the minimum extruding and travel feed rate, mm/sec
;TYPE:Custom
G90 ; use absolute coordinates
M83 ; extruder relative mode
M104 S215 ; set extruder temp
M140 S65 ; set bed temp
M190 S65 ; wait for bed temp
M109 S215 ; wait for extruder temp
G28                                        ; move X/Y/Z to min endstops
G1 Z0.28                                   ; lift nozzle a bit
 
G0 Y5      ; move to max Y (within soft-limit)


G92 E0 
G1 Y3 F1800                                    ; zero the extruded length 
G1 Y0  E25 F500                       ; Extrude 25mm of filament in a 5cm line. 
G92 E0                                     ; zero the extruded length again 
G1 E-2 F500                                ; Retract a little 
G1 X70 F4000                              ; Quickly wipe away from the filament line

M211 S0      ; disable software endstop
G0 Y245 X80       ; push forward past the endstop to the nozzle wiper

G0 X90       ; move X to the nozzle wiper
G0 X80       ; move X to wipe the nozzle
M211 S1      ; enable software endstop

M117

;G28          ; home all
G21 ; set units to millimeters
G90 ; use absolute coordinates
M82 ; use absolute distances for extrusion
G92 E0
M107
;LAYER_CHANGE
;Z:0.28
;HEIGHT:0.28
; BEFORE_LAYER_CHANGE 0 @ 0.28mm
G1 E-2 F4800
G92 E0
G1 Z.28 F7200
; AFTER_LAYER_CHANGE 0 @ 0.28mm
G1 X134.6 Y95.4
G1 E2 F4800
M204 S2000
;TYPE:External perimeter
;WIDTH:0.56
G1 F3000
G1 X134.6 Y134.6 E4.28124
G1 X95.4 Y134.6 E6.56248
G1 X95.4 Y95.4 E8.84372
G1 X134.54 Y95.4 E11.12147
M204 S2500
G1 X134.496 Y95.786 F7200
G1 X134.1 Y95.9
M204 S2000
;TYPE:Perimeter
G1 F3000
G1 X134.1 Y134.1 E13.34452
G1 X95.9 Y134.1 E15.56757
G1 X95.9 Y95.9 E17.79062
G1 X134.04 Y95.9 E20.01017
M204 S2500
G1 X133.6 Y96.4 F7200
M204 S2000
G1 F3000
G1 X133.6 Y133.6 E22.17502
G1 X96.4 Y133.6 E24.33987
G1 X96.4 Y96.4 E26.50472
G1 X133.54 Y96.4 E28.66608
M204 S2500
G1 E27.26608 F4800
;WIPE_START
G1 F5760
G1 X133.541 Y97.158 E26.66608
;WIPE_END
G92 E0
G1 X132.387 Y96.6 F7200
G1 E2 F4800
M204 S2000
;TYPE:Solid infill
;WIDTH:0.561188
G1 F3000
G1 X133.175 Y97.388 E2.06501
G1 X133.175 Y98.097 E2.10637
G1 X131.903 Y96.825 E2.2113
G1 X131.195 Y96.825 E2.2526
G1 X133.175 Y98.805 E2.41594
G1 X133.175 Y99.514 E2.4573
G1 X130.486 Y96.825 E2.67913
G1 X129.777 Y96.825 E2.72049
G1 X133.175 Y100.223 E3.00081
G1 X133.175 Y100.931 E3.04211
G1 X129.069 Y96.825 E3.38084
G1 X128.36 Y96.825 E3.4222
G1 X133.175 Y101.64 E3.81942
G1 X133.175 Y102.349 E3.86078
G1 X127.651 Y96.825 E4.31649
G1 X126.943 Y96.825 E4.35779
G1 X133.175 Y103.057 E4.8719
G1 X133.175 Y103.766 E4.91326
G1 X126.234 Y96.825 E5.48586
G1 X125.525 Y96.825 E5.52722
G1 X133.175 Y104.475 E6.15831
G1 X133.175 Y105.183 E6.19961
G1 X124.817 Y96.825 E6.88911
G1 X124.108 Y96.825 E6.93047
G1 X133.175 Y105.892 E7.67846
G1 X133.175 Y106.6 E7.71976
G1 X123.4 Y96.825 E8.52615
G1 X122.691 Y96.825 E8.56751
G1 X133.175 Y107.309 E9.43239
G1 X133.175 Y108.018 E9.47375
G1 X121.982 Y96.825 E10.39712
G1 X121.274 Y96.825 E10.43842
G1 X133.175 Y108.726 E11.4202
G1 X133.175 Y109.435 E11.46156
G1 X120.565 Y96.825 E12.50183
G1 X119.856 Y96.825 E12.54319
G1 X133.175 Y110.144 E13.64195
G1 X133.175 Y110.852 E13.68325
G1 X119.148 Y96.825 E14.84042
G1 X118.439 Y96.825 E14.88178
G1 X133.175 Y111.561 E16.09743
G1 X133.175 Y112.27 E16.13879
G1 X117.73 Y96.825 E17.41293
G1 X117.022 Y96.825 E17.45423
G1 X133.175 Y112.978 E18.78678
G1 X133.175 Y113.687 E18.82814
G1 X116.313 Y96.825 E20.21918
G1 X115.604 Y96.825 E20.26054
G1 X133.175 Y114.396 E21.71007
G1 X133.175 Y115.104 E21.75137
G1 X114.896 Y96.825 E23.25931
G1 X114.187 Y96.825 E23.30067
G1 X133.175 Y115.813 E24.8671
G1 X133.175 Y116.522 E24.90846
G1 X113.478 Y96.825 E26.53338
G1 X112.77 Y96.825 E26.57468
G1 X133.175 Y117.23 E28.258
G1 X133.175 Y117.939 E28.29936
G1 X112.061 Y96.825 E30.04117
G1 X111.352 Y96.825 E30.08253
G1 X133.175 Y118.648 E31.88283
G1 X133.175 Y119.356 E31.92413
G1 X110.644 Y96.825 E33.78284
G1 X109.935 Y96.825 E33.8242
G1 X133.175 Y120.065 E35.7414
G1 X133.175 Y120.774 E35.78276
G1 X109.226 Y96.825 E37.75845
G1 X108.518 Y96.825 E37.79975
G1 X133.175 Y121.482 E39.83384
G1 X133.175 Y122.191 E39.8752
G1 X107.809 Y96.825 E41.96778
G1 X107.1 Y96.825 E42.00914
G1 X133.175 Y122.9 E44.16021
G1 X133.175 Y123.608 E44.20151
G1 X106.392 Y96.825 E46.41099
G1 X105.683 Y96.825 E46.45235
G1 X133.175 Y124.317 E48.72032
G1 X133.175 Y125.026 E48.76168
G1 X104.974 Y96.825 E51.08814
G1 X104.266 Y96.825 E51.12944
G1 X133.175 Y125.734 E53.5143
G1 X133.175 Y126.443 E53.55566
G1 X103.557 Y96.825 E55.99901
G1 X102.848 Y96.825 E56.04037
G1 X133.175 Y127.152 E58.54221
G1 X133.175 Y127.86 E58.58351
G1 X102.14 Y96.825 E61.14376
G1 X101.431 Y96.825 E61.18512
G1 X133.175 Y128.569 E63.80386
G1 X133.175 Y129.278 E63.84522
G1 X100.722 Y96.825 E66.52245
G1 X100.014 Y96.825 E66.56375
G1 X133.175 Y129.986 E69.29939
G1 X133.175 Y130.695 E69.34075
G1 X99.305 Y96.825 E72.13487
G1 X98.596 Y96.825 E72.17623
G1 X133.175 Y131.404 E75.02884
G1 X133.175 Y132.112 E75.07014
G1 X97.888 Y96.825 E77.98116
G1 X97.179 Y96.825 E78.02252
G1 X133.175 Y132.821 E80.99203
G1 X133.175 Y133.175 E81.01268
G1 X132.821 Y133.175 E81.03333
G1 X96.825 Y97.179 E84.00284
G1 X96.825 Y97.888 E84.0442
G1 X132.112 Y133.175 E86.95522
G1 X131.404 Y133.175 E86.99652
G1 X96.825 Y98.596 E89.84913
G1 X96.825 Y99.305 E89.89049
G1 X130.695 Y133.175 E92.68461
G1 X129.986 Y133.175 E92.72597
G1 X96.825 Y100.014 E95.46161
G1 X96.825 Y100.722 E95.50291
G1 X129.278 Y133.175 E98.18014
G1 X128.569 Y133.175 E98.2215
G1 X96.825 Y101.431 E100.84024
G1 X96.825 Y102.14 E100.8816
G1 X127.86 Y133.175 E103.44185
G1 X127.152 Y133.175 E103.48315
G1 X96.825 Y102.848 E105.98499
G1 X96.825 Y103.557 E106.02635
G1 X126.443 Y133.175 E108.4697
G1 X125.734 Y133.175 E108.51106
G1 X96.825 Y104.266 E110.89592
G1 X96.825 Y104.974 E110.93722
G1 X125.026 Y133.175 E113.26368
G1 X124.317 Y133.175 E113.30504
G1 X96.825 Y105.683 E115.57301
G1 X96.825 Y106.392 E115.61437
G1 X123.608 Y133.175 E117.82385
G1 X122.9 Y133.175 E117.86515
G1 X96.825 Y107.1 E120.01622
G1 X96.825 Y107.809 E120.05758
G1 X122.191 Y133.175 E122.15016
G1 X121.482 Y133.175 E122.19152
G1 X96.825 Y108.518 E124.22561
G1 X96.825 Y109.226 E124.26691
G1 X120.774 Y133.175 E126.2426
G1 X120.065 Y133.175 E126.28396
G1 X96.825 Y109.935 E128.20116
G1 X96.825 Y110.644 E128.24252
G1 X119.356 Y133.175 E130.10123
G1 X118.648 Y133.175 E130.14253
G1 X96.825 Y111.352 E131.94283
G1 X96.825 Y112.061 E131.98419
G1 X117.939 Y133.175 E133.726
G1 X117.23 Y133.175 E133.76736
G1 X96.825 Y112.77 E135.45068
G1 X96.825 Y113.478 E135.49198
G1 X116.522 Y133.175 E137.1169
G1 X115.813 Y133.175 E137.15826
G1 X96.825 Y114.187 E138.72469
G1 X96.825 Y114.896 E138.76605
G1 X115.104 Y133.175 E140.27399
G1 X114.396 Y133.175 E140.31529
G1 X96.825 Y115.604 E141.76482
G1 X96.825 Y116.313 E141.80618
G1 X113.687 Y133.175 E143.19722
G1 X112.978 Y133.175 E143.23858
G1 X96.825 Y117.022 E144.57113
G1 X96.825 Y117.73 E144.61243
G1 X112.27 Y133.175 E145.88657
G1 X111.561 Y133.175 E145.92793
G1 X96.825 Y118.439 E147.14358
G1 X96.825 Y119.148 E147.18494
G1 X110.852 Y133.175 E148.34211
G1 X110.144 Y133.175 E148.38341
G1 X96.825 Y119.856 E149.48217
G1 X96.825 Y120.565 E149.52353
G1 X109.435 Y133.175 E150.5638
G1 X108.726 Y133.175 E150.60516
G1 X96.825 Y121.274 E151.58694
G1 X96.825 Y121.982 E151.62824
G1 X108.018 Y133.175 E152.55161
G1 X107.309 Y133.175 E152.59297
G1 X96.825 Y122.691 E153.45785
G1 X96.825 Y123.4 E153.49921
G1 X106.6 Y133.175 E154.3056
G1 X105.892 Y133.175 E154.3469
G1 X96.825 Y124.108 E155.09489
G1 X96.825 Y124.817 E155.13625
G1 X105.183 Y133.175 E155.82575
G1 X104.474 Y133.175 E155.86711
G1 X96.825 Y125.526 E156.49812
G1 X96.825 Y126.234 E156.53942
G1 X103.766 Y133.175 E157.11202
G1 X103.057 Y133.175 E157.15338
G1 X96.825 Y126.943 E157.66749
G1 X96.825 Y127.652 E157.70885
G1 X102.348 Y133.175 E158.16447
G1 X101.64 Y133.175 E158.20577
G1 X96.825 Y128.36 E158.60299
G1 X96.825 Y129.069 E158.64435
G1 X100.931 Y133.175 E158.98308
G1 X100.222 Y133.175 E159.02444
G1 X96.825 Y129.778 E159.30468
G1 X96.825 Y130.486 E159.34598
G1 X99.514 Y133.175 E159.56781
G1 X98.805 Y133.175 E159.60917
G1 X96.825 Y131.195 E159.77251
G1 X96.825 Y131.903 E159.81381
G1 X98.097 Y133.175 E159.91874
G1 X97.388 Y133.175 E159.9601
G1 X96.6 Y132.387 E160.02511
M204 S2500
;LAYER_CHANGE
;Z:0.48
;HEIGHT:0.2
; BEFORE_LAYER_CHANGE 1 @ 0.48mm
G1 E158.62511 F4800
;WIPE_START
G1 F5760
G1 X97.136 Y132.923 E158.02511
;WIPE_END
G92 E0
G1 Z.48 F7200
; AFTER_LAYER_CHANGE 1 @ 0.48mm
M104 S195 ; set temperature
G1 X134.755 Y95.245
G1 E2 F4800
;TYPE:External perimeter
;WIDTH:0.45
G1 X134.755 Y134.755 E3.33737
G1 X95.245 Y134.755 E4.67474
G1 X95.245 Y95.245 E6.01211
G1 X134.695 Y95.245 E7.34745
G1 X134.651 Y95.631 F7200
G1 X134.373 Y95.627
;TYPE:Perimeter
;WIDTH:0.4
G1 F9000
G1 X134.373 Y134.373 E8.49787
G1 X95.627 Y134.373 E9.64829
G1 X95.627 Y95.627 E10.79871
G1 X134.313 Y95.627 E11.94735
G1 X134.016 Y95.984 F7200
G1 F9000
G1 X134.016 Y134.016 E13.07657
G1 X95.984 Y134.016 E14.20579
G1 X95.984 Y95.984 E15.33501
G1 X133.956 Y95.984 E16.46245
G1 E15.06245 F4800
;WIPE_START
G1 F5760
G1 X133.957 Y96.742 E14.46245
;WIPE_END
G92 E0
G1 X96.454 Y96.367 F7200
G1 E2 F4800
;TYPE:Solid infill
;WIDTH:0.610898
G1 F9000
G1 X96.404 Y96.317 E2.00334
G1 X96.335 Y96.335 E2.00671
G1 X96.317 Y96.404 E2.01008
G1 X96.367 Y96.454 E2.01342
G1 X96.436 Y96.436 E2.01679
;WIDTH:0.499999
G1 X96.33 Y97.166 E2.04483
G1 X97.234 Y96.275 E2.09307
;WIDTH:0.460973
G1 X97.303 Y96.22 E2.09614
;WIDTH:0.421947
G1 X97.371 Y96.165 E2.0989
;WIDTH:0.38292
G1 X97.33 Y96.176 E2.1001
G1 X97.311 Y96.105 E2.10218
G1 X97.382 Y96.124 E2.10426
;WIDTH:0.499999
G1 X97.812 Y96.33 E2.12238
G1 X96.33 Y97.812 E2.20204
G1 X96.33 Y98.459 E2.22663
G1 X98.459 Y96.33 E2.34106
G1 X99.105 Y96.33 E2.36561
G1 X96.33 Y99.105 E2.51476
G1 X96.33 Y99.752 E2.53935
G1 X99.752 Y96.33 E2.72328
G1 X100.398 Y96.33 E2.74783
G1 X96.33 Y100.398 E2.96648
G1 X96.33 Y101.044 E2.99103
G1 X101.044 Y96.33 E3.2444
G1 X101.691 Y96.33 E3.26899
G1 X96.33 Y101.691 E3.55714
G1 X96.33 Y102.337 E3.58169
G1 X102.337 Y96.33 E3.90456
G1 X102.984 Y96.33 E3.92915
G1 X96.33 Y102.984 E4.2868
G1 X96.33 Y103.63 E4.31135
G1 X103.63 Y96.33 E4.70372
G1 X104.276 Y96.33 E4.72827
G1 X96.33 Y104.276 E5.15536
G1 X96.33 Y104.923 E5.17995
G1 X104.923 Y96.33 E5.64182
G1 X105.569 Y96.33 E5.66637
G1 X96.33 Y105.569 E6.16296
G1 X96.33 Y106.216 E6.18755
G1 X106.216 Y96.33 E6.71891
G1 X106.862 Y96.33 E6.74346
G1 X96.33 Y106.862 E7.30954
G1 X96.33 Y107.508 E7.33409
G1 X107.508 Y96.33 E7.9349
G1 X108.155 Y96.33 E7.95949
G1 X96.33 Y108.155 E8.59507
G1 X96.33 Y108.801 E8.61962
G1 X108.801 Y96.33 E9.28992
G1 X109.448 Y96.33 E9.31451
G1 X96.33 Y109.448 E10.01959
G1 X96.33 Y110.094 E10.04414
G1 X110.094 Y96.33 E10.78394
G1 X110.74 Y96.33 E10.80849
G1 X96.33 Y110.74 E11.58301
G1 X96.33 Y111.387 E11.6076
G1 X111.387 Y96.33 E12.4169
G1 X112.033 Y96.33 E12.44145
G1 X96.33 Y112.033 E13.28547
G1 X96.33 Y112.68 E13.31006
G1 X112.68 Y96.33 E14.18886
G1 X113.326 Y96.33 E14.21341
G1 X96.33 Y113.326 E15.12693
G1 X96.33 Y113.972 E15.15148
G1 X113.973 Y96.33 E16.09975
G1 X114.619 Y96.33 E16.1243
G1 X96.33 Y114.619 E17.10732
G1 X96.33 Y115.265 E17.13187
G1 X115.265 Y96.33 E18.14961
G1 X115.912 Y96.33 E18.1742
G1 X96.33 Y115.912 E19.22671
G1 X96.33 Y116.558 E19.25126
G1 X116.558 Y96.33 E20.33849
G1 X117.205 Y96.33 E20.36308
G1 X96.33 Y117.205 E21.48509
G1 X96.33 Y117.851 E21.50964
G1 X117.851 Y96.33 E22.66637
G1 X118.497 Y96.33 E22.69092
G1 X96.33 Y118.497 E23.88237
G1 X96.33 Y119.144 E23.90696
G1 X119.144 Y96.33 E25.13319
G1 X119.79 Y96.33 E25.15774
G1 X96.33 Y119.79 E26.41869
G1 X96.33 Y120.437 E26.44328
G1 X120.437 Y96.33 E27.73901
G1 X121.083 Y96.33 E27.76356
G1 X96.33 Y121.083 E29.09401
G1 X96.33 Y121.729 E29.11856
G1 X121.729 Y96.33 E30.48373
G1 X122.376 Y96.33 E30.50832
G1 X96.33 Y122.376 E31.90827
G1 X96.33 Y123.022 E31.93282
G1 X123.022 Y96.33 E33.36749
G1 X123.669 Y96.33 E33.39208
G1 X96.33 Y123.669 E34.86152
G1 X96.33 Y124.315 E34.88607
G1 X124.315 Y96.33 E36.39024
G1 X124.961 Y96.33 E36.41479
G1 X96.33 Y124.961 E37.95368
G1 X96.33 Y125.608 E37.97827
G1 X125.608 Y96.33 E39.55193
G1 X126.254 Y96.33 E39.57648
G1 X96.33 Y126.254 E41.18486
G1 X96.33 Y126.901 E41.20945
G1 X126.901 Y96.33 E42.85261
G1 X127.547 Y96.33 E42.87716
G1 X96.33 Y127.547 E44.55504
G1 X96.33 Y128.193 E44.57959
G1 X128.193 Y96.33 E46.29219
G1 X128.84 Y96.33 E46.31678
G1 X96.33 Y128.84 E48.06416
G1 X96.33 Y129.486 E48.08871
G1 X129.486 Y96.33 E49.87081
G1 X130.133 Y96.33 E49.8954
G1 X96.33 Y130.133 E51.71228
G1 X96.33 Y130.779 E51.73683
G1 X130.779 Y96.33 E53.58843
G1 X131.426 Y96.33 E53.61302
G1 X96.33 Y131.425 E55.49937
G1 X96.33 Y132.072 E55.52396
G1 X132.072 Y96.33 E57.44506
G1 X132.718 Y96.33 E57.46961
G1 X96.33 Y132.718 E59.42543
G1 E58.02543 F4800
;WIPE_START
G1 F5760
G1 X96.866 Y132.182 E57.42543
;WIPE_END
G92 E0
G1 X96.276 Y133.754 F7200
G1 E2 F4800
;WIDTH:0.38292
G1 F9000
G1 X96.205 Y133.735 E2.00208
G1 X96.224 Y133.806 E2.00416
G1 X96.265 Y133.795 E2.00536
;WIDTH:0.421947
G1 X96.287 Y133.652 E2.00992
;WIDTH:0.460973
G1 X96.309 Y133.508 E2.01498
;WIDTH:0.499999
G1 X96.33 Y133.365 E2.02047
G1 X133.365 Y96.33 E4.01106
G1 X133.67 Y96.671 E4.02845
G1 X96.671 Y133.67 E6.01711
G1 X97.318 Y133.67 E6.0417
G1 X133.67 Y97.318 E7.99558
G1 X133.67 Y97.964 E8.02013
G1 X97.964 Y133.67 E9.93929
G1 X98.611 Y133.67 E9.96388
G1 X133.67 Y98.611 E11.84827
G1 X133.67 Y99.257 E11.87282
G1 X99.257 Y133.67 E13.72248
G1 X99.904 Y133.67 E13.74707
G1 X133.67 Y99.904 E15.56196
G1 X133.67 Y100.55 E15.58651
G1 X100.55 Y133.67 E17.36668
G1 X101.196 Y133.67 E17.39123
G1 X133.67 Y101.196 E19.13667
G1 X133.67 Y101.843 E19.16126
G1 X101.843 Y133.67 E20.87193
G1 X102.489 Y133.67 E20.89648
G1 X133.67 Y102.489 E22.57243
G1 X133.67 Y103.136 E22.59702
G1 X103.136 Y133.67 E24.23819
G1 X103.782 Y133.67 E24.26274
G1 X133.67 Y103.782 E25.86919
G1 X133.67 Y104.428 E25.89374
G1 X104.428 Y133.67 E27.46547
G1 X105.075 Y133.67 E27.49006
G1 X133.67 Y105.075 E29.02701
G1 X133.67 Y105.721 E29.05156
G1 X105.721 Y133.67 E30.55379
G1 X106.368 Y133.67 E30.57838
G1 X133.67 Y106.368 E32.04583
G1 X133.67 Y107.014 E32.07038
G1 X107.014 Y133.67 E33.50311
G1 X107.66 Y133.67 E33.52766
G1 X133.67 Y107.66 E34.92567
G1 X133.67 Y108.307 E34.95026
G1 X108.307 Y133.67 E36.3135
G1 X108.953 Y133.67 E36.33805
G1 X133.67 Y108.953 E37.66656
G1 X133.67 Y109.6 E37.69115
G1 X109.6 Y133.67 E38.98489
G1 X110.246 Y133.67 E39.00944
G1 X133.67 Y110.246 E40.26846
G1 X133.67 Y110.892 E40.29301
G1 X110.892 Y133.67 E41.5173
G1 X111.539 Y133.67 E41.54189
G1 X133.67 Y111.539 E42.73141
G1 X133.67 Y112.185 E42.75596
G1 X112.185 Y133.67 E43.91076
G1 X112.832 Y133.67 E43.93535
G1 X133.67 Y112.832 E45.05537
G1 X133.67 Y113.478 E45.07992
G1 X113.478 Y133.67 E46.16522
G1 X114.124 Y133.67 E46.18977
G1 X133.67 Y114.124 E47.24035
G1 X133.67 Y114.771 E47.26494
G1 X114.771 Y133.67 E48.28074
G1 X115.417 Y133.67 E48.30529
G1 X133.67 Y115.417 E49.28637
G1 X133.67 Y116.064 E49.31096
G1 X116.064 Y133.67 E50.25726
G1 X116.71 Y133.67 E50.28181
G1 X133.67 Y116.71 E51.19339
G1 X133.67 Y117.357 E51.21798
G1 X117.357 Y133.67 E52.09479
G1 X118.003 Y133.67 E52.11934
G1 X133.67 Y118.003 E52.96143
G1 X133.67 Y118.649 E52.98598
G1 X118.649 Y133.67 E53.79334
G1 X119.296 Y133.67 E53.81793
G1 X133.67 Y119.296 E54.59052
G1 X133.67 Y119.942 E54.61507
G1 X119.942 Y133.67 E55.35294
