; generated by PrusaSlicer 2.6.0+MacOS-x64 on 2023-08-15 at 19:11:06 UTC

; 

; external perimeters extrusion width = 0.45mm
; perimeters extrusion width = 0.40mm
; infill extrusion width = 0.45mm
; solid infill extrusion width = 0.50mm
; top infill extrusion width = 0.45mm
; support material extrusion width = 0.42mm
; first layer extrusion width = 0.56mm

M201 X2500 Y2500 Z800 E2500 ; sets maximum accelerations, mm/sec^2
M203 X300 Y250 Z8 E80 ; sets maximum feedrates, mm / sec
M204 S2500 T2500 ; sets acceleration (S) and retract acceleration (R), mm/sec^2
M205 X15.00 Y10.00 Z2.00 E10.00 ; sets the jerk limits, mm/sec
M205 S0 T0 ; sets the minimum extruding and travel feed rate, mm/sec
;TYPE:Custom
G90 ; use absolute coordinates
M83 ; extruder relative mode
M104 S215 ; set extruder temp
M140 S65 ; set bed temp
M190 S65 ; wait for bed temp
M109 S215 ; wait for extruder temp
G28                                        ; move X/Y/Z to min endstops
G1 Z0.28                                   ; lift nozzle a bit
 
G0 Y235      ; move to max Y (within soft-limit)


G92 E0 
G1 Y3 F1800                                    ; zero the extruded length 
G1 X60  E25 F500                       ; Extrude 25mm of filament in a 5cm line. 
G92 E0                                     ; zero the extruded length again 
G1 E-2 F500                                ; Retract a little 
G1 X70 F4000                              ; Quickly wipe away from the filament line

M211 S0      ; disable software endstop
G0 Y245 X80       ; push forward past the endstop to the nozzle wiper

G0 X90       ; move X to the nozzle wiper
G0 X80       ; move X to wipe the nozzle


M117

G28          ; home all
M211 S1      ; enable software endstop
G21 ; set units to millimeters
G90 ; use absolute coordinates
M82 ; use absolute distances for extrusion
G92 E0
M107
;LAYER_CHANGE
;Z:0.28
;HEIGHT:0.28
; BEFORE_LAYER_CHANGE 0 @ 0.28mm
G1 E-2 F4800
G92 E0
G1 Z.28 F7200
; AFTER_LAYER_CHANGE 0 @ 0.28mm
G1 X106.4 Y120.786
G1 E2 F4800
M204 S2000
;TYPE:Support material
;WIDTH:0.56
G1 F3000
G1 X101.532 Y120.786 E2.28329
G1 X101.275 Y120.166 E2.32235
G1 X100.967 Y119.257 E2.3782
G1 X100.721 Y118.341 E2.4334
G1 X100.531 Y117.389 E2.48989
G1 X100.406 Y116.437 E2.54577
G1 X100.343 Y115.48 E2.60158
G1 X100.343 Y114.52 E2.65745
G1 X100.406 Y113.563 E2.71326
G1 X100.531 Y112.611 E2.76914
G1 X100.718 Y111.67 E2.82497
G1 X100.97 Y110.732 E2.88149
G1 X101.275 Y109.834 E2.93668
G1 X101.532 Y109.214 E2.97574
G1 X106.4 Y109.214 E3.25903
G1 X106.4 Y120.711 E3.9281
M204 S2500
G1 X105.557 Y120.561 F7200
M204 S2000
G1 F3000
G1 X105.557 Y109.664 E4.56225
G1 X105.002 Y109.664 E4.59455
G1 X105.002 Y120.336 E5.21561
G1 X104.446 Y120.336 E5.24797
G1 X104.446 Y109.664 E5.86903
G1 X103.891 Y109.664 E5.90133
G1 X103.891 Y120.336 E6.52239
G1 X103.335 Y120.336 E6.55475
G1 X103.335 Y109.664 E7.17581
G1 X102.78 Y109.664 E7.20811
G1 X102.78 Y120.336 E7.82917
G1 X102.224 Y120.336 E7.86153
G1 X102.224 Y109.664 E8.48259
G1 X101.833 Y109.664 E8.50534
G1 X101.669 Y110.074 E8.53104
G1 X101.669 Y119.926 E9.10438
G1 X101.398 Y119.126 E9.15353
G1 X101.16 Y118.239 E9.20697
G1 X101.114 Y118.008 E9.22068
G1 X101.114 Y111.066 E9.62467
M204 S2500
G1 E8.22467 F4800
;WIPE_START
G1 F5760
G1 X101.114 Y111.824 E7.62467
;WIPE_END
G92 E0
G1 X128.725 Y109.834 F7200
G1 E2 F4800
M204 S2000
G1 F3000
G1 X129.033 Y110.743 E2.05585
G1 X129.282 Y111.67 E2.11171
G1 X129.469 Y112.611 E2.16754
G1 X129.594 Y113.563 E2.22342
G1 X129.657 Y114.52 E2.27923
G1 X129.657 Y115.48 E2.3351
G1 X129.594 Y116.437 E2.39091
G1 X129.469 Y117.389 E2.44679
G1 X129.282 Y118.33 E2.50262
G1 X129.033 Y119.257 E2.55848
G1 X128.725 Y120.166 E2.61433
G1 X128.468 Y120.786 E2.65339
G1 X123.6 Y120.786 E2.93668
G1 X123.6 Y109.214 E3.61011
G1 X128.468 Y109.214 E3.8934
G1 X128.696 Y109.765 E3.9281
M204 S2500
G1 X128.886 Y118.936 F7200
M204 S2000
G1 F3000
G1 X128.886 Y111.989 E4.33238
G1 X128.602 Y110.874 E4.39934
G1 X128.331 Y110.074 E4.44849
G1 X128.331 Y119.926 E5.02183
G1 X128.167 Y120.336 E5.04753
G1 X127.776 Y120.336 E5.07028
G1 X127.776 Y109.664 E5.69134
G1 X127.22 Y109.664 E5.7237
G1 X127.22 Y120.336 E6.34476
G1 X126.665 Y120.336 E6.37706
G1 X126.665 Y109.664 E6.99812
G1 X126.109 Y109.664 E7.03048
G1 X126.109 Y120.336 E7.65154
G1 X125.554 Y120.336 E7.68384
G1 X125.554 Y109.664 E8.3049
G1 X124.998 Y109.664 E8.33726
G1 X124.998 Y120.336 E8.95832
G1 X124.443 Y120.336 E8.99062
G1 X124.443 Y109.439 E9.62477
M204 S2500
G1 E8.22477 F4800
;WIPE_START
G1 F5760
G1 X124.443 Y110.197 E7.62477
;WIPE_END
G92 E0
G1 X113.241 Y132.813 F7200
G1 E2 F4800
M204 S2000
;TYPE:External perimeter
G1 F3000
G1 X112.084 Y132.661 E2.06791
G1 X110.936 Y132.432 E2.13603
G1 X109.791 Y132.125 E2.20502
G1 X108.695 Y131.753 E2.27238
G1 X107.613 Y131.304 E2.34055
G1 X106.562 Y130.786 E2.40874
G1 X105.548 Y130.201 E2.47687
G1 X104.574 Y129.55 E2.54505
G1 X103.634 Y128.828 E2.61403
G1 X102.764 Y128.064 E2.68141
G1 X101.936 Y127.236 E2.74955
G1 X101.163 Y126.356 E2.81771
G1 X100.45 Y125.426 E2.88591
G1 X99.799 Y124.452 E2.95409
G1 X99.214 Y123.438 E3.02222
G1 X98.696 Y122.387 E3.09041
G1 X98.248 Y121.305 E3.15856
G1 X97.871 Y120.196 E3.22673
G1 X97.568 Y119.065 E3.29487
G1 X97.339 Y117.916 E3.36305
G1 X97.186 Y116.755 E3.4312
G1 X97.11 Y115.586 E3.49937
G1 X97.11 Y114.414 E3.56757
G1 X97.186 Y113.246 E3.63569
G1 X97.339 Y112.084 E3.7039
G1 X97.568 Y110.935 E3.77208
G1 X97.871 Y109.804 E3.84022
G1 X98.247 Y108.695 E3.90837
G1 X98.696 Y107.613 E3.97654
G1 X99.214 Y106.562 E4.04473
G1 X99.793 Y105.56 E4.11208
G1 X100.45 Y104.574 E4.18103
G1 X101.163 Y103.645 E4.24918
G1 X101.936 Y102.764 E4.31739
G1 X102.764 Y101.936 E4.38553
G1 X103.644 Y101.163 E4.45369
G1 X104.574 Y100.45 E4.52189
G1 X105.548 Y99.799 E4.59007
G1 X106.562 Y99.214 E4.6582
G1 X107.6 Y98.702 E4.72556
G1 X108.695 Y98.247 E4.79457
G1 X109.804 Y97.871 E4.86272
G1 X110.935 Y97.568 E4.93086
G1 X112.084 Y97.339 E4.99904
G1 X113.245 Y97.186 E5.06719
G1 X114.414 Y97.11 E5.13536
G1 X115.599 Y97.111 E5.20432
G1 X116.754 Y97.186 E5.27168
G1 X117.916 Y97.339 E5.33989
G1 X119.064 Y97.568 E5.40801
G1 X120.209 Y97.875 E5.477
G1 X121.305 Y98.247 E5.54436
G1 X122.387 Y98.696 E5.61253
G1 X123.438 Y99.214 E5.68072
G1 X124.452 Y99.799 E5.74885
G1 X125.426 Y100.45 E5.81703
G1 X126.366 Y101.172 E5.88601
G1 X127.236 Y101.936 E5.95339
G1 X128.064 Y102.764 E6.02153
G1 X128.837 Y103.644 E6.08969
G1 X129.55 Y104.574 E6.15789
G1 X130.201 Y105.548 E6.22607
G1 X130.786 Y106.562 E6.2942
G1 X131.304 Y107.613 E6.36239
G1 X131.753 Y108.695 E6.43056
G1 X132.129 Y109.804 E6.49871
G1 X132.432 Y110.935 E6.56685
G1 X132.661 Y112.084 E6.63503
G1 X132.814 Y113.245 E6.70318
G1 X132.89 Y114.414 E6.77135
G1 X132.89 Y115.586 E6.83955
G1 X132.814 Y116.754 E6.90767
G1 X132.661 Y117.916 E6.97588
G1 X132.432 Y119.065 E7.04406
G1 X132.129 Y120.196 E7.1122
G1 X131.753 Y121.305 E7.18035
G1 X131.304 Y122.387 E7.24852
G1 X130.786 Y123.438 E7.31671
G1 X130.201 Y124.452 E7.38484
G1 X129.55 Y125.426 E7.45302
G1 X128.837 Y126.355 E7.52117
G1 X128.064 Y127.236 E7.58938
G1 X127.236 Y128.064 E7.65752
G1 X126.356 Y128.837 E7.72568
G1 X125.426 Y129.55 E7.79388
G1 X124.452 Y130.201 E7.86206
G1 X123.438 Y130.786 E7.93019
G1 X122.4 Y131.298 E7.99755
G1 X121.305 Y131.753 E8.06656
G1 X120.196 Y132.129 E8.13471
G1 X119.065 Y132.432 E8.20285
G1 X117.916 Y132.661 E8.27103
G1 X116.755 Y132.814 E8.33918
G1 X115.586 Y132.89 E8.40735
G1 X114.414 Y132.89 E8.47555
G1 X113.301 Y132.817 E8.54046
M204 S2500
G1 X113.076 Y132.449 F7200
G1 X113.295 Y132.316
M204 S2000
;TYPE:Perimeter
G1 F3000
G1 X112.166 Y132.167 E8.60673
G1 X111.049 Y131.945 E8.67301
G1 X109.936 Y131.646 E8.74008
G1 X108.871 Y131.284 E8.80554
G1 X107.819 Y130.849 E8.87179
G1 X106.798 Y130.345 E8.93805
G1 X105.812 Y129.776 E9.0043
G1 X104.865 Y129.143 E9.07059
G1 X103.952 Y128.441 E9.13761
G1 X103.106 Y127.699 E9.2031
G1 X102.301 Y126.894 E9.26935
G1 X101.55 Y126.038 E9.33562
G1 X100.857 Y125.135 E9.40186
G1 X100.224 Y124.188 E9.46815
G1 X99.655 Y123.202 E9.5344
G1 X99.151 Y122.181 E9.60066
G1 X98.716 Y121.129 E9.66691
G1 X98.35 Y120.051 E9.73316
G1 X98.055 Y118.951 E9.79944
G1 X97.833 Y117.834 E9.86572
G1 X97.684 Y116.705 E9.93199
G1 X97.61 Y115.569 E9.99824
G1 X97.61 Y114.431 E10.06447
G1 X97.684 Y113.295 E10.13072
G1 X97.833 Y112.166 E10.19699
G1 X98.055 Y111.049 E10.26327
G1 X98.35 Y109.949 E10.32955
G1 X98.716 Y108.871 E10.3958
G1 X99.151 Y107.819 E10.46205
G1 X99.655 Y106.798 E10.52831
G1 X100.217 Y105.824 E10.59375
G1 X100.857 Y104.865 E10.66085
G1 X101.55 Y103.962 E10.72709
G1 X102.301 Y103.106 E10.79336
G1 X103.106 Y102.301 E10.85961
G1 X103.962 Y101.55 E10.92588
G1 X104.865 Y100.857 E10.99212
G1 X105.812 Y100.224 E11.05841
G1 X106.798 Y99.655 E11.12466
G1 X107.807 Y99.157 E11.19014
G1 X108.871 Y98.716 E11.25717
G1 X109.949 Y98.35 E11.32342
G1 X111.049 Y98.055 E11.3897
G1 X112.166 Y97.833 E11.45598
G1 X113.295 Y97.684 E11.52225
G1 X114.43 Y97.61 E11.58844
G1 X115.583 Y97.611 E11.65554
G1 X116.705 Y97.684 E11.72097
G1 X117.834 Y97.833 E11.78724
G1 X118.951 Y98.055 E11.85352
G1 X120.064 Y98.354 E11.92059
G1 X121.129 Y98.716 E11.98605
G1 X122.181 Y99.151 E12.0523
G1 X123.202 Y99.655 E12.11856
G1 X124.188 Y100.224 E12.18481
G1 X125.135 Y100.857 E12.2511
G1 X126.048 Y101.559 E12.31812
G1 X126.894 Y102.301 E12.38361
G1 X127.699 Y103.106 E12.44986
G1 X128.45 Y103.962 E12.51613
G1 X129.143 Y104.865 E12.58237
G1 X129.776 Y105.812 E12.64866
G1 X130.345 Y106.798 E12.71491
G1 X130.849 Y107.819 E12.78117
G1 X131.284 Y108.871 E12.84742
G1 X131.65 Y109.949 E12.91367
G1 X131.945 Y111.049 E12.97995
G1 X132.167 Y112.166 E13.04623
G1 X132.316 Y113.295 E13.1125
G1 X132.39 Y114.431 E13.17875
G1 X132.39 Y115.569 E13.24498
G1 X132.316 Y116.705 E13.31123
G1 X132.167 Y117.834 E13.3775
G1 X131.945 Y118.951 E13.44378
G1 X131.65 Y120.051 E13.51006
G1 X131.284 Y121.129 E13.57631
G1 X130.849 Y122.181 E13.64256
G1 X130.345 Y123.202 E13.70882
G1 X129.776 Y124.188 E13.77507
G1 X129.143 Y125.135 E13.84136
G1 X128.45 Y126.038 E13.9076
G1 X127.699 Y126.894 E13.97387
G1 X126.894 Y127.699 E14.04012
G1 X126.038 Y128.45 E14.10639
G1 X125.135 Y129.143 E14.17263
G1 X124.188 Y129.776 E14.23892
G1 X123.202 Y130.345 E14.30517
G1 X122.193 Y130.843 E14.37065
G1 X121.129 Y131.284 E14.43768
G1 X120.051 Y131.65 E14.50393
G1 X118.951 Y131.945 E14.57021
G1 X117.834 Y132.167 E14.63649
G1 X116.705 Y132.316 E14.70276
G1 X115.569 Y132.39 E14.76901
G1 X114.431 Y132.39 E14.83524
G1 X113.354 Y132.32 E14.89805
M204 S2500
G1 X113.344 Y131.818 F7200
M204 S2000
G1 F3000
G1 X112.247 Y131.674 E14.96244
G1 X111.163 Y131.458 E15.02676
G1 X110.082 Y131.167 E15.09191
G1 X109.047 Y130.816 E15.15551
G1 X108.026 Y130.393 E15.21982
G1 X107.034 Y129.904 E15.28418
G1 X106.076 Y129.351 E15.34855
G1 X105.157 Y128.737 E15.41287
G1 X104.269 Y128.055 E15.47803
G1 X103.448 Y127.334 E15.54162
G1 X102.666 Y126.552 E15.60598
G1 X101.937 Y125.721 E15.67031
G1 X101.263 Y124.844 E15.73468
G1 X100.649 Y123.924 E15.79905
G1 X100.096 Y122.966 E15.86342
G1 X99.607 Y121.975 E15.92773
G1 X99.184 Y120.953 E15.9921
G1 X98.828 Y119.906 E16.05646
G1 X98.542 Y118.837 E16.12086
G1 X98.326 Y117.753 E16.18518
G1 X98.182 Y116.656 E16.24957
G1 X98.11 Y115.553 E16.3139
G1 X98.11 Y114.447 E16.37826
G1 X98.182 Y113.344 E16.44259
G1 X98.326 Y112.247 E16.50698
G1 X98.542 Y111.163 E16.5713
G1 X98.828 Y110.094 E16.6357
G1 X99.184 Y109.047 E16.70006
G1 X99.607 Y108.026 E16.76437
G1 X100.096 Y107.034 E16.82873
G1 X100.642 Y106.088 E16.89229
G1 X101.264 Y105.156 E16.9575
G1 X101.937 Y104.279 E17.02183
G1 X102.666 Y103.448 E17.08616
G1 X103.448 Y102.666 E17.15052
G1 X104.279 Y101.937 E17.21485
G1 X105.156 Y101.263 E17.27922
G1 X106.076 Y100.649 E17.34359
G1 X107.034 Y100.096 E17.40796
G1 X108.013 Y99.613 E17.47149
G1 X109.048 Y99.184 E17.53669
G1 X110.094 Y98.828 E17.60099
G1 X111.163 Y98.542 E17.66539
G1 X112.247 Y98.326 E17.72971
G1 X113.344 Y98.182 E17.7941
G1 X114.446 Y98.11 E17.85837
G1 X115.566 Y98.111 E17.92355
G1 X116.656 Y98.182 E17.98712
G1 X117.753 Y98.326 E18.05151
G1 X118.837 Y98.542 E18.11583
G1 X119.918 Y98.833 E18.18098
G1 X120.953 Y99.184 E18.24458
G1 X121.975 Y99.607 E18.30895
G1 X122.966 Y100.096 E18.37326
G1 X123.924 Y100.649 E18.43763
G1 X124.843 Y101.263 E18.50195
G1 X125.731 Y101.945 E18.56711
G1 X126.552 Y102.666 E18.6307
G1 X127.334 Y103.448 E18.69506
G1 X128.063 Y104.279 E18.75939
G1 X128.737 Y105.156 E18.82376
G1 X129.351 Y106.076 E18.88813
G1 X129.904 Y107.034 E18.9525
G1 X130.393 Y108.025 E19.01681
G1 X130.816 Y109.047 E19.08118
G1 X131.172 Y110.094 E19.14554
G1 X131.458 Y111.163 E19.20994
G1 X131.674 Y112.247 E19.27426
G1 X131.818 Y113.344 E19.33865
G1 X131.89 Y114.447 E19.40298
G1 X131.89 Y115.553 E19.46734
G1 X131.818 Y116.656 E19.53167
G1 X131.674 Y117.753 E19.59606
G1 X131.458 Y118.837 E19.66038
G1 X131.172 Y119.906 E19.72478
G1 X130.816 Y120.953 E19.78914
G1 X130.393 Y121.975 E19.85351
G1 X129.904 Y122.966 E19.91782
G1 X129.351 Y123.924 E19.98219
G1 X128.737 Y124.844 E20.04656
G1 X128.063 Y125.721 E20.11093
G1 X127.334 Y126.552 E20.17526
G1 X126.552 Y127.334 E20.23962
G1 X125.721 Y128.063 E20.30395
G1 X124.844 Y128.737 E20.36832
G1 X123.924 Y129.351 E20.43269
G1 X122.966 Y129.904 E20.49706
G1 X121.987 Y130.387 E20.56059
G1 X120.952 Y130.816 E20.62579
G1 X119.906 Y131.172 E20.69009
G1 X118.837 Y131.458 E20.75449
G1 X117.753 Y131.674 E20.81881
G1 X116.656 Y131.818 E20.8832
G1 X115.553 Y131.89 E20.94753
G1 X114.447 Y131.89 E21.01189
G1 X113.403 Y131.822 E21.07277
M204 S2500
G1 E19.67277 F4800
;WIPE_START
G1 F5760
G1 X112.651 Y131.726 E19.07277
;WIPE_END
G92 E0
G1 X130.353 Y112.549 F7200
G1 E2 F4800
M204 S2000
;TYPE:External perimeter
G1 F3000
G1 X130.475 Y113.476 E2.05441
G1 X130.542 Y114.491 E2.11361
G1 X130.542 Y115.509 E2.17285
G1 X130.475 Y116.524 E2.23205
G1 X130.343 Y117.533 E2.29127
G1 X130.144 Y118.531 E2.35049
G1 X129.881 Y119.514 E2.40971
G1 X129.554 Y120.478 E2.46895
G1 X129.164 Y121.418 E2.52817
G1 X128.714 Y122.33 E2.58735
G1 X128.205 Y123.212 E2.64661
G1 X127.64 Y124.058 E2.70581
G1 X127.021 Y124.865 E2.765
G1 X126.35 Y125.63 E2.82422
G1 X125.63 Y126.35 E2.88348
G1 X124.865 Y127.02 E2.94266
G1 X124.058 Y127.64 E3.00188
G1 X123.212 Y128.205 E3.06108
G1 X122.33 Y128.714 E3.12034
G1 X121.418 Y129.164 E3.17952
G1 X120.478 Y129.554 E3.23874
G1 X119.514 Y129.881 E3.29798
G1 X118.531 Y130.144 E3.3572
G1 X117.533 Y130.343 E3.41642
G1 X116.524 Y130.475 E3.47564
G1 X115.509 Y130.542 E3.53484
G1 X114.491 Y130.542 E3.59408
G1 X113.476 Y130.475 E3.65328
G1 X112.467 Y130.343 E3.7125
G1 X111.469 Y130.144 E3.77172
G1 X110.486 Y129.881 E3.83094
G1 X109.522 Y129.554 E3.89018
G1 X108.582 Y129.164 E3.9494
G1 X107.67 Y128.714 E4.00858
G1 X106.788 Y128.205 E4.06784
G1 X105.942 Y127.64 E4.12704
G1 X105.135 Y127.021 E4.18623
G1 X104.379 Y126.357 E4.24479
G1 X103.651 Y125.63 E4.30466
G1 X102.98 Y124.865 E4.36388
G1 X102.36 Y124.058 E4.4231
G1 X101.795 Y123.212 E4.4823
G1 X101.286 Y122.33 E4.54156
G1 X100.836 Y121.418 E4.60074
G1 X100.446 Y120.478 E4.65996
G1 X100.119 Y119.514 E4.7192
G1 X99.859 Y118.542 E4.77775
G1 X99.658 Y117.533 E4.83762
G1 X99.525 Y116.524 E4.89685
G1 X99.458 Y115.509 E4.95605
G1 X99.458 Y114.491 E5.01529
G1 X99.525 Y113.476 E5.07449
G1 X99.657 Y112.467 E5.13371
G1 X99.856 Y111.469 E5.19293
G1 X100.123 Y110.475 E5.25283
G1 X100.446 Y109.522 E5.31139
G1 X100.836 Y108.582 E5.37061
G1 X101.286 Y107.67 E5.42979
G1 X101.795 Y106.788 E5.48905
G1 X102.36 Y105.942 E5.54825
G1 X102.979 Y105.135 E5.60744
G1 X103.65 Y104.37 E5.66666
G1 X104.37 Y103.65 E5.72592
G1 X105.144 Y102.972 E5.7858
G1 X105.942 Y102.36 E5.84432
G1 X106.788 Y101.795 E5.90352
G1 X107.67 Y101.286 E5.96278
G1 X108.582 Y100.836 E6.02196
G1 X109.522 Y100.446 E6.08118
G1 X110.486 Y100.119 E6.14042
G1 X111.469 Y99.856 E6.19964
G1 X112.467 Y99.657 E6.25886
G1 X113.476 Y99.525 E6.31808
G1 X114.491 Y99.458 E6.37728
G1 X115.497 Y99.458 E6.43582
G1 X116.524 Y99.525 E6.49571
G1 X117.533 Y99.657 E6.55493
G1 X118.531 Y99.856 E6.61415
G1 X119.514 Y100.119 E6.67337
G1 X120.478 Y100.446 E6.73261
G1 X121.418 Y100.836 E6.79183
