; generated by PrusaSlicer 2.6.0+MacOS-x64 on 2023-08-13 at 19:40:46 UTC

; 

; external perimeters extrusion width = 0.45mm
; perimeters extrusion width = 0.40mm
; infill extrusion width = 0.45mm
; solid infill extrusion width = 0.50mm
; top infill extrusion width = 0.45mm
; support material extrusion width = 0.42mm
; first layer extrusion width = 0.56mm

M201 X2500 Y2500 Z800 E2500 ; sets maximum accelerations, mm/sec^2
M203 X300 Y250 Z8 E80 ; sets maximum feedrates, mm / sec
M204 S2500 T2500 ; sets acceleration (S) and retract acceleration (R), mm/sec^2
M205 X15.00 Y10.00 Z2.00 E10.00 ; sets the jerk limits, mm/sec
M205 S0 T0 ; sets the minimum extruding and travel feed rate, mm/sec
;TYPE:Custom
G90 ; use absolute coordinates
M83 ; extruder relative mode
M104 S215 ; set extruder temp
M140 S65 ; set bed temp
M190 S65 ; wait for bed temp
M109 S215 ; wait for extruder temp
G28                                        ; move X/Y/Z to min endstops
G1 Z0.28                                   ; lift nozzle a bit 
G92 E0 
G1 Y3 F1800                                    ; zero the extruded length 
G1 X60  E25 F500                       ; Extrude 25mm of filament in a 5cm line. 
G92 E0                                     ; zero the extruded length again 
G1 E-2 F500                                ; Retract a little 
G1 X70 F4000                              ; Quickly wipe away from the filament line
M117
G21 ; set units to millimeters
G90 ; use absolute coordinates
M82 ; use absolute distances for extrusion
G92 E0
M107
;LAYER_CHANGE
;Z:0.28
;HEIGHT:0.28
; BEFORE_LAYER_CHANGE 0 @ 0.28mm
G1 E-2 F4800
G92 E0
G1 Z.28 F7200
; AFTER_LAYER_CHANGE 0 @ 0.28mm
G1 X123.663 Y99.515
G1 E2 F4800
M204 S2000
;TYPE:Support material
;WIDTH:0.56
G1 F3000
G1 X106.337 Y99.515 E3.00829
G1 X106.337 Y94.829 E3.28099
G1 X123.663 Y94.829 E4.28928
G1 X123.663 Y99.44 E4.55762
M204 S2500
G1 X122.776 Y99.29 F7200
M204 S2000
G1 F3000
G1 X122.776 Y95.279 E4.79104
G1 X122.221 Y95.279 E4.82334
G1 X122.221 Y99.065 E5.04367
G1 X121.665 Y99.065 E5.07603
G1 X121.665 Y95.279 E5.29636
G1 X121.11 Y95.279 E5.32866
G1 X121.11 Y99.065 E5.54899
G1 X120.555 Y99.065 E5.58129
G1 X120.555 Y95.279 E5.80162
G1 X119.999 Y95.279 E5.83398
G1 X119.999 Y99.065 E6.05431
G1 X119.444 Y99.065 E6.08661
G1 X119.444 Y95.279 E6.30694
G1 X118.888 Y95.279 E6.3393
G1 X118.888 Y99.065 E6.55963
G1 X118.333 Y99.065 E6.59193
G1 X118.333 Y95.279 E6.81226
G1 X117.777 Y95.279 E6.84462
G1 X117.777 Y99.065 E7.06495
G1 X117.222 Y99.065 E7.09725
G1 X117.222 Y95.279 E7.31758
G1 X116.666 Y95.279 E7.34994
G1 X116.666 Y99.065 E7.57027
G1 X116.111 Y99.065 E7.60257
G1 X116.111 Y95.279 E7.8229
G1 X115.555 Y95.279 E7.85526
G1 X115.555 Y99.065 E8.07559
G1 X115 Y99.065 E8.10789
G1 X115 Y95.279 E8.32822
G1 X114.445 Y95.279 E8.36052
G1 X114.445 Y99.065 E8.58085
G1 X113.889 Y99.065 E8.61321
G1 X113.889 Y95.279 E8.83354
G1 X113.334 Y95.279 E8.86584
G1 X113.334 Y99.065 E9.08617
G1 X112.778 Y99.065 E9.11853
G1 X112.778 Y95.279 E9.33886
G1 X112.223 Y95.279 E9.37116
G1 X112.223 Y99.065 E9.59149
G1 X111.667 Y99.065 E9.62385
G1 X111.667 Y95.279 E9.84418
G1 X111.112 Y95.279 E9.87648
G1 X111.112 Y99.065 E10.09681
G1 X110.556 Y99.065 E10.12917
G1 X110.556 Y95.279 E10.3495
G1 X110.001 Y95.279 E10.3818
G1 X110.001 Y99.065 E10.60213
G1 X109.445 Y99.065 E10.63449
G1 X109.445 Y95.279 E10.85482
G1 X108.89 Y95.279 E10.88712
G1 X108.89 Y99.065 E11.10745
G1 X108.335 Y99.065 E11.13975
G1 X108.335 Y95.279 E11.36008
G1 X107.779 Y95.279 E11.39244
G1 X107.779 Y99.065 E11.61277
G1 X107.224 Y99.065 E11.64507
G1 X107.224 Y95.054 E11.87849
M204 S2500
G1 E10.47849 F4800
;WIPE_START
G1 F5760
G1 X107.224 Y95.812 E9.87849
;WIPE_END
G92 E0
G1 X123.663 Y135.171 F7200
G1 E2 F4800
M204 S2000
G1 F3000
G1 X106.337 Y135.171 E3.00829
G1 X106.337 Y130.485 E3.28099
G1 X123.663 Y130.485 E4.28928
G1 X123.663 Y135.096 E4.55762
M204 S2500
G1 X122.776 Y134.946 F7200
M204 S2000
G1 F3000
G1 X122.776 Y130.935 E4.79104
G1 X122.221 Y130.935 E4.82334
G1 X122.221 Y134.721 E5.04367
G1 X121.665 Y134.721 E5.07603
G1 X121.665 Y130.935 E5.29636
G1 X121.11 Y130.935 E5.32866
G1 X121.11 Y134.721 E5.54899
G1 X120.555 Y134.721 E5.58129
G1 X120.555 Y130.935 E5.80162
G1 X119.999 Y130.935 E5.83398
G1 X119.999 Y134.721 E6.05431
G1 X119.444 Y134.721 E6.08661
G1 X119.444 Y130.935 E6.30694
G1 X118.888 Y130.935 E6.3393
G1 X118.888 Y134.721 E6.55963
G1 X118.333 Y134.721 E6.59193
G1 X118.333 Y130.935 E6.81226
G1 X117.777 Y130.935 E6.84462
G1 X117.777 Y134.721 E7.06495
G1 X117.222 Y134.721 E7.09725
G1 X117.222 Y130.935 E7.31758
G1 X116.666 Y130.935 E7.34994
G1 X116.666 Y134.721 E7.57027
G1 X116.111 Y134.721 E7.60257
G1 X116.111 Y130.935 E7.8229
G1 X115.555 Y130.935 E7.85526
G1 X115.555 Y134.721 E8.07559
G1 X115 Y134.721 E8.10789
G1 X115 Y130.935 E8.32822
G1 X114.445 Y130.935 E8.36052
G1 X114.445 Y134.721 E8.58085
G1 X113.889 Y134.721 E8.61321
G1 X113.889 Y130.935 E8.83354
G1 X113.334 Y130.935 E8.86584
G1 X113.334 Y134.721 E9.08617
G1 X112.778 Y134.721 E9.11853
G1 X112.778 Y130.935 E9.33886
G1 X112.223 Y130.935 E9.37116
G1 X112.223 Y134.721 E9.59149
G1 X111.667 Y134.721 E9.62385
G1 X111.667 Y130.935 E9.84418
G1 X111.112 Y130.935 E9.87648
G1 X111.112 Y134.721 E10.09681
G1 X110.556 Y134.721 E10.12917
G1 X110.556 Y130.935 E10.3495
G1 X110.001 Y130.935 E10.3818
G1 X110.001 Y134.721 E10.60213
G1 X109.445 Y134.721 E10.63449
G1 X109.445 Y130.935 E10.85482
G1 X108.89 Y130.935 E10.88712
G1 X108.89 Y134.721 E11.10745
G1 X108.335 Y134.721 E11.13975
G1 X108.335 Y130.935 E11.36008
G1 X107.779 Y130.935 E11.39244
G1 X107.779 Y134.721 E11.61277
G1 X107.224 Y134.721 E11.64507
G1 X107.224 Y130.71 E11.87849
M204 S2500
G1 E10.47849 F4800
;WIPE_START
G1 F5760
G1 X107.224 Y131.468 E9.87849
;WIPE_END
G92 E0
G1 X134.6 Y129.6 F7200
G1 E2 F4800
M204 S2000
;TYPE:External perimeter
G1 F3000
G1 X95.4 Y129.6 E4.28124
G1 X95.4 Y100.4 E5.98053
G1 X134.6 Y100.4 E8.26177
G1 X134.6 Y129.54 E9.95757
M204 S2500
G1 X134.209 Y129.515 F7200
G1 X134.1 Y129.1
M204 S2000
;TYPE:Perimeter
G1 F3000
G1 X95.9 Y129.1 E12.18062
G1 X95.9 Y100.9 E13.82172
G1 X134.1 Y100.9 E16.04477
G1 X134.1 Y129.04 E17.68238
M204 S2500
G1 X133.6 Y128.6 F7200
M204 S2000
G1 F3000
G1 X96.4 Y128.6 E19.84723
G1 X96.4 Y101.4 E21.43013
G1 X133.6 Y101.4 E23.59498
G1 X133.6 Y128.54 E25.17439
M204 S2500
G1 E23.77439 F4800
;WIPE_START
G1 F5760
G1 X132.842 Y128.541 E23.17439
;WIPE_END
G92 E0
G1 X133.4 Y102.612 F7200
G1 E2 F4800
M204 S2000
;TYPE:Solid infill
;WIDTH:0.56057
G1 F3000
G1 X132.613 Y101.825 E2.06484
G1 X131.906 Y101.825 E2.10603
G1 X133.175 Y103.094 E2.21059
G1 X133.175 Y103.802 E2.25184
G1 X131.198 Y101.825 E2.41473
G1 X130.49 Y101.825 E2.45598
G1 X133.175 Y104.51 E2.67721
G1 X133.175 Y105.218 E2.71846
G1 X129.782 Y101.825 E2.99802
G1 X129.074 Y101.825 E3.03927
G1 X133.175 Y105.926 E3.37717
G1 X133.175 Y106.633 E3.41836
G1 X128.367 Y101.825 E3.81451
G1 X127.659 Y101.825 E3.85576
G1 X133.175 Y107.341 E4.31024
G1 X133.175 Y108.049 E4.35149
G1 X126.951 Y101.825 E4.86431
G1 X126.243 Y101.825 E4.90556
G1 X133.175 Y108.757 E5.47671
G1 X133.175 Y109.464 E5.5179
G1 X125.536 Y101.825 E6.14731
G1 X124.828 Y101.825 E6.18856
G1 X133.175 Y110.172 E6.8763
G1 X133.175 Y110.88 E6.91755
G1 X124.12 Y101.825 E7.66363
G1 X123.412 Y101.825 E7.70488
G1 X133.175 Y111.588 E8.50929
G1 X133.175 Y112.296 E8.55054
G1 X122.704 Y101.825 E9.41329
G1 X121.997 Y101.825 E9.45448
G1 X133.175 Y113.003 E10.37548
G1 X133.175 Y113.711 E10.41673
G1 X121.289 Y101.825 E11.39606
G1 X120.581 Y101.825 E11.43731
G1 X133.175 Y114.419 E12.47498
G1 X133.175 Y115.127 E12.51623
G1 X119.873 Y101.825 E13.61223
G1 X119.165 Y101.825 E13.65348
G1 X133.175 Y115.835 E14.80782
G1 X133.175 Y116.542 E14.84901
G1 X118.458 Y101.825 E16.0616
G1 X117.75 Y101.825 E16.10285
G1 X133.175 Y117.25 E17.37377
G1 X133.175 Y117.958 E17.41502
G1 X117.042 Y101.825 E18.74428
G1 X116.334 Y101.825 E18.78553
G1 X133.175 Y118.666 E20.17312
G1 X133.175 Y119.373 E20.21431
G1 X115.627 Y101.825 E21.66016
G1 X114.919 Y101.825 E21.70141
G1 X133.175 Y120.081 E23.20559
G1 X133.175 Y120.789 E23.24684
G1 X114.211 Y101.825 E24.80936
G1 X113.503 Y101.825 E24.85061
G1 X133.175 Y121.497 E26.47146
G1 X133.175 Y122.205 E26.51271
G1 X112.795 Y101.825 E28.1919
G1 X112.088 Y101.825 E28.23309
G1 X133.175 Y122.912 E29.97053
G1 X133.175 Y123.62 E30.01178
G1 X111.38 Y101.825 E31.80755
G1 X110.672 Y101.825 E31.8488
G1 X133.175 Y124.328 E33.70291
G1 X133.175 Y125.036 E33.74416
G1 X109.964 Y101.825 E35.6566
G1 X109.256 Y101.825 E35.69785
G1 X133.175 Y125.744 E37.66863
G1 X133.175 Y126.451 E37.70982
G1 X108.549 Y101.825 E39.73885
G1 X107.841 Y101.825 E39.7801
G1 X133.175 Y127.159 E41.86747
G1 X133.175 Y127.867 E41.90872
G1 X107.133 Y101.825 E44.05442
G1 X106.425 Y101.825 E44.09567
G1 X132.776 Y128.175 E46.26679
G1 X132.068 Y128.175 E46.30804
G1 X105.718 Y101.825 E48.47912
G1 X105.01 Y101.825 E48.52037
G1 X131.36 Y128.175 E50.69145
G1 X130.652 Y128.175 E50.7327
G1 X104.302 Y101.825 E52.90378
G1 X103.594 Y101.825 E52.94503
G1 X129.945 Y128.175 E55.11615
G1 X129.237 Y128.175 E55.1574
G1 X102.886 Y101.825 E57.32852
G1 X102.179 Y101.825 E57.36971
G1 X128.529 Y128.175 E59.54079
G1 X127.821 Y128.175 E59.58204
G1 X101.471 Y101.825 E61.75312
G1 X100.763 Y101.825 E61.79437
G1 X127.114 Y128.175 E63.96549
G1 X126.406 Y128.175 E64.00674
G1 X100.055 Y101.825 E66.17786
G1 X99.347 Y101.825 E66.21911
G1 X125.698 Y128.175 E68.39023
G1 X124.99 Y128.175 E68.43148
G1 X98.64 Y101.825 E70.60256
G1 X97.932 Y101.825 E70.64381
G1 X124.282 Y128.175 E72.81489
G1 X123.575 Y128.175 E72.85608
G1 X97.224 Y101.825 E75.0272
G1 X96.825 Y101.825 E75.05045
G1 X96.825 Y102.133 E75.06839
G1 X122.867 Y128.175 E77.21409
G1 X122.159 Y128.175 E77.25534
G1 X96.825 Y102.841 E79.34271
G1 X96.825 Y103.549 E79.38396
G1 X121.451 Y128.175 E81.41299
G1 X120.743 Y128.175 E81.45424
G1 X96.825 Y104.257 E83.42494
G1 X96.825 Y104.964 E83.46613
G1 X120.036 Y128.175 E85.37857
G1 X119.328 Y128.175 E85.41982
G1 X96.825 Y105.672 E87.27393
G1 X96.825 Y106.38 E87.31518
G1 X118.62 Y128.175 E89.11095
G1 X117.912 Y128.175 E89.1522
G1 X96.825 Y107.088 E90.88964
G1 X96.825 Y107.796 E90.93089
G1 X117.204 Y128.175 E92.60999
G1 X116.497 Y128.175 E92.65118
G1 X96.825 Y108.503 E94.27203
G1 X96.825 Y109.211 E94.31328
G1 X115.789 Y128.175 E95.8758
G1 X115.081 Y128.175 E95.91705
G1 X96.825 Y109.919 E97.42123
G1 X96.825 Y110.627 E97.46248
G1 X114.373 Y128.175 E98.90833
G1 X113.666 Y128.175 E98.94952
G1 X96.825 Y111.334 E100.33711
G1 X96.825 Y112.042 E100.37836
G1 X112.958 Y128.175 E101.70762
G1 X112.25 Y128.175 E101.74887
G1 X96.825 Y112.75 E103.01979
G1 X96.825 Y113.458 E103.06104
G1 X111.542 Y128.175 E104.27363
G1 X110.834 Y128.175 E104.31488
G1 X96.825 Y114.166 E105.46914
G1 X96.825 Y114.873 E105.51033
G1 X110.127 Y128.175 E106.60633
G1 X109.419 Y128.175 E106.64758
G1 X96.825 Y115.581 E107.68525
G1 X96.825 Y116.289 E107.7265
G1 X108.711 Y128.175 E108.70583
G1 X108.003 Y128.175 E108.74708
G1 X96.825 Y116.997 E109.66808
G1 X96.825 Y117.705 E109.70933
G1 X107.295 Y128.175 E110.57199
G1 X106.588 Y128.175 E110.61318
G1 X96.825 Y118.412 E111.41759
G1 X96.825 Y119.12 E111.45884
G1 X105.88 Y128.175 E112.20492
G1 X105.172 Y128.175 E112.24617
G1 X96.825 Y119.828 E112.93391
G1 X96.825 Y120.536 E112.97516
G1 X104.464 Y128.175 E113.60457
G1 X103.757 Y128.175 E113.64576
G1 X96.825 Y121.243 E114.21691
G1 X96.825 Y121.951 E114.25816
G1 X103.049 Y128.175 E114.77098
G1 X102.341 Y128.175 E114.81223
G1 X96.825 Y122.659 E115.26671
G1 X96.825 Y123.367 E115.30796
G1 X101.633 Y128.175 E115.70411
G1 X100.925 Y128.175 E115.74536
G1 X96.825 Y124.075 E116.08317
G1 X96.825 Y124.782 E116.12436
G1 X100.218 Y128.175 E116.40392
G1 X99.51 Y128.175 E116.44517
G1 X96.825 Y125.49 E116.6664
G1 X96.825 Y126.198 E116.70765
G1 X98.802 Y128.175 E116.87054
G1 X98.094 Y128.175 E116.91179
G1 X96.825 Y126.906 E117.01635
G1 X96.825 Y127.614 E117.0576
G1 X97.611 Y128.4 E117.12236
M204 S2500
;LAYER_CHANGE
;Z:0.48
;HEIGHT:0.2
; BEFORE_LAYER_CHANGE 1 @ 0.48mm
G1 E115.72236 F4800
;WIPE_START
G1 F5760
G1 X97.075 Y127.864 E115.12236
;WIPE_END
G92 E0
G1 Z.48 F7200
; AFTER_LAYER_CHANGE 1 @ 0.48mm
M104 S195 ; set temperature
G1 X134.755 Y129.755
G1 E2 F4800
;TYPE:External perimeter
;WIDTH:0.45
G1 X95.245 Y129.755 E3.33737
G1 X95.245 Y100.245 E4.33625
G1 X134.755 Y100.245 E5.67362
G1 X134.755 Y129.695 E6.67047
G1 X134.364 Y129.67 F7200
G1 X134.373 Y129.373
;TYPE:Perimeter
;WIDTH:0.4
G1 F9000
G1 X95.627 Y129.373 E7.82089
G1 X95.627 Y100.627 E8.6744
G1 X134.373 Y100.627 E9.82482
G1 X134.373 Y129.313 E10.67654
G1 X134.016 Y129.016 F7200
G1 F9000
G1 X95.984 Y129.016 E11.80576
G1 X95.984 Y100.984 E12.63807
G1 X134.016 Y100.984 E13.76729
G1 X134.016 Y128.956 E14.59781
G1 E13.19781 F4800
;WIPE_START
G1 F5760
G1 X133.258 Y128.957 E12.59781
;WIPE_END
G92 E0
G1 X96.454 Y101.367 F7200
G1 E2 F4800
;TYPE:Solid infill
;WIDTH:0.610898
G1 F9000
G1 X96.404 Y101.317 E2.00334
G1 X96.335 Y101.335 E2.00671
G1 X96.317 Y101.404 E2.01008
G1 X96.367 Y101.454 E2.01342
G1 X96.436 Y101.436 E2.01679
;WIDTH:0.499999
G1 X96.33 Y102.166 E2.04483
G1 X97.166 Y101.33 E2.08976
G1 X97.812 Y101.33 E2.11431
G1 X96.33 Y102.812 E2.19397
G1 X96.33 Y103.459 E2.21856
G1 X98.459 Y101.33 E2.33299
G1 X99.105 Y101.33 E2.35754
G1 X96.33 Y104.105 E2.50669
G1 X96.33 Y104.752 E2.53128
G1 X99.752 Y101.33 E2.71521
G1 X100.398 Y101.33 E2.73976
G1 X96.33 Y105.398 E2.95841
G1 X96.33 Y106.044 E2.98296
G1 X101.044 Y101.33 E3.23633
G1 X101.691 Y101.33 E3.26092
G1 X96.33 Y106.691 E3.54907
G1 X96.33 Y107.337 E3.57362
G1 X102.337 Y101.33 E3.89649
G1 X102.984 Y101.33 E3.92108
G1 X96.33 Y107.984 E4.27873
G1 X96.33 Y108.63 E4.30328
G1 X103.63 Y101.33 E4.69565
G1 X104.276 Y101.33 E4.7202
G1 X96.33 Y109.276 E5.14729
G1 X96.33 Y109.923 E5.17188
G1 X104.923 Y101.33 E5.63375
G1 X105.569 Y101.33 E5.6583
G1 X96.33 Y110.569 E6.15489
G1 X96.33 Y111.216 E6.17948
G1 X106.216 Y101.33 E6.71084
G1 X106.862 Y101.33 E6.73539
G1 X96.33 Y111.862 E7.30147
G1 X96.33 Y112.508 E7.32602
G1 X107.508 Y101.33 E7.92683
G1 X108.155 Y101.33 E7.95142
G1 X96.33 Y113.155 E8.587
G1 X96.33 Y113.801 E8.61155
G1 X108.801 Y101.33 E9.28185
G1 X109.448 Y101.33 E9.30644
G1 X96.33 Y114.448 E10.01152
G1 X96.33 Y115.094 E10.03607
G1 X110.094 Y101.33 E10.77587
G1 X110.74 Y101.33 E10.80042
G1 X96.33 Y115.74 E11.57494
G1 X96.33 Y116.387 E11.59953
G1 X111.387 Y101.33 E12.40883
G1 X112.033 Y101.33 E12.43338
G1 X96.33 Y117.033 E13.2774
G1 X96.33 Y117.68 E13.30199
G1 X112.68 Y101.33 E14.18079
G1 X113.326 Y101.33 E14.20534
G1 X96.33 Y118.326 E15.11886
G1 X96.33 Y118.972 E15.14341
G1 X113.973 Y101.33 E16.09168
G1 X114.619 Y101.33 E16.11623
G1 X96.33 Y119.619 E17.09925
G1 X96.33 Y120.265 E17.1238
G1 X115.265 Y101.33 E18.14154
G1 X115.912 Y101.33 E18.16613
G1 X96.33 Y120.912 E19.21864
G1 X96.33 Y121.558 E19.24319
G1 X116.558 Y101.33 E20.33042
G1 X117.205 Y101.33 E20.35501
G1 X96.33 Y122.205 E21.47702
G1 X96.33 Y122.851 E21.50157
G1 X117.851 Y101.33 E22.6583
G1 X118.497 Y101.33 E22.68285
G1 X96.33 Y123.497 E23.8743
G1 X96.33 Y124.144 E23.89889
G1 X119.144 Y101.33 E25.12512
G1 X119.79 Y101.33 E25.14967
G1 X96.33 Y124.79 E26.41062
G1 X96.33 Y125.437 E26.43521
G1 X120.437 Y101.33 E27.73094
G1 X121.083 Y101.33 E27.75549
G1 X96.33 Y126.083 E29.08594
G1 X96.33 Y126.729 E29.11049
G1 X121.729 Y101.33 E30.47566
G1 X122.376 Y101.33 E30.50025
G1 X96.33 Y127.376 E31.9002
G1 X96.33 Y128.022 E31.92475
G1 X123.022 Y101.33 E33.35942
G1 X123.669 Y101.33 E33.38401
G1 X96.33 Y128.669 E34.85345
G1 X96.975 Y128.67 E34.87796
G1 X124.315 Y101.33 E36.34746
G1 X124.961 Y101.33 E36.37201
G1 X97.622 Y128.67 E37.84148
G1 X98.268 Y128.67 E37.86603
G1 X125.608 Y101.33 E39.33553
G1 X126.254 Y101.33 E39.36008
G1 X98.915 Y128.67 E40.82955
G1 X99.561 Y128.67 E40.8541
G1 X126.901 Y101.33 E42.3236
G1 X127.547 Y101.33 E42.34815
G1 X100.207 Y128.67 E43.81765
G1 X100.854 Y128.67 E43.84224
G1 X128.193 Y101.33 E45.31171
G1 X128.84 Y101.33 E45.3363
G1 X101.5 Y128.67 E46.8058
G1 X102.147 Y128.67 E46.83039
G1 X129.486 Y101.33 E48.29986
G1 X130.133 Y101.33 E48.32445
G1 X102.793 Y128.67 E49.79395
G1 X103.439 Y128.67 E49.8185
