; generated by PrusaSlicer 2.6.0+MacOS-x64 on 2023-08-19 at 16:22:03 UTC

; 

; external perimeters extrusion width = 0.45mm
; perimeters extrusion width = 0.40mm
; infill extrusion width = 0.45mm
; solid infill extrusion width = 0.50mm
; top infill extrusion width = 0.45mm
; first layer extrusion width = 0.56mm

M201 X2500 Y2500 Z800 E2500 ; sets maximum accelerations, mm/sec^2
M203 X300 Y250 Z8 E80 ; sets maximum feedrates, mm / sec
M204 S2500 T2500 ; sets acceleration (S) and retract acceleration (R), mm/sec^2
M205 X15.00 Y10.00 Z2.00 E10.00 ; sets the jerk limits, mm/sec
M205 S0 T0 ; sets the minimum extruding and travel feed rate, mm/sec
;TYPE:Custom
G90 ; use absolute coordinates
M83 ; extruder relative mode
M104 S215 ; set extruder temp
M140 S65 ; set bed temp
M190 S65 ; wait for bed temp
M109 S215 ; wait for extruder temp
G28                                        ; move X/Y/Z to min endstops
G1 Z0.28                                   ; lift nozzle a bit
 
G0 Y235      ; move to max Y (within soft-limit)


G92 E0 
G1 Y3 F1800                                    ; zero the extruded length 
G1 X60  E25 F500                       ; Extrude 25mm of filament in a 5cm line. 
G92 E0                                     ; zero the extruded length again 
G1 E-2 F500                                ; Retract a little 
G1 X70 F4000                              ; Quickly wipe away from the filament line

M211 S0      ; disable software endstop
G0 Y245 X80       ; push forward past the endstop to the nozzle wiper

G0 X90       ; move X to the nozzle wiper
G0 X80       ; move X to wipe the nozzle


M117
M211 S1      ; enable software endstop
G21 ; set units to millimeters
G90 ; use absolute coordinates
M82 ; use absolute distances for extrusion
G92 E0
M107
;LAYER_CHANGE
;Z:0.28
;HEIGHT:0.28
; BEFORE_LAYER_CHANGE 0 @ 0.28mm
G1 E-2 F4800
G92 E0
G1 Z.28 F7200
; AFTER_LAYER_CHANGE 0 @ 0.28mm
G1 X122.6 Y119.6
G1 E2 F4800
M204 S2000
;TYPE:External perimeter
;WIDTH:0.56
G1 F2494
G1 X110.4 Y119.6 E2.70998
G1 X110.4 Y107.4 E3.41996
G1 X122.6 Y107.4 E4.12994
G1 X122.6 Y119.54 E4.83643
M204 S2500
G1 X122.214 Y119.496 F7200
G1 X122.1 Y119.1
M204 S2000
;TYPE:Perimeter
G1 F2494
G1 X110.9 Y119.1 E5.48821
G1 X110.9 Y107.9 E6.13999
G1 X122.1 Y107.9 E6.79177
G1 X122.1 Y119.04 E7.44006
M204 S2500
G1 X121.6 Y118.6 F7200
M204 S2000
G1 F2494
G1 X111.4 Y118.6 E8.03365
G1 X111.4 Y108.4 E8.62724
G1 X121.6 Y108.4 E9.22083
G1 X121.6 Y118.54 E9.81093
M204 S2500
G1 E8.41093 F4800
;WIPE_START
G1 F5760
G1 X120.842 Y118.544 E7.81093
;WIPE_END
G92 E0
G1 X116.5 Y116.052 F7200
G1 E2 F4800
M204 S2000
;TYPE:External perimeter
G1 F2494
G1 X116.002 Y116.003 E2.02912
G1 X115.523 Y115.858 E2.05824
G1 X115.082 Y115.622 E2.08735
G1 X114.696 Y115.304 E2.11645
G1 X114.378 Y114.918 E2.14555
G1 X114.142 Y114.477 E2.17466
G1 X113.997 Y113.998 E2.20378
G1 X113.948 Y113.5 E2.2329
G1 X113.997 Y113.002 E2.26202
G1 X114.142 Y112.523 E2.29114
G1 X114.378 Y112.082 E2.32025
G1 X114.696 Y111.696 E2.34935
G1 X115.082 Y111.378 E2.37845
G1 X115.523 Y111.142 E2.40756
G1 X116.001 Y110.997 E2.43663
G1 X116.471 Y110.949 E2.46412
G1 X116.996 Y110.997 E2.4948
G1 X117.477 Y111.142 E2.52404
G1 X117.918 Y111.378 E2.55315
G1 X118.304 Y111.696 E2.58225
G1 X118.622 Y112.082 E2.61135
G1 X118.858 Y112.523 E2.64046
G1 X119.003 Y113.002 E2.66958
G1 X119.052 Y113.5 E2.6987
G1 X119.003 Y113.998 E2.72782
G1 X118.858 Y114.477 E2.75694
G1 X118.622 Y114.918 E2.78605
G1 X118.304 Y115.304 E2.81515
G1 X117.918 Y115.622 E2.84425
G1 X117.477 Y115.858 E2.87336
G1 X116.998 Y116.003 E2.90248
G1 X116.56 Y116.046 E2.92809
M204 S2500
G1 X116.3 Y116.398 F7200
G1 X116.542 Y116.55
M204 S2000
;TYPE:Perimeter
G1 F2494
G1 X115.904 Y116.496 E2.96535
G1 X115.331 Y116.322 E3.0002
G1 X114.803 Y116.04 E3.03503
G1 X114.34 Y115.66 E3.06989
G1 X113.96 Y115.197 E3.10475
G1 X113.678 Y114.669 E3.13958
G1 X113.504 Y114.096 E3.17443
G1 X113.446 Y113.5 E3.20928
G1 X113.504 Y112.904 E3.24413
G1 X113.678 Y112.331 E3.27898
G1 X113.96 Y111.803 E3.31381
G1 X114.34 Y111.34 E3.34867
G1 X114.803 Y110.96 E3.38353
G1 X115.331 Y110.678 E3.41836
G1 X115.902 Y110.505 E3.45308
G1 X116.468 Y110.447 E3.48619
G1 X117.093 Y110.503 E3.52271
G1 X117.669 Y110.678 E3.55774
G1 X118.197 Y110.96 E3.59257
G1 X118.66 Y111.34 E3.62743
G1 X119.04 Y111.803 E3.66229
G1 X119.322 Y112.331 E3.69712
G1 X119.496 Y112.904 E3.73197
G1 X119.554 Y113.5 E3.76682
G1 X119.496 Y114.096 E3.80167
G1 X119.322 Y114.669 E3.83652
G1 X119.04 Y115.197 E3.87135
G1 X118.66 Y115.66 E3.90621
G1 X118.197 Y116.04 E3.94107
G1 X117.669 Y116.322 E3.9759
G1 X117.096 Y116.496 E4.01075
G1 X116.602 Y116.544 E4.03963
M204 S2500
G1 X116.584 Y117.048 F7200
M204 S2000
G1 F2494
G1 X116.5 Y117.057 E4.04455
G1 X115.806 Y116.988 E4.08514
G1 X115.139 Y116.786 E4.1257
G1 X114.524 Y116.457 E4.16629
G1 X113.985 Y116.015 E4.20686
G1 X113.543 Y115.476 E4.24743
G1 X113.214 Y114.861 E4.28802
G1 X113.012 Y114.194 E4.32858
G1 X112.943 Y113.5 E4.36917
G1 X113.012 Y112.806 E4.40976
G1 X113.214 Y112.139 E4.45032
G1 X113.543 Y111.524 E4.49091
G1 X113.985 Y110.985 E4.53148
G1 X114.524 Y110.543 E4.57205
G1 X115.139 Y110.214 E4.61264
G1 X115.803 Y110.013 E4.65301
G1 X116.465 Y109.945 E4.69174
G1 X117.189 Y110.01 E4.73404
G1 X117.861 Y110.214 E4.77491
G1 X118.476 Y110.543 E4.8155
G1 X119.015 Y110.985 E4.85607
G1 X119.457 Y111.524 E4.89664
G1 X119.786 Y112.139 E4.93723
G1 X119.988 Y112.806 E4.97779
G1 X120.057 Y113.5 E5.01838
G1 X119.988 Y114.194 E5.05897
G1 X119.786 Y114.861 E5.09953
G1 X119.457 Y115.476 E5.14012
G1 X119.015 Y116.015 E5.18069
G1 X118.476 Y116.457 E5.22126
G1 X117.861 Y116.786 E5.26185
G1 X117.194 Y116.988 E5.30241
G1 X116.644 Y117.042 E5.33457
M204 S2500
G1 E3.93457 F4800
;WIPE_START
G1 F5760
G1 X116.5 Y117.057 E3.81995
G1 X115.89 Y116.996 E3.33457
;WIPE_END
G92 E0
G1 X121.4 Y109.644 F7200
G1 E2 F4800
M204 S2000
;TYPE:Solid infill
;WIDTH:0.576035
G1 F2494
G1 X120.581 Y108.825 E2.06957
G1 X119.851 Y108.825 E2.11341
G1 X121.175 Y110.149 E2.22587
G1 X121.175 Y110.879 E2.26971
G1 X119.121 Y108.825 E2.44418
G1 X118.392 Y108.825 E2.48796
G1 X121.175 Y111.608 E2.72435
G1 X121.175 Y112.338 E2.76819
G1 X117.662 Y108.825 E3.06658
G1 X116.932 Y108.825 E3.11042
G1 X117.885 Y109.777 E3.19133
G1 X118.024 Y109.82 E3.20007
G1 X118.713 Y110.188 E3.24699
G1 X119.317 Y110.683 E3.29389
G1 X119.812 Y111.287 E3.34079
G1 X120.18 Y111.976 E3.38771
G1 X120.223 Y112.115 E3.39645
G1 X121.175 Y113.068 E3.47736
G1 X121.175 Y113.797 E3.52114
G1 X120.44 Y113.063 E3.58353
G1 X120.484 Y113.5 E3.60991
G1 X120.454 Y113.805 E3.62832
G1 X121.175 Y114.527 E3.6896
G1 X121.175 Y115.257 E3.73344
G1 X120.358 Y114.439 E3.80288
G1 X120.188 Y114.999 E3.83803
G1 X121.175 Y115.986 E3.92187
G1 X121.175 Y116.716 E3.96571
G1 X119.938 Y115.478 E4.07082
G1 X119.812 Y115.713 E4.08684
G1 X119.646 Y115.916 E4.10259
G1 X121.175 Y117.446 E4.23251
G1 X121.175 Y118.175 E4.27629
G1 X119.317 Y116.317 E4.43411
G1 X118.916 Y116.646 E4.46526
G1 X120.446 Y118.175 E4.59518
G1 X119.716 Y118.175 E4.63902
G1 X118.478 Y116.938 E4.74413
G1 X117.999 Y117.188 E4.77658
G1 X118.986 Y118.175 E4.86042
G1 X118.257 Y118.175 E4.9042
G1 X117.439 Y117.358 E4.97364
G1 X117.277 Y117.407 E4.98381
G1 X116.805 Y117.454 E5.0123
G1 X117.527 Y118.175 E5.07358
G1 X116.797 Y118.175 E5.11742
G1 X115.812 Y117.19 E5.20109
M204 S2500
G1 E3.80109 F4800
;WIPE_START
G1 F5760
G1 X116.348 Y117.726 E3.20109
;WIPE_END
G92 E0
G1 X117.187 Y109.809 F7200
G1 E2 F4800
M204 S2000
G1 F2494
G1 X116.203 Y108.825 E2.08358
G1 X115.473 Y108.825 E2.12742
G1 X116.194 Y109.545 E2.18862
G1 X115.719 Y109.594 E2.2173
G1 X115.561 Y109.642 E2.22722
G1 X114.743 Y108.825 E2.29666
G1 X114.014 Y108.825 E2.34044
G1 X115.001 Y109.812 E2.42428
G1 X114.522 Y110.062 E2.45673
G1 X113.284 Y108.825 E2.56184
G1 X112.554 Y108.825 E2.60568
G1 X114.084 Y110.354 E2.7356
G1 X113.683 Y110.683 E2.76675
G1 X111.825 Y108.825 E2.92457
G1 X111.825 Y109.554 E2.96835
G1 X113.354 Y111.084 E3.09827
G1 X113.188 Y111.287 E3.11402
G1 X113.062 Y111.522 E3.13004
G1 X111.825 Y110.284 E3.23515
G1 X111.825 Y111.014 E3.27899
G1 X112.812 Y112.001 E3.36283
G1 X112.642 Y112.561 E3.39798
G1 X111.825 Y111.743 E3.46742
G1 X111.825 Y112.473 E3.51126
G1 X112.546 Y113.195 E3.57254
G1 X112.516 Y113.5 E3.59095
G1 X112.56 Y113.938 E3.61739
G1 X111.825 Y113.203 E3.67982
G1 X111.825 Y113.932 E3.7236
G1 X112.777 Y114.885 E3.80451
G1 X112.82 Y115.024 E3.81325
G1 X113.188 Y115.713 E3.86017
G1 X113.683 Y116.317 E3.90707
G1 X114.287 Y116.812 E3.95397
G1 X114.976 Y117.18 E4.00089
G1 X115.115 Y117.223 E4.00963
G1 X116.068 Y118.175 E4.09054
G1 X115.338 Y118.175 E4.13438
G1 X111.825 Y114.662 E4.43277
G1 X111.825 Y115.392 E4.47661
G1 X114.608 Y118.175 E4.713
G1 X113.879 Y118.175 E4.75678
G1 X111.825 Y116.121 E4.93125
G1 X111.825 Y116.851 E4.97509
G1 X113.149 Y118.175 E5.08755
G1 X112.419 Y118.175 E5.13139
G1 X111.6 Y117.356 E5.20096
M204 S2500
;LAYER_CHANGE
;Z:0.48
;HEIGHT:0.2
; BEFORE_LAYER_CHANGE 1 @ 0.48mm
G1 E3.80096 F4800
;WIPE_START
G1 F5760
G1 X112.136 Y117.892 E3.20096
;WIPE_END
G92 E0
G1 Z.48 F7200
; AFTER_LAYER_CHANGE 1 @ 0.48mm
M104 S195 ; set temperature
G1 X122.755 Y119.755
G1 E2 F4800
;TYPE:External perimeter
;WIDTH:0.45
G1 F2793
G1 X110.245 Y119.755 E2.42345
G1 X110.245 Y107.245 E2.8469
G1 X122.755 Y107.245 E3.27035
G1 X122.755 Y119.695 E3.69177
G1 X122.369 Y119.651 F7200
G1 X122.373 Y119.373
;TYPE:Perimeter
;WIDTH:0.4
G1 F2793
G1 X110.627 Y119.373 E4.04052
G1 X110.627 Y107.627 E4.38927
G1 X122.373 Y107.627 E4.73802
G1 X122.373 Y119.313 E5.08499
G1 X122.016 Y119.016 F7200
G1 F2793
G1 X110.984 Y119.016 E5.41254
G1 X110.984 Y107.984 E5.74009
G1 X122.016 Y107.984 E6.06764
G1 X122.016 Y118.956 E6.39341
G1 E4.99341 F4800
;WIPE_START
G1 F5760
G1 X121.258 Y118.96 E4.39341
;WIPE_END
G92 E0
G1 X116.186 Y111.125 F7200
G1 E2 F4800
;TYPE:External perimeter
;WIDTH:0.45
G1 F2793
G1 X116.425 Y111.107 E2.00811
G1 X116.814 Y111.125 E2.02129
G1 X117.27 Y111.231 E2.03714
G1 X117.698 Y111.425 E2.05305
G1 X118.08 Y111.698 E2.06894
G1 X118.401 Y112.041 E2.08484
G1 X118.649 Y112.44 E2.10074
G1 X118.815 Y112.88 E2.11666
G1 X118.891 Y113.343 E2.13254
G1 X118.876 Y113.813 E2.14846
G1 X118.769 Y114.27 E2.16435
G1 X118.575 Y114.698 E2.18026
G1 X118.302 Y115.08 E2.19615
G1 X117.959 Y115.401 E2.21205
G1 X117.56 Y115.649 E2.22795
G1 X117.12 Y115.815 E2.24387
G1 X116.657 Y115.891 E2.25975
G1 X116.187 Y115.876 E2.27567
G1 X115.73 Y115.769 E2.29156
G1 X115.302 Y115.575 E2.30747
G1 X114.92 Y115.302 E2.32336
G1 X114.599 Y114.959 E2.33926
G1 X114.351 Y114.56 E2.35516
G1 X114.185 Y114.12 E2.37108
G1 X114.109 Y113.657 E2.38696
G1 X114.124 Y113.187 E2.40288
G1 X114.231 Y112.73 E2.41877
G1 X114.425 Y112.302 E2.43468
G1 X114.698 Y111.92 E2.45057
G1 X115.041 Y111.599 E2.46647
G1 X115.44 Y111.351 E2.48237
G1 X115.876 Y111.187 E2.49814
G1 X116.127 Y111.137 E2.5068
G1 X116.274 Y110.902 F7200
G1 X116.47 Y110.726
;TYPE:Perimeter
;WIDTH:0.4
G1 F2793
G1 X116.867 Y110.745 E2.5186
G1 X117.394 Y110.867 E2.53466
G1 X117.89 Y111.092 E2.55083
G1 X118.333 Y111.41 E2.56702
G1 X118.706 Y111.808 E2.58322
G1 X118.993 Y112.27 E2.59937
G1 X119.185 Y112.78 E2.61555
G1 X119.274 Y113.318 E2.63174
G1 X119.256 Y113.863 E2.64793
G1 X119.133 Y114.394 E2.66411
G1 X118.908 Y114.89 E2.68028
G1 X118.59 Y115.333 E2.69647
G1 X118.192 Y115.706 E2.71267
G1 X117.73 Y115.993 E2.72882
G1 X117.22 Y116.185 E2.745
G1 X116.682 Y116.274 E2.76119
G1 X116.137 Y116.256 E2.77738
G1 X115.606 Y116.133 E2.79356
G1 X115.11 Y115.908 E2.80973
G1 X114.667 Y115.59 E2.82592
G1 X114.294 Y115.192 E2.84212
G1 X114.007 Y114.73 E2.85827
G1 X113.815 Y114.22 E2.87445
G1 X113.726 Y113.682 E2.89064
G1 X113.744 Y113.137 E2.90683
G1 X113.867 Y112.606 E2.92301
G1 X114.092 Y112.11 E2.93918
G1 X114.41 Y111.667 E2.95537
G1 X114.808 Y111.294 E2.97157
G1 X115.27 Y111.007 E2.98772
G1 X115.771 Y110.818 E3.00362
G1 X116.134 Y110.746 E3.01461
G1 X116.41 Y110.725 E3.02283
G1 X116.733 Y110.381 F7200
G1 F2793
G1 X116.916 Y110.389 E3.02827
G1 X117.509 Y110.528 E3.04635
G1 X118.069 Y110.782 E3.06461
G1 X118.57 Y111.14 E3.08289
G1 X118.99 Y111.589 E3.10114
G1 X119.315 Y112.112 E3.11942
G1 X119.532 Y112.688 E3.1377
G1 X119.632 Y113.295 E3.15597
G1 X119.612 Y113.91 E3.17424
G1 X119.472 Y114.509 E3.1925
G1 X119.218 Y115.069 E3.21076
G1 X118.86 Y115.57 E3.22904
G1 X118.411 Y115.99 E3.24729
G1 X117.888 Y116.315 E3.26557
G1 X117.312 Y116.532 E3.28385
G1 X116.705 Y116.632 E3.30212
G1 X116.09 Y116.612 E3.32039
G1 X115.491 Y116.472 E3.33865
G1 X114.931 Y116.218 E3.35691
G1 X114.43 Y115.86 E3.37519
G1 X114.01 Y115.411 E3.39344
G1 X113.685 Y114.888 E3.41172
G1 X113.468 Y114.312 E3.43
G1 X113.368 Y113.705 E3.44827
G1 X113.388 Y113.09 E3.46654
G1 X113.528 Y112.491 E3.4848
G1 X113.782 Y111.931 E3.50306
G1 X114.14 Y111.43 E3.52134
G1 X114.589 Y111.01 E3.53959
G1 X115.112 Y110.685 E3.55787
G1 X115.672 Y110.474 E3.57564
G1 X116.085 Y110.392 E3.58814
G1 X116.414 Y110.366 E3.59794
G1 X116.673 Y110.378 E3.60564
G1 E2.20564 F4800
;WIPE_START
G1 F5760
G1 X116.916 Y110.389 E2.01307
G1 X117.417 Y110.506 E1.60564
;WIPE_END
G92 E0
G1 X111.454 Y108.367 F7200
G1 E2 F4800
;TYPE:Solid infill
;WIDTH:0.610898
G1 F2793
G1 X111.404 Y108.317 E2.00334
G1 X111.335 Y108.335 E2.00671
G1 X111.317 Y108.404 E2.01008
G1 X111.367 Y108.454 E2.01342
G1 X111.436 Y108.436 E2.01679
;WIDTH:0.499999
G1 X111.33 Y109.166 E2.04483
G1 X112.166 Y108.33 E2.08976
G1 X112.812 Y108.33 E2.11431
G1 X111.33 Y109.812 E2.19397
G1 X111.33 Y110.459 E2.21856
G1 X113.459 Y108.33 E2.33299
G1 X114.105 Y108.33 E2.35754
G1 X111.33 Y111.105 E2.50669
G1 X111.33 Y111.752 E2.53128
G1 X114.752 Y108.33 E2.71521
G1 X115.398 Y108.33 E2.73976
G1 X111.33 Y112.398 E2.95841
G1 X111.33 Y113.044 E2.98296
G1 X116.044 Y108.33 E3.23633
G1 X116.691 Y108.33 E3.26092
G1 X111.33 Y113.691 E3.54907
G1 E2.14907 F4800
;WIPE_START
G1 F5760
G1 X111.866 Y113.155 E1.54907
;WIPE_END
G92 E0
G1 X113.121 Y112.719 F7200
G1 E2 F4800
G1 F2793
G1 X113.042 Y113.067 E2.01356
G1 X113.025 Y113.75 E2.03953
G1 X113.14 Y114.423 E2.06548
G1 X113.385 Y115.061 E2.09145
G1 X113.749 Y115.639 E2.11741
G1 X114.219 Y116.134 E2.14335
G1 X114.777 Y116.529 E2.16933
G1 X115.401 Y116.807 E2.19529
G1 X116.067 Y116.958 E2.22124
G1 X116.75 Y116.975 E2.24721
G1 X117.423 Y116.86 E2.27316
G1 X118.169 Y116.548 E2.30389
G1 X116.209 Y118.508 E2.40924
G1 X116.209 Y118.67 E2.4154
G1 X111.33 Y118.67 E2.60083
G1 X111.33 Y114.176 E2.77163
G1 X111.492 Y114.176 E2.77779
G1 X113.171 Y112.496 E2.86806
G1 E1.46806 F4800
;WIPE_START
G1 F5760
G1 X112.635 Y113.032 E.86806
;WIPE_END
G92 E0
G1 X112.568 Y113.745 F7200
G1 E2 F4800
G1 F2793
G1 X111.815 Y114.499 E2.0405
G1 X111.787 Y114.499 E2.04156
G1 X111.787 Y118.213 E2.18272
G1 X115.886 Y118.213 E2.33851
G1 X116.637 Y117.433 E2.37966
G1 X116.052 Y117.414 E2.40191
G1 X115.297 Y117.252 E2.43126
G1 X114.589 Y116.945 E2.46059
G1 X113.953 Y116.506 E2.48996
G1 X113.416 Y115.951 E2.51931
G1 X112.997 Y115.303 E2.54864
G1 X112.712 Y114.584 E2.57803
G1 X112.6 Y113.971 E2.60171
G1 X112.268 Y114.692 E2.63188
G1 X112.244 Y115.391 E2.65846
G1 X112.244 Y117.756 E2.74834
G1 X115.445 Y117.756 E2.87
G1 X114.981 Y117.625 E2.88832
G1 X114.4 Y117.361 E2.91257
G1 X113.687 Y116.878 E2.9453
G1 X113.082 Y116.264 E2.97806
G1 X112.609 Y115.544 E3.0108
G1 X112.349 Y114.906 E3.03698
G1 E1.63698 F4800
;WIPE_START
G1 F5760
G1 X112.609 Y115.544 E1.09157
G1 X112.647 Y115.602 E1.03698
;WIPE_END
G92 E0
G1 X112.697 Y116.501 F7200
G1 E2 F4800
;WIDTH:0.490267
G1 F2793
G1 X112.697 Y117.303 E2.02983
G1 X113.505 Y117.303 E2.05989
G1 X113.083 Y116.927 E2.08091
G1 X112.85 Y116.67 E2.09381
G1 E.69381 F4800
;WIPE_START
G1 F5760
G1 X113.083 Y116.927 E.41918
G1 X113.39 Y117.2 E.09381
;WIPE_END
G92 E0
G1 X117.176 Y108.33 F7200
G1 E2 F4800
;WIDTH:0.499999
G1 F2793
G1 X117.176 Y108.492 E2.00616
G1 X115.497 Y110.17 E2.09638
G1 X116.379 Y110.023 E2.13036
G1 X116.943 Y110.044 E2.15181
G1 X117.512 Y110.173 E2.17398
G1 X118.223 Y110.471 E2.20328
G1 X118.781 Y110.866 E2.22926
G1 X119.251 Y111.361 E2.2552
G1 X119.615 Y111.939 E2.28116
G1 X119.86 Y112.577 E2.30713
G1 X119.975 Y113.25 E2.33308
G1 X119.958 Y113.933 E2.35905
