; generated by PrusaSlicer 2.6.0+MacOS-x64 on 2023-08-19 at 02:02:45 UTC

; 

; external perimeters extrusion width = 0.45mm
; perimeters extrusion width = 0.40mm
; infill extrusion width = 0.45mm
; solid infill extrusion width = 0.50mm
; top infill extrusion width = 0.45mm
; support material extrusion width = 0.42mm
; first layer extrusion width = 0.56mm

M201 X2500 Y2500 Z800 E2500 ; sets maximum accelerations, mm/sec^2
M203 X300 Y250 Z8 E80 ; sets maximum feedrates, mm / sec
M204 S2500 T2500 ; sets acceleration (S) and retract acceleration (R), mm/sec^2
M205 X15.00 Y10.00 Z2.00 E10.00 ; sets the jerk limits, mm/sec
M205 S0 T0 ; sets the minimum extruding and travel feed rate, mm/sec
;TYPE:Custom
G90 ; use absolute coordinates
M83 ; extruder relative mode
M104 S215 ; set extruder temp
M140 S65 ; set bed temp
M190 S65 ; wait for bed temp
M109 S215 ; wait for extruder temp
G28                                        ; move X/Y/Z to min endstops
G1 Z0.28                                   ; lift nozzle a bit
 
M211 S0      ; disable software endstop
G0 Y245 X80       ; push forward past the endstop to the nozzle wiper

G0 X90       ; move X to the nozzle wiper
G0 X80       ; move X to wipe the nozzle

M211 S1      ; enable software endstop

G0 Y235      ; move to max Y (within soft-limit)

G92 E0 
G1 Y3 F1800                                    ; zero the extruded length 
G1 X60  E25 F500                       ; Extrude 25mm of filament in a 5cm line. 
G92 E0                                     ; zero the extruded length again 
G1 E-2 F500                                ; Retract a little 
G1 X70 F4000                              ; Quickly wipe away from the filament line

M117
G21 ; set units to millimeters
G90 ; use absolute coordinates
M82 ; use absolute distances for extrusion
G92 E0
M107
;LAYER_CHANGE
;Z:0.28
;HEIGHT:0.28
; BEFORE_LAYER_CHANGE 0 @ 0.28mm
G1 E-2 F4800
G92 E0
G1 Z.28 F7200
; AFTER_LAYER_CHANGE 0 @ 0.28mm
G1 X95.962 Y119.189
G1 E2 F4800
M204 S2000
;TYPE:External perimeter
;WIDTH:0.56
G1 F3000
G1 X95.741 Y119.329 E2.01522
G1 X95.571 Y119.412 E2.02623
G1 X95.263 Y119.508 E2.045
G1 X95.119 Y119.535 E2.05353
G1 X94.766 Y119.56 E2.07412
G1 X94.424 Y119.537 E2.09407
G1 X94.118 Y119.47 E2.1123
G1 X93.845 Y119.362 E2.12939
G1 X93.601 Y119.212 E2.14606
G1 X93.38 Y119.017 E2.16321
G1 X93.18 Y118.773 E2.18157
G1 X93.003 Y118.478 E2.20159
G1 X92.802 Y117.987 E2.23247
G1 X92.712 Y117.704 E2.24975
G1 X92.607 Y117.231 E2.27795
G1 X92.531 Y116.7 E2.30917
G1 X92.485 Y116.115 E2.34332
G1 X92.474 Y115.13 E2.40065
G1 X92.504 Y114.503 E2.43718
G1 X92.565 Y113.938 E2.47025
G1 X92.711 Y113.193 E2.51443
G1 X92.919 Y112.585 E2.55183
G1 X93.02 Y112.38 E2.56513
G1 X93.274 Y111.995 E2.59197
G1 X93.591 Y111.692 E2.61749
G1 X93.847 Y111.538 E2.63488
G1 X94.084 Y111.444 E2.64972
G1 X94.272 Y111.392 E2.66107
G1 X94.612 Y111.347 E2.68103
G1 X95.144 Y111.364 E2.71201
G1 X95.468 Y111.434 E2.7313
G1 X95.756 Y111.547 E2.7493
G1 X96.01 Y111.7 E2.76656
G1 X96.245 Y111.904 E2.78467
G1 X96.458 Y112.158 E2.80396
G1 X96.653 Y112.472 E2.82547
G1 X96.888 Y113.022 E2.86028
G1 X97.067 Y113.703 E2.90126
G1 X97.146 Y114.21 E2.93112
G1 X97.194 Y114.769 E2.96377
G1 X97.207 Y115.704 E3.01819
G1 X97.143 Y116.591 E3.06994
G1 X97.005 Y117.364 E3.11564
G1 X96.796 Y118.026 E3.15604
G1 X96.524 Y118.563 E3.19107
G1 X96.203 Y118.977 E3.22156
G1 X96.007 Y119.149 E3.23674
M204 S2500
G1 X95.72 Y119.089 F7200
G1 X95.661 Y118.788
M204 S2000
;TYPE:Perimeter
G1 F3000
G1 X95.387 Y118.945 E3.25512
G1 X95.143 Y119.022 E3.27001
G1 X94.766 Y119.058 E3.29205
G1 X94.494 Y119.04 E3.30791
G1 X94.264 Y118.99 E3.32161
G1 X94.07 Y118.913 E3.33376
G1 X93.899 Y118.809 E3.34541
G1 X93.741 Y118.669 E3.3577
G1 X93.589 Y118.484 E3.37163
G1 X93.451 Y118.254 E3.38724
G1 X93.272 Y117.817 E3.41472
G1 X93.195 Y117.574 E3.42955
G1 X93.099 Y117.141 E3.45536
G1 X93.028 Y116.645 E3.48452
G1 X92.985 Y116.093 E3.51674
G1 X92.974 Y115.139 E3.57226
G1 X93.003 Y114.542 E3.60704
G1 X93.059 Y114.013 E3.638
G1 X93.195 Y113.322 E3.67898
G1 X93.382 Y112.777 E3.71251
G1 X93.455 Y112.629 E3.72211
G1 X93.666 Y112.309 E3.74442
G1 X93.877 Y112.104 E3.76154
G1 X94.07 Y111.987 E3.77467
G1 X94.372 Y111.883 E3.79326
G1 X94.646 Y111.846 E3.80935
G1 X94.903 Y111.845 E3.82431
G1 X95.07 Y111.859 E3.83406
G1 X95.323 Y111.914 E3.84913
G1 X95.534 Y111.996 E3.8623
G1 X95.714 Y112.106 E3.87458
G1 X95.888 Y112.256 E3.88795
G1 X96.052 Y112.452 E3.90282
G1 X96.278 Y112.84 E3.92895
G1 X96.412 Y113.178 E3.95011
G1 X96.577 Y113.805 E3.98784
G1 X96.65 Y114.27 E4.01523
G1 X96.695 Y114.794 E4.04584
G1 X96.706 Y115.689 E4.09793
G1 X96.646 Y116.529 E4.14694
G1 X96.519 Y117.245 E4.18926
G1 X96.327 Y117.85 E4.2262
G1 X96.268 Y117.986 E4.23483
G1 X96.027 Y118.406 E4.26301
G1 X95.843 Y118.628 E4.27979
G1 X95.706 Y118.749 E4.29043
M204 S2500
G1 X95.36 Y118.387 F7200
M204 S2000
G1 F3000
G1 X95.202 Y118.479 E4.30107
G1 X95.022 Y118.536 E4.31206
G1 X94.765 Y118.557 E4.32707
G1 X94.564 Y118.544 E4.33879
G1 X94.41 Y118.511 E4.34796
G1 X94.197 Y118.405 E4.36181
G1 X93.999 Y118.196 E4.37856
G1 X93.899 Y118.029 E4.38989
G1 X93.678 Y117.444 E4.42628
G1 X93.591 Y117.052 E4.44965
G1 X93.525 Y116.59 E4.47681
G1 X93.485 Y116.07 E4.50716
G1 X93.474 Y115.148 E4.56082
G1 X93.501 Y114.581 E4.59385
G1 X93.554 Y114.088 E4.62271
G1 X93.679 Y113.452 E4.66043
G1 X93.889 Y112.878 E4.696
G1 X94.057 Y112.624 E4.71372
G1 X94.163 Y112.515 E4.72257
G1 X94.293 Y112.437 E4.73139
G1 X94.472 Y112.374 E4.74243
G1 X94.681 Y112.346 E4.7547
G1 X94.883 Y112.345 E4.76646
G1 X95.178 Y112.394 E4.78386
G1 X95.419 Y112.511 E4.79945
G1 X95.531 Y112.608 E4.80807
G1 X95.646 Y112.746 E4.81852
G1 X95.779 Y112.96 E4.83318
G1 X95.937 Y113.335 E4.85686
G1 X96.087 Y113.907 E4.89127
G1 X96.153 Y114.33 E4.91618
G1 X96.195 Y114.819 E4.94474
G1 X96.206 Y115.674 E4.9945
G1 X96.15 Y116.467 E5.04076
G1 X96.033 Y117.125 E5.07965
G1 X95.818 Y117.767 E5.11905
G1 X95.626 Y118.106 E5.14172
G1 X95.405 Y118.348 E5.16079
M204 S2500
G1 E3.76079 F4800
;WIPE_START
G1 F5760
G1 X95.202 Y118.479 E3.56952
G1 X95.022 Y118.536 E3.42005
G1 X94.765 Y118.557 E3.21591
G1 X94.696 Y118.553 E3.16079
;WIPE_END
G92 E0
G1 X95.762 Y113.458 F7200
G1 E2 F4800
M204 S2000
;TYPE:Solid infill
;WIDTH:0.582143
G1 F3000
G1 X95.187 Y112.882 E2.04946
G1 X95.105 Y112.821 E2.05567
G1 X94.945 Y112.778 E2.06574
G1 X94.704 Y112.772 E2.08039
G1 X94.571 Y112.79 E2.08855
G1 X94.423 Y112.857 E2.09842
G1 X95.691 Y114.125 E2.2074
G1 X95.731 Y114.381 E2.22315
G1 X95.772 Y114.944 E2.25746
G1 X94.171 Y113.343 E2.39506
G1 X94.09 Y113.567 E2.40954
G1 X94.018 Y113.929 E2.43197
G1 X95.779 Y115.689 E2.58328
G1 X95.73 Y116.379 E2.62532
G1 X93.929 Y114.578 E2.78011
G1 X93.9 Y115.287 E2.82323
G1 X95.622 Y117.009 E2.97123
G1 X95.438 Y117.563 E3.00671
G1 X93.909 Y116.034 E3.13812
G1 X93.948 Y116.544 E3.1692
G1 X93.993 Y116.856 E3.18836
G1 X95.146 Y118.009 E3.28746
G1 X95.029 Y118.088 E3.29604
G1 X94.94 Y118.116 E3.30171
G1 X94.761 Y118.131 E3.31263
G1 X94.552 Y118.106 E3.32542
G1 X94.459 Y118.06 E3.33173
G1 X93.909 Y117.511 E3.37896
M204 S2500
G1 E1.97896 F4800
;WIPE_START
G1 F5760
G1 X94.445 Y118.046 E1.37896
;WIPE_END
G92 E0
G1 X111.355 Y119.194 F7200
G1 E2 F4800
M204 S2000
;TYPE:External perimeter
;WIDTH:0.56
G1 F3000
G1 X111.057 Y119.351 E2.0196
G1 X110.721 Y119.466 E2.04027
G1 X110.344 Y119.536 E2.06258
G1 X109.924 Y119.56 E2.08706
G1 X109.553 Y119.536 E2.1087
G1 X109.214 Y119.466 E2.12884
G1 X108.911 Y119.352 E2.14768
G1 X108.637 Y119.194 E2.16609
G1 X108.388 Y118.989 E2.18486
G1 X108.16 Y118.733 E2.20481
G1 X107.953 Y118.419 E2.2267
G1 X107.866 Y118.256 E2.23745
G1 X107.633 Y117.657 E2.27485
G1 X107.466 Y116.922 E2.31871
G1 X107.376 Y116.072 E2.36845
G1 X107.358 Y115.444 E2.40501
G1 X107.376 Y114.805 E2.44221
G1 X107.429 Y114.223 E2.47622
G1 X107.516 Y113.698 E2.50719
G1 X107.636 Y113.231 E2.53525
G1 X107.788 Y112.822 E2.56064
G1 X107.968 Y112.47 E2.58365
G1 X108.175 Y112.172 E2.60477
G1 X108.409 Y111.926 E2.62453
G1 X108.672 Y111.727 E2.64372
G1 X108.966 Y111.571 E2.66309
G1 X109.297 Y111.458 E2.68344
G1 X109.665 Y111.39 E2.70522
G1 X110.23 Y111.369 E2.73812
G1 X110.465 Y111.387 E2.75184
G1 X110.816 Y111.453 E2.77262
G1 X111.128 Y111.559 E2.7918
G1 X111.408 Y111.706 E2.8102
G1 X111.66 Y111.894 E2.8285
G1 X111.887 Y112.127 E2.84743
G1 X112.093 Y112.413 E2.86794
G1 X112.176 Y112.562 E2.87787
G1 X112.342 Y112.942 E2.902
G1 X112.474 Y113.379 E2.92857
G1 X112.576 Y113.884 E2.95855
G1 X112.668 Y114.776 E3.01074
G1 X112.686 Y115.444 E3.04963
G1 X112.668 Y116.089 E3.08718
G1 X112.614 Y116.676 E3.12148
G1 X112.526 Y117.205 E3.15269
G1 X112.404 Y117.676 E3.181
G1 X112.251 Y118.089 E3.20663
G1 X112.069 Y118.444 E3.22985
G1 X111.859 Y118.744 E3.25116
G1 X111.622 Y118.993 E3.27117
G1 X111.403 Y119.158 E3.28713
M204 S2500
G1 X111.056 Y119.038 F7200
G1 X111.086 Y118.771
M204 S2000
;TYPE:Perimeter
G1 F3000
G1 X110.859 Y118.891 E3.30207
G1 X110.594 Y118.981 E3.31836
G1 X110.283 Y119.039 E3.33677
G1 X109.925 Y119.059 E3.35764
G1 X109.62 Y119.04 E3.37542
G1 X109.353 Y118.984 E3.3913
G1 X109.125 Y118.898 E3.40548
G1 X108.922 Y118.781 E3.41912
G1 X108.735 Y118.628 E3.43318
G1 X108.558 Y118.428 E3.44872
G1 X108.319 Y118.042 E3.47514
G1 X108.115 Y117.523 E3.50759
G1 X107.96 Y116.84 E3.54835
G1 X107.875 Y116.039 E3.59523
G1 X107.859 Y115.444 E3.62987
G1 X107.876 Y114.835 E3.66532
G1 X107.925 Y114.287 E3.69734
G1 X108.006 Y113.801 E3.72601
G1 X108.114 Y113.38 E3.7513
G1 X108.246 Y113.023 E3.77345
G1 X108.397 Y112.728 E3.79274
G1 X108.563 Y112.489 E3.80967
G1 X108.744 Y112.3 E3.8249
G1 X108.941 Y112.15 E3.83931
G1 X109.165 Y112.032 E3.85404
G1 X109.425 Y111.943 E3.87003
G1 X109.72 Y111.888 E3.88749
G1 X110.221 Y111.87 E3.91666
G1 X110.401 Y111.883 E3.92716
G1 X110.689 Y111.937 E3.94421
G1 X110.93 Y112.02 E3.95904
G1 X111.141 Y112.13 E3.97289
G1 X111.329 Y112.271 E3.98657
G1 X111.503 Y112.449 E4.00106
G1 X111.671 Y112.682 E4.01778
G1 X111.872 Y113.115 E4.04556
G1 X111.989 Y113.501 E4.06903
G1 X112.081 Y113.959 E4.09622
G1 X112.169 Y114.808 E4.14589
G1 X112.186 Y115.443 E4.18286
G1 X112.168 Y116.059 E4.21872
G1 X112.118 Y116.612 E4.25103
G1 X112.036 Y117.101 E4.27988
G1 X111.927 Y117.526 E4.30541
G1 X111.793 Y117.887 E4.32782
G1 X111.64 Y118.185 E4.34731
G1 X111.471 Y118.426 E4.36444
G1 X111.288 Y118.618 E4.37988
G1 X111.134 Y118.735 E4.39114
M204 S2500
G1 X110.817 Y118.347 F7200
M204 S2000
G1 F3000
G1 X110.66 Y118.43 E4.40147
G1 X110.467 Y118.496 E4.41334
G1 X110.223 Y118.541 E4.42778
G1 X109.927 Y118.558 E4.44503
G1 X109.687 Y118.543 E4.45902
G1 X109.493 Y118.503 E4.47055
G1 X109.339 Y118.445 E4.48013
G1 X109.208 Y118.369 E4.48894
G1 X109.083 Y118.266 E4.49837
G1 X108.955 Y118.123 E4.50954
G1 X108.771 Y117.828 E4.52977
G1 X108.598 Y117.39 E4.55718
G1 X108.454 Y116.758 E4.5949
G1 X108.374 Y116.005 E4.63897
G1 X108.359 Y115.444 E4.67163
G1 X108.375 Y114.865 E4.70534
G1 X108.422 Y114.35 E4.73543
G1 X108.496 Y113.905 E4.76168
G1 X108.592 Y113.529 E4.78426
G1 X108.705 Y113.224 E4.80319
G1 X108.827 Y112.986 E4.81875
G1 X108.952 Y112.807 E4.83146
G1 X109.078 Y112.674 E4.84212
G1 X109.211 Y112.573 E4.85184
G1 X109.364 Y112.492 E4.86191
G1 X109.552 Y112.428 E4.87347
G1 X109.775 Y112.386 E4.88668
G1 X110.336 Y112.38 E4.91933
G1 X110.561 Y112.422 E4.93265
G1 X110.732 Y112.481 E4.94318
G1 X110.873 Y112.554 E4.95242
G1 X110.999 Y112.648 E4.96157
G1 X111.119 Y112.772 E4.97161
G1 X111.248 Y112.952 E4.9845
G1 X111.402 Y113.288 E5.00601
G1 X111.504 Y113.623 E5.02639
G1 X111.587 Y114.034 E5.05079
G1 X111.67 Y114.84 E5.09794
G1 X111.685 Y115.443 E5.13304
G1 X111.669 Y116.029 E5.16715
G1 X111.622 Y116.548 E5.19748
G1 X111.547 Y116.998 E5.22403
G1 X111.449 Y117.377 E5.24681
G1 X111.335 Y117.685 E5.26592
G1 X111.211 Y117.927 E5.28174
G1 X111.083 Y118.109 E5.29469
G1 X110.865 Y118.311 E5.31199
M204 S2500
G1 E3.91199 F4800
;WIPE_START
G1 F5760
G1 X110.66 Y118.43 E3.72434
G1 X110.467 Y118.496 E3.56286
G1 X110.223 Y118.541 E3.36644
G1 X110.154 Y118.545 E3.31199
;WIPE_END
G92 E0
G1 X111.277 Y113.565 F7200
G1 E2 F4800
M204 S2000
;TYPE:Solid infill
;WIDTH:0.613043
G1 F3000
G1 X110.606 Y112.894 E2.06108
G1 X110.564 Y112.872 E2.06413
G1 X110.298 Y112.805 E2.08179
G1 X109.752 Y112.823 E2.11695
G1 X111.182 Y114.252 E2.24708
G1 X111.245 Y114.868 E2.28694
G1 X111.252 Y115.104 E2.30214
G1 X109.258 Y113.11 E2.48366
G1 X109.192 Y113.205 E2.49111
G1 X109.095 Y113.395 E2.50484
G1 X109.005 Y113.639 E2.52158
G1 X111.248 Y115.882 E2.72577
G1 X111.2 Y116.494 E2.76529
G1 X111.182 Y116.599 E2.77215
G1 X108.864 Y114.28 E2.98321
G1 X108.796 Y114.995 E3.02944
G1 X111.045 Y117.243 E3.23413
G1 X110.945 Y117.514 E3.25272
G1 X110.797 Y117.777 E3.27215
G1 X108.793 Y115.773 E3.45458
G1 X108.798 Y115.977 E3.46772
G1 X108.868 Y116.63 E3.50999
G1 X110.327 Y118.09 E3.64285
G1 X110.172 Y118.119 E3.653
G1 X109.928 Y118.133 E3.66873
G1 X109.744 Y118.121 E3.6806
G1 X109.522 Y118.06 E3.69542
G1 X108.792 Y117.336 E3.7616
M204 S2500
G1 E2.3616 F4800
;WIPE_START
G1 F5760
G1 X109.33 Y117.87 E1.7616
;WIPE_END
G92 E0
G1 X138.358 Y111.696 F7200
G1 E2 F4800
M204 S2000
;TYPE:External perimeter
;WIDTH:0.56
G1 F3000
G1 X138.608 Y111.548 E2.01691
G1 X138.888 Y111.441 E2.03435
G1 X139.198 Y111.377 E2.05277
G1 X139.688 Y111.358 E2.08131
G1 X139.893 Y111.376 E2.09329
G1 X140.214 Y111.446 E2.11241
G1 X140.614 Y111.626 E2.13794
G1 X140.966 Y111.904 E2.16404
G1 X141.186 Y112.163 E2.18382
G1 X141.381 Y112.469 E2.20494
G1 X141.622 Y113.006 E2.23919
G1 X141.803 Y113.665 E2.27896
G1 X141.913 Y114.421 E2.32342
G1 X141.946 Y114.977 E2.35583
G1 X141.946 Y115.576 E2.39069
G1 X141.884 Y116.424 E2.44017
G1 X141.751 Y117.159 E2.48364
G1 X141.548 Y117.788 E2.5221
G1 X141.381 Y118.139 E2.54472
G1 X141.086 Y118.572 E2.57521
G1 X140.743 Y118.893 E2.60255
G1 X140.472 Y119.056 E2.62095
G1 X140.042 Y119.203 E2.6474
G1 X139.703 Y119.25 E2.66732
G1 X139.182 Y119.232 E2.69766
G1 X138.869 Y119.168 E2.71625
G1 X138.592 Y119.063 E2.73349
G1 X138.344 Y118.919 E2.75018
G1 X138.121 Y118.732 E2.76712
G1 X137.92 Y118.499 E2.78503
G1 X137.741 Y118.214 E2.80462
G1 X137.584 Y117.876 E2.82631
G1 X137.452 Y117.481 E2.85055
G1 X137.347 Y117.031 E2.87744
G1 X137.271 Y116.524 E2.90727
G1 X137.224 Y115.962 E2.94009
G1 X137.209 Y115.347 E2.97589
G1 X137.225 Y114.718 E3.01251
G1 X137.271 Y114.148 E3.04579
G1 X137.382 Y113.482 E3.08508
G1 X137.454 Y113.166 E3.10394
G1 X137.588 Y112.763 E3.12866
G1 X137.747 Y112.417 E3.15082
G1 X137.929 Y112.125 E3.17084
G1 X138.132 Y111.887 E3.18904
G1 X138.312 Y111.734 E3.20279
M204 S2500
G1 X138.622 Y111.817 F7200
G1 X138.648 Y112.105
M204 S2000
;TYPE:Perimeter
G1 F3000
G1 X138.825 Y112 E3.21477
G1 X139.029 Y111.923 E3.22746
G1 X139.259 Y111.875 E3.24113
G1 X139.676 Y111.859 E3.26542
G1 X140.077 Y111.928 E3.2891
G1 X140.354 Y112.055 E3.30683
G1 X140.604 Y112.25 E3.32528
G1 X140.783 Y112.461 E3.34138
G1 X140.944 Y112.713 E3.35878
G1 X141.146 Y113.162 E3.38743
G1 X141.313 Y113.768 E3.42401
G1 X141.416 Y114.472 E3.46542
G1 X141.446 Y114.991 E3.49567
G1 X141.446 Y115.558 E3.52867
G1 X141.388 Y116.361 E3.57552
G1 X141.265 Y117.037 E3.61551
G1 X141.083 Y117.603 E3.65011
G1 X140.943 Y117.896 E3.66901
G1 X140.712 Y118.239 E3.69308
G1 X140.459 Y118.481 E3.71345
G1 X140.241 Y118.612 E3.72825
G1 X139.936 Y118.713 E3.74695
G1 X139.545 Y118.755 E3.76984
G1 X139.248 Y118.736 E3.78716
G1 X139.009 Y118.686 E3.80137
G1 X138.808 Y118.61 E3.81388
G1 X138.633 Y118.509 E3.82564
G1 X138.474 Y118.375 E3.83774
G1 X138.323 Y118.201 E3.85115
G1 X138.181 Y117.975 E3.86668
G1 X138.049 Y117.691 E3.88491
G1 X137.933 Y117.345 E3.90615
G1 X137.838 Y116.937 E3.93053
G1 X137.768 Y116.466 E3.95824
G1 X137.724 Y115.936 E3.98919
G1 X137.709 Y115.346 E4.02354
G1 X137.724 Y114.744 E4.05858
G1 X137.768 Y114.209 E4.08982
G1 X137.872 Y113.579 E4.12698
G1 X137.936 Y113.301 E4.14358
G1 X138.054 Y112.946 E4.16535
G1 X138.188 Y112.654 E4.18405
G1 X138.333 Y112.422 E4.19997
G1 X138.486 Y112.242 E4.21372
G1 X138.602 Y112.143 E4.22259
M204 S2500
G1 X138.939 Y112.514 F7200
M204 S2000
G1 F3000
G1 X139.17 Y112.404 E4.23748
G1 X139.32 Y112.373 E4.24639
G1 X139.664 Y112.359 E4.26643
