(Exported by FreeCAD)
(Post Processor: grbl_post)
(Output Time:2024-03-17 07:03:01.746680)
(Begin preamble)
G17 G90
G21
(Begin operation: Fixture)
(Path: Fixture)
G54
(Finish operation: Fixture)
(Begin operation: 1.2mm_Endmill001)
(Path: 1.2mm_Endmill001)
(1.2mm_Endmill001)
(Begin toolchange)
( M6 T2 )
M3 S500
(Finish operation: 1.2mm_Endmill001)
(Begin operation: Pocket_Shape)
(Path: Pocket_Shape)
(Pocket_Shape)
G0 Z14.700
G0 X57.969 Y24.567
G0 Z12.700
G1 X57.969 Y24.567 Z9.100 F12000.000
G1 X44.884 Y11.481 Z9.100 F12000.000
G3 X45.545 Y12.992 Z9.100 I-3.861 J2.592 K0.000 F12000.000
G1 X57.120 Y24.567 Z9.100 F12000.000
G1 X56.272 Y24.567 Z9.100 F12000.000
G1 X45.667 Y13.962 Z9.100 F12000.000
G3 X45.612 Y14.755 Z9.100 I-4.289 J0.097 K0.000 F12000.000
G1 X55.423 Y24.567 Z9.100 F12000.000
G1 X54.575 Y24.567 Z9.100 F12000.000
G1 X45.447 Y15.439 Z9.100 F12000.000
G3 X45.204 Y16.044 Z9.100 I-3.846 J-1.197 K0.000 F12000.000
G1 X53.726 Y24.567 Z9.100 F12000.000
G1 X52.878 Y24.567 Z9.100 F12000.000
G1 X44.891 Y16.580 Z9.100 F12000.000
G3 X44.494 Y17.032 Z9.100 I-2.809 J-2.066 K0.000 F12000.000
G1 X52.029 Y24.567 Z9.100 F12000.000
G1 X51.181 Y24.567 Z9.100 F12000.000
G1 X44.028 Y17.414 Z9.100 F12000.000
G3 X43.489 Y17.724 Z9.100 I-1.994 J-2.848 K0.000 F12000.000
G1 X44.868 Y19.103 Z9.100 F12000.000
G3 X45.052 Y19.105 Z9.100 I0.065 J2.071 K0.000 F12000.000
G3 X45.631 Y19.579 Z9.100 I-0.024 J0.619 K0.000 F12000.000
G3 X45.661 Y19.895 Z9.100 I-2.137 J0.363 K0.000 F12000.000
G1 X50.332 Y24.567 Z9.100 F12000.000
G1 X49.484 Y24.567 Z9.100 F12000.000
G1 X45.643 Y20.726 Z9.100 F12000.000
G3 X45.613 Y20.859 Z9.100 I-0.506 J-0.042 K0.000 F12000.000
G3 X45.286 Y21.217 Z9.100 I-0.604 J-0.223 K0.000 F12000.000
G1 X48.635 Y24.567 Z9.100 F12000.000
G1 X47.787 Y24.567 Z9.100 F12000.000
G1 X44.779 Y21.559 Z9.100 F12000.000
G2 X44.312 Y21.941 Z9.100 I3.048 J4.209 K0.000 F12000.000
G1 X46.938 Y24.567 Z9.100 F12000.000
G1 X46.090 Y24.567 Z9.100 F12000.000
G1 X43.884 Y22.361 Z9.100 F12000.000
G2 X43.494 Y22.819 Z9.100 I3.532 J3.400 K0.000 F12000.000
G1 X45.241 Y24.567 Z9.100 F12000.000
G1 X44.393 Y24.567 Z9.100 F12000.000
G1 X43.143 Y23.317 Z9.100 F12000.000
G2 X42.833 Y23.856 Z9.100 I5.236 J3.362 K0.000 F12000.000
G1 X43.544 Y24.567 Z9.100 F12000.000
G1 X42.695 Y24.567 Z9.100 F12000.000
G1 X42.564 Y24.435 Z9.100 F12000.000
G3 X42.466 Y24.565 Z9.100 I-0.565 J-0.324 K0.000 F12000.000
G2 X42.695 Y24.567 Z9.100 I0.125 J-1.527 K0.000 F12000.000
G0 Z14.700
G0 X41.001 Y22.024 Z14.700
G0 X41.001 Y22.024 Z12.700
G1 X41.001 Y22.024 Z9.100 F12000.000
G1 X40.756 Y21.779 Z9.100 F12000.000
G1 X41.140 Y21.779 Z9.100 F12000.000
G1 X41.160 Y21.780 Z9.100 F12000.000
G1 X41.153 Y21.793 Z9.100 F12000.000
G1 X41.001 Y22.024 Z9.100 F12000.000
G2 X40.685 Y22.557 Z9.100 I5.916 J3.863 K0.000 F12000.000
G1 X39.907 Y21.779 Z9.100 F12000.000
G1 X39.059 Y21.779 Z9.100 F12000.000
G1 X40.400 Y23.120 Z9.100 F12000.000
G2 X40.147 Y23.715 Z9.100 I6.624 J3.165 K0.000 F12000.000
G1 X38.210 Y21.779 Z9.100 F12000.000
G1 X37.362 Y21.779 Z9.100 F12000.000
G1 X40.150 Y24.567 Z9.100 F12000.000
G1 X39.301 Y24.567 Z9.100 F12000.000
G1 X36.513 Y21.779 Z9.100 F12000.000
G1 X35.665 Y21.779 Z9.100 F12000.000
G1 X38.453 Y24.567 Z9.100 F12000.000
G1 X37.604 Y24.567 Z9.100 F12000.000
G1 X34.816 Y21.779 Z9.100 F12000.000
G1 X33.968 Y21.779 Z9.100 F12000.000
G1 X36.756 Y24.567 Z9.100 F12000.000
G1 X35.907 Y24.567 Z9.100 F12000.000
G1 X33.119 Y21.779 Z9.100 F12000.000
G0 Z14.700
G0 X34.579 Y18.147 Z14.700
G0 X34.579 Y18.147 Z12.700
G1 X34.579 Y18.147 Z9.100 F12000.000
G1 X35.534 Y19.103 Z9.100 F12000.000
G1 X36.383 Y19.103 Z9.100 F12000.000
G1 X35.808 Y18.528 Z9.100 F12000.000
G2 X36.685 Y18.556 Z9.100 I0.564 J-3.883 K0.000 F12000.000
G1 X37.231 Y19.103 Z9.100 F12000.000
G1 X38.080 Y19.103 Z9.100 F12000.000
G1 X37.412 Y18.435 Z9.100 F12000.000
G2 X38.042 Y18.216 Z9.100 I-0.912 J-3.626 K0.000 F12000.000
G1 X38.928 Y19.103 Z9.100 F12000.000
G1 X39.777 Y19.103 Z9.100 F12000.000
G1 X38.592 Y17.918 Z9.100 F12000.000
G2 X39.076 Y17.554 Z9.100 I-2.016 J-3.183 K0.000 F12000.000
G1 X40.625 Y19.103 Z9.100 F12000.000
G1 X41.474 Y19.103 Z9.100 F12000.000
G1 X39.488 Y17.116 Z9.100 F12000.000
G3 X39.526 Y17.048 Z9.100 I0.178 J0.055 K0.000 F12000.000
G3 X39.571 Y17.049 Z9.100 I0.021 J0.024 K0.000 F12000.000
G2 X40.718 Y17.858 Z9.100 I2.274 J-2.008 K0.000 F12000.000
G2 X41.214 Y17.994 Z9.100 I1.083 J-2.983 K0.000 F12000.000
G1 X42.323 Y19.103 Z9.100 F12000.000
G1 X43.171 Y19.103 Z9.100 F12000.000
G1 X42.130 Y18.062 Z9.100 F12000.000
G2 X42.865 Y17.948 Z9.100 I-0.163 J-3.469 K0.000 F12000.000
G1 X44.020 Y19.103 Z9.100 F12000.000
G1 X44.868 Y19.103 Z9.100 F12000.000
G1 X43.489 Y17.724 Z9.100 F12000.000
G0 Z14.700
G0 X38.068 Y9.757 Z14.700
G0 X38.068 Y9.757 Z12.700
G1 X38.068 Y9.757 Z9.100 F12000.000
G2 X37.650 Y9.600 Z9.100 I-1.215 J2.602 K0.000 F12000.000
G1 X37.911 Y9.600 Z9.100 F12000.000
G1 X38.068 Y9.757 Z9.100 F12000.000
G3 X39.529 Y11.010 Z9.100 I-1.396 J3.107 K0.000 F12000.000
G2 X39.550 Y11.006 Z9.100 I0.008 J-0.016 K0.000 F12000.000
G3 X39.839 Y10.679 Z9.100 I1.618 J1.138 K0.000 F12000.000
G1 X38.760 Y9.600 Z9.100 F12000.000
G1 X39.608 Y9.600 Z9.100 F12000.000
G1 X40.353 Y10.345 Z9.100 F12000.000
G3 X40.951 Y10.094 Z9.100 I1.620 J3.027 K0.000 F12000.000
G1 X40.457 Y9.600 Z9.100 F12000.000
G1 X41.305 Y9.600 Z9.100 F12000.000
G1 X41.657 Y9.951 Z9.100 F12000.000
G3 X42.534 Y9.980 Z9.100 I0.329 J3.399 K0.000 F12000.000
G1 X42.154 Y9.600 Z9.100 F12000.000
G1 X43.002 Y9.600 Z9.100 F12000.000
G1 X43.925 Y10.522 Z9.100 F12000.000
G3 X44.884 Y11.481 Z9.100 I-1.919 J2.878 K0.000 F12000.000
G1 X57.969 Y24.567 Z9.100 F12000.000
G1 X58.818 Y24.567 Z9.100 F12000.000
G1 X43.851 Y9.600 Z9.100 F12000.000
G1 X44.700 Y9.600 Z9.100 F12000.000
G1 X59.666 Y24.567 Z9.100 F12000.000
G1 X60.515 Y24.567 Z9.100 F12000.000
G1 X45.548 Y9.600 Z9.100 F12000.000
G1 X46.397 Y9.600 Z9.100 F12000.000
G1 X61.363 Y24.567 Z9.100 F12000.000
G1 X62.212 Y24.567 Z9.100 F12000.000
G1 X47.245 Y9.600 Z9.100 F12000.000
G1 X48.094 Y9.600 Z9.100 F12000.000
G1 X63.060 Y24.567 Z9.100 F12000.000
G1 X63.909 Y24.567 Z9.100 F12000.000
G1 X48.942 Y9.600 Z9.100 F12000.000
G1 X49.791 Y9.600 Z9.100 F12000.000
G1 X64.757 Y24.567 Z9.100 F12000.000
G1 X65.606 Y24.567 Z9.100 F12000.000
G1 X50.639 Y9.600 Z9.100 F12000.000
G1 X51.488 Y9.600 Z9.100 F12000.000
G1 X66.454 Y24.567 Z9.100 F12000.000
G1 X67.303 Y24.567 Z9.100 F12000.000
G1 X52.336 Y9.600 Z9.100 F12000.000
G1 X53.185 Y9.600 Z9.100 F12000.000
G1 X68.151 Y24.567 Z9.100 F12000.000
G1 X69.000 Y24.567 Z9.100 F12000.000
G1 X54.033 Y9.600 Z9.100 F12000.000
G1 X54.882 Y9.600 Z9.100 F12000.000
G1 X69.025 Y23.743 Z9.100 F12000.000
G1 X69.025 Y22.895 Z9.100 F12000.000
G1 X55.730 Y9.600 Z9.100 F12000.000
G1 X56.579 Y9.600 Z9.100 F12000.000
G1 X69.025 Y22.046 Z9.100 F12000.000
G1 X69.025 Y21.198 Z9.100 F12000.000
G1 X57.427 Y9.600 Z9.100 F12000.000
G1 X58.276 Y9.600 Z9.100 F12000.000
G1 X69.025 Y20.349 Z9.100 F12000.000
G1 X69.025 Y19.501 Z9.100 F12000.000
G1 X59.124 Y9.600 Z9.100 F12000.000
G1 X59.973 Y9.600 Z9.100 F12000.000
G1 X69.025 Y18.652 Z9.100 F12000.000
G1 X69.025 Y17.804 Z9.100 F12000.000
G1 X60.821 Y9.600 Z9.100 F12000.000
G1 X61.670 Y9.600 Z9.100 F12000.000
G1 X69.025 Y16.955 Z9.100 F12000.000
G1 X69.025 Y16.107 Z9.100 F12000.000
G1 X62.519 Y9.600 Z9.100 F12000.000
G1 X63.367 Y9.600 Z9.100 F12000.000
G1 X69.025 Y15.258 Z9.100 F12000.000
G1 X69.025 Y14.409 Z9.100 F12000.000
G1 X64.216 Y9.600 Z9.100 F12000.000
G1 X65.064 Y9.600 Z9.100 F12000.000
G1 X69.025 Y13.561 Z9.100 F12000.000
G1 X69.025 Y12.712 Z9.100 F12000.000
G1 X65.913 Y9.600 Z9.100 F12000.000
G1 X66.761 Y9.600 Z9.100 F12000.000
G1 X69.025 Y11.864 Z9.100 F12000.000
G1 X69.025 Y11.015 Z9.100 F12000.000
G1 X67.610 Y9.600 Z9.100 F12000.000
G1 X68.458 Y9.600 Z9.100 F12000.000
G1 X69.004 Y9.600 Z9.100 F12000.000
G3 X69.025 Y9.622 Z9.100 I0.009 J0.012 K0.000 F12000.000
G1 X69.025 Y10.167 Z9.100 F12000.000
G1 X68.458 Y9.600 Z9.100 F12000.000
G0 Z14.700
G0 X34.517 Y9.600 Z14.700
G0 X34.517 Y9.600 Z12.700
G1 X34.517 Y9.600 Z9.100 F12000.000
G1 X35.199 Y9.600 Z9.100 F12000.000
G1 X35.214 Y9.601 Z9.100 F12000.000
G2 X34.713 Y9.795 Z9.100 I1.208 J3.868 K0.000 F12000.000
G1 X34.517 Y9.600 Z9.100 F12000.000
G1 X33.669 Y9.600 Z9.100 F12000.000
G1 X34.165 Y10.096 Z9.100 F12000.000
G2 X33.679 Y10.459 Z9.100 I2.241 J3.506 K0.000 F12000.000
G1 X32.820 Y9.600 Z9.100 F12000.000
G1 X31.972 Y9.600 Z9.100 F12000.000
G1 X33.255 Y10.884 Z9.100 F12000.000
G2 X32.889 Y11.366 Z9.100 I2.877 J2.559 K0.000 F12000.000
G1 X31.123 Y9.600 Z9.100 F12000.000
G1 X30.274 Y9.600 Z9.100 F12000.000
G1 X32.585 Y11.911 Z9.100 F12000.000
G2 X32.355 Y12.529 Z9.100 I3.739 J1.743 K0.000 F12000.000
G1 X29.426 Y9.600 Z9.100 F12000.000
G1 X28.577 Y9.600 Z9.100 F12000.000
G1 X32.212 Y13.235 Z9.100 F12000.000
G2 X32.183 Y13.639 Z9.100 I3.510 J0.457 K0.000 F12000.000
G2 X32.160 Y14.031 Z9.100 I3.583 J0.409 K0.000 F12000.000
G1 X27.729 Y9.600 Z9.100 F12000.000
G1 X26.880 Y9.600 Z9.100 F12000.000
G1 X32.234 Y14.954 Z9.100 F12000.000
G2 X32.683 Y16.251 Z9.100 I4.426 J-0.804 K0.000 F12000.000
G1 X26.032 Y9.600 Z9.100 F12000.000
G1 X25.183 Y9.600 Z9.100 F12000.000
G1 X34.686 Y19.103 Z9.100 F12000.000
G1 X33.837 Y19.103 Z9.100 F12000.000
G1 X24.335 Y9.600 Z9.100 F12000.000
G1 X23.486 Y9.600 Z9.100 F12000.000
G1 X32.987 Y19.101 Z9.100 F12000.000
G2 X32.462 Y19.424 Z9.100 I0.027 J0.632 K0.000 F12000.000
G1 X22.638 Y9.600 Z9.100 F12000.000
G1 X21.789 Y9.600 Z9.100 F12000.000
G1 X32.383 Y20.193 Z9.100 F12000.000
G1 X32.383 Y21.042 Z9.100 F12000.000
G1 X20.941 Y9.600 Z9.100 F12000.000
G1 X20.092 Y9.600 Z9.100 F12000.000
G1 X35.059 Y24.567 Z9.100 F12000.000
G1 X34.210 Y24.567 Z9.100 F12000.000
G1 X19.244 Y9.600 Z9.100 F12000.000
G1 X18.395 Y9.600 Z9.100 F12000.000
G1 X33.362 Y24.567 Z9.100 F12000.000
G1 X32.513 Y24.567 Z9.100 F12000.000
G1 X17.547 Y9.600 Z9.100 F12000.000
G1 X16.698 Y9.600 Z9.100 F12000.000
G1 X31.665 Y24.567 Z9.100 F12000.000
G1 X30.816 Y24.567 Z9.100 F12000.000
G1 X15.849 Y9.600 Z9.100 F12000.000
G1 X15.001 Y9.600 Z9.100 F12000.000
G1 X29.968 Y24.567 Z9.100 F12000.000
G1 X29.119 Y24.567 Z9.100 F12000.000
G1 X14.152 Y9.600 Z9.100 F12000.000
G1 X13.304 Y9.600 Z9.100 F12000.000
G1 X28.270 Y24.567 Z9.100 F12000.000
G1 X27.422 Y24.567 Z9.100 F12000.000
G1 X12.455 Y9.600 Z9.100 F12000.000
G1 X11.607 Y9.600 Z9.100 F12000.000
G1 X26.573 Y24.567 Z9.100 F12000.000
G1 X25.725 Y24.567 Z9.100 F12000.000
G1 X10.758 Y9.600 Z9.100 F12000.000
G1 X9.910 Y9.600 Z9.100 F12000.000
G1 X24.876 Y24.567 Z9.100 F12000.000
G1 X24.028 Y24.567 Z9.100 F12000.000
G1 X9.600 Y10.139 Z9.100 F12000.000
G1 X9.600 Y10.987 Z9.100 F12000.000
G1 X23.179 Y24.567 Z9.100 F12000.000
G1 X22.331 Y24.567 Z9.100 F12000.000
G1 X9.600 Y11.836 Z9.100 F12000.000
G1 X9.600 Y12.684 Z9.100 F12000.000
G1 X21.482 Y24.567 Z9.100 F12000.000
G1 X20.634 Y24.567 Z9.100 F12000.000
G1 X9.600 Y13.533 Z9.100 F12000.000
G1 X9.600 Y14.381 Z9.100 F12000.000
G1 X19.785 Y24.567 Z9.100 F12000.000
G1 X18.937 Y24.567 Z9.100 F12000.000
G1 X9.600 Y15.230 Z9.100 F12000.000
G1 X9.600 Y16.079 Z9.100 F12000.000
G1 X18.088 Y24.567 Z9.100 F12000.000
G1 X17.240 Y24.567 Z9.100 F12000.000
G1 X9.600 Y16.927 Z9.100 F12000.000
G1 X9.600 Y17.776 Z9.100 F12000.000
G1 X16.391 Y24.567 Z9.100 F12000.000
G1 X15.543 Y24.567 Z9.100 F12000.000
G1 X9.600 Y18.624 Z9.100 F12000.000
G1 X9.600 Y19.473 Z9.100 F12000.000
G1 X14.694 Y24.567 Z9.100 F12000.000
G1 X13.846 Y24.567 Z9.100 F12000.000
G1 X9.600 Y20.321 Z9.100 F12000.000
G1 X9.600 Y21.170 Z9.100 F12000.000
G1 X12.997 Y24.567 Z9.100 F12000.000
G1 X12.148 Y24.567 Z9.100 F12000.000
G1 X9.600 Y22.018 Z9.100 F12000.000
G1 X9.600 Y22.867 Z9.100 F12000.000
G1 X11.300 Y24.567 Z9.100 F12000.000
G1 X10.451 Y24.567 Z9.100 F12000.000
G1 X9.600 Y23.715 Z9.100 F12000.000
G1 X9.600 Y24.545 Z9.100 F12000.000
G1 X9.601 Y24.565 Z9.100 F12000.000
G1 X9.601 Y24.565 Z8.500 F12000.000
G1 X9.600 Y24.545 Z8.500 F12000.000
G1 X9.600 Y23.715 Z8.500 F12000.000
G1 X10.451 Y24.567 Z8.500 F12000.000
G1 X11.300 Y24.567 Z8.500 F12000.000
G1 X9.600 Y22.867 Z8.500 F12000.000
G1 X9.600 Y22.018 Z8.500 F12000.000
G1 X12.148 Y24.567 Z8.500 F12000.000
G1 X12.997 Y24.567 Z8.500 F12000.000
G1 X9.600 Y21.170 Z8.500 F12000.000
G1 X9.600 Y20.321 Z8.500 F12000.000
G1 X13.846 Y24.567 Z8.500 F12000.000
G1 X14.694 Y24.567 Z8.500 F12000.000
G1 X9.600 Y19.473 Z8.500 F12000.000
G1 X9.600 Y18.624 Z8.500 F12000.000
G1 X15.543 Y24.567 Z8.500 F12000.000
G1 X16.391 Y24.567 Z8.500 F12000.000
G1 X9.600 Y17.776 Z8.500 F12000.000
G1 X9.600 Y16.927 Z8.500 F12000.000
G1 X17.240 Y24.567 Z8.500 F12000.000
G1 X18.088 Y24.567 Z8.500 F12000.000
G1 X9.600 Y16.079 Z8.500 F12000.000
G1 X9.600 Y15.230 Z8.500 F12000.000
G1 X18.937 Y24.567 Z8.500 F12000.000
G1 X19.785 Y24.567 Z8.500 F12000.000
G1 X9.600 Y14.381 Z8.500 F12000.000
G1 X9.600 Y13.533 Z8.500 F12000.000
G1 X20.634 Y24.567 Z8.500 F12000.000
G1 X21.482 Y24.567 Z8.500 F12000.000
G1 X9.600 Y12.684 Z8.500 F12000.000
G1 X9.600 Y11.836 Z8.500 F12000.000
G1 X22.331 Y24.567 Z8.500 F12000.000
G1 X23.179 Y24.567 Z8.500 F12000.000
G1 X9.600 Y10.987 Z8.500 F12000.000
G1 X9.600 Y10.139 Z8.500 F12000.000
G1 X24.028 Y24.567 Z8.500 F12000.000
G1 X24.876 Y24.567 Z8.500 F12000.000
G1 X9.910 Y9.600 Z8.500 F12000.000
G1 X10.758 Y9.600 Z8.500 F12000.000
G1 X25.725 Y24.567 Z8.500 F12000.000
G1 X26.573 Y24.567 Z8.500 F12000.000
G1 X11.607 Y9.600 Z8.500 F12000.000
G1 X12.455 Y9.600 Z8.500 F12000.000
G1 X27.422 Y24.567 Z8.500 F12000.000
G1 X28.270 Y24.567 Z8.500 F12000.000
G1 X13.304 Y9.600 Z8.500 F12000.000
G1 X14.152 Y9.600 Z8.500 F12000.000
G1 X29.119 Y24.567 Z8.500 F12000.000
G1 X29.968 Y24.567 Z8.500 F12000.000
G1 X15.001 Y9.600 Z8.500 F12000.000
G1 X15.849 Y9.600 Z8.500 F12000.000
G1 X30.816 Y24.567 Z8.500 F12000.000
G1 X31.665 Y24.567 Z8.500 F12000.000
G1 X16.698 Y9.600 Z8.500 F12000.000
G1 X17.547 Y9.600 Z8.500 F12000.000
G1 X32.513 Y24.567 Z8.500 F12000.000
G1 X33.362 Y24.567 Z8.500 F12000.000
G1 X18.395 Y9.600 Z8.500 F12000.000
G1 X19.244 Y9.600 Z8.500 F12000.000
G1 X34.210 Y24.567 Z8.500 F12000.000
G1 X35.059 Y24.567 Z8.500 F12000.000
G1 X20.092 Y9.600 Z8.500 F12000.000
G1 X20.941 Y9.600 Z8.500 F12000.000
G1 X32.383 Y21.042 Z8.500 F12000.000
G1 X32.383 Y20.193 Z8.500 F12000.000
G1 X21.789 Y9.600 Z8.500 F12000.000
G1 X22.638 Y9.600 Z8.500 F12000.000
G1 X32.462 Y19.424 Z8.500 F12000.000
G3 X32.987 Y19.101 Z8.500 I0.552 J0.308 K0.000 F12000.000
G1 X23.486 Y9.600 Z8.500 F12000.000
G1 X24.335 Y9.600 Z8.500 F12000.000
G1 X33.837 Y19.103 Z8.500 F12000.000
G1 X34.686 Y19.103 Z8.500 F12000.000
G1 X25.183 Y9.600 Z8.500 F12000.000
G1 X26.032 Y9.600 Z8.500 F12000.000
G1 X32.683 Y16.251 Z8.500 F12000.000
G3 X32.234 Y14.954 Z8.500 I3.977 J-2.101 K0.000 F12000.000
G1 X26.880 Y9.600 Z8.500 F12000.000
G1 X27.729 Y9.600 Z8.500 F12000.000
G1 X32.160 Y14.031 Z8.500 F12000.000
G3 X32.183 Y13.639 Z8.500 I3.606 J0.017 K0.000 F12000.000
G3 X32.212 Y13.235 Z8.500 I3.539 J0.053 K0.000 F12000.000
G1 X28.577 Y9.600 Z8.500 F12000.000
G1 X29.426 Y9.600 Z8.500 F12000.000
G1 X32.355 Y12.529 Z8.500 F12000.000
G3 X32.585 Y11.911 Z8.500 I3.969 J1.125 K0.000 F12000.000
G1 X30.274 Y9.600 Z8.500 F12000.000
G1 X31.123 Y9.600 Z8.500 F12000.000
G1 X32.889 Y11.366 Z8.500 F12000.000
G3 X33.255 Y10.884 Z8.500 I3.242 J2.076 K0.000 F12000.000
G1 X31.972 Y9.600 Z8.500 F12000.000
G1 X32.820 Y9.600 Z8.500 F12000.000
G1 X33.679 Y10.459 Z8.500 F12000.000
G3 X34.165 Y10.096 Z8.500 I2.726 J3.143 K0.000 F12000.000
G1 X33.669 Y9.600 Z8.500 F12000.000
G1 X34.517 Y9.600 Z8.500 F12000.000
G1 X34.713 Y9.795 Z8.500 F12000.000
G3 X35.214 Y9.601 Z8.500 I1.710 J3.673 K0.000 F12000.000
G1 X35.199 Y9.600 Z8.500 F12000.000
G1 X34.517 Y9.600 Z8.500 F12000.000
G0 Z14.700
G0 X38.068 Y9.757 Z14.700
G0 X38.068 Y9.757 Z12.700
G1 X38.068 Y9.757 Z8.500 F12000.000
G2 X37.650 Y9.600 Z8.500 I-1.215 J2.602 K0.000 F12000.000
G1 X37.911 Y9.600 Z8.500 F12000.000
G1 X38.068 Y9.757 Z8.500 F12000.000
G3 X39.529 Y11.010 Z8.500 I-1.396 J3.107 K0.000 F12000.000
G2 X39.550 Y11.006 Z8.500 I0.008 J-0.016 K0.000 F12000.000
G3 X39.839 Y10.679 Z8.500 I1.618 J1.138 K0.000 F12000.000
G1 X38.760 Y9.600 Z8.500 F12000.000
G1 X39.608 Y9.600 Z8.500 F12000.000
G1 X40.353 Y10.345 Z8.500 F12000.000
G3 X40.951 Y10.094 Z8.500 I1.620 J3.027 K0.000 F12000.000
G1 X40.457 Y9.600 Z8.500 F12000.000
G1 X41.305 Y9.600 Z8.500 F12000.000
G1 X41.657 Y9.951 Z8.500 F12000.000
G3 X42.534 Y9.980 Z8.500 I0.329 J3.399 K0.000 F12000.000
G1 X42.154 Y9.600 Z8.500 F12000.000
G1 X43.002 Y9.600 Z8.500 F12000.000
G1 X43.925 Y10.522 Z8.500 F12000.000
G3 X44.884 Y11.481 Z8.500 I-1.919 J2.878 K0.000 F12000.000
G1 X57.969 Y24.567 Z8.500 F12000.000
G1 X58.818 Y24.567 Z8.500 F12000.000
G1 X43.851 Y9.600 Z8.500 F12000.000
G1 X44.700 Y9.600 Z8.500 F12000.000
G1 X59.666 Y24.567 Z8.500 F12000.000
G1 X60.515 Y24.567 Z8.500 F12000.000
G1 X45.548 Y9.600 Z8.500 F12000.000
G1 X46.397 Y9.600 Z8.500 F12000.000
G1 X61.363 Y24.567 Z8.500 F12000.000
G1 X62.212 Y24.567 Z8.500 F12000.000
G1 X47.245 Y9.600 Z8.500 F12000.000
G1 X48.094 Y9.600 Z8.500 F12000.000
G1 X63.060 Y24.567 Z8.500 F12000.000
G1 X63.909 Y24.567 Z8.500 F12000.000
G1 X48.942 Y9.600 Z8.500 F12000.000
G1 X49.791 Y9.600 Z8.500 F12000.000
G1 X64.757 Y24.567 Z8.500 F12000.000
G1 X65.606 Y24.567 Z8.500 F12000.000
G1 X50.639 Y9.600 Z8.500 F12000.000
G1 X51.488 Y9.600 Z8.500 F12000.000
G1 X66.454 Y24.567 Z8.500 F12000.000
G1 X67.303 Y24.567 Z8.500 F12000.000
G1 X52.336 Y9.600 Z8.500 F12000.000
G1 X53.185 Y9.600 Z8.500 F12000.000
G1 X68.151 Y24.567 Z8.500 F12000.000
G1 X69.000 Y24.567 Z8.500 F12000.000
G1 X54.033 Y9.600 Z8.500 F12000.000
G1 X54.882 Y9.600 Z8.500 F12000.000
G1 X69.025 Y23.743 Z8.500 F12000.000
G1 X69.025 Y22.895 Z8.500 F12000.000
G1 X55.730 Y9.600 Z8.500 F12000.000
G1 X56.579 Y9.600 Z8.500 F12000.000
G1 X69.025 Y22.046 Z8.500 F12000.000
G1 X69.025 Y21.198 Z8.500 F12000.000
G1 X57.427 Y9.600 Z8.500 F12000.000
G1 X58.276 Y9.600 Z8.500 F12000.000
G1 X69.025 Y20.349 Z8.500 F12000.000
G1 X69.025 Y19.501 Z8.500 F12000.000
G1 X59.124 Y9.600 Z8.500 F12000.000
G1 X59.973 Y9.600 Z8.500 F12000.000
G1 X69.025 Y18.652 Z8.500 F12000.000
G1 X69.025 Y17.804 Z8.500 F12000.000
G1 X60.821 Y9.600 Z8.500 F12000.000
G1 X61.670 Y9.600 Z8.500 F12000.000
G1 X69.025 Y16.955 Z8.500 F12000.000
G1 X69.025 Y16.107 Z8.500 F12000.000
G1 X62.519 Y9.600 Z8.500 F12000.000
G1 X63.367 Y9.600 Z8.500 F12000.000
G1 X69.025 Y15.258 Z8.500 F12000.000
G1 X69.025 Y14.409 Z8.500 F12000.000
G1 X64.216 Y9.600 Z8.500 F12000.000
G1 X65.064 Y9.600 Z8.500 F12000.000
G1 X69.025 Y13.561 Z8.500 F12000.000
G1 X69.025 Y12.712 Z8.500 F12000.000
G1 X65.913 Y9.600 Z8.500 F12000.000
G1 X66.761 Y9.600 Z8.500 F12000.000
G1 X69.025 Y11.864 Z8.500 F12000.000
G1 X69.025 Y11.015 Z8.500 F12000.000
G1 X67.610 Y9.600 Z8.500 F12000.000
G1 X68.458 Y9.600 Z8.500 F12000.000
G1 X69.004 Y9.600 Z8.500 F12000.000
G3 X69.025 Y9.622 Z8.500 I0.009 J0.012 K0.000 F12000.000
G1 X69.025 Y10.167 Z8.500 F12000.000
G1 X68.458 Y9.600 Z8.500 F12000.000
G0 Z14.700
G0 X57.969 Y24.567 Z14.700
G0 X57.969 Y24.567 Z12.700
G1 X57.969 Y24.567 Z8.500 F12000.000
G1 X44.884 Y11.481 Z8.500 F12000.000
G3 X45.545 Y12.992 Z8.500 I-3.861 J2.592 K0.000 F12000.000
G1 X57.120 Y24.567 Z8.500 F12000.000
G1 X56.272 Y24.567 Z8.500 F12000.000
G1 X45.667 Y13.962 Z8.500 F12000.000
G3 X45.612 Y14.755 Z8.500 I-4.289 J0.097 K0.000 F12000.000
G1 X55.423 Y24.567 Z8.500 F12000.000
G1 X54.575 Y24.567 Z8.500 F12000.000
G1 X45.447 Y15.439 Z8.500 F12000.000
G3 X45.204 Y16.044 Z8.500 I-3.846 J-1.197 K0.000 F12000.000
G1 X53.726 Y24.567 Z8.500 F12000.000
G1 X52.878 Y24.567 Z8.500 F12000.000
G1 X44.891 Y16.580 Z8.500 F12000.000
G3 X44.494 Y17.032 Z8.500 I-2.809 J-2.066 K0.000 F12000.000
G1 X52.029 Y24.567 Z8.500 F12000.000
G1 X51.181 Y24.567 Z8.500 F12000.000
G1 X44.028 Y17.414 Z8.500 F12000.000
G3 X43.489 Y17.724 Z8.500 I-1.994 J-2.848 K0.000 F12000.000
G1 X44.868 Y19.103 Z8.500 F12000.000
G3 X45.052 Y19.105 Z8.500 I0.065 J2.071 K0.000 F12000.000
G3 X45.631 Y19.579 Z8.500 I-0.024 J0.619 K0.000 F12000.000
G3 X45.661 Y19.895 Z8.500 I-2.137 J0.363 K0.000 F12000.000
G1 X50.332 Y24.567 Z8.500 F12000.000
G1 X49.484 Y24.567 Z8.500 F12000.000
G1 X45.643 Y20.726 Z8.500 F12000.000
G3 X45.613 Y20.859 Z8.500 I-0.506 J-0.042 K0.000 F12000.000
G3 X45.286 Y21.217 Z8.500 I-0.604 J-0.223 K0.000 F12000.000
G1 X48.635 Y24.567 Z8.500 F12000.000
G1 X47.787 Y24.567 Z8.500 F12000.000
G1 X44.779 Y21.559 Z8.500 F12000.000
G2 X44.312 Y21.941 Z8.500 I3.048 J4.209 K0.000 F12000.000
G1 X46.938 Y24.567 Z8.500 F12000.000
G1 X46.090 Y24.567 Z8.500 F12000.000
G1 X43.884 Y22.361 Z8.500 F12000.000
G2 X43.494 Y22.819 Z8.500 I3.532 J3.400 K0.000 F12000.000
G1 X45.241 Y24.567 Z8.500 F12000.000
G1 X44.393 Y24.567 Z8.500 F12000.000
G1 X43.143 Y23.317 Z8.500 F12000.000
G2 X42.833 Y23.856 Z8.500 I5.236 J3.362 K0.000 F12000.000
G1 X43.544 Y24.567 Z8.500 F12000.000
G1 X42.695 Y24.567 Z8.500 F12000.000
G1 X42.564 Y24.435 Z8.500 F12000.000
G3 X42.466 Y24.565 Z8.500 I-0.565 J-0.324 K0.000 F12000.000
G2 X42.695 Y24.567 Z8.500 I0.125 J-1.527 K0.000 F12000.000
G0 Z14.700
G0 X41.001 Y22.024 Z14.700
G0 X41.001 Y22.024 Z12.700
G1 X41.001 Y22.024 Z8.500 F12000.000
G1 X40.756 Y21.779 Z8.500 F12000.000
G1 X41.140 Y21.779 Z8.500 F12000.000
G1 X41.160 Y21.780 Z8.500 F12000.000
G1 X41.153 Y21.793 Z8.500 F12000.000
G1 X41.001 Y22.024 Z8.500 F12000.000
G2 X40.685 Y22.557 Z8.500 I5.916 J3.863 K0.000 F12000.000
G1 X39.907 Y21.779 Z8.500 F12000.000
G1 X39.059 Y21.779 Z8.500 F12000.000
G1 X40.400 Y23.120 Z8.500 F12000.000
G2 X40.147 Y23.715 Z8.500 I6.624 J3.165 K0.000 F12000.000
G1 X38.210 Y21.779 Z8.500 F12000.000
G1 X37.362 Y21.779 Z8.500 F12000.000
G1 X40.150 Y24.567 Z8.500 F12000.000
G1 X39.301 Y24.567 Z8.500 F12000.000
G1 X36.513 Y21.779 Z8.500 F12000.000
G1 X35.665 Y21.779 Z8.500 F12000.000
G1 X38.453 Y24.567 Z8.500 F12000.000
G1 X37.604 Y24.567 Z8.500 F12000.000
G1 X34.816 Y21.779 Z8.500 F12000.000
G1 X33.968 Y21.779 Z8.500 F12000.000
G1 X36.756 Y24.567 Z8.500 F12000.000
G1 X35.907 Y24.567 Z8.500 F12000.000
G1 X33.119 Y21.779 Z8.500 F12000.000
G0 Z14.700
G0 X34.579 Y18.147 Z14.700
G0 X34.579 Y18.147 Z12.700
G1 X34.579 Y18.147 Z8.500 F12000.000
G1 X35.534 Y19.103 Z8.500 F12000.000
G1 X36.383 Y19.103 Z8.500 F12000.000
G1 X35.808 Y18.528 Z8.500 F12000.000
G2 X36.685 Y18.556 Z8.500 I0.564 J-3.883 K0.000 F12000.000
G1 X37.231 Y19.103 Z8.500 F12000.000
G1 X38.080 Y19.103 Z8.500 F12000.000
G1 X37.412 Y18.435 Z8.500 F12000.000
G2 X38.042 Y18.216 Z8.500 I-0.912 J-3.626 K0.000 F12000.000
G1 X38.928 Y19.103 Z8.500 F12000.000
G1 X39.777 Y19.103 Z8.500 F12000.000
G1 X38.592 Y17.918 Z8.500 F12000.000
G2 X39.076 Y17.554 Z8.500 I-2.016 J-3.183 K0.000 F12000.000
G1 X40.625 Y19.103 Z8.500 F12000.000
G1 X41.474 Y19.103 Z8.500 F12000.000
G1 X39.488 Y17.116 Z8.500 F12000.000
G3 X39.526 Y17.048 Z8.500 I0.178 J0.055 K0.000 F12000.000
G3 X39.571 Y17.049 Z8.500 I0.021 J0.024 K0.000 F12000.000
G2 X40.718 Y17.858 Z8.500 I2.274 J-2.008 K0.000 F12000.000
G2 X41.214 Y17.994 Z8.500 I1.083 J-2.983 K0.000 F12000.000
G1 X42.323 Y19.103 Z8.500 F12000.000
G1 X43.171 Y19.103 Z8.500 F12000.000
G1 X42.130 Y18.062 Z8.500 F12000.000
G2 X42.865 Y17.948 Z8.500 I-0.163 J-3.469 K0.000 F12000.000
G1 X44.020 Y19.103 Z8.500 F12000.000
G1 X44.868 Y19.103 Z8.500 F12000.000
G1 X43.489 Y17.724 Z8.500 F12000.000
G1 X43.489 Y17.724 Z7.900 F12000.000
G1 X44.868 Y19.103 Z7.900 F12000.000
G1 X44.020 Y19.103 Z7.900 F12000.000
G1 X42.865 Y17.948 Z7.900 F12000.000
G3 X42.130 Y18.062 Z7.900 I-0.897 J-3.354 K0.000 F12000.000
G1 X43.171 Y19.103 Z7.900 F12000.000
G1 X42.323 Y19.103 Z7.900 F12000.000
G1 X41.214 Y17.994 Z7.900 F12000.000
G3 X40.718 Y17.858 Z7.900 I0.588 J-3.119 K0.000 F12000.000
G3 X39.571 Y17.049 Z7.900 I1.126 J-2.817 K0.000 F12000.000
G2 X39.526 Y17.048 Z7.900 I-0.023 J0.023 K0.000 F12000.000
G2 X39.488 Y17.116 Z7.900 I0.139 J0.123 K0.000 F12000.000
G1 X41.474 Y19.103 Z7.900 F12000.000
G1 X40.625 Y19.103 Z7.900 F12000.000
G1 X39.076 Y17.554 Z7.900 F12000.000
G3 X38.592 Y17.918 Z7.900 I-2.501 J-2.819 K0.000 F12000.000
G1 X39.777 Y19.103 Z7.900 F12000.000
G1 X38.928 Y19.103 Z7.900 F12000.000
G1 X38.042 Y18.216 Z7.900 F12000.000
G3 X37.412 Y18.435 Z7.900 I-1.541 J-3.406 K0.000 F12000.000
G1 X38.080 Y19.103 Z7.900 F12000.000
G1 X37.231 Y19.103 Z7.900 F12000.000
G1 X36.685 Y18.556 Z7.900 F12000.000
G3 X35.808 Y18.528 Z7.900 I-0.313 J-3.912 K0.000 F12000.000
G1 X36.383 Y19.103 Z7.900 F12000.000
G1 X35.534 Y19.103 Z7.900 F12000.000
G1 X34.579 Y18.147 Z7.900 F12000.000
G0 Z14.700
G0 X33.119 Y21.779 Z14.700
G0 X33.119 Y21.779 Z12.700
G1 X33.119 Y21.779 Z7.900 F12000.000
G1 X35.907 Y24.567 Z7.900 F12000.000
G1 X36.756 Y24.567 Z7.900 F12000.000
G1 X33.968 Y21.779 Z7.900 F12000.000
G1 X34.816 Y21.779 Z7.900 F12000.000
G1 X37.604 Y24.567 Z7.900 F12000.000
G1 X38.453 Y24.567 Z7.900 F12000.000
G1 X35.665 Y21.779 Z7.900 F12000.000
G1 X36.513 Y21.779 Z7.900 F12000.000
G1 X39.301 Y24.567 Z7.900 F12000.000
G1 X40.150 Y24.567 Z7.900 F12000.000
G1 X37.362 Y21.779 Z7.900 F12000.000
G1 X38.210 Y21.779 Z7.900 F12000.000
G1 X40.147 Y23.715 Z7.900 F12000.000
G3 X40.400 Y23.120 Z7.900 I6.877 J2.569 K0.000 F12000.000
G1 X39.059 Y21.779 Z7.900 F12000.000
G1 X39.907 Y21.779 Z7.900 F12000.000
G1 X40.685 Y22.557 Z7.900 F12000.000
G3 X41.001 Y22.024 Z7.900 I6.232 J3.330 K0.000 F12000.000
G1 X41.153 Y21.793 Z7.900 F12000.000
G1 X41.160 Y21.780 Z7.900 F12000.000
G1 X41.140 Y21.779 Z7.900 F12000.000
G1 X40.756 Y21.779 Z7.900 F12000.000
G1 X41.001 Y22.024 Z7.900 F12000.000
G0 Z14.700
G0 X42.695 Y24.567 Z14.700
G0 X42.695 Y24.567 Z12.700
G1 X42.695 Y24.567 Z7.900 F12000.000
G3 X42.466 Y24.565 Z7.900 I-0.105 J-1.529 K0.000 F12000.000
G2 X42.564 Y24.435 Z7.900 I-0.467 J-0.454 K0.000 F12000.000
G1 X42.695 Y24.567 Z7.900 F12000.000
G1 X43.544 Y24.567 Z7.900 F12000.000
G1 X42.833 Y23.856 Z7.900 F12000.000
G3 X43.143 Y23.317 Z7.900 I5.545 J2.823 K0.000 F12000.000
G1 X44.393 Y24.567 Z7.900 F12000.000
G1 X45.241 Y24.567 Z7.900 F12000.000
G1 X43.494 Y22.819 Z7.900 F12000.000
G3 X43.884 Y22.361 Z7.900 I3.922 J2.941 K0.000 F12000.000
G1 X46.090 Y24.567 Z7.900 F12000.000
G1 X46.938 Y24.567 Z7.900 F12000.000
G1 X44.312 Y21.941 Z7.900 F12000.000
G3 X44.779 Y21.559 Z7.900 I3.515 J3.827 K0.000 F12000.000
G1 X47.787 Y24.567 Z7.900 F12000.000
G1 X48.635 Y24.567 Z7.900 F12000.000
G1 X45.286 Y21.217 Z7.900 F12000.000
G2 X45.613 Y20.859 Z7.900 I-0.277 J-0.582 K0.000 F12000.000
G2 X45.643 Y20.726 Z7.900 I-0.476 J-0.175 K0.000 F12000.000
G1 X49.484 Y24.567 Z7.900 F12000.000
G1 X50.332 Y24.567 Z7.900 F12000.000
G1 X45.661 Y19.895 Z7.900 F12000.000
G2 X45.631 Y19.579 Z7.900 I-2.167 J0.047 K0.000 F12000.000
G2 X45.052 Y19.105 Z7.900 I-0.603 J0.145 K0.000 F12000.000
G2 X44.868 Y19.103 Z7.900 I-0.119 J2.069 K0.000 F12000.000
G1 X43.489 Y17.724 Z7.900 F12000.000
G2 X44.028 Y17.414 Z7.900 I-1.455 J-3.157 K0.000 F12000.000
G1 X51.181 Y24.567 Z7.900 F12000.000
G1 X52.029 Y24.567 Z7.900 F12000.000
G1 X44.494 Y17.032 Z7.900 F12000.000
G2 X44.891 Y16.580 Z7.900 I-2.412 J-2.518 K0.000 F12000.000
G1 X52.878 Y24.567 Z7.900 F12000.000
G1 X53.726 Y24.567 Z7.900 F12000.000
G1 X45.204 Y16.044 Z7.900 F12000.000
G2 X45.447 Y15.439 Z7.900 I-3.602 J-1.802 K0.000 F12000.000
G1 X54.575 Y24.567 Z7.900 F12000.000
G1 X55.423 Y24.567 Z7.900 F12000.000
G1 X45.612 Y14.755 Z7.900 F12000.000
G2 X45.667 Y13.962 Z7.900 I-4.233 J-0.696 K0.000 F12000.000
G1 X56.272 Y24.567 Z7.900 F12000.000
G1 X57.120 Y24.567 Z7.900 F12000.000
G1 X45.545 Y12.992 Z7.900 F12000.000
G2 X44.884 Y11.481 Z7.900 I-4.523 J1.082 K0.000 F12000.000
G1 X57.969 Y24.567 Z7.900 F12000.000
G0 Z14.700
G0 X68.458 Y9.600 Z14.700
G0 X68.458 Y9.600 Z12.700
G1 X68.458 Y9.600 Z7.900 F12000.000
G1 X69.025 Y10.167 Z7.900 F12000.000
G1 X69.025 Y9.622 Z7.900 F12000.000
G2 X69.004 Y9.600 Z7.900 I-0.012 J-0.009 K0.000 F12000.000
G1 X68.458 Y9.600 Z7.900 F12000.000
G1 X67.610 Y9.600 Z7.900 F12000.000
G1 X69.025 Y11.015 Z7.900 F12000.000
G1 X69.025 Y11.864 Z7.900 F12000.000
G1 X66.761 Y9.600 Z7.900 F12000.000
G1 X65.913 Y9.600 Z7.900 F12000.000
G1 X69.025 Y12.712 Z7.900 F12000.000
G1 X69.025 Y13.561 Z7.900 F12000.000
G1 X65.064 Y9.600 Z7.900 F12000.000
G1 X64.216 Y9.600 Z7.900 F12000.000
G1 X69.025 Y14.409 Z7.900 F12000.000
G1 X69.025 Y15.258 Z7.900 F12000.000
G1 X63.367 Y9.600 Z7.900 F12000.000
G1 X62.519 Y9.600 Z7.900 F12000.000
G1 X69.025 Y16.107 Z7.900 F12000.000
G1 X69.025 Y16.955 Z7.900 F12000.000
G1 X61.670 Y9.600 Z7.900 F12000.000
G1 X60.821 Y9.600 Z7.900 F12000.000
G1 X69.025 Y17.804 Z7.900 F12000.000
G1 X69.025 Y18.652 Z7.900 F12000.000
G1 X59.973 Y9.600 Z7.900 F12000.000
G1 X59.124 Y9.600 Z7.900 F12000.000
G1 X69.025 Y19.501 Z7.900 F12000.000
G1 X69.025 Y20.349 Z7.900 F12000.000
G1 X58.276 Y9.600 Z7.900 F12000.000
G1 X57.427 Y9.600 Z7.900 F12000.000
G1 X69.025 Y21.198 Z7.900 F12000.000
G1 X69.025 Y22.046 Z7.900 F12000.000
G1 X56.579 Y9.600 Z7.900 F12000.000
G1 X55.730 Y9.600 Z7.900 F12000.000
G1 X69.025 Y22.895 Z7.900 F12000.000
G1 X69.025 Y23.743 Z7.900 F12000.000
G1 X54.882 Y9.600 Z7.900 F12000.000
G1 X54.033 Y9.600 Z7.900 F12000.000
G1 X69.000 Y24.567 Z7.900 F12000.000
G1 X68.151 Y24.567 Z7.900 F12000.000
G1 X53.185 Y9.600 Z7.900 F12000.000
G1 X52.336 Y9.600 Z7.900 F12000.000
G1 X67.303 Y24.567 Z7.900 F12000.000
G1 X66.454 Y24.567 Z7.900 F12000.000
G1 X51.488 Y9.600 Z7.900 F12000.000
G1 X50.639 Y9.600 Z7.900 F12000.000
G1 X65.606 Y24.567 Z7.900 F12000.000
G1 X64.757 Y24.567 Z7.900 F12000.000
G1 X49.791 Y9.600 Z7.900 F12000.000
G1 X48.942 Y9.600 Z7.900 F12000.000
G1 X63.909 Y24.567 Z7.900 F12000.000
G1 X63.060 Y24.567 Z7.900 F12000.000
G1 X48.094 Y9.600 Z7.900 F12000.000
G1 X47.245 Y9.600 Z7.900 F12000.000
G1 X62.212 Y24.567 Z7.900 F12000.000
G1 X61.363 Y24.567 Z7.900 F12000.000
G1 X46.397 Y9.600 Z7.900 F12000.000
G1 X45.548 Y9.600 Z7.900 F12000.000
G1 X60.515 Y24.567 Z7.900 F12000.000
G1 X59.666 Y24.567 Z7.900 F12000.000
G1 X44.700 Y9.600 Z7.900 F12000.000
G1 X43.851 Y9.600 Z7.900 F12000.000
G1 X58.818 Y24.567 Z7.900 F12000.000
G1 X57.969 Y24.567 Z7.900 F12000.000
G1 X44.884 Y11.481 Z7.900 F12000.000
G2 X43.925 Y10.522 Z7.900 I-2.878 J1.919 K0.000 F12000.000
G1 X43.002 Y9.600 Z7.900 F12000.000
G1 X42.154 Y9.600 Z7.900 F12000.000
G1 X42.534 Y9.980 Z7.900 F12000.000
G2 X41.657 Y9.951 Z7.900 I-0.548 J3.371 K0.000 F12000.000
G1 X41.305 Y9.600 Z7.900 F12000.000
G1 X40.457 Y9.600 Z7.900 F12000.000
G1 X40.951 Y10.094 Z7.900 F12000.000
G2 X40.353 Y10.345 Z7.900 I1.022 J3.278 K0.000 F12000.000
G1 X39.608 Y9.600 Z7.900 F12000.000
G1 X38.760 Y9.600 Z7.900 F12000.000
G1 X39.839 Y10.679 Z7.900 F12000.000
G2 X39.550 Y11.006 Z7.900 I1.329 J1.464 K0.000 F12000.000
G3 X39.529 Y11.010 Z7.900 I-0.013 J-0.012 K0.000 F12000.000
G2 X38.068 Y9.757 Z7.900 I-2.858 J1.855 K0.000 F12000.000
G1 X37.911 Y9.600 Z7.900 F12000.000
G1 X37.650 Y9.600 Z7.900 F12000.000
G3 X38.068 Y9.757 Z7.900 I-0.797 J2.759 K0.000 F12000.000
G0 Z14.700
G0 X34.517 Y9.600 Z14.700
G0 X34.517 Y9.600 Z12.700
G1 X34.517 Y9.600 Z7.900 F12000.000
G1 X35.199 Y9.600 Z7.900 F12000.000
G1 X35.214 Y9.601 Z7.900 F12000.000
G2 X34.713 Y9.795 Z7.900 I1.208 J3.868 K0.000 F12000.000
G1 X34.517 Y9.600 Z7.900 F12000.000
G1 X33.669 Y9.600 Z7.900 F12000.000
G1 X34.165 Y10.096 Z7.900 F12000.000
G2 X33.679 Y10.459 Z7.900 I2.241 J3.506 K0.000 F12000.000
G1 X32.820 Y9.600 Z7.900 F12000.000
G1 X31.972 Y9.600 Z7.900 F12000.000
G1 X33.255 Y10.884 Z7.900 F12000.000
G2 X32.889 Y11.366 Z7.900 I2.877 J2.559 K0.000 F12000.000
G1 X31.123 Y9.600 Z7.900 F12000.000
G1 X30.274 Y9.600 Z7.900 F12000.000
G1 X32.585 Y11.911 Z7.900 F12000.000
G2 X32.355 Y12.529 Z7.900 I3.739 J1.743 K0.000 F12000.000
G1 X29.426 Y9.600 Z7.900 F12000.000
G1 X28.577 Y9.600 Z7.900 F12000.000
G1 X32.212 Y13.235 Z7.900 F12000.000
G2 X32.183 Y13.639 Z7.900 I3.510 J0.457 K0.000 F12000.000
G2 X32.160 Y14.031 Z7.900 I3.583 J0.409 K0.000 F12000.000
G1 X27.729 Y9.600 Z7.900 F12000.000
G1 X26.880 Y9.600 Z7.900 F12000.000
G1 X32.234 Y14.954 Z7.900 F12000.000
G2 X32.683 Y16.251 Z7.900 I4.426 J-0.804 K0.000 F12000.000
G1 X26.032 Y9.600 Z7.900 F12000.000
G1 X25.183 Y9.600 Z7.900 F12000.000
G1 X34.686 Y19.103 Z7.900 F12000.000
G1 X33.837 Y19.103 Z7.900 F12000.000
G1 X24.335 Y9.600 Z7.900 F12000.000
G1 X23.486 Y9.600 Z7.900 F12000.000
G1 X32.987 Y19.101 Z7.900 F12000.000
G2 X32.462 Y19.424 Z7.900 I0.027 J0.632 K0.000 F12000.000
G1 X22.638 Y9.600 Z7.900 F12000.000
G1 X21.789 Y9.600 Z7.900 F12000.000
G1 X32.383 Y20.193 Z7.900 F12000.000
G1 X32.383 Y21.042 Z7.900 F12000.000
G1 X20.941 Y9.600 Z7.900 F12000.000
G1 X20.092 Y9.600 Z7.900 F12000.000
G1 X35.059 Y24.567 Z7.900 F12000.000
G1 X34.210 Y24.567 Z7.900 F12000.000
G1 X19.244 Y9.600 Z7.900 F12000.000
G1 X18.395 Y9.600 Z7.900 F12000.000
G1 X33.362 Y24.567 Z7.900 F12000.000
G1 X32.513 Y24.567 Z7.900 F12000.000
G1 X17.547 Y9.600 Z7.900 F12000.000
G1 X16.698 Y9.600 Z7.900 F12000.000
G1 X31.665 Y24.567 Z7.900 F12000.000
G1 X30.816 Y24.567 Z7.900 F12000.000
G1 X15.849 Y9.600 Z7.900 F12000.000
G1 X15.001 Y9.600 Z7.900 F12000.000
G1 X29.968 Y24.567 Z7.900 F12000.000
G1 X29.119 Y24.567 Z7.900 F12000.000
G1 X14.152 Y9.600 Z7.900 F12000.000
G1 X13.304 Y9.600 Z7.900 F12000.000
G1 X28.270 Y24.567 Z7.900 F12000.000
G1 X27.422 Y24.567 Z7.900 F12000.000
G1 X12.455 Y9.600 Z7.900 F12000.000
G1 X11.607 Y9.600 Z7.900 F12000.000
G1 X26.573 Y24.567 Z7.900 F12000.000
G1 X25.725 Y24.567 Z7.900 F12000.000
G1 X10.758 Y9.600 Z7.900 F12000.000
G1 X9.910 Y9.600 Z7.900 F12000.000
G1 X24.876 Y24.567 Z7.900 F12000.000
G1 X24.028 Y24.567 Z7.900 F12000.000
G1 X9.600 Y10.139 Z7.900 F12000.000
G1 X9.600 Y10.987 Z7.900 F12000.000
G1 X23.179 Y24.567 Z7.900 F12000.000
G1 X22.331 Y24.567 Z7.900 F12000.000
G1 X9.600 Y11.836 Z7.900 F12000.000
G1 X9.600 Y12.684 Z7.900 F12000.000
G1 X21.482 Y24.567 Z7.900 F12000.000
G1 X20.634 Y24.567 Z7.900 F12000.000
G1 X9.600 Y13.533 Z7.900 F12000.000
G1 X9.600 Y14.381 Z7.900 F12000.000
G1 X19.785 Y24.567 Z7.900 F12000.000
G1 X18.937 Y24.567 Z7.900 F12000.000
G1 X9.600 Y15.230 Z7.900 F12000.000
G1 X9.600 Y16.079 Z7.900 F12000.000
G1 X18.088 Y24.567 Z7.900 F12000.000
G1 X17.240 Y24.567 Z7.900 F12000.000
G1 X9.600 Y16.927 Z7.900 F12000.000
G1 X9.600 Y17.776 Z7.900 F12000.000
G1 X16.391 Y24.567 Z7.900 F12000.000
G1 X15.543 Y24.567 Z7.900 F12000.000
G1 X9.600 Y18.624 Z7.900 F12000.000
G1 X9.600 Y19.473 Z7.900 F12000.000
G1 X14.694 Y24.567 Z7.900 F12000.000
G1 X13.846 Y24.567 Z7.900 F12000.000
G1 X9.600 Y20.321 Z7.900 F12000.000
G1 X9.600 Y21.170 Z7.900 F12000.000
G1 X12.997 Y24.567 Z7.900 F12000.000
G1 X12.148 Y24.567 Z7.900 F12000.000
G1 X9.600 Y22.018 Z7.900 F12000.000
G1 X9.600 Y22.867 Z7.900 F12000.000
G1 X11.300 Y24.567 Z7.900 F12000.000
G1 X10.451 Y24.567 Z7.900 F12000.000
G1 X9.600 Y23.715 Z7.900 F12000.000
G1 X9.600 Y24.545 Z7.900 F12000.000
G1 X9.601 Y24.565 Z7.900 F12000.000
G1 X9.601 Y24.565 Z7.700 F12000.000
G1 X9.600 Y24.545 Z7.700 F12000.000
G1 X9.600 Y23.715 Z7.700 F12000.000
G1 X10.451 Y24.567 Z7.700 F12000.000
G1 X11.300 Y24.567 Z7.700 F12000.000
G1 X9.600 Y22.867 Z7.700 F12000.000
G1 X9.600 Y22.018 Z7.700 F12000.000
G1 X12.148 Y24.567 Z7.700 F12000.000
G1 X12.997 Y24.567 Z7.700 F12000.000
G1 X9.600 Y21.170 Z7.700 F12000.000
G1 X9.600 Y20.321 Z7.700 F12000.000
G1 X13.846 Y24.567 Z7.700 F12000.000
G1 X14.694 Y24.567 Z7.700 F12000.000
G1 X9.600 Y19.473 Z7.700 F12000.000
G1 X9.600 Y18.624 Z7.700 F12000.000
G1 X15.543 Y24.567 Z7.700 F12000.000
G1 X16.391 Y24.567 Z7.700 F12000.000
G1 X9.600 Y17.776 Z7.700 F12000.000
G1 X9.600 Y16.927 Z7.700 F12000.000
G1 X17.240 Y24.567 Z7.700 F12000.000
G1 X18.088 Y24.567 Z7.700 F12000.000
G1 X9.600 Y16.079 Z7.700 F12000.000
G1 X9.600 Y15.230 Z7.700 F12000.000
G1 X18.937 Y24.567 Z7.700 F12000.000
G1 X19.785 Y24.567 Z7.700 F12000.000
G1 X9.600 Y14.381 Z7.700 F12000.000
G1 X9.600 Y13.533 Z7.700 F12000.000
G1 X20.634 Y24.567 Z7.700 F12000.000
G1 X21.482 Y24.567 Z7.700 F12000.000
G1 X9.600 Y12.684 Z7.700 F12000.000
G1 X9.600 Y11.836 Z7.700 F12000.000
G1 X22.331 Y24.567 Z7.700 F12000.000
G1 X23.179 Y24.567 Z7.700 F12000.000
G1 X9.600 Y10.987 Z7.700 F12000.000
G1 X9.600 Y10.139 Z7.700 F12000.000
G1 X24.028 Y24.567 Z7.700 F12000.000
G1 X24.876 Y24.567 Z7.700 F12000.000
G1 X9.910 Y9.600 Z7.700 F12000.000
G1 X10.758 Y9.600 Z7.700 F12000.000
G1 X25.725 Y24.567 Z7.700 F12000.000
G1 X26.573 Y24.567 Z7.700 F12000.000
G1 X11.607 Y9.600 Z7.700 F12000.000
G1 X12.455 Y9.600 Z7.700 F12000.000
G1 X27.422 Y24.567 Z7.700 F12000.000
G1 X28.270 Y24.567 Z7.700 F12000.000
G1 X13.304 Y9.600 Z7.700 F12000.000
G1 X14.152 Y9.600 Z7.700 F12000.000
G1 X29.119 Y24.567 Z7.700 F12000.000
G1 X29.968 Y24.567 Z7.700 F12000.000
G1 X15.001 Y9.600 Z7.700 F12000.000
G1 X15.849 Y9.600 Z7.700 F12000.000
G1 X30.816 Y24.567 Z7.700 F12000.000
G1 X31.665 Y24.567 Z7.700 F12000.000
G1 X16.698 Y9.600 Z7.700 F12000.000
G1 X17.547 Y9.600 Z7.700 F12000.000
G1 X32.513 Y24.567 Z7.700 F12000.000
G1 X33.362 Y24.567 Z7.700 F12000.000
G1 X18.395 Y9.600 Z7.700 F12000.000
G1 X19.244 Y9.600 Z7.700 F12000.000
G1 X34.210 Y24.567 Z7.700 F12000.000
G1 X35.059 Y24.567 Z7.700 F12000.000
G1 X20.092 Y9.600 Z7.700 F12000.000
G1 X20.941 Y9.600 Z7.700 F12000.000
G1 X32.383 Y21.042 Z7.700 F12000.000
G1 X32.383 Y20.193 Z7.700 F12000.000
G1 X21.789 Y9.600 Z7.700 F12000.000
G1 X22.638 Y9.600 Z7.700 F12000.000
G1 X32.462 Y19.424 Z7.700 F12000.000
G3 X32.987 Y19.101 Z7.700 I0.552 J0.308 K0.000 F12000.000
G1 X23.486 Y9.600 Z7.700 F12000.000
G1 X24.335 Y9.600 Z7.700 F12000.000
G1 X33.837 Y19.103 Z7.700 F12000.000
G1 X34.686 Y19.103 Z7.700 F12000.000
G1 X25.183 Y9.600 Z7.700 F12000.000
G1 X26.032 Y9.600 Z7.700 F12000.000
G1 X32.683 Y16.251 Z7.700 F12000.000
G3 X32.234 Y14.954 Z7.700 I3.977 J-2.101 K0.000 F12000.000
G1 X26.880 Y9.600 Z7.700 F12000.000
G1 X27.729 Y9.600 Z7.700 F12000.000
G1 X32.160 Y14.031 Z7.700 F12000.000
G3 X32.183 Y13.639 Z7.700 I3.606 J0.017 K0.000 F12000.000
G3 X32.212 Y13.235 Z7.700 I3.539 J0.053 K0.000 F12000.000
G1 X28.577 Y9.600 Z7.700 F12000.000
G1 X29.426 Y9.600 Z7.700 F12000.000
G1 X32.355 Y12.529 Z7.700 F12000.000
G3 X32.585 Y11.911 Z7.700 I3.969 J1.125 K0.000 F12000.000
G1 X30.274 Y9.600 Z7.700 F12000.000
G1 X31.123 Y9.600 Z7.700 F12000.000
G1 X32.889 Y11.366 Z7.700 F12000.000
G3 X33.255 Y10.884 Z7.700 I3.242 J2.076 K0.000 F12000.000
G1 X31.972 Y9.600 Z7.700 F12000.000
G1 X32.820 Y9.600 Z7.700 F12000.000
G1 X33.679 Y10.459 Z7.700 F12000.000
G3 X34.165 Y10.096 Z7.700 I2.726 J3.143 K0.000 F12000.000
G1 X33.669 Y9.600 Z7.700 F12000.000
G1 X34.517 Y9.600 Z7.700 F12000.000
G1 X34.713 Y9.795 Z7.700 F12000.000
G3 X35.214 Y9.601 Z7.700 I1.710 J3.673 K0.000 F12000.000
G1 X35.199 Y9.600 Z7.700 F12000.000
G1 X34.517 Y9.600 Z7.700 F12000.000
G0 Z14.700
G0 X38.068 Y9.757 Z14.700
G0 X38.068 Y9.757 Z12.700
G1 X38.068 Y9.757 Z7.700 F12000.000
G2 X37.650 Y9.600 Z7.700 I-1.215 J2.602 K0.000 F12000.000
G1 X37.911 Y9.600 Z7.700 F12000.000
G1 X38.068 Y9.757 Z7.700 F12000.000
G3 X39.529 Y11.010 Z7.700 I-1.396 J3.107 K0.000 F12000.000
G2 X39.550 Y11.006 Z7.700 I0.008 J-0.016 K0.000 F12000.000
G3 X39.839 Y10.679 Z7.700 I1.618 J1.138 K0.000 F12000.000
G1 X38.760 Y9.600 Z7.700 F12000.000
G1 X39.608 Y9.600 Z7.700 F12000.000
G1 X40.353 Y10.345 Z7.700 F12000.000
G3 X40.951 Y10.094 Z7.700 I1.620 J3.027 K0.000 F12000.000
G1 X40.457 Y9.600 Z7.700 F12000.000
G1 X41.305 Y9.600 Z7.700 F12000.000
G1 X41.657 Y9.951 Z7.700 F12000.000
G3 X42.534 Y9.980 Z7.700 I0.329 J3.399 K0.000 F12000.000
G1 X42.154 Y9.600 Z7.700 F12000.000
G1 X43.002 Y9.600 Z7.700 F12000.000
G1 X43.925 Y10.522 Z7.700 F12000.000
G3 X44.884 Y11.481 Z7.700 I-1.919 J2.878 K0.000 F12000.000
G1 X57.969 Y24.567 Z7.700 F12000.000
G1 X58.818 Y24.567 Z7.700 F12000.000
G1 X43.851 Y9.600 Z7.700 F12000.000
G1 X44.700 Y9.600 Z7.700 F12000.000
G1 X59.666 Y24.567 Z7.700 F12000.000
G1 X60.515 Y24.567 Z7.700 F12000.000
G1 X45.548 Y9.600 Z7.700 F12000.000
G1 X46.397 Y9.600 Z7.700 F12000.000
G1 X61.363 Y24.567 Z7.700 F12000.000
G1 X62.212 Y24.567 Z7.700 F12000.000
G1 X47.245 Y9.600 Z7.700 F12000.000
G1 X48.094 Y9.600 Z7.700 F12000.000
G1 X63.060 Y24.567 Z7.700 F12000.000
G1 X63.909 Y24.567 Z7.700 F12000.000
G1 X48.942 Y9.600 Z7.700 F12000.000
G1 X49.791 Y9.600 Z7.700 F12000.000
G1 X64.757 Y24.567 Z7.700 F12000.000
G1 X65.606 Y24.567 Z7.700 F12000.000
G1 X50.639 Y9.600 Z7.700 F12000.000
G1 X51.488 Y9.600 Z7.700 F12000.000
G1 X66.454 Y24.567 Z7.700 F12000.000
G1 X67.303 Y24.567 Z7.700 F12000.000
G1 X52.336 Y9.600 Z7.700 F12000.000
G1 X53.185 Y9.600 Z7.700 F12000.000
G1 X68.151 Y24.567 Z7.700 F12000.000
G1 X69.000 Y24.567 Z7.700 F12000.000
G1 X54.033 Y9.600 Z7.700 F12000.000
G1 X54.882 Y9.600 Z7.700 F12000.000
G1 X69.025 Y23.743 Z7.700 F12000.000
G1 X69.025 Y22.895 Z7.700 F12000.000
G1 X55.730 Y9.600 Z7.700 F12000.000
G1 X56.579 Y9.600 Z7.700 F12000.000
G1 X69.025 Y22.046 Z7.700 F12000.000
G1 X69.025 Y21.198 Z7.700 F12000.000
G1 X57.427 Y9.600 Z7.700 F12000.000
G1 X58.276 Y9.600 Z7.700 F12000.000
G1 X69.025 Y20.349 Z7.700 F12000.000
G1 X69.025 Y19.501 Z7.700 F12000.000
G1 X59.124 Y9.600 Z7.700 F12000.000
G1 X59.973 Y9.600 Z7.700 F12000.000
G1 X69.025 Y18.652 Z7.700 F12000.000
G1 X69.025 Y17.804 Z7.700 F12000.000
G1 X60.821 Y9.600 Z7.700 F12000.000
G1 X61.670 Y9.600 Z7.700 F12000.000
G1 X69.025 Y16.955 Z7.700 F12000.000
G1 X69.025 Y16.107 Z7.700 F12000.000
G1 X62.519 Y9.600 Z7.700 F12000.000
G1 X63.367 Y9.600 Z7.700 F12000.000
G1 X69.025 Y15.258 Z7.700 F12000.000
G1 X69.025 Y14.409 Z7.700 F12000.000
G1 X64.216 Y9.600 Z7.700 F12000.000
G1 X65.064 Y9.600 Z7.700 F12000.000
G1 X69.025 Y13.561 Z7.700 F12000.000
G1 X69.025 Y12.712 Z7.700 F12000.000
G1 X65.913 Y9.600 Z7.700 F12000.000
G1 X66.761 Y9.600 Z7.700 F12000.000
G1 X69.025 Y11.864 Z7.700 F12000.000
G1 X69.025 Y11.015 Z7.700 F12000.000
G1 X67.610 Y9.600 Z7.700 F12000.000
G1 X68.458 Y9.600 Z7.700 F12000.000
G1 X69.004 Y9.600 Z7.700 F12000.000
G3 X69.025 Y9.622 Z7.700 I0.009 J0.012 K0.000 F12000.000
G1 X69.025 Y10.167 Z7.700 F12000.000
G1 X68.458 Y9.600 Z7.700 F12000.000
G0 Z14.700
G0 X57.969 Y24.567 Z14.700
G0 X57.969 Y24.567 Z12.700
G1 X57.969 Y24.567 Z7.700 F12000.000
G1 X44.884 Y11.481 Z7.700 F12000.000
G3 X45.545 Y12.992 Z7.700 I-3.861 J2.592 K0.000 F12000.000
G1 X57.120 Y24.567 Z7.700 F12000.000
G1 X56.272 Y24.567 Z7.700 F12000.000
G1 X45.667 Y13.962 Z7.700 F12000.000
G3 X45.612 Y14.755 Z7.700 I-4.289 J0.097 K0.000 F12000.000
G1 X55.423 Y24.567 Z7.700 F12000.000
G1 X54.575 Y24.567 Z7.700 F12000.000
G1 X45.447 Y15.439 Z7.700 F12000.000
G3 X45.204 Y16.044 Z7.700 I-3.846 J-1.197 K0.000 F12000.000
G1 X53.726 Y24.567 Z7.700 F12000.000
G1 X52.878 Y24.567 Z7.700 F12000.000
G1 X44.891 Y16.580 Z7.700 F12000.000
G3 X44.494 Y17.032 Z7.700 I-2.809 J-2.066 K0.000 F12000.000
G1 X52.029 Y24.567 Z7.700 F12000.000
G1 X51.181 Y24.567 Z7.700 F12000.000
G1 X44.028 Y17.414 Z7.700 F12000.000
G3 X43.489 Y17.724 Z7.700 I-1.994 J-2.848 K0.000 F12000.000
G1 X44.868 Y19.103 Z7.700 F12000.000
G3 X45.052 Y19.105 Z7.700 I0.065 J2.071 K0.000 F12000.000
G3 X45.631 Y19.579 Z7.700 I-0.024 J0.619 K0.000 F12000.000
G3 X45.661 Y19.895 Z7.700 I-2.137 J0.363 K0.000 F12000.000
G1 X50.332 Y24.567 Z7.700 F12000.000
G1 X49.484 Y24.567 Z7.700 F12000.000
G1 X45.643 Y20.726 Z7.700 F12000.000
G3 X45.613 Y20.859 Z7.700 I-0.506 J-0.042 K0.000 F12000.000
G3 X45.286 Y21.217 Z7.700 I-0.604 J-0.223 K0.000 F12000.000
G1 X48.635 Y24.567 Z7.700 F12000.000
G1 X47.787 Y24.567 Z7.700 F12000.000
G1 X44.779 Y21.559 Z7.700 F12000.000
G2 X44.312 Y21.941 Z7.700 I3.048 J4.209 K0.000 F12000.000
G1 X46.938 Y24.567 Z7.700 F12000.000
G1 X46.090 Y24.567 Z7.700 F12000.000
G1 X43.884 Y22.361 Z7.700 F12000.000
G2 X43.494 Y22.819 Z7.700 I3.532 J3.400 K0.000 F12000.000
G1 X45.241 Y24.567 Z7.700 F12000.000
G1 X44.393 Y24.567 Z7.700 F12000.000
G1 X43.143 Y23.317 Z7.700 F12000.000
G2 X42.833 Y23.856 Z7.700 I5.236 J3.362 K0.000 F12000.000
G1 X43.544 Y24.567 Z7.700 F12000.000
G1 X42.695 Y24.567 Z7.700 F12000.000
G1 X42.564 Y24.435 Z7.700 F12000.000
G3 X42.466 Y24.565 Z7.700 I-0.565 J-0.324 K0.000 F12000.000
G2 X42.695 Y24.567 Z7.700 I0.125 J-1.527 K0.000 F12000.000
G0 Z14.700
G0 X41.001 Y22.024 Z14.700
G0 X41.001 Y22.024 Z12.700
G1 X41.001 Y22.024 Z7.700 F12000.000
G1 X40.756 Y21.779 Z7.700 F12000.000
G1 X41.140 Y21.779 Z7.700 F12000.000
G1 X41.160 Y21.780 Z7.700 F12000.000
G1 X41.153 Y21.793 Z7.700 F12000.000
G1 X41.001 Y22.024 Z7.700 F12000.000
G2 X40.685 Y22.557 Z7.700 I5.916 J3.863 K0.000 F12000.000
G1 X39.907 Y21.779 Z7.700 F12000.000
G1 X39.059 Y21.779 Z7.700 F12000.000
G1 X40.400 Y23.120 Z7.700 F12000.000
G2 X40.147 Y23.715 Z7.700 I6.624 J3.165 K0.000 F12000.000
G1 X38.210 Y21.779 Z7.700 F12000.000
G1 X37.362 Y21.779 Z7.700 F12000.000
G1 X40.150 Y24.567 Z7.700 F12000.000
G1 X39.301 Y24.567 Z7.700 F12000.000
G1 X36.513 Y21.779 Z7.700 F12000.000
G1 X35.665 Y21.779 Z7.700 F12000.000
G1 X38.453 Y24.567 Z7.700 F12000.000
G1 X37.604 Y24.567 Z7.700 F12000.000
G1 X34.816 Y21.779 Z7.700 F12000.000
G1 X33.968 Y21.779 Z7.700 F12000.000
G1 X36.756 Y24.567 Z7.700 F12000.000
G1 X35.907 Y24.567 Z7.700 F12000.000
G1 X33.119 Y21.779 Z7.700 F12000.000
G0 Z14.700
G0 X34.579 Y18.147 Z14.700
G0 X34.579 Y18.147 Z12.700
G1 X34.579 Y18.147 Z7.700 F12000.000
G1 X35.534 Y19.103 Z7.700 F12000.000
G1 X36.383 Y19.103 Z7.700 F12000.000
G1 X35.808 Y18.528 Z7.700 F12000.000
G2 X36.685 Y18.556 Z7.700 I0.564 J-3.883 K0.000 F12000.000
G1 X37.231 Y19.103 Z7.700 F12000.000
G1 X38.080 Y19.103 Z7.700 F12000.000
G1 X37.412 Y18.435 Z7.700 F12000.000
G2 X38.042 Y18.216 Z7.700 I-0.912 J-3.626 K0.000 F12000.000
G1 X38.928 Y19.103 Z7.700 F12000.000
G1 X39.777 Y19.103 Z7.700 F12000.000
G1 X38.592 Y17.918 Z7.700 F12000.000
G2 X39.076 Y17.554 Z7.700 I-2.016 J-3.183 K0.000 F12000.000
G1 X40.625 Y19.103 Z7.700 F12000.000
G1 X41.474 Y19.103 Z7.700 F12000.000
G1 X39.488 Y17.116 Z7.700 F12000.000
G3 X39.526 Y17.048 Z7.700 I0.178 J0.055 K0.000 F12000.000
G3 X39.571 Y17.049 Z7.700 I0.021 J0.024 K0.000 F12000.000
G2 X40.718 Y17.858 Z7.700 I2.274 J-2.008 K0.000 F12000.000
G2 X41.214 Y17.994 Z7.700 I1.083 J-2.983 K0.000 F12000.000
G1 X42.323 Y19.103 Z7.700 F12000.000
G1 X43.171 Y19.103 Z7.700 F12000.000
G1 X42.130 Y18.062 Z7.700 F12000.000
G2 X42.865 Y17.948 Z7.700 I-0.163 J-3.469 K0.000 F12000.000
G1 X44.020 Y19.103 Z7.700 F12000.000
G1 X44.868 Y19.103 Z7.700 F12000.000
G1 X43.489 Y17.724 Z7.700 F12000.000
G0 Z14.700
G0 Z14.700
G0 X43.489 Y17.724
G0 X38.453 Y37.892
G0 X38.453 Y37.892 Z12.700
G1 X38.453 Y37.892 Z9.100 F12000.000
G1 X37.644 Y37.892 Z9.100 F12000.000
G1 X37.622 Y37.893 Z9.100 F12000.000
G3 X37.831 Y38.337 Z9.100 I-0.400 J0.459 K0.000 F12000.000
G1 X37.835 Y38.510 Z9.100 F12000.000
G1 X38.453 Y37.892 Z9.100 F12000.000
G1 X39.301 Y37.892 Z9.100 F12000.000
G1 X37.852 Y39.341 Z9.100 F12000.000
G1 X37.853 Y39.372 Z9.100 F12000.000
G1 X37.855 Y39.372 Z9.100 F12000.000
G1 X38.670 Y39.372 Z9.100 F12000.000
G1 X40.150 Y37.892 Z9.100 F12000.000
G1 X40.999 Y37.892 Z9.100 F12000.000
G1 X39.518 Y39.372 Z9.100 F12000.000
G1 X40.367 Y39.372 Z9.100 F12000.000
G1 X41.847 Y37.892 Z9.100 F12000.000
G1 X42.696 Y37.892 Z9.100 F12000.000
G1 X41.215 Y39.372 Z9.100 F12000.000
G1 X42.064 Y39.372 Z9.100 F12000.000
G1 X43.544 Y37.892 Z9.100 F12000.000
G1 X44.393 Y37.892 Z9.100 F12000.000
G1 X42.912 Y39.372 Z9.100 F12000.000
G1 X43.761 Y39.372 Z9.100 F12000.000
G1 X45.241 Y37.892 Z9.100 F12000.000
G1 X46.090 Y37.892 Z9.100 F12000.000
G1 X44.609 Y39.372 Z9.100 F12000.000
G3 X45.008 Y39.373 Z9.100 I0.186 J8.943 K0.000 F12000.000
G3 X45.352 Y39.478 Z9.100 I-0.037 J0.738 K0.000 F12000.000
G1 X46.938 Y37.892 Z9.100 F12000.000
G1 X47.787 Y37.892 Z9.100 F12000.000
G1 X45.633 Y40.046 Z9.100 F12000.000
G3 X45.651 Y40.876 Z9.100 I-8.685 J0.606 K0.000 F12000.000
G1 X48.635 Y37.892 Z9.100 F12000.000
G0 Z14.700
G0 X35.276 Y38.523 Z14.700
G0 X35.276 Y38.523 Z12.700
G1 X35.276 Y38.523 Z9.100 F12000.000
G3 X35.279 Y39.175 Z9.100 I-6.213 J0.360 K0.000 F12000.000
G2 X35.290 Y39.316 Z9.100 I0.737 J0.017 K0.000 F12000.000
G3 X35.233 Y39.372 Z9.100 I-0.054 J0.002 K0.000 F12000.000
G1 X34.427 Y39.372 Z9.100 F12000.000
G1 X35.276 Y38.523 Z9.100 F12000.000
G1 X35.270 Y38.414 Z9.100 F12000.000
G3 X35.480 Y37.921 Z9.100 I0.607 J-0.032 K0.000 F12000.000
G2 X35.454 Y37.892 Z9.100 I-0.016 J-0.012 K0.000 F12000.000
G1 X35.059 Y37.892 Z9.100 F12000.000
G1 X33.578 Y39.372 Z9.100 F12000.000
G0 Z14.700
G0 X32.400 Y48.187 Z14.700
G0 X32.400 Y48.187 Z12.700
G1 X32.400 Y48.187 Z9.100 F12000.000
G1 X27.729 Y52.858 Z9.100 F12000.000
G1 X28.578 Y52.858 Z9.100 F12000.000
G1 X32.400 Y49.036 Z9.100 F12000.000
G1 X32.400 Y49.352 Z9.100 F12000.000
G2 X32.517 Y49.768 Z9.100 I0.617 J0.051 K0.000 F12000.000
G1 X29.426 Y52.858 Z9.100 F12000.000
G1 X30.275 Y52.858 Z9.100 F12000.000
G1 X33.104 Y50.029 Z9.100 F12000.000
G1 X33.953 Y50.029 Z9.100 F12000.000
G1 X31.123 Y52.858 Z9.100 F12000.000
G1 X31.972 Y52.858 Z9.100 F12000.000
G1 X34.801 Y50.029 Z9.100 F12000.000
G1 X35.650 Y50.029 Z9.100 F12000.000
G1 X32.820 Y52.858 Z9.100 F12000.000
G1 X33.669 Y52.858 Z9.100 F12000.000
G1 X36.498 Y50.029 Z9.100 F12000.000
G1 X37.347 Y50.029 Z9.100 F12000.000
G1 X34.517 Y52.858 Z9.100 F12000.000
G1 X35.366 Y52.858 Z9.100 F12000.000
G1 X38.196 Y50.029 Z9.100 F12000.000
G1 X39.044 Y50.029 Z9.100 F12000.000
G1 X36.214 Y52.858 Z9.100 F12000.000
G1 X37.063 Y52.858 Z9.100 F12000.000
G1 X39.893 Y50.029 Z9.100 F12000.000
G1 X40.741 Y50.029 Z9.100 F12000.000
G1 X37.911 Y52.858 Z9.100 F12000.000
G1 X38.760 Y52.858 Z9.100 F12000.000
G1 X40.580 Y51.038 Z9.100 F12000.000
G2 X40.057 Y52.269 Z9.100 I7.452 J3.890 K0.000 F12000.000
G2 X40.045 Y52.422 Z9.100 I0.520 J0.119 K0.000 F12000.000
G2 X40.255 Y52.856 Z9.100 I0.600 J-0.021 K0.000 F12000.000
G3 X40.255 Y52.857 Z9.100 I-0.000 J0.000 K0.000 F12000.000
G3 X40.232 Y52.858 Z9.100 I-0.012 J-0.015 K0.000 F12000.000
G1 X39.608 Y52.858 Z9.100 F12000.000
G1 X40.045 Y52.422 Z9.100 F12000.000
G0 Z14.700
G0 X69.025 Y52.292 Z14.700
G0 X69.025 Y52.292 Z12.700
G1 X69.025 Y52.292 Z9.100 F12000.000
G1 X69.025 Y52.837 Z9.100 F12000.000
G3 X69.004 Y52.858 Z9.100 I-0.012 J0.009 K0.000 F12000.000
G1 X68.458 Y52.858 Z9.100 F12000.000
G1 X69.025 Y52.292 Z9.100 F12000.000
G1 X69.025 Y51.443 Z9.100 F12000.000
G1 X67.610 Y52.858 Z9.100 F12000.000
G1 X66.761 Y52.858 Z9.100 F12000.000
G1 X69.025 Y50.595 Z9.100 F12000.000
G1 X69.025 Y49.746 Z9.100 F12000.000
G1 X65.913 Y52.858 Z9.100 F12000.000
G1 X65.064 Y52.858 Z9.100 F12000.000
G1 X69.025 Y48.898 Z9.100 F12000.000
G1 X69.025 Y48.049 Z9.100 F12000.000
G1 X64.216 Y52.858 Z9.100 F12000.000
G1 X63.367 Y52.858 Z9.100 F12000.000
G1 X69.025 Y47.200 Z9.100 F12000.000
G1 X69.025 Y46.352 Z9.100 F12000.000
G1 X62.519 Y52.858 Z9.100 F12000.000
G1 X61.670 Y52.858 Z9.100 F12000.000
G1 X69.025 Y45.503 Z9.100 F12000.000
G1 X69.025 Y44.655 Z9.100 F12000.000
G1 X60.822 Y52.858 Z9.100 F12000.000
G1 X59.973 Y52.858 Z9.100 F12000.000
G1 X69.025 Y43.806 Z9.100 F12000.000
G1 X69.025 Y42.958 Z9.100 F12000.000
G1 X59.125 Y52.858 Z9.100 F12000.000
G1 X58.276 Y52.858 Z9.100 F12000.000
G1 X69.025 Y42.109 Z9.100 F12000.000
G1 X69.025 Y41.261 Z9.100 F12000.000
G1 X57.427 Y52.858 Z9.100 F12000.000
G1 X56.579 Y52.858 Z9.100 F12000.000
G1 X69.025 Y40.412 Z9.100 F12000.000
G1 X69.025 Y39.564 Z9.100 F12000.000
G1 X55.730 Y52.858 Z9.100 F12000.000
G1 X54.882 Y52.858 Z9.100 F12000.000
G1 X69.025 Y38.715 Z9.100 F12000.000
G1 X69.025 Y37.913 Z9.100 F12000.000
G1 X69.024 Y37.893 Z9.100 F12000.000
G2 X69.000 Y37.892 Z9.100 I-0.022 J0.164 K0.000 F12000.000
G1 X54.033 Y52.858 Z9.100 F12000.000
G1 X53.185 Y52.858 Z9.100 F12000.000
G1 X68.151 Y37.892 Z9.100 F12000.000
G1 X67.303 Y37.892 Z9.100 F12000.000
G1 X52.336 Y52.858 Z9.100 F12000.000
G1 X51.488 Y52.858 Z9.100 F12000.000
G1 X66.454 Y37.892 Z9.100 F12000.000
G1 X65.606 Y37.892 Z9.100 F12000.000
G1 X50.639 Y52.858 Z9.100 F12000.000
G1 X49.791 Y52.858 Z9.100 F12000.000
G1 X64.757 Y37.892 Z9.100 F12000.000
G1 X63.909 Y37.892 Z9.100 F12000.000
G1 X48.942 Y52.858 Z9.100 F12000.000
G1 X48.094 Y52.858 Z9.100 F12000.000
G1 X63.060 Y37.892 Z9.100 F12000.000
G1 X62.212 Y37.892 Z9.100 F12000.000
G1 X47.245 Y52.858 Z9.100 F12000.000
G1 X46.397 Y52.858 Z9.100 F12000.000
G1 X61.363 Y37.892 Z9.100 F12000.000
G1 X60.515 Y37.892 Z9.100 F12000.000
G1 X45.548 Y52.858 Z9.100 F12000.000
G1 X44.700 Y52.858 Z9.100 F12000.000
G1 X59.666 Y37.892 Z9.100 F12000.000
G1 X58.818 Y37.892 Z9.100 F12000.000
G1 X43.851 Y52.858 Z9.100 F12000.000
G1 X43.002 Y52.858 Z9.100 F12000.000
G1 X57.969 Y37.892 Z9.100 F12000.000
G1 X57.121 Y37.892 Z9.100 F12000.000
G1 X42.799 Y52.213 Z9.100 F12000.000
G3 X45.382 Y49.418 Z9.100 I5.939 J2.898 K0.000 F12000.000
G2 X45.652 Y49.031 Z9.100 I-0.317 J-0.509 K0.000 F12000.000
G2 X45.686 Y48.478 Z9.100 I-4.350 J-0.542 K0.000 F12000.000
G1 X56.272 Y37.892 Z9.100 F12000.000
G1 X55.423 Y37.892 Z9.100 F12000.000
G1 X45.606 Y47.710 Z9.100 F12000.000
G2 X45.107 Y47.360 Z9.100 I-0.549 J0.253 K0.000 F12000.000
G1 X54.575 Y37.892 Z9.100 F12000.000
G1 X53.726 Y37.892 Z9.100 F12000.000
G1 X44.266 Y47.353 Z9.100 F12000.000
G1 X43.417 Y47.353 Z9.100 F12000.000
G1 X52.878 Y37.892 Z9.100 F12000.000
G1 X52.029 Y37.892 Z9.100 F12000.000
G1 X42.568 Y47.353 Z9.100 F12000.000
G1 X41.720 Y47.353 Z9.100 F12000.000
G1 X51.181 Y37.892 Z9.100 F12000.000
G1 X50.332 Y37.892 Z9.100 F12000.000
G1 X40.871 Y47.353 Z9.100 F12000.000
G1 X40.023 Y47.353 Z9.100 F12000.000
G1 X49.484 Y37.892 Z9.100 F12000.000
G1 X48.635 Y37.892 Z9.100 F12000.000
G1 X45.651 Y40.876 Z9.100 F12000.000
G1 X45.641 Y41.141 Z9.100 F12000.000
G3 X45.596 Y41.348 Z9.100 I-0.600 J-0.022 K0.000 F12000.000
G3 X45.350 Y41.697 Z9.100 I-0.648 J-0.195 K0.000 F12000.000
G1 X43.609 Y42.917 Z9.100 F12000.000
G1 X39.174 Y47.353 Z9.100 F12000.000
G1 X38.326 Y47.353 Z9.100 F12000.000
G1 X40.771 Y44.907 Z9.100 F12000.000
G1 X37.933 Y46.897 Z9.100 F12000.000
G1 X37.477 Y47.353 Z9.100 F12000.000
G1 X36.629 Y47.353 Z9.100 F12000.000
G1 X36.727 Y47.255 Z9.100 F12000.000
G1 X35.946 Y47.255 Z9.100 F12000.000
G3 X35.876 Y47.257 Z9.100 I-0.042 J-0.276 K0.000 F12000.000
G1 X35.780 Y47.353 Z9.100 F12000.000
G1 X34.932 Y47.353 Z9.100 F12000.000
G1 X35.349 Y46.935 Z9.100 F12000.000
G3 X35.269 Y46.578 Z9.100 I0.511 J-0.303 K0.000 F12000.000
G1 X35.269 Y46.167 Z9.100 F12000.000
G1 X34.083 Y47.353 Z9.100 F12000.000
G1 X33.235 Y47.353 Z9.100 F12000.000
G1 X35.269 Y45.318 Z9.100 F12000.000
G1 X35.269 Y44.470 Z9.100 F12000.000
G1 X26.880 Y52.858 Z9.100 F12000.000
G1 X26.032 Y52.858 Z9.100 F12000.000
G1 X35.269 Y43.621 Z9.100 F12000.000
G1 X35.269 Y42.773 Z9.100 F12000.000
G1 X25.183 Y52.858 Z9.100 F12000.000
G1 X24.335 Y52.858 Z9.100 F12000.000
G1 X35.145 Y42.048 Z9.100 F12000.000
G1 X34.297 Y42.048 Z9.100 F12000.000
G1 X23.486 Y52.858 Z9.100 F12000.000
G1 X22.638 Y52.858 Z9.100 F12000.000
G1 X33.448 Y42.048 Z9.100 F12000.000
G1 X33.076 Y42.048 Z9.100 F12000.000
G3 X32.695 Y41.953 Z9.100 I-0.054 J-0.593 K0.000 F12000.000
G1 X21.789 Y52.858 Z9.100 F12000.000
G1 X20.941 Y52.858 Z9.100 F12000.000
G1 X32.397 Y41.402 Z9.100 F12000.000
G1 X32.400 Y41.370 Z9.100 F12000.000
G1 X32.400 Y40.550 Z9.100 F12000.000
G1 X20.092 Y52.858 Z9.100 F12000.000
G1 X19.244 Y52.858 Z9.100 F12000.000
G1 X34.210 Y37.892 Z9.100 F12000.000
G1 X33.362 Y37.892 Z9.100 F12000.000
G1 X18.395 Y52.858 Z9.100 F12000.000
G1 X17.547 Y52.858 Z9.100 F12000.000
G1 X32.513 Y37.892 Z9.100 F12000.000
G1 X31.665 Y37.892 Z9.100 F12000.000
G1 X16.698 Y52.858 Z9.100 F12000.000
G1 X15.850 Y52.858 Z9.100 F12000.000
G1 X30.816 Y37.892 Z9.100 F12000.000
G1 X29.968 Y37.892 Z9.100 F12000.000
G1 X15.001 Y52.858 Z9.100 F12000.000
G1 X14.153 Y52.858 Z9.100 F12000.000
G1 X29.119 Y37.892 Z9.100 F12000.000
G1 X28.271 Y37.892 Z9.100 F12000.000
G1 X13.304 Y52.858 Z9.100 F12000.000
G1 X12.455 Y52.858 Z9.100 F12000.000
G1 X27.422 Y37.892 Z9.100 F12000.000
G1 X26.574 Y37.892 Z9.100 F12000.000
G1 X11.607 Y52.858 Z9.100 F12000.000
G1 X10.758 Y52.858 Z9.100 F12000.000
G1 X25.725 Y37.892 Z9.100 F12000.000
G1 X24.876 Y37.892 Z9.100 F12000.000
G1 X9.910 Y52.858 Z9.100 F12000.000
G1 X9.622 Y52.858 Z9.100 F12000.000
G3 X9.600 Y52.837 Z9.100 I-0.009 J-0.012 K0.000 F12000.000
G1 X9.600 Y52.320 Z9.100 F12000.000
G1 X24.028 Y37.892 Z9.100 F12000.000
G1 X23.179 Y37.892 Z9.100 F12000.000
G1 X9.600 Y51.471 Z9.100 F12000.000
G1 X9.600 Y50.622 Z9.100 F12000.000
G1 X22.331 Y37.892 Z9.100 F12000.000
G1 X21.482 Y37.892 Z9.100 F12000.000
G1 X9.600 Y49.774 Z9.100 F12000.000
G1 X9.600 Y48.925 Z9.100 F12000.000
G1 X20.634 Y37.892 Z9.100 F12000.000
G1 X19.785 Y37.892 Z9.100 F12000.000
G1 X9.600 Y48.077 Z9.100 F12000.000
G1 X9.600 Y47.228 Z9.100 F12000.000
G1 X18.937 Y37.892 Z9.100 F12000.000
G1 X18.088 Y37.892 Z9.100 F12000.000
G1 X9.600 Y46.380 Z9.100 F12000.000
G1 X9.600 Y45.531 Z9.100 F12000.000
G1 X17.240 Y37.892 Z9.100 F12000.000
G1 X16.391 Y37.892 Z9.100 F12000.000
G1 X9.600 Y44.683 Z9.100 F12000.000
G1 X9.600 Y43.834 Z9.100 F12000.000
G1 X15.543 Y37.892 Z9.100 F12000.000
G1 X14.694 Y37.892 Z9.100 F12000.000
G1 X9.600 Y42.986 Z9.100 F12000.000
G1 X9.600 Y42.137 Z9.100 F12000.000
G1 X13.846 Y37.892 Z9.100 F12000.000
G1 X12.997 Y37.892 Z9.100 F12000.000
G1 X9.600 Y41.289 Z9.100 F12000.000
G1 X9.600 Y40.440 Z9.100 F12000.000
G1 X12.149 Y37.892 Z9.100 F12000.000
G1 X11.300 Y37.892 Z9.100 F12000.000
G1 X9.600 Y39.592 Z9.100 F12000.000
G1 X9.600 Y38.743 Z9.100 F12000.000
G1 X10.452 Y37.892 Z9.100 F12000.000
G1 X9.622 Y37.892 Z9.100 F12000.000
G1 X9.602 Y37.893 Z9.100 F12000.000
G1 X9.602 Y37.893 Z8.500 F12000.000
G1 X9.622 Y37.892 Z8.500 F12000.000
G1 X10.452 Y37.892 Z8.500 F12000.000
G1 X9.600 Y38.743 Z8.500 F12000.000
G1 X9.600 Y39.592 Z8.500 F12000.000
G1 X11.300 Y37.892 Z8.500 F12000.000
G1 X12.149 Y37.892 Z8.500 F12000.000
G1 X9.600 Y40.440 Z8.500 F12000.000
G1 X9.600 Y41.289 Z8.500 F12000.000
G1 X12.997 Y37.892 Z8.500 F12000.000
G1 X13.846 Y37.892 Z8.500 F12000.000
G1 X9.600 Y42.137 Z8.500 F12000.000
G1 X9.600 Y42.986 Z8.500 F12000.000
G1 X14.694 Y37.892 Z8.500 F12000.000
G1 X15.543 Y37.892 Z8.500 F12000.000
G1 X9.600 Y43.834 Z8.500 F12000.000
G1 X9.600 Y44.683 Z8.500 F12000.000
G1 X16.391 Y37.892 Z8.500 F12000.000
G1 X17.240 Y37.892 Z8.500 F12000.000
G1 X9.600 Y45.531 Z8.500 F12000.000
G1 X9.600 Y46.380 Z8.500 F12000.000
G1 X18.088 Y37.892 Z8.500 F12000.000
G1 X18.937 Y37.892 Z8.500 F12000.000
G1 X9.600 Y47.228 Z8.500 F12000.000
G1 X9.600 Y48.077 Z8.500 F12000.000
G1 X19.785 Y37.892 Z8.500 F12000.000
G1 X20.634 Y37.892 Z8.500 F12000.000
G1 X9.600 Y48.925 Z8.500 F12000.000
G1 X9.600 Y49.774 Z8.500 F12000.000
G1 X21.482 Y37.892 Z8.500 F12000.000
G1 X22.331 Y37.892 Z8.500 F12000.000
G1 X9.600 Y50.622 Z8.500 F12000.000
G1 X9.600 Y51.471 Z8.500 F12000.000
G1 X23.179 Y37.892 Z8.500 F12000.000
G1 X24.028 Y37.892 Z8.500 F12000.000
G1 X9.600 Y52.320 Z8.500 F12000.000
G1 X9.600 Y52.837 Z8.500 F12000.000
G2 X9.622 Y52.858 Z8.500 I0.012 J0.009 K0.000 F12000.000
G1 X9.910 Y52.858 Z8.500 F12000.000
G1 X24.876 Y37.892 Z8.500 F12000.000
G1 X25.725 Y37.892 Z8.500 F12000.000
G1 X10.758 Y52.858 Z8.500 F12000.000
G1 X11.607 Y52.858 Z8.500 F12000.000
G1 X26.574 Y37.892 Z8.500 F12000.000
G1 X27.422 Y37.892 Z8.500 F12000.000
G1 X12.455 Y52.858 Z8.500 F12000.000
G1 X13.304 Y52.858 Z8.500 F12000.000
G1 X28.271 Y37.892 Z8.500 F12000.000
G1 X29.119 Y37.892 Z8.500 F12000.000
G1 X14.153 Y52.858 Z8.500 F12000.000
G1 X15.001 Y52.858 Z8.500 F12000.000
G1 X29.968 Y37.892 Z8.500 F12000.000
G1 X30.816 Y37.892 Z8.500 F12000.000
G1 X15.850 Y52.858 Z8.500 F12000.000
G1 X16.698 Y52.858 Z8.500 F12000.000
G1 X31.665 Y37.892 Z8.500 F12000.000
G1 X32.513 Y37.892 Z8.500 F12000.000
G1 X17.547 Y52.858 Z8.500 F12000.000
G1 X18.395 Y52.858 Z8.500 F12000.000
G1 X33.362 Y37.892 Z8.500 F12000.000
G1 X34.210 Y37.892 Z8.500 F12000.000
G1 X19.244 Y52.858 Z8.500 F12000.000
G1 X20.092 Y52.858 Z8.500 F12000.000
G1 X32.400 Y40.550 Z8.500 F12000.000
G1 X32.400 Y41.370 Z8.500 F12000.000
G1 X32.397 Y41.402 Z8.500 F12000.000
G1 X20.941 Y52.858 Z8.500 F12000.000
G1 X21.789 Y52.858 Z8.500 F12000.000
G1 X32.695 Y41.953 Z8.500 F12000.000
G2 X33.076 Y42.048 Z8.500 I0.327 J-0.498 K0.000 F12000.000
G1 X33.448 Y42.048 Z8.500 F12000.000
G1 X22.638 Y52.858 Z8.500 F12000.000
G1 X23.486 Y52.858 Z8.500 F12000.000
G1 X34.297 Y42.048 Z8.500 F12000.000
G1 X35.145 Y42.048 Z8.500 F12000.000
G1 X24.335 Y52.858 Z8.500 F12000.000
G1 X25.183 Y52.858 Z8.500 F12000.000
G1 X35.269 Y42.773 Z8.500 F12000.000
G1 X35.269 Y43.621 Z8.500 F12000.000
G1 X26.032 Y52.858 Z8.500 F12000.000
G1 X26.880 Y52.858 Z8.500 F12000.000
G1 X35.269 Y44.470 Z8.500 F12000.000
G1 X35.269 Y45.318 Z8.500 F12000.000
G1 X33.235 Y47.353 Z8.500 F12000.000
G1 X34.083 Y47.353 Z8.500 F12000.000
G1 X35.269 Y46.167 Z8.500 F12000.000
G1 X35.269 Y46.578 Z8.500 F12000.000
G2 X35.349 Y46.935 Z8.500 I0.592 J0.055 K0.000 F12000.000
G1 X34.932 Y47.353 Z8.500 F12000.000
G1 X35.780 Y47.353 Z8.500 F12000.000
G1 X35.876 Y47.257 Z8.500 F12000.000
G2 X35.946 Y47.255 Z8.500 I0.027 J-0.278 K0.000 F12000.000
G1 X36.727 Y47.255 Z8.500 F12000.000
G1 X36.629 Y47.353 Z8.500 F12000.000
G1 X37.477 Y47.353 Z8.500 F12000.000
G1 X37.933 Y46.897 Z8.500 F12000.000
G1 X40.771 Y44.907 Z8.500 F12000.000
G1 X38.326 Y47.353 Z8.500 F12000.000
G1 X39.174 Y47.353 Z8.500 F12000.000
G1 X43.609 Y42.917 Z8.500 F12000.000
G1 X45.350 Y41.697 Z8.500 F12000.000
G2 X45.596 Y41.348 Z8.500 I-0.402 J-0.545 K0.000 F12000.000
G2 X45.641 Y41.141 Z8.500 I-0.555 J-0.229 K0.000 F12000.000
G1 X45.651 Y40.876 Z8.500 F12000.000
G1 X48.635 Y37.892 Z8.500 F12000.000
G1 X49.484 Y37.892 Z8.500 F12000.000
G1 X40.023 Y47.353 Z8.500 F12000.000
G1 X40.871 Y47.353 Z8.500 F12000.000
G1 X50.332 Y37.892 Z8.500 F12000.000
G1 X51.181 Y37.892 Z8.500 F12000.000
G1 X41.720 Y47.353 Z8.500 F12000.000
G1 X42.568 Y47.353 Z8.500 F12000.000
G1 X52.029 Y37.892 Z8.500 F12000.000
G1 X52.878 Y37.892 Z8.500 F12000.000
G1 X43.417 Y47.353 Z8.500 F12000.000
G1 X44.266 Y47.353 Z8.500 F12000.000
G1 X53.726 Y37.892 Z8.500 F12000.000
G1 X54.575 Y37.892 Z8.500 F12000.000
G1 X45.107 Y47.360 Z8.500 F12000.000
G3 X45.606 Y47.710 Z8.500 I-0.051 J0.602 K0.000 F12000.000
G1 X55.423 Y37.892 Z8.500 F12000.000
G1 X56.272 Y37.892 Z8.500 F12000.000
G1 X45.686 Y48.478 Z8.500 F12000.000
G3 X45.652 Y49.031 Z8.500 I-4.384 J0.012 K0.000 F12000.000
G3 X45.382 Y49.418 Z8.500 I-0.587 J-0.122 K0.000 F12000.000
G2 X42.799 Y52.213 Z8.500 I3.356 J5.693 K0.000 F12000.000
G1 X57.121 Y37.892 Z8.500 F12000.000
G1 X57.969 Y37.892 Z8.500 F12000.000
G1 X43.002 Y52.858 Z8.500 F12000.000
G1 X43.851 Y52.858 Z8.500 F12000.000
G1 X58.818 Y37.892 Z8.500 F12000.000
G1 X59.666 Y37.892 Z8.500 F12000.000
G1 X44.700 Y52.858 Z8.500 F12000.000
G1 X45.548 Y52.858 Z8.500 F12000.000
G1 X60.515 Y37.892 Z8.500 F12000.000
G1 X61.363 Y37.892 Z8.500 F12000.000
G1 X46.397 Y52.858 Z8.500 F12000.000
G1 X47.245 Y52.858 Z8.500 F12000.000
G1 X62.212 Y37.892 Z8.500 F12000.000
G1 X63.060 Y37.892 Z8.500 F12000.000
G1 X48.094 Y52.858 Z8.500 F12000.000
G1 X48.942 Y52.858 Z8.500 F12000.000
G1 X63.909 Y37.892 Z8.500 F12000.000
G1 X64.757 Y37.892 Z8.500 F12000.000
G1 X49.791 Y52.858 Z8.500 F12000.000
G1 X50.639 Y52.858 Z8.500 F12000.000
G1 X65.606 Y37.892 Z8.500 F12000.000
G1 X66.454 Y37.892 Z8.500 F12000.000
G1 X51.488 Y52.858 Z8.500 F12000.000
G1 X52.336 Y52.858 Z8.500 F12000.000
G1 X67.303 Y37.892 Z8.500 F12000.000
G1 X68.151 Y37.892 Z8.500 F12000.000
G1 X53.185 Y52.858 Z8.500 F12000.000
G1 X54.033 Y52.858 Z8.500 F12000.000
G1 X69.000 Y37.892 Z8.500 F12000.000
G3 X69.024 Y37.893 Z8.500 I0.002 J0.165 K0.000 F12000.000
G1 X69.025 Y37.913 Z8.500 F12000.000
G1 X69.025 Y38.715 Z8.500 F12000.000
G1 X54.882 Y52.858 Z8.500 F12000.000
G1 X55.730 Y52.858 Z8.500 F12000.000
G1 X69.025 Y39.564 Z8.500 F12000.000
G1 X69.025 Y40.412 Z8.500 F12000.000
G1 X56.579 Y52.858 Z8.500 F12000.000
G1 X57.427 Y52.858 Z8.500 F12000.000
G1 X69.025 Y41.261 Z8.500 F12000.000
G1 X69.025 Y42.109 Z8.500 F12000.000
G1 X58.276 Y52.858 Z8.500 F12000.000
G1 X59.125 Y52.858 Z8.500 F12000.000
G1 X69.025 Y42.958 Z8.500 F12000.000
G1 X69.025 Y43.806 Z8.500 F12000.000
G1 X59.973 Y52.858 Z8.500 F12000.000
G1 X60.822 Y52.858 Z8.500 F12000.000
G1 X69.025 Y44.655 Z8.500 F12000.000
G1 X69.025 Y45.503 Z8.500 F12000.000
G1 X61.670 Y52.858 Z8.500 F12000.000
G1 X62.519 Y52.858 Z8.500 F12000.000
G1 X69.025 Y46.352 Z8.500 F12000.000
G1 X69.025 Y47.200 Z8.500 F12000.000
G1 X63.367 Y52.858 Z8.500 F12000.000
G1 X64.216 Y52.858 Z8.500 F12000.000
G1 X69.025 Y48.049 Z8.500 F12000.000
G1 X69.025 Y48.898 Z8.500 F12000.000
G1 X65.064 Y52.858 Z8.500 F12000.000
G1 X65.913 Y52.858 Z8.500 F12000.000
G1 X69.025 Y49.746 Z8.500 F12000.000
G1 X69.025 Y50.595 Z8.500 F12000.000
G1 X66.761 Y52.858 Z8.500 F12000.000
G1 X67.610 Y52.858 Z8.500 F12000.000
G1 X69.025 Y51.443 Z8.500 F12000.000
G1 X69.025 Y52.292 Z8.500 F12000.000
G1 X68.458 Y52.858 Z8.500 F12000.000
G1 X69.004 Y52.858 Z8.500 F12000.000
G2 X69.025 Y52.837 Z8.500 I0.009 J-0.012 K0.000 F12000.000
G1 X69.025 Y52.292 Z8.500 F12000.000
G0 Z14.700
G0 X48.635 Y37.892 Z14.700
G0 X48.635 Y37.892 Z12.700
G1 X48.635 Y37.892 Z8.500 F12000.000
G1 X45.651 Y40.876 Z8.500 F12000.000
G2 X45.633 Y40.046 Z8.500 I-8.704 J-0.224 K0.000 F12000.000
G1 X47.787 Y37.892 Z8.500 F12000.000
G1 X46.938 Y37.892 Z8.500 F12000.000
G1 X45.352 Y39.478 Z8.500 F12000.000
G2 X45.008 Y39.373 Z8.500 I-0.381 J0.633 K0.000 F12000.000
G2 X44.609 Y39.372 Z8.500 I-0.213 J8.942 K0.000 F12000.000
G1 X46.090 Y37.892 Z8.500 F12000.000
G1 X45.241 Y37.892 Z8.500 F12000.000
G1 X43.761 Y39.372 Z8.500 F12000.000
G1 X42.912 Y39.372 Z8.500 F12000.000
G1 X44.393 Y37.892 Z8.500 F12000.000
G1 X43.544 Y37.892 Z8.500 F12000.000
G1 X42.064 Y39.372 Z8.500 F12000.000
G1 X41.215 Y39.372 Z8.500 F12000.000
G1 X42.696 Y37.892 Z8.500 F12000.000
G1 X41.847 Y37.892 Z8.500 F12000.000
G1 X40.367 Y39.372 Z8.500 F12000.000
G1 X39.518 Y39.372 Z8.500 F12000.000
G1 X40.999 Y37.892 Z8.500 F12000.000
G1 X40.150 Y37.892 Z8.500 F12000.000
G1 X38.670 Y39.372 Z8.500 F12000.000
G1 X37.855 Y39.372 Z8.500 F12000.000
G1 X37.853 Y39.372 Z8.500 F12000.000
G1 X37.852 Y39.341 Z8.500 F12000.000
G1 X39.301 Y37.892 Z8.500 F12000.000
G1 X38.453 Y37.892 Z8.500 F12000.000
G1 X37.835 Y38.510 Z8.500 F12000.000
G1 X37.831 Y38.337 Z8.500 F12000.000
G2 X37.622 Y37.893 Z8.500 I-0.609 J0.016 K0.000 F12000.000
G1 X37.644 Y37.892 Z8.500 F12000.000
G1 X38.453 Y37.892 Z8.500 F12000.000
G0 Z14.700
G0 X35.276 Y38.523 Z14.700
G0 X35.276 Y38.523 Z12.700
G1 X35.276 Y38.523 Z8.500 F12000.000
G3 X35.279 Y39.175 Z8.500 I-6.213 J0.360 K0.000 F12000.000
G2 X35.290 Y39.316 Z8.500 I0.737 J0.017 K0.000 F12000.000
G3 X35.233 Y39.372 Z8.500 I-0.054 J0.002 K0.000 F12000.000
G1 X34.427 Y39.372 Z8.500 F12000.000
G1 X35.276 Y38.523 Z8.500 F12000.000
G1 X35.270 Y38.414 Z8.500 F12000.000
G3 X35.480 Y37.921 Z8.500 I0.607 J-0.032 K0.000 F12000.000
G2 X35.454 Y37.892 Z8.500 I-0.016 J-0.012 K0.000 F12000.000
G1 X35.059 Y37.892 Z8.500 F12000.000
G1 X33.578 Y39.372 Z8.500 F12000.000
G0 Z14.700
G0 X32.400 Y48.187 Z14.700
G0 X32.400 Y48.187 Z12.700
G1 X32.400 Y48.187 Z8.500 F12000.000
G1 X27.729 Y52.858 Z8.500 F12000.000
G1 X28.578 Y52.858 Z8.500 F12000.000
G1 X32.400 Y49.036 Z8.500 F12000.000
G1 X32.400 Y49.352 Z8.500 F12000.000
G2 X32.517 Y49.768 Z8.500 I0.617 J0.051 K0.000 F12000.000
G1 X29.426 Y52.858 Z8.500 F12000.000
G1 X30.275 Y52.858 Z8.500 F12000.000
G1 X33.104 Y50.029 Z8.500 F12000.000
G1 X33.953 Y50.029 Z8.500 F12000.000
G1 X31.123 Y52.858 Z8.500 F12000.000
G1 X31.972 Y52.858 Z8.500 F12000.000
G1 X34.801 Y50.029 Z8.500 F12000.000
G1 X35.650 Y50.029 Z8.500 F12000.000
G1 X32.820 Y52.858 Z8.500 F12000.000
G1 X33.669 Y52.858 Z8.500 F12000.000
G1 X36.498 Y50.029 Z8.500 F12000.000
G1 X37.347 Y50.029 Z8.500 F12000.000
G1 X34.517 Y52.858 Z8.500 F12000.000
G1 X35.366 Y52.858 Z8.500 F12000.000
G1 X38.196 Y50.029 Z8.500 F12000.000
G1 X39.044 Y50.029 Z8.500 F12000.000
G1 X36.214 Y52.858 Z8.500 F12000.000
G1 X37.063 Y52.858 Z8.500 F12000.000
G1 X39.893 Y50.029 Z8.500 F12000.000
G1 X40.741 Y50.029 Z8.500 F12000.000
G1 X37.911 Y52.858 Z8.500 F12000.000
G1 X38.760 Y52.858 Z8.500 F12000.000
G1 X40.580 Y51.038 Z8.500 F12000.000
G2 X40.057 Y52.269 Z8.500 I7.452 J3.890 K0.000 F12000.000
G2 X40.045 Y52.422 Z8.500 I0.520 J0.119 K0.000 F12000.000
G2 X40.255 Y52.856 Z8.500 I0.600 J-0.021 K0.000 F12000.000
G3 X40.255 Y52.857 Z8.500 I-0.000 J0.000 K0.000 F12000.000
G3 X40.232 Y52.858 Z8.500 I-0.012 J-0.015 K0.000 F12000.000
G1 X39.608 Y52.858 Z8.500 F12000.000
G1 X40.045 Y52.422 Z8.500 F12000.000
G1 X40.045 Y52.422 Z7.900 F12000.000
G1 X39.608 Y52.858 Z7.900 F12000.000
G1 X40.232 Y52.858 Z7.900 F12000.000
G2 X40.255 Y52.857 Z7.900 I0.010 J-0.017 K0.000 F12000.000
G2 X40.255 Y52.856 Z7.900 I-0.000 J-0.000 K0.000 F12000.000
G3 X40.045 Y52.422 Z7.900 I0.391 J-0.456 K0.000 F12000.000
G3 X40.057 Y52.269 Z7.900 I0.533 J-0.034 K0.000 F12000.000
G3 X40.580 Y51.038 Z7.900 I7.975 J2.659 K0.000 F12000.000
G1 X38.760 Y52.858 Z7.900 F12000.000
G1 X37.911 Y52.858 Z7.900 F12000.000
G1 X40.741 Y50.029 Z7.900 F12000.000
G1 X39.893 Y50.029 Z7.900 F12000.000
G1 X37.063 Y52.858 Z7.900 F12000.000
G1 X36.214 Y52.858 Z7.900 F12000.000
G1 X39.044 Y50.029 Z7.900 F12000.000
G1 X38.196 Y50.029 Z7.900 F12000.000
G1 X35.366 Y52.858 Z7.900 F12000.000
G1 X34.517 Y52.858 Z7.900 F12000.000
G1 X37.347 Y50.029 Z7.900 F12000.000
G1 X36.498 Y50.029 Z7.900 F12000.000
G1 X33.669 Y52.858 Z7.900 F12000.000
G1 X32.820 Y52.858 Z7.900 F12000.000
G1 X35.650 Y50.029 Z7.900 F12000.000
G1 X34.801 Y50.029 Z7.900 F12000.000
G1 X31.972 Y52.858 Z7.900 F12000.000
G1 X31.123 Y52.858 Z7.900 F12000.000
G1 X33.953 Y50.029 Z7.900 F12000.000
G1 X33.104 Y50.029 Z7.900 F12000.000
G1 X30.275 Y52.858 Z7.900 F12000.000
G1 X29.426 Y52.858 Z7.900 F12000.000
G1 X32.517 Y49.768 Z7.900 F12000.000
G3 X32.400 Y49.352 Z7.900 I0.500 J-0.365 K0.000 F12000.000
G1 X32.400 Y49.036 Z7.900 F12000.000
G1 X28.578 Y52.858 Z7.900 F12000.000
G1 X27.729 Y52.858 Z7.900 F12000.000
G1 X32.400 Y48.187 Z7.900 F12000.000
G0 Z14.700
G0 X33.578 Y39.372 Z14.700
G0 X33.578 Y39.372 Z12.700
G1 X33.578 Y39.372 Z7.900 F12000.000
G1 X35.059 Y37.892 Z7.900 F12000.000
G1 X35.454 Y37.892 Z7.900 F12000.000
G3 X35.480 Y37.921 Z7.900 I0.010 J0.018 K0.000 F12000.000
G2 X35.270 Y38.414 Z7.900 I0.397 J0.460 K0.000 F12000.000
G1 X35.276 Y38.523 Z7.900 F12000.000
G1 X34.427 Y39.372 Z7.900 F12000.000
G1 X35.233 Y39.372 Z7.900 F12000.000
G2 X35.290 Y39.316 Z7.900 I0.003 J-0.053 K0.000 F12000.000
G3 X35.279 Y39.175 Z7.900 I0.726 J-0.125 K0.000 F12000.000
G2 X35.276 Y38.523 Z7.900 I-6.216 J-0.292 K0.000 F12000.000
G0 Z14.700
G0 X38.453 Y37.892 Z14.700
G0 X38.453 Y37.892 Z12.700
G1 X38.453 Y37.892 Z7.900 F12000.000
G1 X37.644 Y37.892 Z7.900 F12000.000
G1 X37.622 Y37.893 Z7.900 F12000.000
G3 X37.831 Y38.337 Z7.900 I-0.400 J0.459 K0.000 F12000.000
G1 X37.835 Y38.510 Z7.900 F12000.000
G1 X38.453 Y37.892 Z7.900 F12000.000
G1 X39.301 Y37.892 Z7.900 F12000.000
G1 X37.852 Y39.341 Z7.900 F12000.000
G1 X37.853 Y39.372 Z7.900 F12000.000
G1 X37.855 Y39.372 Z7.900 F12000.000
G1 X38.670 Y39.372 Z7.900 F12000.000
G1 X40.150 Y37.892 Z7.900 F12000.000
G1 X40.999 Y37.892 Z7.900 F12000.000
G1 X39.518 Y39.372 Z7.900 F12000.000
G1 X40.367 Y39.372 Z7.900 F12000.000
G1 X41.847 Y37.892 Z7.900 F12000.000
G1 X42.696 Y37.892 Z7.900 F12000.000
G1 X41.215 Y39.372 Z7.900 F12000.000
G1 X42.064 Y39.372 Z7.900 F12000.000
G1 X43.544 Y37.892 Z7.900 F12000.000
G1 X44.393 Y37.892 Z7.900 F12000.000
G1 X42.912 Y39.372 Z7.900 F12000.000
G1 X43.761 Y39.372 Z7.900 F12000.000
G1 X45.241 Y37.892 Z7.900 F12000.000
G1 X46.090 Y37.892 Z7.900 F12000.000
G1 X44.609 Y39.372 Z7.900 F12000.000
G3 X45.008 Y39.373 Z7.900 I0.186 J8.943 K0.000 F12000.000
G3 X45.352 Y39.478 Z7.900 I-0.037 J0.738 K0.000 F12000.000
G1 X46.938 Y37.892 Z7.900 F12000.000
G1 X47.787 Y37.892 Z7.900 F12000.000
G1 X45.633 Y40.046 Z7.900 F12000.000
G3 X45.651 Y40.876 Z7.900 I-8.685 J0.606 K0.000 F12000.000
G1 X48.635 Y37.892 Z7.900 F12000.000
G0 Z14.700
G0 X69.025 Y52.292 Z14.700
G0 X69.025 Y52.292 Z12.700
G1 X69.025 Y52.292 Z7.900 F12000.000
G1 X69.025 Y52.837 Z7.900 F12000.000
G3 X69.004 Y52.858 Z7.900 I-0.012 J0.009 K0.000 F12000.000
G1 X68.458 Y52.858 Z7.900 F12000.000
G1 X69.025 Y52.292 Z7.900 F12000.000
G1 X69.025 Y51.443 Z7.900 F12000.000
G1 X67.610 Y52.858 Z7.900 F12000.000
G1 X66.761 Y52.858 Z7.900 F12000.000
G1 X69.025 Y50.595 Z7.900 F12000.000
G1 X69.025 Y49.746 Z7.900 F12000.000
G1 X65.913 Y52.858 Z7.900 F12000.000
G1 X65.064 Y52.858 Z7.900 F12000.000
G1 X69.025 Y48.898 Z7.900 F12000.000
G1 X69.025 Y48.049 Z7.900 F12000.000
G1 X64.216 Y52.858 Z7.900 F12000.000
G1 X63.367 Y52.858 Z7.900 F12000.000
G1 X69.025 Y47.200 Z7.900 F12000.000
G1 X69.025 Y46.352 Z7.900 F12000.000
G1 X62.519 Y52.858 Z7.900 F12000.000
G1 X61.670 Y52.858 Z7.900 F12000.000
G1 X69.025 Y45.503 Z7.900 F12000.000
G1 X69.025 Y44.655 Z7.900 F12000.000
G1 X60.822 Y52.858 Z7.900 F12000.000
G1 X59.973 Y52.858 Z7.900 F12000.000
G1 X69.025 Y43.806 Z7.900 F12000.000
G1 X69.025 Y42.958 Z7.900 F12000.000
G1 X59.125 Y52.858 Z7.900 F12000.000
G1 X58.276 Y52.858 Z7.900 F12000.000
G1 X69.025 Y42.109 Z7.900 F12000.000
G1 X69.025 Y41.261 Z7.900 F12000.000
G1 X57.427 Y52.858 Z7.900 F12000.000
G1 X56.579 Y52.858 Z7.900 F12000.000
G1 X69.025 Y40.412 Z7.900 F12000.000
G1 X69.025 Y39.564 Z7.900 F12000.000
G1 X55.730 Y52.858 Z7.900 F12000.000
G1 X54.882 Y52.858 Z7.900 F12000.000
G1 X69.025 Y38.715 Z7.900 F12000.000
G1 X69.025 Y37.913 Z7.900 F12000.000
G1 X69.024 Y37.893 Z7.900 F12000.000
G2 X69.000 Y37.892 Z7.900 I-0.022 J0.164 K0.000 F12000.000
G1 X54.033 Y52.858 Z7.900 F12000.000
G1 X53.185 Y52.858 Z7.900 F12000.000
G1 X68.151 Y37.892 Z7.900 F12000.000
G1 X67.303 Y37.892 Z7.900 F12000.000
G1 X52.336 Y52.858 Z7.900 F12000.000
G1 X51.488 Y52.858 Z7.900 F12000.000
G1 X66.454 Y37.892 Z7.900 F12000.000
G1 X65.606 Y37.892 Z7.900 F12000.000
G1 X50.639 Y52.858 Z7.900 F12000.000
G1 X49.791 Y52.858 Z7.900 F12000.000
G1 X64.757 Y37.892 Z7.900 F12000.000
G1 X63.909 Y37.892 Z7.900 F12000.000
G1 X48.942 Y52.858 Z7.900 F12000.000
G1 X48.094 Y52.858 Z7.900 F12000.000
G1 X63.060 Y37.892 Z7.900 F12000.000
G1 X62.212 Y37.892 Z7.900 F12000.000
G1 X47.245 Y52.858 Z7.900 F12000.000
G1 X46.397 Y52.858 Z7.900 F12000.000
G1 X61.363 Y37.892 Z7.900 F12000.000
G1 X60.515 Y37.892 Z7.900 F12000.000
G1 X45.548 Y52.858 Z7.900 F12000.000
G1 X44.700 Y52.858 Z7.900 F12000.000
G1 X59.666 Y37.892 Z7.900 F12000.000
G1 X58.818 Y37.892 Z7.900 F12000.000
G1 X43.851 Y52.858 Z7.900 F12000.000
G1 X43.002 Y52.858 Z7.900 F12000.000
G1 X57.969 Y37.892 Z7.900 F12000.000
G1 X57.121 Y37.892 Z7.900 F12000.000
G1 X42.799 Y52.213 Z7.900 F12000.000
G3 X45.382 Y49.418 Z7.900 I5.939 J2.898 K0.000 F12000.000
G2 X45.652 Y49.031 Z7.900 I-0.317 J-0.509 K0.000 F12000.000
G2 X45.686 Y48.478 Z7.900 I-4.350 J-0.542 K0.000 F12000.000
G1 X56.272 Y37.892 Z7.900 F12000.000
G1 X55.423 Y37.892 Z7.900 F12000.000
G1 X45.606 Y47.710 Z7.900 F12000.000
G2 X45.107 Y47.360 Z7.900 I-0.549 J0.253 K0.000 F12000.000
G1 X54.575 Y37.892 Z7.900 F12000.000
G1 X53.726 Y37.892 Z7.900 F12000.000
G1 X44.266 Y47.353 Z7.900 F12000.000
G1 X43.417 Y47.353 Z7.900 F12000.000
G1 X52.878 Y37.892 Z7.900 F12000.000
G1 X52.029 Y37.892 Z7.900 F12000.000
G1 X42.568 Y47.353 Z7.900 F12000.000
G1 X41.720 Y47.353 Z7.900 F12000.000
G1 X51.181 Y37.892 Z7.900 F12000.000
G1 X50.332 Y37.892 Z7.900 F12000.000
G1 X40.871 Y47.353 Z7.900 F12000.000
G1 X40.023 Y47.353 Z7.900 F12000.000
G1 X49.484 Y37.892 Z7.900 F12000.000
G1 X48.635 Y37.892 Z7.900 F12000.000
G1 X45.651 Y40.876 Z7.900 F12000.000
G1 X45.641 Y41.141 Z7.900 F12000.000
G3 X45.596 Y41.348 Z7.900 I-0.600 J-0.022 K0.000 F12000.000
G3 X45.350 Y41.697 Z7.900 I-0.648 J-0.195 K0.000 F12000.000
G1 X43.609 Y42.917 Z7.900 F12000.000
G1 X39.174 Y47.353 Z7.900 F12000.000
G1 X38.326 Y47.353 Z7.900 F12000.000
G1 X40.771 Y44.907 Z7.900 F12000.000
G1 X37.933 Y46.897 Z7.900 F12000.000
G1 X37.477 Y47.353 Z7.900 F12000.000
G1 X36.629 Y47.353 Z7.900 F12000.000
G1 X36.727 Y47.255 Z7.900 F12000.000
G1 X35.946 Y47.255 Z7.900 F12000.000
G3 X35.876 Y47.257 Z7.900 I-0.042 J-0.276 K0.000 F12000.000
G1 X35.780 Y47.353 Z7.900 F12000.000
G1 X34.932 Y47.353 Z7.900 F12000.000
G1 X35.349 Y46.935 Z7.900 F12000.000
G3 X35.269 Y46.578 Z7.900 I0.511 J-0.303 K0.000 F12000.000
G1 X35.269 Y46.167 Z7.900 F12000.000
G1 X34.083 Y47.353 Z7.900 F12000.000
G1 X33.235 Y47.353 Z7.900 F12000.000
G1 X35.269 Y45.318 Z7.900 F12000.000
G1 X35.269 Y44.470 Z7.900 F12000.000
G1 X26.880 Y52.858 Z7.900 F12000.000
G1 X26.032 Y52.858 Z7.900 F12000.000
G1 X35.269 Y43.621 Z7.900 F12000.000
G1 X35.269 Y42.773 Z7.900 F12000.000
G1 X25.183 Y52.858 Z7.900 F12000.000
G1 X24.335 Y52.858 Z7.900 F12000.000
G1 X35.145 Y42.048 Z7.900 F12000.000
G1 X34.297 Y42.048 Z7.900 F12000.000
G1 X23.486 Y52.858 Z7.900 F12000.000
G1 X22.638 Y52.858 Z7.900 F12000.000
G1 X33.448 Y42.048 Z7.900 F12000.000
G1 X33.076 Y42.048 Z7.900 F12000.000
G3 X32.695 Y41.953 Z7.900 I-0.054 J-0.593 K0.000 F12000.000
G1 X21.789 Y52.858 Z7.900 F12000.000
G1 X20.941 Y52.858 Z7.900 F12000.000
G1 X32.397 Y41.402 Z7.900 F12000.000
G1 X32.400 Y41.370 Z7.900 F12000.000
G1 X32.400 Y40.550 Z7.900 F12000.000
G1 X20.092 Y52.858 Z7.900 F12000.000
G1 X19.244 Y52.858 Z7.900 F12000.000
G1 X34.210 Y37.892 Z7.900 F12000.000
G1 X33.362 Y37.892 Z7.900 F12000.000
G1 X18.395 Y52.858 Z7.900 F12000.000
G1 X17.547 Y52.858 Z7.900 F12000.000
G1 X32.513 Y37.892 Z7.900 F12000.000
G1 X31.665 Y37.892 Z7.900 F12000.000
G1 X16.698 Y52.858 Z7.900 F12000.000
G1 X15.850 Y52.858 Z7.900 F12000.000
G1 X30.816 Y37.892 Z7.900 F12000.000
G1 X29.968 Y37.892 Z7.900 F12000.000
G1 X15.001 Y52.858 Z7.900 F12000.000
G1 X14.153 Y52.858 Z7.900 F12000.000
G1 X29.119 Y37.892 Z7.900 F12000.000
G1 X28.271 Y37.892 Z7.900 F12000.000
G1 X13.304 Y52.858 Z7.900 F12000.000
G1 X12.455 Y52.858 Z7.900 F12000.000
G1 X27.422 Y37.892 Z7.900 F12000.000
G1 X26.574 Y37.892 Z7.900 F12000.000
G1 X11.607 Y52.858 Z7.900 F12000.000
G1 X10.758 Y52.858 Z7.900 F12000.000
G1 X25.725 Y37.892 Z7.900 F12000.000
G1 X24.876 Y37.892 Z7.900 F12000.000
G1 X9.910 Y52.858 Z7.900 F12000.000
G1 X9.622 Y52.858 Z7.900 F12000.000
G3 X9.600 Y52.837 Z7.900 I-0.009 J-0.012 K0.000 F12000.000
G1 X9.600 Y52.320 Z7.900 F12000.000
G1 X24.028 Y37.892 Z7.900 F12000.000
G1 X23.179 Y37.892 Z7.900 F12000.000
G1 X9.600 Y51.471 Z7.900 F12000.000
G1 X9.600 Y50.622 Z7.900 F12000.000
G1 X22.331 Y37.892 Z7.900 F12000.000
G1 X21.482 Y37.892 Z7.900 F12000.000
G1 X9.600 Y49.774 Z7.900 F12000.000
G1 X9.600 Y48.925 Z7.900 F12000.000
G1 X20.634 Y37.892 Z7.900 F12000.000
G1 X19.785 Y37.892 Z7.900 F12000.000
G1 X9.600 Y48.077 Z7.900 F12000.000
G1 X9.600 Y47.228 Z7.900 F12000.000
G1 X18.937 Y37.892 Z7.900 F12000.000
G1 X18.088 Y37.892 Z7.900 F12000.000
G1 X9.600 Y46.380 Z7.900 F12000.000
G1 X9.600 Y45.531 Z7.900 F12000.000
G1 X17.240 Y37.892 Z7.900 F12000.000
G1 X16.391 Y37.892 Z7.900 F12000.000
G1 X9.600 Y44.683 Z7.900 F12000.000
G1 X9.600 Y43.834 Z7.900 F12000.000
G1 X15.543 Y37.892 Z7.900 F12000.000
G1 X14.694 Y37.892 Z7.900 F12000.000
G1 X9.600 Y42.986 Z7.900 F12000.000
G1 X9.600 Y42.137 Z7.900 F12000.000
G1 X13.846 Y37.892 Z7.900 F12000.000
G1 X12.997 Y37.892 Z7.900 F12000.000
G1 X9.600 Y41.289 Z7.900 F12000.000
G1 X9.600 Y40.440 Z7.900 F12000.000
G1 X12.149 Y37.892 Z7.900 F12000.000
G1 X11.300 Y37.892 Z7.900 F12000.000
G1 X9.600 Y39.592 Z7.900 F12000.000
G1 X9.600 Y38.743 Z7.900 F12000.000
G1 X10.452 Y37.892 Z7.900 F12000.000
G1 X9.622 Y37.892 Z7.900 F12000.000
G1 X9.602 Y37.893 Z7.900 F12000.000
G1 X9.602 Y37.893 Z7.700 F12000.000
G1 X9.622 Y37.892 Z7.700 F12000.000
G1 X10.452 Y37.892 Z7.700 F12000.000
G1 X9.600 Y38.743 Z7.700 F12000.000
G1 X9.600 Y39.592 Z7.700 F12000.000
G1 X11.300 Y37.892 Z7.700 F12000.000
G1 X12.149 Y37.892 Z7.700 F12000.000
G1 X9.600 Y40.440 Z7.700 F12000.000
G1 X9.600 Y41.289 Z7.700 F12000.000
G1 X12.997 Y37.892 Z7.700 F12000.000
G1 X13.846 Y37.892 Z7.700 F12000.000
G1 X9.600 Y42.137 Z7.700 F12000.000
G1 X9.600 Y42.986 Z7.700 F12000.000
G1 X14.694 Y37.892 Z7.700 F12000.000
G1 X15.543 Y37.892 Z7.700 F12000.000
G1 X9.600 Y43.834 Z7.700 F12000.000
G1 X9.600 Y44.683 Z7.700 F12000.000
G1 X16.391 Y37.892 Z7.700 F12000.000
G1 X17.240 Y37.892 Z7.700 F12000.000
G1 X9.600 Y45.531 Z7.700 F12000.000
G1 X9.600 Y46.380 Z7.700 F12000.000
G1 X18.088 Y37.892 Z7.700 F12000.000
G1 X18.937 Y37.892 Z7.700 F12000.000
G1 X9.600 Y47.228 Z7.700 F12000.000
G1 X9.600 Y48.077 Z7.700 F12000.000
G1 X19.785 Y37.892 Z7.700 F12000.000
G1 X20.634 Y37.892 Z7.700 F12000.000
G1 X9.600 Y48.925 Z7.700 F12000.000
G1 X9.600 Y49.774 Z7.700 F12000.000
G1 X21.482 Y37.892 Z7.700 F12000.000
G1 X22.331 Y37.892 Z7.700 F12000.000
G1 X9.600 Y50.622 Z7.700 F12000.000
G1 X9.600 Y51.471 Z7.700 F12000.000
G1 X23.179 Y37.892 Z7.700 F12000.000
G1 X24.028 Y37.892 Z7.700 F12000.000
G1 X9.600 Y52.320 Z7.700 F12000.000
G1 X9.600 Y52.837 Z7.700 F12000.000
G2 X9.622 Y52.858 Z7.700 I0.012 J0.009 K0.000 F12000.000
G1 X9.910 Y52.858 Z7.700 F12000.000
G1 X24.876 Y37.892 Z7.700 F12000.000
G1 X25.725 Y37.892 Z7.700 F12000.000
G1 X10.758 Y52.858 Z7.700 F12000.000
G1 X11.607 Y52.858 Z7.700 F12000.000
G1 X26.574 Y37.892 Z7.700 F12000.000
G1 X27.422 Y37.892 Z7.700 F12000.000
G1 X12.455 Y52.858 Z7.700 F12000.000
G1 X13.304 Y52.858 Z7.700 F12000.000
G1 X28.271 Y37.892 Z7.700 F12000.000
G1 X29.119 Y37.892 Z7.700 F12000.000
G1 X14.153 Y52.858 Z7.700 F12000.000
G1 X15.001 Y52.858 Z7.700 F12000.000
G1 X29.968 Y37.892 Z7.700 F12000.000
G1 X30.816 Y37.892 Z7.700 F12000.000
G1 X15.850 Y52.858 Z7.700 F12000.000
G1 X16.698 Y52.858 Z7.700 F12000.000
G1 X31.665 Y37.892 Z7.700 F12000.000
G1 X32.513 Y37.892 Z7.700 F12000.000
G1 X17.547 Y52.858 Z7.700 F12000.000
G1 X18.395 Y52.858 Z7.700 F12000.000
G1 X33.362 Y37.892 Z7.700 F12000.000
G1 X34.210 Y37.892 Z7.700 F12000.000
G1 X19.244 Y52.858 Z7.700 F12000.000
G1 X20.092 Y52.858 Z7.700 F12000.000
G1 X32.400 Y40.550 Z7.700 F12000.000
G1 X32.400 Y41.370 Z7.700 F12000.000
G1 X32.397 Y41.402 Z7.700 F12000.000
G1 X20.941 Y52.858 Z7.700 F12000.000
G1 X21.789 Y52.858 Z7.700 F12000.000
G1 X32.695 Y41.953 Z7.700 F12000.000
G2 X33.076 Y42.048 Z7.700 I0.327 J-0.498 K0.000 F12000.000
G1 X33.448 Y42.048 Z7.700 F12000.000
G1 X22.638 Y52.858 Z7.700 F12000.000
G1 X23.486 Y52.858 Z7.700 F12000.000
G1 X34.297 Y42.048 Z7.700 F12000.000
G1 X35.145 Y42.048 Z7.700 F12000.000
G1 X24.335 Y52.858 Z7.700 F12000.000
G1 X25.183 Y52.858 Z7.700 F12000.000
G1 X35.269 Y42.773 Z7.700 F12000.000
G1 X35.269 Y43.621 Z7.700 F12000.000
G1 X26.032 Y52.858 Z7.700 F12000.000
G1 X26.880 Y52.858 Z7.700 F12000.000
G1 X35.269 Y44.470 Z7.700 F12000.000
G1 X35.269 Y45.318 Z7.700 F12000.000
G1 X33.235 Y47.353 Z7.700 F12000.000
G1 X34.083 Y47.353 Z7.700 F12000.000
G1 X35.269 Y46.167 Z7.700 F12000.000
G1 X35.269 Y46.578 Z7.700 F12000.000
G2 X35.349 Y46.935 Z7.700 I0.592 J0.055 K0.000 F12000.000
G1 X34.932 Y47.353 Z7.700 F12000.000
G1 X35.780 Y47.353 Z7.700 F12000.000
G1 X35.876 Y47.257 Z7.700 F12000.000
G2 X35.946 Y47.255 Z7.700 I0.027 J-0.278 K0.000 F12000.000
G1 X36.727 Y47.255 Z7.700 F12000.000
G1 X36.629 Y47.353 Z7.700 F12000.000
G1 X37.477 Y47.353 Z7.700 F12000.000
G1 X37.933 Y46.897 Z7.700 F12000.000
G1 X40.771 Y44.907 Z7.700 F12000.000
G1 X38.326 Y47.353 Z7.700 F12000.000
G1 X39.174 Y47.353 Z7.700 F12000.000
G1 X43.609 Y42.917 Z7.700 F12000.000
G1 X45.350 Y41.697 Z7.700 F12000.000
G2 X45.596 Y41.348 Z7.700 I-0.402 J-0.545 K0.000 F12000.000
G2 X45.641 Y41.141 Z7.700 I-0.555 J-0.229 K0.000 F12000.000
G1 X45.651 Y40.876 Z7.700 F12000.000
G1 X48.635 Y37.892 Z7.700 F12000.000
G1 X49.484 Y37.892 Z7.700 F12000.000
G1 X40.023 Y47.353 Z7.700 F12000.000
G1 X40.871 Y47.353 Z7.700 F12000.000
G1 X50.332 Y37.892 Z7.700 F12000.000
G1 X51.181 Y37.892 Z7.700 F12000.000
G1 X41.720 Y47.353 Z7.700 F12000.000
G1 X42.568 Y47.353 Z7.700 F12000.000
G1 X52.029 Y37.892 Z7.700 F12000.000
G1 X52.878 Y37.892 Z7.700 F12000.000
G1 X43.417 Y47.353 Z7.700 F12000.000
G1 X44.266 Y47.353 Z7.700 F12000.000
G1 X53.726 Y37.892 Z7.700 F12000.000
G1 X54.575 Y37.892 Z7.700 F12000.000
G1 X45.107 Y47.360 Z7.700 F12000.000
G3 X45.606 Y47.710 Z7.700 I-0.051 J0.602 K0.000 F12000.000
G1 X55.423 Y37.892 Z7.700 F12000.000
G1 X56.272 Y37.892 Z7.700 F12000.000
G1 X45.686 Y48.478 Z7.700 F12000.000
G3 X45.652 Y49.031 Z7.700 I-4.384 J0.012 K0.000 F12000.000
G3 X45.382 Y49.418 Z7.700 I-0.587 J-0.122 K0.000 F12000.000
G2 X42.799 Y52.213 Z7.700 I3.356 J5.693 K0.000 F12000.000
G1 X57.121 Y37.892 Z7.700 F12000.000
G1 X57.969 Y37.892 Z7.700 F12000.000
G1 X43.002 Y52.858 Z7.700 F12000.000
G1 X43.851 Y52.858 Z7.700 F12000.000
G1 X58.818 Y37.892 Z7.700 F12000.000
G1 X59.666 Y37.892 Z7.700 F12000.000
G1 X44.700 Y52.858 Z7.700 F12000.000
G1 X45.548 Y52.858 Z7.700 F12000.000
G1 X60.515 Y37.892 Z7.700 F12000.000
G1 X61.363 Y37.892 Z7.700 F12000.000
G1 X46.397 Y52.858 Z7.700 F12000.000
G1 X47.245 Y52.858 Z7.700 F12000.000
G1 X62.212 Y37.892 Z7.700 F12000.000
G1 X63.060 Y37.892 Z7.700 F12000.000
G1 X48.094 Y52.858 Z7.700 F12000.000
G1 X48.942 Y52.858 Z7.700 F12000.000
G1 X63.909 Y37.892 Z7.700 F12000.000
G1 X64.757 Y37.892 Z7.700 F12000.000
G1 X49.791 Y52.858 Z7.700 F12000.000
G1 X50.639 Y52.858 Z7.700 F12000.000
G1 X65.606 Y37.892 Z7.700 F12000.000
G1 X66.454 Y37.892 Z7.700 F12000.000
G1 X51.488 Y52.858 Z7.700 F12000.000
G1 X52.336 Y52.858 Z7.700 F12000.000
G1 X67.303 Y37.892 Z7.700 F12000.000
G1 X68.151 Y37.892 Z7.700 F12000.000
G1 X53.185 Y52.858 Z7.700 F12000.000
G1 X54.033 Y52.858 Z7.700 F12000.000
G1 X69.000 Y37.892 Z7.700 F12000.000
G3 X69.024 Y37.893 Z7.700 I0.002 J0.165 K0.000 F12000.000
G1 X69.025 Y37.913 Z7.700 F12000.000
G1 X69.025 Y38.715 Z7.700 F12000.000
G1 X54.882 Y52.858 Z7.700 F12000.000
G1 X55.730 Y52.858 Z7.700 F12000.000
G1 X69.025 Y39.564 Z7.700 F12000.000
G1 X69.025 Y40.412 Z7.700 F12000.000
G1 X56.579 Y52.858 Z7.700 F12000.000
G1 X57.427 Y52.858 Z7.700 F12000.000
G1 X69.025 Y41.261 Z7.700 F12000.000
G1 X69.025 Y42.109 Z7.700 F12000.000
G1 X58.276 Y52.858 Z7.700 F12000.000
G1 X59.125 Y52.858 Z7.700 F12000.000
G1 X69.025 Y42.958 Z7.700 F12000.000
G1 X69.025 Y43.806 Z7.700 F12000.000
G1 X59.973 Y52.858 Z7.700 F12000.000
G1 X60.822 Y52.858 Z7.700 F12000.000
G1 X69.025 Y44.655 Z7.700 F12000.000
G1 X69.025 Y45.503 Z7.700 F12000.000
G1 X61.670 Y52.858 Z7.700 F12000.000
G1 X62.519 Y52.858 Z7.700 F12000.000
G1 X69.025 Y46.352 Z7.700 F12000.000
G1 X69.025 Y47.200 Z7.700 F12000.000
G1 X63.367 Y52.858 Z7.700 F12000.000
G1 X64.216 Y52.858 Z7.700 F12000.000
G1 X69.025 Y48.049 Z7.700 F12000.000
G1 X69.025 Y48.898 Z7.700 F12000.000
G1 X65.064 Y52.858 Z7.700 F12000.000
G1 X65.913 Y52.858 Z7.700 F12000.000
G1 X69.025 Y49.746 Z7.700 F12000.000
G1 X69.025 Y50.595 Z7.700 F12000.000
G1 X66.761 Y52.858 Z7.700 F12000.000
G1 X67.610 Y52.858 Z7.700 F12000.000
G1 X69.025 Y51.443 Z7.700 F12000.000
G1 X69.025 Y52.292 Z7.700 F12000.000
G1 X68.458 Y52.858 Z7.700 F12000.000
G1 X69.004 Y52.858 Z7.700 F12000.000
G2 X69.025 Y52.837 Z7.700 I0.009 J-0.012 K0.000 F12000.000
G1 X69.025 Y52.292 Z7.700 F12000.000
G0 Z14.700
G0 X48.635 Y37.892 Z14.700
G0 X48.635 Y37.892 Z12.700
G1 X48.635 Y37.892 Z7.700 F12000.000
G1 X45.651 Y40.876 Z7.700 F12000.000
G2 X45.633 Y40.046 Z7.700 I-8.704 J-0.224 K0.000 F12000.000
G1 X47.787 Y37.892 Z7.700 F12000.000
G1 X46.938 Y37.892 Z7.700 F12000.000
G1 X45.352 Y39.478 Z7.700 F12000.000
G2 X45.008 Y39.373 Z7.700 I-0.381 J0.633 K0.000 F12000.000
G2 X44.609 Y39.372 Z7.700 I-0.213 J8.942 K0.000 F12000.000
G1 X46.090 Y37.892 Z7.700 F12000.000
G1 X45.241 Y37.892 Z7.700 F12000.000
G1 X43.761 Y39.372 Z7.700 F12000.000
G1 X42.912 Y39.372 Z7.700 F12000.000
G1 X44.393 Y37.892 Z7.700 F12000.000
G1 X43.544 Y37.892 Z7.700 F12000.000
G1 X42.064 Y39.372 Z7.700 F12000.000
G1 X41.215 Y39.372 Z7.700 F12000.000
G1 X42.696 Y37.892 Z7.700 F12000.000
G1 X41.847 Y37.892 Z7.700 F12000.000
G1 X40.367 Y39.372 Z7.700 F12000.000
G1 X39.518 Y39.372 Z7.700 F12000.000
G1 X40.999 Y37.892 Z7.700 F12000.000
G1 X40.150 Y37.892 Z7.700 F12000.000
G1 X38.670 Y39.372 Z7.700 F12000.000
G1 X37.855 Y39.372 Z7.700 F12000.000
G1 X37.853 Y39.372 Z7.700 F12000.000
G1 X37.852 Y39.341 Z7.700 F12000.000
G1 X39.301 Y37.892 Z7.700 F12000.000
G1 X38.453 Y37.892 Z7.700 F12000.000
G1 X37.835 Y38.510 Z7.700 F12000.000
G1 X37.831 Y38.337 Z7.700 F12000.000
G2 X37.622 Y37.893 Z7.700 I-0.609 J0.016 K0.000 F12000.000
G1 X37.644 Y37.892 Z7.700 F12000.000
G1 X38.453 Y37.892 Z7.700 F12000.000
G0 Z14.700
G0 X35.276 Y38.523 Z14.700
G0 X35.276 Y38.523 Z12.700
G1 X35.276 Y38.523 Z7.700 F12000.000
G3 X35.279 Y39.175 Z7.700 I-6.213 J0.360 K0.000 F12000.000
G2 X35.290 Y39.316 Z7.700 I0.737 J0.017 K0.000 F12000.000
G3 X35.233 Y39.372 Z7.700 I-0.054 J0.002 K0.000 F12000.000
G1 X34.427 Y39.372 Z7.700 F12000.000
G1 X35.276 Y38.523 Z7.700 F12000.000
G1 X35.270 Y38.414 Z7.700 F12000.000
G3 X35.480 Y37.921 Z7.700 I0.607 J-0.032 K0.000 F12000.000
G2 X35.454 Y37.892 Z7.700 I-0.016 J-0.012 K0.000 F12000.000
G1 X35.059 Y37.892 Z7.700 F12000.000
G1 X33.578 Y39.372 Z7.700 F12000.000
G0 Z14.700
G0 X32.400 Y48.187 Z14.700
G0 X32.400 Y48.187 Z12.700
G1 X32.400 Y48.187 Z7.700 F12000.000
G1 X27.729 Y52.858 Z7.700 F12000.000
G1 X28.578 Y52.858 Z7.700 F12000.000
G1 X32.400 Y49.036 Z7.700 F12000.000
G1 X32.400 Y49.352 Z7.700 F12000.000
G2 X32.517 Y49.768 Z7.700 I0.617 J0.051 K0.000 F12000.000
G1 X29.426 Y52.858 Z7.700 F12000.000
G1 X30.275 Y52.858 Z7.700 F12000.000
G1 X33.104 Y50.029 Z7.700 F12000.000
G1 X33.953 Y50.029 Z7.700 F12000.000
G1 X31.123 Y52.858 Z7.700 F12000.000
G1 X31.972 Y52.858 Z7.700 F12000.000
G1 X34.801 Y50.029 Z7.700 F12000.000
G1 X35.650 Y50.029 Z7.700 F12000.000
G1 X32.820 Y52.858 Z7.700 F12000.000
G1 X33.669 Y52.858 Z7.700 F12000.000
G1 X36.498 Y50.029 Z7.700 F12000.000
G1 X37.347 Y50.029 Z7.700 F12000.000
G1 X34.517 Y52.858 Z7.700 F12000.000
G1 X35.366 Y52.858 Z7.700 F12000.000
G1 X38.196 Y50.029 Z7.700 F12000.000
G1 X39.044 Y50.029 Z7.700 F12000.000
G1 X36.214 Y52.858 Z7.700 F12000.000
G1 X37.063 Y52.858 Z7.700 F12000.000
G1 X39.893 Y50.029 Z7.700 F12000.000
G1 X40.741 Y50.029 Z7.700 F12000.000
G1 X37.911 Y52.858 Z7.700 F12000.000
G1 X38.760 Y52.858 Z7.700 F12000.000
G1 X40.580 Y51.038 Z7.700 F12000.000
G2 X40.057 Y52.269 Z7.700 I7.452 J3.890 K0.000 F12000.000
G2 X40.045 Y52.422 Z7.700 I0.520 J0.119 K0.000 F12000.000
G2 X40.255 Y52.856 Z7.700 I0.600 J-0.021 K0.000 F12000.000
G3 X40.255 Y52.857 Z7.700 I-0.000 J0.000 K0.000 F12000.000
G3 X40.232 Y52.858 Z7.700 I-0.012 J-0.015 K0.000 F12000.000
G1 X39.608 Y52.858 Z7.700 F12000.000
G1 X40.045 Y52.422 Z7.700 F12000.000
G0 Z14.700
G0 Z14.700
G0 X40.045 Y52.422
G0 X38.760 Y70.225
G0 X38.760 Y70.225 Z12.700
G1 X38.760 Y70.225 Z9.100 F12000.000
G1 X38.008 Y70.225 Z9.100 F12000.000
G3 X39.610 Y71.513 Z9.100 I-1.258 J3.204 K0.000 F12000.000
G3 X39.839 Y71.305 Z9.100 I1.956 J1.923 K0.000 F12000.000
G1 X38.760 Y70.225 Z9.100 F12000.000
G1 X39.608 Y70.225 Z9.100 F12000.000
G1 X40.346 Y70.963 Z9.100 F12000.000
G3 X40.939 Y70.707 Z9.100 I1.507 J2.677 K0.000 F12000.000
G1 X40.457 Y70.225 Z9.100 F12000.000
G1 X41.305 Y70.225 Z9.100 F12000.000
G1 X41.641 Y70.561 Z9.100 F12000.000
G3 X42.520 Y70.591 Z9.100 I0.329 J3.197 K0.000 F12000.000
G1 X42.154 Y70.225 Z9.100 F12000.000
G1 X43.002 Y70.225 Z9.100 F12000.000
G1 X44.018 Y71.240 Z9.100 F12000.000
G3 X44.902 Y72.124 Z9.100 I-2.269 J3.153 K0.000 F12000.000
G1 X57.969 Y85.192 Z9.100 F12000.000
G1 X58.818 Y85.192 Z9.100 F12000.000
G1 X43.851 Y70.225 Z9.100 F12000.000
G1 X44.700 Y70.225 Z9.100 F12000.000
G1 X59.666 Y85.192 Z9.100 F12000.000
G1 X60.515 Y85.192 Z9.100 F12000.000
G1 X45.548 Y70.225 Z9.100 F12000.000
G1 X46.397 Y70.225 Z9.100 F12000.000
G1 X61.363 Y85.192 Z9.100 F12000.000
G1 X62.212 Y85.192 Z9.100 F12000.000
G1 X47.245 Y70.225 Z9.100 F12000.000
G1 X48.094 Y70.225 Z9.100 F12000.000
G1 X63.060 Y85.192 Z9.100 F12000.000
G1 X63.909 Y85.192 Z9.100 F12000.000
G1 X48.942 Y70.225 Z9.100 F12000.000
G1 X49.791 Y70.225 Z9.100 F12000.000
G1 X64.757 Y85.192 Z9.100 F12000.000
G1 X65.606 Y85.192 Z9.100 F12000.000
G1 X50.639 Y70.225 Z9.100 F12000.000
G1 X51.488 Y70.225 Z9.100 F12000.000
G1 X66.454 Y85.192 Z9.100 F12000.000
G1 X67.303 Y85.192 Z9.100 F12000.000
G1 X52.336 Y70.225 Z9.100 F12000.000
G1 X53.185 Y70.225 Z9.100 F12000.000
G1 X68.151 Y85.192 Z9.100 F12000.000
G1 X69.000 Y85.192 Z9.100 F12000.000
G1 X54.033 Y70.225 Z9.100 F12000.000
G1 X54.882 Y70.225 Z9.100 F12000.000
G1 X69.025 Y84.368 Z9.100 F12000.000
G1 X69.025 Y83.520 Z9.100 F12000.000
G1 X55.730 Y70.225 Z9.100 F12000.000
G1 X56.579 Y70.225 Z9.100 F12000.000
G1 X69.025 Y82.671 Z9.100 F12000.000
G1 X69.025 Y81.823 Z9.100 F12000.000
G1 X57.427 Y70.225 Z9.100 F12000.000
G1 X58.276 Y70.225 Z9.100 F12000.000
G1 X69.025 Y80.974 Z9.100 F12000.000
G1 X69.025 Y80.126 Z9.100 F12000.000
G1 X59.125 Y70.225 Z9.100 F12000.000
G1 X59.973 Y70.225 Z9.100 F12000.000
G1 X69.025 Y79.277 Z9.100 F12000.000
G1 X69.025 Y78.428 Z9.100 F12000.000
G1 X60.822 Y70.225 Z9.100 F12000.000
G1 X61.670 Y70.225 Z9.100 F12000.000
G1 X69.025 Y77.580 Z9.100 F12000.000
G1 X69.025 Y76.731 Z9.100 F12000.000
G1 X62.519 Y70.225 Z9.100 F12000.000
G1 X63.367 Y70.225 Z9.100 F12000.000
G1 X69.025 Y75.883 Z9.100 F12000.000
G1 X69.025 Y75.034 Z9.100 F12000.000
G1 X64.216 Y70.225 Z9.100 F12000.000
G1 X65.064 Y70.225 Z9.100 F12000.000
G1 X69.025 Y74.186 Z9.100 F12000.000
G1 X69.025 Y73.337 Z9.100 F12000.000
G1 X65.913 Y70.225 Z9.100 F12000.000
G1 X66.761 Y70.225 Z9.100 F12000.000
G1 X69.025 Y72.489 Z9.100 F12000.000
G1 X69.025 Y71.640 Z9.100 F12000.000
G1 X67.610 Y70.225 Z9.100 F12000.000
G1 X68.458 Y70.225 Z9.100 F12000.000
G1 X69.025 Y70.792 Z9.100 F12000.000
G1 X69.025 Y70.247 Z9.100 F12000.000
G2 X69.004 Y70.225 Z9.100 I-0.012 J-0.009 K0.000 F12000.000
G1 X68.458 Y70.225 Z9.100 F12000.000
G0 Z14.700
G0 X57.969 Y85.192 Z14.700
G0 X57.969 Y85.192 Z12.700
G1 X57.969 Y85.192 Z9.100 F12000.000
G1 X44.902 Y72.124 Z9.100 F12000.000
G3 X45.583 Y73.654 Z9.100 I-3.191 J2.338 K0.000 F12000.000
G1 X57.121 Y85.192 Z9.100 F12000.000
G1 X56.272 Y85.192 Z9.100 F12000.000
G1 X45.668 Y74.587 Z9.100 F12000.000
G3 X45.627 Y75.396 Z9.100 I-4.048 J0.202 K0.000 F12000.000
G1 X55.423 Y85.192 Z9.100 F12000.000
G1 X54.575 Y85.192 Z9.100 F12000.000
G1 X45.465 Y76.081 Z9.100 F12000.000
G3 X45.212 Y76.677 Z9.100 I-3.601 J-1.176 K0.000 F12000.000
G1 X53.726 Y85.192 Z9.100 F12000.000
G1 X52.878 Y85.192 Z9.100 F12000.000
G1 X44.888 Y77.202 Z9.100 F12000.000
G3 X44.499 Y77.661 Z9.100 I-3.087 J-2.221 K0.000 F12000.000
G1 X52.029 Y85.192 Z9.100 F12000.000
G1 X51.181 Y85.192 Z9.100 F12000.000
G1 X44.046 Y78.056 Z9.100 F12000.000
G3 X43.530 Y78.389 Z9.100 I-2.193 J-2.836 K0.000 F12000.000
G1 X44.743 Y79.603 Z9.100 F12000.000
G3 X45.070 Y79.605 Z9.100 I0.137 J3.673 K0.000 F12000.000
G3 X45.648 Y80.079 Z9.100 I-0.024 J0.619 K0.000 F12000.000
G3 X45.683 Y80.542 Z9.100 I-3.569 J0.503 K0.000 F12000.000
G1 X50.332 Y85.192 Z9.100 F12000.000
G1 X49.484 Y85.192 Z9.100 F12000.000
G1 X45.635 Y81.343 Z9.100 F12000.000
G3 X45.447 Y81.621 Z9.100 I-0.555 J-0.172 K0.000 F12000.000
G3 X45.216 Y81.772 Z9.100 I-1.230 J-1.640 K0.000 F12000.000
G1 X48.635 Y85.192 Z9.100 F12000.000
G1 X47.787 Y85.192 Z9.100 F12000.000
G1 X44.715 Y82.120 Z9.100 F12000.000
G2 X44.254 Y82.508 Z9.100 I2.823 J3.824 K0.000 F12000.000
G1 X46.938 Y85.192 Z9.100 F12000.000
G1 X46.090 Y85.192 Z9.100 F12000.000
G1 X43.832 Y82.934 Z9.100 F12000.000
G2 X43.449 Y83.400 Z9.100 I4.695 J4.249 K0.000 F12000.000
G1 X45.241 Y85.192 Z9.100 F12000.000
G1 X44.393 Y85.192 Z9.100 F12000.000
G1 X43.106 Y83.905 Z9.100 F12000.000
G2 X42.805 Y84.452 Z9.100 I4.682 J2.935 K0.000 F12000.000
G1 X43.544 Y85.192 Z9.100 F12000.000
G1 X42.696 Y85.192 Z9.100 F12000.000
G1 X42.521 Y85.017 Z9.100 F12000.000
G3 X42.293 Y85.182 Z9.100 I-0.469 J-0.406 K0.000 F12000.000
G2 X42.291 Y85.187 Z9.100 I0.002 J0.004 K0.000 F12000.000
G2 X42.314 Y85.192 Z9.100 I0.014 J-0.010 K0.000 F12000.000
G1 X42.696 Y85.192 Z9.100 F12000.000
G0 Z14.700
G0 X40.964 Y82.611 Z14.700
G0 X40.964 Y82.611 Z12.700
G1 X40.964 Y82.611 Z9.100 F12000.000
G1 X40.631 Y82.279 Z9.100 F12000.000
G1 X41.158 Y82.279 Z9.100 F12000.000
G1 X41.178 Y82.280 Z9.100 F12000.000
G1 X41.171 Y82.293 Z9.100 F12000.000
G2 X40.964 Y82.611 Z9.100 I4.364 J3.070 K0.000 F12000.000
G2 X40.652 Y83.148 Z9.100 I7.137 J4.505 K0.000 F12000.000
G1 X39.782 Y82.279 Z9.100 F12000.000
G1 X38.934 Y82.279 Z9.100 F12000.000
G1 X40.372 Y83.717 Z9.100 F12000.000
G2 X40.126 Y84.319 Z9.100 I6.199 J2.890 K0.000 F12000.000
G1 X38.085 Y82.279 Z9.100 F12000.000
G1 X37.237 Y82.279 Z9.100 F12000.000
G1 X40.150 Y85.192 Z9.100 F12000.000
G1 X39.301 Y85.192 Z9.100 F12000.000
G1 X36.388 Y82.279 Z9.100 F12000.000
G1 X35.540 Y82.279 Z9.100 F12000.000
G1 X38.453 Y85.192 Z9.100 F12000.000
G1 X37.604 Y85.192 Z9.100 F12000.000
G1 X34.691 Y82.279 Z9.100 F12000.000
G1 X33.843 Y82.279 Z9.100 F12000.000
G1 X36.756 Y85.192 Z9.100 F12000.000
G1 X35.907 Y85.192 Z9.100 F12000.000
G1 X32.996 Y82.280 Z9.100 F12000.000
G0 Z14.700
G0 X34.171 Y78.364 Z14.700
G0 X34.171 Y78.364 Z12.700
G1 X34.171 Y78.364 Z9.100 F12000.000
G1 X35.409 Y79.603 Z9.100 F12000.000
G1 X36.258 Y79.603 Z9.100 F12000.000
G1 X35.598 Y78.942 Z9.100 F12000.000
G2 X36.177 Y79.014 Z9.100 I0.734 J-3.546 K0.000 F12000.000
G2 X36.442 Y78.938 Z9.100 I-0.026 J-0.591 K0.000 F12000.000
G1 X37.106 Y79.603 Z9.100 F12000.000
G1 X37.955 Y79.603 Z9.100 F12000.000
G1 X36.759 Y78.406 Z9.100 F12000.000
G2 X36.868 Y77.667 Z9.100 I-27.747 J-4.503 K0.000 F12000.000
G1 X38.804 Y79.603 Z9.100 F12000.000
G1 X39.652 Y79.603 Z9.100 F12000.000
G1 X36.953 Y76.903 Z9.100 F12000.000
G2 X36.469 Y76.366 Z9.100 I-0.594 J0.049 K0.000 F12000.000
G1 X36.404 Y76.354 Z9.100 F12000.000
G1 X34.596 Y74.546 Z9.100 F12000.000
G3 X34.742 Y73.844 Z9.100 I1.799 J0.007 K0.000 F12000.000
G1 X40.501 Y79.603 Z9.100 F12000.000
G1 X41.349 Y79.603 Z9.100 F12000.000
G1 X35.073 Y73.326 Z9.100 F12000.000
G3 X35.546 Y72.951 Z9.100 I1.319 J1.176 K0.000 F12000.000
G1 X38.076 Y75.481 Z9.100 F12000.000
G3 X38.193 Y74.749 Z9.100 I2.459 J0.017 K0.000 F12000.000
G1 X36.182 Y72.738 Z9.100 F12000.000
G3 X37.155 Y72.863 Z9.100 I0.264 J1.800 K0.000 F12000.000
G3 X38.085 Y73.793 Z9.100 I-0.648 J1.577 K0.000 F12000.000
G1 X37.155 Y72.863 Z9.100 F12000.000
G0 Z14.700
G0 X35.034 Y74.984 Z14.700
G0 X35.034 Y74.984 Z12.700
G1 X35.034 Y74.984 Z9.100 F12000.000
G1 X36.404 Y76.354 Z9.100 F12000.000
G3 X34.928 Y75.621 Z9.100 I0.491 J-2.840 K0.000 F12000.000
G3 X34.596 Y74.546 Z9.100 I1.489 J-1.049 K0.000 F12000.000
G1 X35.034 Y74.984 Z9.100 F12000.000
G0 Z14.700
G0 X38.703 Y76.108 Z14.700
G0 X38.703 Y76.108 Z12.700
G1 X38.703 Y76.108 Z9.100 F12000.000
G1 X42.198 Y79.603 Z9.100 F12000.000
G1 X43.046 Y79.603 Z9.100 F12000.000
G1 X42.268 Y78.824 Z9.100 F12000.000
G2 X42.941 Y78.649 Z9.100 I-0.646 J-3.861 K0.000 F12000.000
G1 X43.895 Y79.603 Z9.100 F12000.000
G1 X44.743 Y79.603 Z9.100 F12000.000
G1 X43.530 Y78.389 Z9.100 F12000.000
G0 Z14.700
G0 X41.253 Y77.810 Z14.700
G0 X41.253 Y77.810 Z12.700
G1 X41.253 Y77.810 Z9.100 F12000.000
G1 X39.470 Y76.026 Z9.100 F12000.000
G2 X40.128 Y75.919 Z9.100 I-1.102 J-8.783 K0.000 F12000.000
G1 X40.187 Y75.895 Z9.100 F12000.000
G1 X41.086 Y76.794 Z9.100 F12000.000
G3 X41.407 Y76.266 Z9.100 I0.594 J-0.001 K0.000 F12000.000
G1 X40.544 Y75.403 Z9.100 F12000.000
G2 X40.539 Y75.151 Z9.100 I-1.738 J-0.094 K0.000 F12000.000
G3 X40.595 Y74.606 Z9.100 I2.369 J-0.032 K0.000 F12000.000
G1 X42.084 Y76.095 Z9.100 F12000.000
G2 X42.643 Y75.806 Z9.100 I-0.649 J-1.943 K0.000 F12000.000
G1 X40.820 Y73.982 Z9.100 F12000.000
G3 X41.197 Y73.510 Z9.100 I1.155 J0.536 K0.000 F12000.000
G1 X43.078 Y75.391 Z9.100 F12000.000
G2 X43.234 Y75.066 Z9.100 I-0.825 J-0.597 K0.000 F12000.000
G2 X43.294 Y74.759 Z9.100 I-1.274 J-0.408 K0.000 F12000.000
G1 X41.789 Y73.254 Z9.100 F12000.000
G3 X43.082 Y73.862 Z9.100 I0.199 J1.255 K0.000 F12000.000
G3 X43.294 Y74.759 Z9.100 I-1.230 J0.765 K0.000 F12000.000
G0 Z14.700
G0 X34.517 Y70.225 Z14.700
G0 X34.517 Y70.225 Z12.700
G1 X34.517 Y70.225 Z9.100 F12000.000
G1 X34.664 Y70.372 Z9.100 F12000.000
G3 X34.974 Y70.226 Z9.100 I1.575 J2.948 K0.000 F12000.000
G1 X34.957 Y70.225 Z9.100 F12000.000
G1 X34.517 Y70.225 Z9.100 F12000.000
G1 X33.669 Y70.225 Z9.100 F12000.000
G1 X34.134 Y70.690 Z9.100 F12000.000
G2 X33.663 Y71.068 Z9.100 I2.439 J3.527 K0.000 F12000.000
G1 X32.820 Y70.225 Z9.100 F12000.000
G1 X31.972 Y70.225 Z9.100 F12000.000
G1 X33.250 Y71.504 Z9.100 F12000.000
G2 X32.894 Y71.996 Z9.100 I3.032 J2.565 K0.000 F12000.000
G1 X31.123 Y70.225 Z9.100 F12000.000
G1 X30.275 Y70.225 Z9.100 F12000.000
G1 X32.599 Y72.549 Z9.100 F12000.000
G2 X32.375 Y73.174 Z9.100 I3.833 J1.724 K0.000 F12000.000
G1 X29.426 Y70.225 Z9.100 F12000.000
G1 X28.578 Y70.225 Z9.100 F12000.000
G1 X32.221 Y73.868 Z9.100 F12000.000
G2 X32.170 Y74.666 Z9.100 I4.649 J0.696 K0.000 F12000.000
G1 X27.729 Y70.225 Z9.100 F12000.000
G1 X26.880 Y70.225 Z9.100 F12000.000
G1 X32.294 Y75.639 Z9.100 F12000.000
