(Exported by FreeCAD)
(Post Processor: script_module)
(Output Time:2024-05-22 18:16:00.541669)
(Begin preamble)
G17 G90
G21
(Begin operation: Fixture)
(Path: Fixture)
G54
(Finish operation: Fixture)
(Begin operation: 3.0mm_Endmill002)
(Path: 3.0mm_Endmill002)
(3.0mm_Endmill002)
(Begin toolchange)
( M6 T13 )
M3 S500
(Finish operation: 3.0mm_Endmill002)
(Begin operation: MillFace)
(Path: MillFace)
(MillFace)
G0 Z24.000
G0 X0.000 Y0.000
G0 X1.505 Y1.498
G0 X1.505 Y1.498 Z22.000
G1 X1.505 Y1.498 Z19.000 F100.000
G1 X258.505 Y1.498 Z19.000 F100.000
G1 X258.505 Y133.498 Z19.000 F100.000
G1 X1.505 Y133.498 Z19.000 F100.000
G1 X1.505 Y1.498 Z19.000 F100.000
G1 X1.805 Y1.798 Z19.000 F100.000
G1 X258.205 Y1.798 Z19.000 F100.000
G1 X258.205 Y133.198 Z19.000 F100.000
G1 X1.805 Y133.198 Z19.000 F100.000
G1 X1.805 Y1.798 Z19.000 F100.000
G1 X2.105 Y2.098 Z19.000 F100.000
G1 X257.905 Y2.098 Z19.000 F100.000
G1 X257.905 Y132.898 Z19.000 F100.000
G1 X2.105 Y132.898 Z19.000 F100.000
G1 X2.105 Y2.098 Z19.000 F100.000
G1 X2.405 Y2.398 Z19.000 F100.000
G1 X257.605 Y2.398 Z19.000 F100.000
G1 X257.605 Y132.598 Z19.000 F100.000
G1 X2.405 Y132.598 Z19.000 F100.000
G1 X2.405 Y2.398 Z19.000 F100.000
G1 X2.705 Y2.698 Z19.000 F100.000
G1 X257.305 Y2.698 Z19.000 F100.000
G1 X257.305 Y132.298 Z19.000 F100.000
G1 X2.705 Y132.298 Z19.000 F100.000
G1 X2.705 Y2.698 Z19.000 F100.000
G1 X3.005 Y2.998 Z19.000 F100.000
G1 X257.005 Y2.998 Z19.000 F100.000
G1 X257.005 Y131.998 Z19.000 F100.000
G1 X3.005 Y131.998 Z19.000 F100.000
G1 X3.005 Y2.998 Z19.000 F100.000
G1 X3.305 Y3.298 Z19.000 F100.000
G1 X256.705 Y3.298 Z19.000 F100.000
G1 X256.705 Y131.698 Z19.000 F100.000
G1 X3.305 Y131.698 Z19.000 F100.000
G1 X3.305 Y3.298 Z19.000 F100.000
G1 X3.605 Y3.598 Z19.000 F100.000
G1 X256.405 Y3.598 Z19.000 F100.000
G1 X256.405 Y131.398 Z19.000 F100.000
G1 X3.605 Y131.398 Z19.000 F100.000
G1 X3.605 Y3.598 Z19.000 F100.000
G1 X3.905 Y3.898 Z19.000 F100.000
G1 X256.105 Y3.898 Z19.000 F100.000
G1 X256.105 Y131.098 Z19.000 F100.000
G1 X3.905 Y131.098 Z19.000 F100.000
G1 X3.905 Y3.898 Z19.000 F100.000
G1 X4.205 Y4.198 Z19.000 F100.000
G1 X255.805 Y4.198 Z19.000 F100.000
G1 X255.805 Y130.798 Z19.000 F100.000
G1 X4.205 Y130.798 Z19.000 F100.000
G1 X4.205 Y4.198 Z19.000 F100.000
G1 X4.505 Y4.498 Z19.000 F100.000
G1 X255.505 Y4.498 Z19.000 F100.000
G1 X255.505 Y130.498 Z19.000 F100.000
G1 X4.505 Y130.498 Z19.000 F100.000
G1 X4.505 Y4.498 Z19.000 F100.000
G1 X4.805 Y4.798 Z19.000 F100.000
G1 X255.205 Y4.798 Z19.000 F100.000
G1 X255.205 Y130.198 Z19.000 F100.000
G1 X4.805 Y130.198 Z19.000 F100.000
G1 X4.805 Y4.798 Z19.000 F100.000
G1 X5.105 Y5.098 Z19.000 F100.000
G1 X254.905 Y5.098 Z19.000 F100.000
G1 X254.905 Y129.898 Z19.000 F100.000
G1 X5.105 Y129.898 Z19.000 F100.000
G1 X5.105 Y5.098 Z19.000 F100.000
G1 X5.405 Y5.398 Z19.000 F100.000
G1 X254.605 Y5.398 Z19.000 F100.000
G1 X254.605 Y129.598 Z19.000 F100.000
G1 X5.405 Y129.598 Z19.000 F100.000
G1 X5.405 Y5.398 Z19.000 F100.000
G1 X5.705 Y5.698 Z19.000 F100.000
G1 X254.305 Y5.698 Z19.000 F100.000
G1 X254.305 Y129.298 Z19.000 F100.000
G1 X5.705 Y129.298 Z19.000 F100.000
G1 X5.705 Y5.698 Z19.000 F100.000
G1 X6.005 Y5.998 Z19.000 F100.000
G1 X254.005 Y5.998 Z19.000 F100.000
G1 X254.005 Y128.998 Z19.000 F100.000
G1 X6.005 Y128.998 Z19.000 F100.000
G1 X6.005 Y5.998 Z19.000 F100.000
G1 X6.305 Y6.298 Z19.000 F100.000
G1 X253.705 Y6.298 Z19.000 F100.000
G1 X253.705 Y128.698 Z19.000 F100.000
G1 X6.305 Y128.698 Z19.000 F100.000
G1 X6.305 Y6.298 Z19.000 F100.000
G1 X6.605 Y6.598 Z19.000 F100.000
G1 X253.405 Y6.598 Z19.000 F100.000
G1 X253.405 Y128.398 Z19.000 F100.000
G1 X6.605 Y128.398 Z19.000 F100.000
G1 X6.605 Y6.598 Z19.000 F100.000
G1 X6.905 Y6.898 Z19.000 F100.000
G1 X253.105 Y6.898 Z19.000 F100.000
G1 X253.105 Y128.098 Z19.000 F100.000
G1 X6.905 Y128.098 Z19.000 F100.000
G1 X6.905 Y6.898 Z19.000 F100.000
G1 X7.205 Y7.198 Z19.000 F100.000
G1 X252.805 Y7.198 Z19.000 F100.000
G1 X252.805 Y127.798 Z19.000 F100.000
G1 X7.205 Y127.798 Z19.000 F100.000
G1 X7.205 Y7.198 Z19.000 F100.000
G1 X7.505 Y7.498 Z19.000 F100.000
G1 X252.505 Y7.498 Z19.000 F100.000
G1 X252.505 Y127.498 Z19.000 F100.000
G1 X7.505 Y127.498 Z19.000 F100.000
G1 X7.505 Y7.498 Z19.000 F100.000
G1 X7.805 Y7.798 Z19.000 F100.000
G1 X252.205 Y7.798 Z19.000 F100.000
G1 X252.205 Y127.198 Z19.000 F100.000
G1 X7.805 Y127.198 Z19.000 F100.000
G1 X7.805 Y7.798 Z19.000 F100.000
G1 X8.105 Y8.098 Z19.000 F100.000
G1 X251.905 Y8.098 Z19.000 F100.000
G1 X251.905 Y126.898 Z19.000 F100.000
G1 X8.105 Y126.898 Z19.000 F100.000
G1 X8.105 Y8.098 Z19.000 F100.000
G1 X8.405 Y8.398 Z19.000 F100.000
G1 X251.605 Y8.398 Z19.000 F100.000
G1 X251.605 Y126.598 Z19.000 F100.000
G1 X8.405 Y126.598 Z19.000 F100.000
G1 X8.405 Y8.398 Z19.000 F100.000
G1 X8.705 Y8.698 Z19.000 F100.000
G1 X251.305 Y8.698 Z19.000 F100.000
G1 X251.305 Y126.298 Z19.000 F100.000
G1 X8.705 Y126.298 Z19.000 F100.000
G1 X8.705 Y8.698 Z19.000 F100.000
G1 X9.005 Y8.998 Z19.000 F100.000
G1 X251.005 Y8.998 Z19.000 F100.000
G1 X251.005 Y125.998 Z19.000 F100.000
G1 X9.005 Y125.998 Z19.000 F100.000
G1 X9.005 Y8.998 Z19.000 F100.000
G1 X9.305 Y9.298 Z19.000 F100.000
G1 X250.705 Y9.298 Z19.000 F100.000
G1 X250.705 Y125.698 Z19.000 F100.000
G1 X9.305 Y125.698 Z19.000 F100.000
G1 X9.305 Y9.298 Z19.000 F100.000
G1 X9.605 Y9.598 Z19.000 F100.000
G1 X250.405 Y9.598 Z19.000 F100.000
G1 X250.405 Y125.398 Z19.000 F100.000
G1 X9.605 Y125.398 Z19.000 F100.000
G1 X9.605 Y9.598 Z19.000 F100.000
G1 X9.905 Y9.898 Z19.000 F100.000
G1 X250.105 Y9.898 Z19.000 F100.000
G1 X250.105 Y125.098 Z19.000 F100.000
G1 X9.905 Y125.098 Z19.000 F100.000
G1 X9.905 Y9.898 Z19.000 F100.000
G1 X10.205 Y10.198 Z19.000 F100.000
G1 X249.805 Y10.198 Z19.000 F100.000
G1 X249.805 Y124.798 Z19.000 F100.000
G1 X10.205 Y124.798 Z19.000 F100.000
G1 X10.205 Y10.198 Z19.000 F100.000
G1 X10.505 Y10.498 Z19.000 F100.000
G1 X249.505 Y10.498 Z19.000 F100.000
G1 X249.505 Y124.498 Z19.000 F100.000
G1 X10.505 Y124.498 Z19.000 F100.000
G1 X10.505 Y10.498 Z19.000 F100.000
G1 X10.805 Y10.798 Z19.000 F100.000
G1 X249.205 Y10.798 Z19.000 F100.000
G1 X249.205 Y124.198 Z19.000 F100.000
G1 X10.805 Y124.198 Z19.000 F100.000
G1 X10.805 Y10.798 Z19.000 F100.000
G1 X11.105 Y11.098 Z19.000 F100.000
G1 X248.905 Y11.098 Z19.000 F100.000
G1 X248.905 Y123.898 Z19.000 F100.000
G1 X11.105 Y123.898 Z19.000 F100.000
G1 X11.105 Y11.098 Z19.000 F100.000
G1 X11.405 Y11.398 Z19.000 F100.000
G1 X248.605 Y11.398 Z19.000 F100.000
G1 X248.605 Y123.598 Z19.000 F100.000
G1 X11.405 Y123.598 Z19.000 F100.000
G1 X11.405 Y11.398 Z19.000 F100.000
G1 X11.705 Y11.698 Z19.000 F100.000
G1 X248.305 Y11.698 Z19.000 F100.000
G1 X248.305 Y123.298 Z19.000 F100.000
G1 X11.705 Y123.298 Z19.000 F100.000
G1 X11.705 Y11.698 Z19.000 F100.000
G1 X12.005 Y11.998 Z19.000 F100.000
G1 X248.005 Y11.998 Z19.000 F100.000
G1 X248.005 Y122.998 Z19.000 F100.000
G1 X12.005 Y122.998 Z19.000 F100.000
G1 X12.005 Y11.998 Z19.000 F100.000
G1 X12.305 Y12.298 Z19.000 F100.000
G1 X247.705 Y12.298 Z19.000 F100.000
G1 X247.705 Y122.698 Z19.000 F100.000
G1 X12.305 Y122.698 Z19.000 F100.000
G1 X12.305 Y12.298 Z19.000 F100.000
G1 X12.605 Y12.598 Z19.000 F100.000
G1 X247.405 Y12.598 Z19.000 F100.000
G1 X247.405 Y122.398 Z19.000 F100.000
G1 X12.605 Y122.398 Z19.000 F100.000
G1 X12.605 Y12.598 Z19.000 F100.000
G1 X12.905 Y12.898 Z19.000 F100.000
G1 X247.105 Y12.898 Z19.000 F100.000
G1 X247.105 Y122.098 Z19.000 F100.000
G1 X12.905 Y122.098 Z19.000 F100.000
G1 X12.905 Y12.898 Z19.000 F100.000
G1 X13.205 Y13.198 Z19.000 F100.000
G1 X246.805 Y13.198 Z19.000 F100.000
G1 X246.805 Y121.798 Z19.000 F100.000
G1 X13.205 Y121.798 Z19.000 F100.000
G1 X13.205 Y13.198 Z19.000 F100.000
G1 X13.505 Y13.498 Z19.000 F100.000
G1 X246.505 Y13.498 Z19.000 F100.000
G1 X246.505 Y121.498 Z19.000 F100.000
G1 X13.505 Y121.498 Z19.000 F100.000
G1 X13.505 Y13.498 Z19.000 F100.000
G1 X13.805 Y13.798 Z19.000 F100.000
G1 X246.205 Y13.798 Z19.000 F100.000
G1 X246.205 Y121.198 Z19.000 F100.000
G1 X13.805 Y121.198 Z19.000 F100.000
G1 X13.805 Y13.798 Z19.000 F100.000
G1 X14.105 Y14.098 Z19.000 F100.000
G1 X245.905 Y14.098 Z19.000 F100.000
G1 X245.905 Y120.898 Z19.000 F100.000
G1 X14.105 Y120.898 Z19.000 F100.000
G1 X14.105 Y14.098 Z19.000 F100.000
G1 X14.405 Y14.398 Z19.000 F100.000
G1 X245.605 Y14.398 Z19.000 F100.000
G1 X245.605 Y120.598 Z19.000 F100.000
G1 X14.405 Y120.598 Z19.000 F100.000
G1 X14.405 Y14.398 Z19.000 F100.000
G1 X14.705 Y14.698 Z19.000 F100.000
G1 X245.305 Y14.698 Z19.000 F100.000
G1 X245.305 Y120.298 Z19.000 F100.000
G1 X14.705 Y120.298 Z19.000 F100.000
G1 X14.705 Y14.698 Z19.000 F100.000
G1 X15.005 Y14.998 Z19.000 F100.000
G1 X245.005 Y14.998 Z19.000 F100.000
G1 X245.005 Y119.998 Z19.000 F100.000
G1 X15.005 Y119.998 Z19.000 F100.000
G1 X15.005 Y14.998 Z19.000 F100.000
G1 X15.305 Y15.298 Z19.000 F100.000
G1 X244.705 Y15.298 Z19.000 F100.000
G1 X244.705 Y119.698 Z19.000 F100.000
G1 X15.305 Y119.698 Z19.000 F100.000
G1 X15.305 Y15.298 Z19.000 F100.000
G1 X15.605 Y15.598 Z19.000 F100.000
G1 X244.405 Y15.598 Z19.000 F100.000
G1 X244.405 Y119.398 Z19.000 F100.000
G1 X15.605 Y119.398 Z19.000 F100.000
G1 X15.605 Y15.598 Z19.000 F100.000
G1 X15.905 Y15.898 Z19.000 F100.000
G1 X244.105 Y15.898 Z19.000 F100.000
G1 X244.105 Y119.098 Z19.000 F100.000
G1 X15.905 Y119.098 Z19.000 F100.000
G1 X15.905 Y15.898 Z19.000 F100.000
G1 X16.205 Y16.198 Z19.000 F100.000
G1 X243.805 Y16.198 Z19.000 F100.000
G1 X243.805 Y118.798 Z19.000 F100.000
G1 X16.205 Y118.798 Z19.000 F100.000
G1 X16.205 Y16.198 Z19.000 F100.000
G1 X16.505 Y16.498 Z19.000 F100.000
G1 X243.505 Y16.498 Z19.000 F100.000
G1 X243.505 Y118.498 Z19.000 F100.000
G1 X16.505 Y118.498 Z19.000 F100.000
G1 X16.505 Y16.498 Z19.000 F100.000
G1 X16.805 Y16.798 Z19.000 F100.000
G1 X243.205 Y16.798 Z19.000 F100.000
G1 X243.205 Y118.198 Z19.000 F100.000
G1 X16.805 Y118.198 Z19.000 F100.000
G1 X16.805 Y16.798 Z19.000 F100.000
G1 X17.105 Y17.098 Z19.000 F100.000
G1 X242.905 Y17.098 Z19.000 F100.000
G1 X242.905 Y117.898 Z19.000 F100.000
G1 X17.105 Y117.898 Z19.000 F100.000
G1 X17.105 Y17.098 Z19.000 F100.000
G1 X17.405 Y17.398 Z19.000 F100.000
G1 X242.605 Y17.398 Z19.000 F100.000
G1 X242.605 Y117.598 Z19.000 F100.000
G1 X17.405 Y117.598 Z19.000 F100.000
G1 X17.405 Y17.398 Z19.000 F100.000
G1 X17.705 Y17.698 Z19.000 F100.000
G1 X242.305 Y17.698 Z19.000 F100.000
G1 X242.305 Y117.298 Z19.000 F100.000
G1 X17.705 Y117.298 Z19.000 F100.000
G1 X17.705 Y17.698 Z19.000 F100.000
G1 X18.005 Y17.998 Z19.000 F100.000
G1 X242.005 Y17.998 Z19.000 F100.000
G1 X242.005 Y116.998 Z19.000 F100.000
G1 X18.005 Y116.998 Z19.000 F100.000
G1 X18.005 Y17.998 Z19.000 F100.000
G1 X18.305 Y18.298 Z19.000 F100.000
G1 X241.705 Y18.298 Z19.000 F100.000
G1 X241.705 Y116.698 Z19.000 F100.000
G1 X18.305 Y116.698 Z19.000 F100.000
G1 X18.305 Y18.298 Z19.000 F100.000
G1 X18.605 Y18.598 Z19.000 F100.000
G1 X241.405 Y18.598 Z19.000 F100.000
G1 X241.405 Y116.398 Z19.000 F100.000
G1 X18.605 Y116.398 Z19.000 F100.000
G1 X18.605 Y18.598 Z19.000 F100.000
G1 X18.905 Y18.898 Z19.000 F100.000
G1 X241.105 Y18.898 Z19.000 F100.000
G1 X241.105 Y116.098 Z19.000 F100.000
G1 X18.905 Y116.098 Z19.000 F100.000
G1 X18.905 Y18.898 Z19.000 F100.000
G1 X19.205 Y19.198 Z19.000 F100.000
G1 X240.805 Y19.198 Z19.000 F100.000
G1 X240.805 Y115.798 Z19.000 F100.000
G1 X19.205 Y115.798 Z19.000 F100.000
G1 X19.205 Y19.198 Z19.000 F100.000
G1 X19.505 Y19.498 Z19.000 F100.000
G1 X240.505 Y19.498 Z19.000 F100.000
G1 X240.505 Y115.498 Z19.000 F100.000
G1 X19.505 Y115.498 Z19.000 F100.000
G1 X19.505 Y19.498 Z19.000 F100.000
G1 X19.805 Y19.798 Z19.000 F100.000
G1 X240.205 Y19.798 Z19.000 F100.000
G1 X240.205 Y115.198 Z19.000 F100.000
G1 X19.805 Y115.198 Z19.000 F100.000
G1 X19.805 Y19.798 Z19.000 F100.000
G1 X20.105 Y20.098 Z19.000 F100.000
G1 X239.905 Y20.098 Z19.000 F100.000
G1 X239.905 Y114.898 Z19.000 F100.000
G1 X20.105 Y114.898 Z19.000 F100.000
G1 X20.105 Y20.098 Z19.000 F100.000
G1 X20.405 Y20.398 Z19.000 F100.000
G1 X239.605 Y20.398 Z19.000 F100.000
G1 X239.605 Y114.598 Z19.000 F100.000
G1 X20.405 Y114.598 Z19.000 F100.000
G1 X20.405 Y20.398 Z19.000 F100.000
G1 X20.705 Y20.698 Z19.000 F100.000
G1 X239.305 Y20.698 Z19.000 F100.000
G1 X239.305 Y114.298 Z19.000 F100.000
G1 X20.705 Y114.298 Z19.000 F100.000
G1 X20.705 Y20.698 Z19.000 F100.000
G1 X21.005 Y20.998 Z19.000 F100.000
G1 X239.005 Y20.998 Z19.000 F100.000
G1 X239.005 Y113.998 Z19.000 F100.000
G1 X21.005 Y113.998 Z19.000 F100.000
G1 X21.005 Y20.998 Z19.000 F100.000
G1 X21.305 Y21.298 Z19.000 F100.000
G1 X238.705 Y21.298 Z19.000 F100.000
G1 X238.705 Y113.698 Z19.000 F100.000
G1 X21.305 Y113.698 Z19.000 F100.000
G1 X21.305 Y21.298 Z19.000 F100.000
G1 X21.605 Y21.598 Z19.000 F100.000
G1 X238.405 Y21.598 Z19.000 F100.000
G1 X238.405 Y113.398 Z19.000 F100.000
G1 X21.605 Y113.398 Z19.000 F100.000
G1 X21.605 Y21.598 Z19.000 F100.000
G1 X21.905 Y21.898 Z19.000 F100.000
G1 X238.105 Y21.898 Z19.000 F100.000
G1 X238.105 Y113.098 Z19.000 F100.000
G1 X21.905 Y113.098 Z19.000 F100.000
G1 X21.905 Y21.898 Z19.000 F100.000
G1 X22.205 Y22.198 Z19.000 F100.000
G1 X237.805 Y22.198 Z19.000 F100.000
G1 X237.805 Y112.798 Z19.000 F100.000
G1 X22.205 Y112.798 Z19.000 F100.000
G1 X22.205 Y22.198 Z19.000 F100.000
G1 X22.505 Y22.498 Z19.000 F100.000
G1 X237.505 Y22.498 Z19.000 F100.000
G1 X237.505 Y112.498 Z19.000 F100.000
G1 X22.505 Y112.498 Z19.000 F100.000
G1 X22.505 Y22.498 Z19.000 F100.000
G1 X22.805 Y22.798 Z19.000 F100.000
G1 X237.205 Y22.798 Z19.000 F100.000
G1 X237.205 Y112.198 Z19.000 F100.000
G1 X22.805 Y112.198 Z19.000 F100.000
G1 X22.805 Y22.798 Z19.000 F100.000
G1 X23.105 Y23.098 Z19.000 F100.000
G1 X236.905 Y23.098 Z19.000 F100.000
G1 X236.905 Y111.898 Z19.000 F100.000
G1 X23.105 Y111.898 Z19.000 F100.000
G1 X23.105 Y23.098 Z19.000 F100.000
G1 X23.405 Y23.398 Z19.000 F100.000
G1 X236.605 Y23.398 Z19.000 F100.000
G1 X236.605 Y111.598 Z19.000 F100.000
G1 X23.405 Y111.598 Z19.000 F100.000
G1 X23.405 Y23.398 Z19.000 F100.000
G1 X23.705 Y23.698 Z19.000 F100.000
G1 X236.305 Y23.698 Z19.000 F100.000
G1 X236.305 Y111.298 Z19.000 F100.000
G1 X23.705 Y111.298 Z19.000 F100.000
G1 X23.705 Y23.698 Z19.000 F100.000
G1 X24.005 Y23.998 Z19.000 F100.000
G1 X236.005 Y23.998 Z19.000 F100.000
G1 X236.005 Y110.998 Z19.000 F100.000
G1 X24.005 Y110.998 Z19.000 F100.000
G1 X24.005 Y23.998 Z19.000 F100.000
G1 X24.305 Y24.298 Z19.000 F100.000
G1 X235.705 Y24.298 Z19.000 F100.000
G1 X235.705 Y110.698 Z19.000 F100.000
G1 X24.305 Y110.698 Z19.000 F100.000
G1 X24.305 Y24.298 Z19.000 F100.000
G1 X24.605 Y24.598 Z19.000 F100.000
G1 X235.405 Y24.598 Z19.000 F100.000
G1 X235.405 Y110.398 Z19.000 F100.000
G1 X24.605 Y110.398 Z19.000 F100.000
G1 X24.605 Y24.598 Z19.000 F100.000
G1 X24.905 Y24.898 Z19.000 F100.000
G1 X235.105 Y24.898 Z19.000 F100.000
G1 X235.105 Y110.098 Z19.000 F100.000
G1 X24.905 Y110.098 Z19.000 F100.000
G1 X24.905 Y24.898 Z19.000 F100.000
G1 X25.205 Y25.198 Z19.000 F100.000
G1 X234.805 Y25.198 Z19.000 F100.000
G1 X234.805 Y109.798 Z19.000 F100.000
G1 X25.205 Y109.798 Z19.000 F100.000
G1 X25.205 Y25.198 Z19.000 F100.000
G1 X25.505 Y25.498 Z19.000 F100.000
G1 X234.505 Y25.498 Z19.000 F100.000
G1 X234.505 Y109.498 Z19.000 F100.000
G1 X25.505 Y109.498 Z19.000 F100.000
G1 X25.505 Y25.498 Z19.000 F100.000
G1 X25.805 Y25.798 Z19.000 F100.000
G1 X234.205 Y25.798 Z19.000 F100.000
G1 X234.205 Y109.198 Z19.000 F100.000
G1 X25.805 Y109.198 Z19.000 F100.000
G1 X25.805 Y25.798 Z19.000 F100.000
G1 X26.105 Y26.098 Z19.000 F100.000
G1 X233.905 Y26.098 Z19.000 F100.000
G1 X233.905 Y108.898 Z19.000 F100.000
G1 X26.105 Y108.898 Z19.000 F100.000
G1 X26.105 Y26.098 Z19.000 F100.000
G1 X26.405 Y26.398 Z19.000 F100.000
G1 X233.605 Y26.398 Z19.000 F100.000
G1 X233.605 Y108.598 Z19.000 F100.000
G1 X26.405 Y108.598 Z19.000 F100.000
G1 X26.405 Y26.398 Z19.000 F100.000
G1 X26.705 Y26.698 Z19.000 F100.000
G1 X233.305 Y26.698 Z19.000 F100.000
G1 X233.305 Y108.298 Z19.000 F100.000
G1 X26.705 Y108.298 Z19.000 F100.000
G1 X26.705 Y26.698 Z19.000 F100.000
G1 X27.005 Y26.998 Z19.000 F100.000
G1 X233.005 Y26.998 Z19.000 F100.000
G1 X233.005 Y107.998 Z19.000 F100.000
G1 X27.005 Y107.998 Z19.000 F100.000
G1 X27.005 Y26.998 Z19.000 F100.000
G1 X27.305 Y27.298 Z19.000 F100.000
G1 X232.705 Y27.298 Z19.000 F100.000
G1 X232.705 Y107.698 Z19.000 F100.000
G1 X27.305 Y107.698 Z19.000 F100.000
G1 X27.305 Y27.298 Z19.000 F100.000
G1 X27.605 Y27.598 Z19.000 F100.000
G1 X232.405 Y27.598 Z19.000 F100.000
G1 X232.405 Y107.398 Z19.000 F100.000
G1 X27.605 Y107.398 Z19.000 F100.000
G1 X27.605 Y27.598 Z19.000 F100.000
G1 X27.905 Y27.898 Z19.000 F100.000
G1 X232.105 Y27.898 Z19.000 F100.000
G1 X232.105 Y107.098 Z19.000 F100.000
G1 X27.905 Y107.098 Z19.000 F100.000
G1 X27.905 Y27.898 Z19.000 F100.000
G1 X28.205 Y28.198 Z19.000 F100.000
G1 X231.805 Y28.198 Z19.000 F100.000
G1 X231.805 Y106.798 Z19.000 F100.000
G1 X28.205 Y106.798 Z19.000 F100.000
G1 X28.205 Y28.198 Z19.000 F100.000
G1 X28.505 Y28.498 Z19.000 F100.000
G1 X231.505 Y28.498 Z19.000 F100.000
G1 X231.505 Y106.498 Z19.000 F100.000
G1 X28.505 Y106.498 Z19.000 F100.000
G1 X28.505 Y28.498 Z19.000 F100.000
G1 X28.805 Y28.798 Z19.000 F100.000
G1 X231.205 Y28.798 Z19.000 F100.000
G1 X231.205 Y106.198 Z19.000 F100.000
G1 X28.805 Y106.198 Z19.000 F100.000
G1 X28.805 Y28.798 Z19.000 F100.000
G1 X29.105 Y29.098 Z19.000 F100.000
G1 X230.905 Y29.098 Z19.000 F100.000
G1 X230.905 Y105.898 Z19.000 F100.000
G1 X29.105 Y105.898 Z19.000 F100.000
G1 X29.105 Y29.098 Z19.000 F100.000
G1 X29.405 Y29.398 Z19.000 F100.000
G1 X230.605 Y29.398 Z19.000 F100.000
G1 X230.605 Y105.598 Z19.000 F100.000
G1 X29.405 Y105.598 Z19.000 F100.000
G1 X29.405 Y29.398 Z19.000 F100.000
G1 X29.705 Y29.698 Z19.000 F100.000
G1 X230.305 Y29.698 Z19.000 F100.000
G1 X230.305 Y105.298 Z19.000 F100.000
G1 X29.705 Y105.298 Z19.000 F100.000
G1 X29.705 Y29.698 Z19.000 F100.000
G1 X30.005 Y29.998 Z19.000 F100.000
G1 X230.005 Y29.998 Z19.000 F100.000
G1 X230.005 Y104.998 Z19.000 F100.000
G1 X30.005 Y104.998 Z19.000 F100.000
G1 X30.005 Y29.998 Z19.000 F100.000
G1 X30.305 Y30.298 Z19.000 F100.000
G1 X229.705 Y30.298 Z19.000 F100.000
G1 X229.705 Y104.698 Z19.000 F100.000
G1 X30.305 Y104.698 Z19.000 F100.000
G1 X30.305 Y30.298 Z19.000 F100.000
G1 X30.605 Y30.598 Z19.000 F100.000
G1 X229.405 Y30.598 Z19.000 F100.000
G1 X229.405 Y104.398 Z19.000 F100.000
G1 X30.605 Y104.398 Z19.000 F100.000
G1 X30.605 Y30.598 Z19.000 F100.000
G1 X30.905 Y30.898 Z19.000 F100.000
G1 X229.105 Y30.898 Z19.000 F100.000
G1 X229.105 Y104.098 Z19.000 F100.000
G1 X30.905 Y104.098 Z19.000 F100.000
G1 X30.905 Y30.898 Z19.000 F100.000
G1 X31.205 Y31.198 Z19.000 F100.000
G1 X228.805 Y31.198 Z19.000 F100.000
G1 X228.805 Y103.798 Z19.000 F100.000
G1 X31.205 Y103.798 Z19.000 F100.000
G1 X31.205 Y31.198 Z19.000 F100.000
G1 X31.505 Y31.498 Z19.000 F100.000
G1 X228.505 Y31.498 Z19.000 F100.000
G1 X228.505 Y103.498 Z19.000 F100.000
G1 X31.505 Y103.498 Z19.000 F100.000
G1 X31.505 Y31.498 Z19.000 F100.000
G1 X31.805 Y31.798 Z19.000 F100.000
G1 X228.205 Y31.798 Z19.000 F100.000
G1 X228.205 Y103.198 Z19.000 F100.000
G1 X31.805 Y103.198 Z19.000 F100.000
G1 X31.805 Y31.798 Z19.000 F100.000
G1 X32.105 Y32.098 Z19.000 F100.000
G1 X227.905 Y32.098 Z19.000 F100.000
G1 X227.905 Y102.898 Z19.000 F100.000
G1 X32.105 Y102.898 Z19.000 F100.000
G1 X32.105 Y32.098 Z19.000 F100.000
G1 X32.405 Y32.398 Z19.000 F100.000
G1 X227.605 Y32.398 Z19.000 F100.000
G1 X227.605 Y102.598 Z19.000 F100.000
G1 X32.405 Y102.598 Z19.000 F100.000
G1 X32.405 Y32.398 Z19.000 F100.000
G1 X32.705 Y32.698 Z19.000 F100.000
G1 X227.305 Y32.698 Z19.000 F100.000
G1 X227.305 Y102.298 Z19.000 F100.000
G1 X32.705 Y102.298 Z19.000 F100.000
G1 X32.705 Y32.698 Z19.000 F100.000
G1 X33.005 Y32.998 Z19.000 F100.000
G1 X227.005 Y32.998 Z19.000 F100.000
G1 X227.005 Y101.998 Z19.000 F100.000
G1 X33.005 Y101.998 Z19.000 F100.000
G1 X33.005 Y32.998 Z19.000 F100.000
G1 X33.305 Y33.298 Z19.000 F100.000
G1 X226.705 Y33.298 Z19.000 F100.000
G1 X226.705 Y101.698 Z19.000 F100.000
G1 X33.305 Y101.698 Z19.000 F100.000
G1 X33.305 Y33.298 Z19.000 F100.000
G1 X33.605 Y33.598 Z19.000 F100.000
G1 X226.405 Y33.598 Z19.000 F100.000
G1 X226.405 Y101.398 Z19.000 F100.000
G1 X33.605 Y101.398 Z19.000 F100.000
G1 X33.605 Y33.598 Z19.000 F100.000
G1 X33.905 Y33.898 Z19.000 F100.000
G1 X226.105 Y33.898 Z19.000 F100.000
G1 X226.105 Y101.098 Z19.000 F100.000
G1 X33.905 Y101.098 Z19.000 F100.000
G1 X33.905 Y33.898 Z19.000 F100.000
G1 X34.205 Y34.198 Z19.000 F100.000
G1 X225.805 Y34.198 Z19.000 F100.000
G1 X225.805 Y100.798 Z19.000 F100.000
G1 X34.205 Y100.798 Z19.000 F100.000
G1 X34.205 Y34.198 Z19.000 F100.000
G1 X34.505 Y34.498 Z19.000 F100.000
G1 X225.505 Y34.498 Z19.000 F100.000
G1 X225.505 Y100.498 Z19.000 F100.000
G1 X34.505 Y100.498 Z19.000 F100.000
G1 X34.505 Y34.498 Z19.000 F100.000
G1 X34.805 Y34.798 Z19.000 F100.000
G1 X225.205 Y34.798 Z19.000 F100.000
G1 X225.205 Y100.198 Z19.000 F100.000
G1 X34.805 Y100.198 Z19.000 F100.000
G1 X34.805 Y34.798 Z19.000 F100.000
G1 X35.105 Y35.098 Z19.000 F100.000
G1 X224.905 Y35.098 Z19.000 F100.000
G1 X224.905 Y99.898 Z19.000 F100.000
G1 X35.105 Y99.898 Z19.000 F100.000
G1 X35.105 Y35.098 Z19.000 F100.000
G1 X35.405 Y35.398 Z19.000 F100.000
G1 X224.605 Y35.398 Z19.000 F100.000
G1 X224.605 Y99.598 Z19.000 F100.000
G1 X35.405 Y99.598 Z19.000 F100.000
G1 X35.405 Y35.398 Z19.000 F100.000
G1 X35.705 Y35.698 Z19.000 F100.000
G1 X224.305 Y35.698 Z19.000 F100.000
G1 X224.305 Y99.298 Z19.000 F100.000
G1 X35.705 Y99.298 Z19.000 F100.000
G1 X35.705 Y35.698 Z19.000 F100.000
G1 X36.005 Y35.998 Z19.000 F100.000
G1 X224.005 Y35.998 Z19.000 F100.000
G1 X224.005 Y98.998 Z19.000 F100.000
G1 X36.005 Y98.998 Z19.000 F100.000
G1 X36.005 Y35.998 Z19.000 F100.000
G1 X36.305 Y36.298 Z19.000 F100.000
G1 X223.705 Y36.298 Z19.000 F100.000
G1 X223.705 Y98.698 Z19.000 F100.000
G1 X36.305 Y98.698 Z19.000 F100.000
G1 X36.305 Y36.298 Z19.000 F100.000
G1 X36.605 Y36.598 Z19.000 F100.000
G1 X223.405 Y36.598 Z19.000 F100.000
G1 X223.405 Y98.398 Z19.000 F100.000
G1 X36.605 Y98.398 Z19.000 F100.000
G1 X36.605 Y36.598 Z19.000 F100.000
G1 X36.905 Y36.898 Z19.000 F100.000
G1 X223.105 Y36.898 Z19.000 F100.000
G1 X223.105 Y98.098 Z19.000 F100.000
G1 X36.905 Y98.098 Z19.000 F100.000
G1 X36.905 Y36.898 Z19.000 F100.000
G1 X37.205 Y37.198 Z19.000 F100.000
G1 X222.805 Y37.198 Z19.000 F100.000
G1 X222.805 Y97.798 Z19.000 F100.000
G1 X37.205 Y97.798 Z19.000 F100.000
G1 X37.205 Y37.198 Z19.000 F100.000
G1 X37.505 Y37.498 Z19.000 F100.000
G1 X222.505 Y37.498 Z19.000 F100.000
G1 X222.505 Y97.498 Z19.000 F100.000
G1 X37.505 Y97.498 Z19.000 F100.000
G1 X37.505 Y37.498 Z19.000 F100.000
G1 X37.805 Y37.798 Z19.000 F100.000
G1 X222.205 Y37.798 Z19.000 F100.000
G1 X222.205 Y97.198 Z19.000 F100.000
G1 X37.805 Y97.198 Z19.000 F100.000
G1 X37.805 Y37.798 Z19.000 F100.000
G1 X38.105 Y38.098 Z19.000 F100.000
G1 X221.905 Y38.098 Z19.000 F100.000
G1 X221.905 Y96.898 Z19.000 F100.000
G1 X38.105 Y96.898 Z19.000 F100.000
G1 X38.105 Y38.098 Z19.000 F100.000
G1 X38.405 Y38.398 Z19.000 F100.000
G1 X221.605 Y38.398 Z19.000 F100.000
G1 X221.605 Y96.598 Z19.000 F100.000
G1 X38.405 Y96.598 Z19.000 F100.000
G1 X38.405 Y38.398 Z19.000 F100.000
G1 X38.705 Y38.698 Z19.000 F100.000
G1 X221.305 Y38.698 Z19.000 F100.000
G1 X221.305 Y96.298 Z19.000 F100.000
G1 X38.705 Y96.298 Z19.000 F100.000
G1 X38.705 Y38.698 Z19.000 F100.000
G1 X39.005 Y38.998 Z19.000 F100.000
G1 X221.005 Y38.998 Z19.000 F100.000
G1 X221.005 Y95.998 Z19.000 F100.000
G1 X39.005 Y95.998 Z19.000 F100.000
G1 X39.005 Y38.998 Z19.000 F100.000
G1 X39.305 Y39.298 Z19.000 F100.000
G1 X220.705 Y39.298 Z19.000 F100.000
G1 X220.705 Y95.698 Z19.000 F100.000
G1 X39.305 Y95.698 Z19.000 F100.000
G1 X39.305 Y39.298 Z19.000 F100.000
G1 X39.605 Y39.598 Z19.000 F100.000
G1 X220.405 Y39.598 Z19.000 F100.000
G1 X220.405 Y95.398 Z19.000 F100.000
G1 X39.605 Y95.398 Z19.000 F100.000
G1 X39.605 Y39.598 Z19.000 F100.000
G1 X39.905 Y39.898 Z19.000 F100.000
G1 X220.105 Y39.898 Z19.000 F100.000
G1 X220.105 Y95.098 Z19.000 F100.000
G1 X39.905 Y95.098 Z19.000 F100.000
G1 X39.905 Y39.898 Z19.000 F100.000
G1 X40.205 Y40.198 Z19.000 F100.000
G1 X219.805 Y40.198 Z19.000 F100.000
G1 X219.805 Y94.798 Z19.000 F100.000
G1 X40.205 Y94.798 Z19.000 F100.000
G1 X40.205 Y40.198 Z19.000 F100.000
G1 X40.505 Y40.498 Z19.000 F100.000
G1 X219.505 Y40.498 Z19.000 F100.000
G1 X219.505 Y94.498 Z19.000 F100.000
G1 X40.505 Y94.498 Z19.000 F100.000
G1 X40.505 Y40.498 Z19.000 F100.000
G1 X40.805 Y40.798 Z19.000 F100.000
G1 X219.205 Y40.798 Z19.000 F100.000
G1 X219.205 Y94.198 Z19.000 F100.000
G1 X40.805 Y94.198 Z19.000 F100.000
G1 X40.805 Y40.798 Z19.000 F100.000
G1 X41.105 Y41.098 Z19.000 F100.000
G1 X218.905 Y41.098 Z19.000 F100.000
G1 X218.905 Y93.898 Z19.000 F100.000
G1 X41.105 Y93.898 Z19.000 F100.000
G1 X41.105 Y41.098 Z19.000 F100.000
G1 X41.405 Y41.398 Z19.000 F100.000
G1 X218.605 Y41.398 Z19.000 F100.000
G1 X218.605 Y93.598 Z19.000 F100.000
G1 X41.405 Y93.598 Z19.000 F100.000
G1 X41.405 Y41.398 Z19.000 F100.000
G1 X41.705 Y41.698 Z19.000 F100.000
G1 X218.305 Y41.698 Z19.000 F100.000
G1 X218.305 Y93.298 Z19.000 F100.000
G1 X41.705 Y93.298 Z19.000 F100.000
G1 X41.705 Y41.698 Z19.000 F100.000
G1 X42.005 Y41.998 Z19.000 F100.000
G1 X218.005 Y41.998 Z19.000 F100.000
G1 X218.005 Y92.998 Z19.000 F100.000
G1 X42.005 Y92.998 Z19.000 F100.000
G1 X42.005 Y41.998 Z19.000 F100.000
G1 X42.305 Y42.298 Z19.000 F100.000
G1 X217.705 Y42.298 Z19.000 F100.000
G1 X217.705 Y92.698 Z19.000 F100.000
G1 X42.305 Y92.698 Z19.000 F100.000
G1 X42.305 Y42.298 Z19.000 F100.000
G1 X42.605 Y42.598 Z19.000 F100.000
G1 X217.405 Y42.598 Z19.000 F100.000
G1 X217.405 Y92.398 Z19.000 F100.000
G1 X42.605 Y92.398 Z19.000 F100.000
G1 X42.605 Y42.598 Z19.000 F100.000
G1 X42.905 Y42.898 Z19.000 F100.000
G1 X217.105 Y42.898 Z19.000 F100.000
G1 X217.105 Y92.098 Z19.000 F100.000
G1 X42.905 Y92.098 Z19.000 F100.000
G1 X42.905 Y42.898 Z19.000 F100.000
G1 X43.205 Y43.198 Z19.000 F100.000
G1 X216.805 Y43.198 Z19.000 F100.000
G1 X216.805 Y91.798 Z19.000 F100.000
G1 X43.205 Y91.798 Z19.000 F100.000
G1 X43.205 Y43.198 Z19.000 F100.000
G1 X43.505 Y43.498 Z19.000 F100.000
G1 X216.505 Y43.498 Z19.000 F100.000
G1 X216.505 Y91.498 Z19.000 F100.000
G1 X43.505 Y91.498 Z19.000 F100.000
G1 X43.505 Y43.498 Z19.000 F100.000
G1 X43.805 Y43.798 Z19.000 F100.000
G1 X216.205 Y43.798 Z19.000 F100.000
G1 X216.205 Y91.198 Z19.000 F100.000
G1 X43.805 Y91.198 Z19.000 F100.000
G1 X43.805 Y43.798 Z19.000 F100.000
G1 X44.105 Y44.098 Z19.000 F100.000
G1 X215.905 Y44.098 Z19.000 F100.000
G1 X215.905 Y90.898 Z19.000 F100.000
G1 X44.105 Y90.898 Z19.000 F100.000
G1 X44.105 Y44.098 Z19.000 F100.000
G1 X44.405 Y44.398 Z19.000 F100.000
G1 X215.605 Y44.398 Z19.000 F100.000
G1 X215.605 Y90.598 Z19.000 F100.000
G1 X44.405 Y90.598 Z19.000 F100.000
G1 X44.405 Y44.398 Z19.000 F100.000
G1 X44.705 Y44.698 Z19.000 F100.000
G1 X215.305 Y44.698 Z19.000 F100.000
G1 X215.305 Y90.298 Z19.000 F100.000
G1 X44.705 Y90.298 Z19.000 F100.000
G1 X44.705 Y44.698 Z19.000 F100.000
G1 X45.005 Y44.998 Z19.000 F100.000
G1 X215.005 Y44.998 Z19.000 F100.000
G1 X215.005 Y89.998 Z19.000 F100.000
G1 X45.005 Y89.998 Z19.000 F100.000
G1 X45.005 Y44.998 Z19.000 F100.000
G1 X45.305 Y45.298 Z19.000 F100.000
G1 X214.705 Y45.298 Z19.000 F100.000
G1 X214.705 Y89.698 Z19.000 F100.000
G1 X45.305 Y89.698 Z19.000 F100.000
G1 X45.305 Y45.298 Z19.000 F100.000
G1 X45.605 Y45.598 Z19.000 F100.000
G1 X214.405 Y45.598 Z19.000 F100.000
G1 X214.405 Y89.398 Z19.000 F100.000
G1 X45.605 Y89.398 Z19.000 F100.000
G1 X45.605 Y45.598 Z19.000 F100.000
G1 X45.905 Y45.898 Z19.000 F100.000
G1 X214.105 Y45.898 Z19.000 F100.000
G1 X214.105 Y89.098 Z19.000 F100.000
G1 X45.905 Y89.098 Z19.000 F100.000
G1 X45.905 Y45.898 Z19.000 F100.000
G1 X46.205 Y46.198 Z19.000 F100.000
G1 X213.805 Y46.198 Z19.000 F100.000
G1 X213.805 Y88.798 Z19.000 F100.000
G1 X46.205 Y88.798 Z19.000 F100.000
G1 X46.205 Y46.198 Z19.000 F100.000
G1 X46.505 Y46.498 Z19.000 F100.000
G1 X213.505 Y46.498 Z19.000 F100.000
G1 X213.505 Y88.498 Z19.000 F100.000
G1 X46.505 Y88.498 Z19.000 F100.000
G1 X46.505 Y46.498 Z19.000 F100.000
G1 X46.805 Y46.798 Z19.000 F100.000
G1 X213.205 Y46.798 Z19.000 F100.000
G1 X213.205 Y88.198 Z19.000 F100.000
G1 X46.805 Y88.198 Z19.000 F100.000
G1 X46.805 Y46.798 Z19.000 F100.000
G1 X47.105 Y47.098 Z19.000 F100.000
G1 X212.905 Y47.098 Z19.000 F100.000
G1 X212.905 Y87.898 Z19.000 F100.000
G1 X47.105 Y87.898 Z19.000 F100.000
G1 X47.105 Y47.098 Z19.000 F100.000
G1 X47.405 Y47.398 Z19.000 F100.000
G1 X212.605 Y47.398 Z19.000 F100.000
G1 X212.605 Y87.598 Z19.000 F100.000
G1 X47.405 Y87.598 Z19.000 F100.000
G1 X47.405 Y47.398 Z19.000 F100.000
G1 X47.705 Y47.698 Z19.000 F100.000
G1 X212.305 Y47.698 Z19.000 F100.000
G1 X212.305 Y87.298 Z19.000 F100.000
G1 X47.705 Y87.298 Z19.000 F100.000
G1 X47.705 Y47.698 Z19.000 F100.000
G1 X48.005 Y47.998 Z19.000 F100.000
G1 X212.005 Y47.998 Z19.000 F100.000
G1 X212.005 Y86.998 Z19.000 F100.000
G1 X48.005 Y86.998 Z19.000 F100.000
G1 X48.005 Y47.998 Z19.000 F100.000
G1 X48.305 Y48.298 Z19.000 F100.000
G1 X211.705 Y48.298 Z19.000 F100.000
G1 X211.705 Y86.698 Z19.000 F100.000
G1 X48.305 Y86.698 Z19.000 F100.000
G1 X48.305 Y48.298 Z19.000 F100.000
G1 X48.605 Y48.598 Z19.000 F100.000
G1 X211.405 Y48.598 Z19.000 F100.000
G1 X211.405 Y86.398 Z19.000 F100.000
G1 X48.605 Y86.398 Z19.000 F100.000
G1 X48.605 Y48.598 Z19.000 F100.000
G1 X48.905 Y48.898 Z19.000 F100.000
G1 X211.105 Y48.898 Z19.000 F100.000
G1 X211.105 Y86.098 Z19.000 F100.000
G1 X48.905 Y86.098 Z19.000 F100.000
G1 X48.905 Y48.898 Z19.000 F100.000
G1 X49.205 Y49.198 Z19.000 F100.000
G1 X210.805 Y49.198 Z19.000 F100.000
G1 X210.805 Y85.798 Z19.000 F100.000
G1 X49.205 Y85.798 Z19.000 F100.000
G1 X49.205 Y49.198 Z19.000 F100.000
G1 X49.505 Y49.498 Z19.000 F100.000
G1 X210.505 Y49.498 Z19.000 F100.000
G1 X210.505 Y85.498 Z19.000 F100.000
G1 X49.505 Y85.498 Z19.000 F100.000
G1 X49.505 Y49.498 Z19.000 F100.000
G1 X49.805 Y49.798 Z19.000 F100.000
G1 X210.205 Y49.798 Z19.000 F100.000
G1 X210.205 Y85.198 Z19.000 F100.000
G1 X49.805 Y85.198 Z19.000 F100.000
G1 X49.805 Y49.798 Z19.000 F100.000
G1 X50.105 Y50.098 Z19.000 F100.000
G1 X209.905 Y50.098 Z19.000 F100.000
G1 X209.905 Y84.898 Z19.000 F100.000
G1 X50.105 Y84.898 Z19.000 F100.000
G1 X50.105 Y50.098 Z19.000 F100.000
G1 X50.405 Y50.398 Z19.000 F100.000
G1 X209.605 Y50.398 Z19.000 F100.000
G1 X209.605 Y84.598 Z19.000 F100.000
G1 X50.405 Y84.598 Z19.000 F100.000
G1 X50.405 Y50.398 Z19.000 F100.000
G1 X50.705 Y50.698 Z19.000 F100.000
G1 X209.305 Y50.698 Z19.000 F100.000
G1 X209.305 Y84.298 Z19.000 F100.000
G1 X50.705 Y84.298 Z19.000 F100.000
G1 X50.705 Y50.698 Z19.000 F100.000
G1 X51.005 Y50.998 Z19.000 F100.000
G1 X209.005 Y50.998 Z19.000 F100.000
G1 X209.005 Y83.998 Z19.000 F100.000
G1 X51.005 Y83.998 Z19.000 F100.000
G1 X51.005 Y50.998 Z19.000 F100.000
G1 X51.305 Y51.298 Z19.000 F100.000
G1 X208.705 Y51.298 Z19.000 F100.000
G1 X208.705 Y83.698 Z19.000 F100.000
G1 X51.305 Y83.698 Z19.000 F100.000
G1 X51.305 Y51.298 Z19.000 F100.000
G1 X51.605 Y51.598 Z19.000 F100.000
G1 X208.405 Y51.598 Z19.000 F100.000
G1 X208.405 Y83.398 Z19.000 F100.000
G1 X51.605 Y83.398 Z19.000 F100.000
G1 X51.605 Y51.598 Z19.000 F100.000
G1 X51.905 Y51.898 Z19.000 F100.000
G1 X208.105 Y51.898 Z19.000 F100.000
G1 X208.105 Y83.098 Z19.000 F100.000
G1 X51.905 Y83.098 Z19.000 F100.000
G1 X51.905 Y51.898 Z19.000 F100.000
G1 X52.205 Y52.198 Z19.000 F100.000
G1 X207.805 Y52.198 Z19.000 F100.000
G1 X207.805 Y82.798 Z19.000 F100.000
G1 X52.205 Y82.798 Z19.000 F100.000
G1 X52.205 Y52.198 Z19.000 F100.000
G1 X52.505 Y52.498 Z19.000 F100.000
G1 X207.505 Y52.498 Z19.000 F100.000
G1 X207.505 Y82.498 Z19.000 F100.000
G1 X52.505 Y82.498 Z19.000 F100.000
G1 X52.505 Y52.498 Z19.000 F100.000
G1 X52.805 Y52.798 Z19.000 F100.000
G1 X207.205 Y52.798 Z19.000 F100.000
G1 X207.205 Y82.198 Z19.000 F100.000
G1 X52.805 Y82.198 Z19.000 F100.000
G1 X52.805 Y52.798 Z19.000 F100.000
G1 X53.105 Y53.098 Z19.000 F100.000
G1 X206.905 Y53.098 Z19.000 F100.000
G1 X206.905 Y81.898 Z19.000 F100.000
G1 X53.105 Y81.898 Z19.000 F100.000
G1 X53.105 Y53.098 Z19.000 F100.000
G1 X53.405 Y53.398 Z19.000 F100.000
G1 X206.605 Y53.398 Z19.000 F100.000
G1 X206.605 Y81.598 Z19.000 F100.000
G1 X53.405 Y81.598 Z19.000 F100.000
G1 X53.405 Y53.398 Z19.000 F100.000
G1 X53.705 Y53.698 Z19.000 F100.000
G1 X206.305 Y53.698 Z19.000 F100.000
G1 X206.305 Y81.298 Z19.000 F100.000
G1 X53.705 Y81.298 Z19.000 F100.000
G1 X53.705 Y53.698 Z19.000 F100.000
G1 X54.005 Y53.998 Z19.000 F100.000
G1 X206.005 Y53.998 Z19.000 F100.000
G1 X206.005 Y80.998 Z19.000 F100.000
G1 X54.005 Y80.998 Z19.000 F100.000
G1 X54.005 Y53.998 Z19.000 F100.000
G1 X54.305 Y54.298 Z19.000 F100.000
G1 X205.705 Y54.298 Z19.000 F100.000
G1 X205.705 Y80.698 Z19.000 F100.000
G1 X54.305 Y80.698 Z19.000 F100.000
G1 X54.305 Y54.298 Z19.000 F100.000
G1 X54.605 Y54.598 Z19.000 F100.000
G1 X205.405 Y54.598 Z19.000 F100.000
G1 X205.405 Y80.398 Z19.000 F100.000
G1 X54.605 Y80.398 Z19.000 F100.000
G1 X54.605 Y54.598 Z19.000 F100.000
G1 X54.905 Y54.898 Z19.000 F100.000
G1 X205.105 Y54.898 Z19.000 F100.000
G1 X205.105 Y80.098 Z19.000 F100.000
G1 X54.905 Y80.098 Z19.000 F100.000
G1 X54.905 Y54.898 Z19.000 F100.000
G1 X55.205 Y55.198 Z19.000 F100.000
G1 X204.805 Y55.198 Z19.000 F100.000
G1 X204.805 Y79.798 Z19.000 F100.000
G1 X55.205 Y79.798 Z19.000 F100.000
G1 X55.205 Y55.198 Z19.000 F100.000
G1 X55.505 Y55.498 Z19.000 F100.000
G1 X204.505 Y55.498 Z19.000 F100.000
G1 X204.505 Y79.498 Z19.000 F100.000
G1 X55.505 Y79.498 Z19.000 F100.000
G1 X55.505 Y55.498 Z19.000 F100.000
G1 X55.805 Y55.798 Z19.000 F100.000
G1 X204.205 Y55.798 Z19.000 F100.000
G1 X204.205 Y79.198 Z19.000 F100.000
G1 X55.805 Y79.198 Z19.000 F100.000
G1 X55.805 Y55.798 Z19.000 F100.000
G1 X56.105 Y56.098 Z19.000 F100.000
G1 X203.905 Y56.098 Z19.000 F100.000
G1 X203.905 Y78.898 Z19.000 F100.000
G1 X56.105 Y78.898 Z19.000 F100.000
G1 X56.105 Y56.098 Z19.000 F100.000
G1 X56.405 Y56.398 Z19.000 F100.000
G1 X203.605 Y56.398 Z19.000 F100.000
G1 X203.605 Y78.598 Z19.000 F100.000
G1 X56.405 Y78.598 Z19.000 F100.000
G1 X56.405 Y56.398 Z19.000 F100.000
G1 X56.705 Y56.698 Z19.000 F100.000
G1 X203.305 Y56.698 Z19.000 F100.000
G1 X203.305 Y78.298 Z19.000 F100.000
G1 X56.705 Y78.298 Z19.000 F100.000
G1 X56.705 Y56.698 Z19.000 F100.000
G1 X57.005 Y56.998 Z19.000 F100.000
G1 X203.005 Y56.998 Z19.000 F100.000
G1 X203.005 Y77.998 Z19.000 F100.000
G1 X57.005 Y77.998 Z19.000 F100.000
G1 X57.005 Y56.998 Z19.000 F100.000
G1 X57.305 Y57.298 Z19.000 F100.000
G1 X202.705 Y57.298 Z19.000 F100.000
G1 X202.705 Y77.698 Z19.000 F100.000
G1 X57.305 Y77.698 Z19.000 F100.000
G1 X57.305 Y57.298 Z19.000 F100.000
G1 X57.605 Y57.598 Z19.000 F100.000
G1 X202.405 Y57.598 Z19.000 F100.000
G1 X202.405 Y77.398 Z19.000 F100.000
G1 X57.605 Y77.398 Z19.000 F100.000
G1 X57.605 Y57.598 Z19.000 F100.000
G1 X57.905 Y57.898 Z19.000 F100.000
G1 X202.105 Y57.898 Z19.000 F100.000
G1 X202.105 Y77.098 Z19.000 F100.000
G1 X57.905 Y77.098 Z19.000 F100.000
G1 X57.905 Y57.898 Z19.000 F100.000
G1 X58.205 Y58.198 Z19.000 F100.000
G1 X201.805 Y58.198 Z19.000 F100.000
G1 X201.805 Y76.798 Z19.000 F100.000
G1 X58.205 Y76.798 Z19.000 F100.000
G1 X58.205 Y58.198 Z19.000 F100.000
G1 X58.505 Y58.498 Z19.000 F100.000
G1 X201.505 Y58.498 Z19.000 F100.000
G1 X201.505 Y76.498 Z19.000 F100.000
G1 X58.505 Y76.498 Z19.000 F100.000
G1 X58.505 Y58.498 Z19.000 F100.000
G1 X58.805 Y58.798 Z19.000 F100.000
G1 X201.205 Y58.798 Z19.000 F100.000
G1 X201.205 Y76.198 Z19.000 F100.000
G1 X58.805 Y76.198 Z19.000 F100.000
G1 X58.805 Y58.798 Z19.000 F100.000
G1 X59.105 Y59.098 Z19.000 F100.000
G1 X200.905 Y59.098 Z19.000 F100.000
G1 X200.905 Y75.898 Z19.000 F100.000
G1 X59.105 Y75.898 Z19.000 F100.000
G1 X59.105 Y59.098 Z19.000 F100.000
G1 X59.405 Y59.398 Z19.000 F100.000
G1 X200.605 Y59.398 Z19.000 F100.000
G1 X200.605 Y75.598 Z19.000 F100.000
G1 X59.405 Y75.598 Z19.000 F100.000
G1 X59.405 Y59.398 Z19.000 F100.000
G1 X59.705 Y59.698 Z19.000 F100.000
G1 X200.305 Y59.698 Z19.000 F100.000
G1 X200.305 Y75.298 Z19.000 F100.000
G1 X59.705 Y75.298 Z19.000 F100.000
G1 X59.705 Y59.698 Z19.000 F100.000
G1 X60.005 Y59.998 Z19.000 F100.000
G1 X200.005 Y59.998 Z19.000 F100.000
G1 X200.005 Y74.998 Z19.000 F100.000
G1 X60.005 Y74.998 Z19.000 F100.000
G1 X60.005 Y59.998 Z19.000 F100.000
G1 X60.305 Y60.298 Z19.000 F100.000
G1 X199.705 Y60.298 Z19.000 F100.000
G1 X199.705 Y74.698 Z19.000 F100.000
G1 X60.305 Y74.698 Z19.000 F100.000
G1 X60.305 Y60.298 Z19.000 F100.000
G1 X60.605 Y60.598 Z19.000 F100.000
G1 X199.405 Y60.598 Z19.000 F100.000
G1 X199.405 Y74.398 Z19.000 F100.000
G1 X60.605 Y74.398 Z19.000 F100.000
G1 X60.605 Y60.598 Z19.000 F100.000
G1 X60.905 Y60.898 Z19.000 F100.000
G1 X199.105 Y60.898 Z19.000 F100.000
G1 X199.105 Y74.098 Z19.000 F100.000
G1 X60.905 Y74.098 Z19.000 F100.000
G1 X60.905 Y60.898 Z19.000 F100.000
G1 X61.205 Y61.198 Z19.000 F100.000
G1 X198.805 Y61.198 Z19.000 F100.000
G1 X198.805 Y73.798 Z19.000 F100.000
G1 X61.205 Y73.798 Z19.000 F100.000
G1 X61.205 Y61.198 Z19.000 F100.000
G1 X61.505 Y61.498 Z19.000 F100.000
G1 X198.505 Y61.498 Z19.000 F100.000
G1 X198.505 Y73.498 Z19.000 F100.000
G1 X61.505 Y73.498 Z19.000 F100.000
G1 X61.505 Y61.498 Z19.000 F100.000
G1 X61.805 Y61.798 Z19.000 F100.000
G1 X198.205 Y61.798 Z19.000 F100.000
G1 X198.205 Y73.198 Z19.000 F100.000
G1 X61.805 Y73.198 Z19.000 F100.000
G1 X61.805 Y61.798 Z19.000 F100.000
G1 X62.105 Y62.098 Z19.000 F100.000
G1 X197.905 Y62.098 Z19.000 F100.000
G1 X197.905 Y72.898 Z19.000 F100.000
G1 X62.105 Y72.898 Z19.000 F100.000
G1 X62.105 Y62.098 Z19.000 F100.000
G1 X62.405 Y62.398 Z19.000 F100.000
G1 X197.605 Y62.398 Z19.000 F100.000
G1 X197.605 Y72.598 Z19.000 F100.000
G1 X62.405 Y72.598 Z19.000 F100.000
G1 X62.405 Y62.398 Z19.000 F100.000
G1 X62.705 Y62.698 Z19.000 F100.000
G1 X197.305 Y62.698 Z19.000 F100.000
G1 X197.305 Y72.298 Z19.000 F100.000
G1 X62.705 Y72.298 Z19.000 F100.000
G1 X62.705 Y62.698 Z19.000 F100.000
G1 X63.005 Y62.998 Z19.000 F100.000
G1 X197.005 Y62.998 Z19.000 F100.000
G1 X197.005 Y71.998 Z19.000 F100.000
G1 X63.005 Y71.998 Z19.000 F100.000
G1 X63.005 Y62.998 Z19.000 F100.000
G1 X63.305 Y63.298 Z19.000 F100.000
G1 X196.705 Y63.298 Z19.000 F100.000
G1 X196.705 Y71.698 Z19.000 F100.000
G1 X63.305 Y71.698 Z19.000 F100.000
G1 X63.305 Y63.298 Z19.000 F100.000
G1 X63.605 Y63.598 Z19.000 F100.000
G1 X196.405 Y63.598 Z19.000 F100.000
G1 X196.405 Y71.398 Z19.000 F100.000
G1 X63.605 Y71.398 Z19.000 F100.000
G1 X63.605 Y63.598 Z19.000 F100.000
G1 X63.905 Y63.898 Z19.000 F100.000
G1 X196.105 Y63.898 Z19.000 F100.000
G1 X196.105 Y71.098 Z19.000 F100.000
G1 X63.905 Y71.098 Z19.000 F100.000
G1 X63.905 Y63.898 Z19.000 F100.000
G1 X64.205 Y64.198 Z19.000 F100.000
G1 X195.805 Y64.198 Z19.000 F100.000
G1 X195.805 Y70.798 Z19.000 F100.000
G1 X64.205 Y70.798 Z19.000 F100.000
G1 X64.205 Y64.198 Z19.000 F100.000
G1 X64.505 Y64.498 Z19.000 F100.000
G1 X195.505 Y64.498 Z19.000 F100.000
G1 X195.505 Y70.498 Z19.000 F100.000
G1 X64.505 Y70.498 Z19.000 F100.000
G1 X64.505 Y64.498 Z19.000 F100.000
G1 X64.805 Y64.798 Z19.000 F100.000
G1 X195.205 Y64.798 Z19.000 F100.000
G1 X195.205 Y70.198 Z19.000 F100.000
G1 X64.805 Y70.198 Z19.000 F100.000
G1 X64.805 Y64.798 Z19.000 F100.000
G1 X65.105 Y65.098 Z19.000 F100.000
G1 X194.905 Y65.098 Z19.000 F100.000
G1 X194.905 Y69.898 Z19.000 F100.000
G1 X65.105 Y69.898 Z19.000 F100.000
G1 X65.105 Y65.098 Z19.000 F100.000
G1 X65.405 Y65.398 Z19.000 F100.000
G1 X194.605 Y65.398 Z19.000 F100.000
G1 X194.605 Y69.598 Z19.000 F100.000
G1 X65.405 Y69.598 Z19.000 F100.000
G1 X65.405 Y65.398 Z19.000 F100.000
G1 X65.705 Y65.698 Z19.000 F100.000
G1 X194.305 Y65.698 Z19.000 F100.000
G1 X194.305 Y69.298 Z19.000 F100.000
G1 X65.705 Y69.298 Z19.000 F100.000
G1 X65.705 Y65.698 Z19.000 F100.000
G1 X66.005 Y65.998 Z19.000 F100.000
G1 X194.005 Y65.998 Z19.000 F100.000
G1 X194.005 Y68.998 Z19.000 F100.000
G1 X66.005 Y68.998 Z19.000 F100.000
G1 X66.005 Y65.998 Z19.000 F100.000
G1 X66.305 Y66.298 Z19.000 F100.000
G1 X193.705 Y66.298 Z19.000 F100.000
G1 X193.705 Y68.698 Z19.000 F100.000
G1 X66.305 Y68.698 Z19.000 F100.000
G1 X66.305 Y66.298 Z19.000 F100.000
G1 X66.605 Y66.598 Z19.000 F100.000
G1 X193.405 Y66.598 Z19.000 F100.000
G1 X193.405 Y68.398 Z19.000 F100.000
G1 X66.605 Y68.398 Z19.000 F100.000
G1 X66.605 Y66.598 Z19.000 F100.000
G1 X66.905 Y66.898 Z19.000 F100.000
G1 X193.105 Y66.898 Z19.000 F100.000
G1 X193.105 Y68.098 Z19.000 F100.000
G1 X66.905 Y68.098 Z19.000 F100.000
G1 X66.905 Y66.898 Z19.000 F100.000
G1 X67.205 Y67.198 Z19.000 F100.000
G1 X192.805 Y67.198 Z19.000 F100.000
G1 X192.805 Y67.798 Z19.000 F100.000
G1 X67.205 Y67.798 Z19.000 F100.000
G1 X67.205 Y67.198 Z19.000 F100.000
G0 Z24.000
G0 Z24.000
(Finish operation: MillFace)
(Begin postamble)
M5
G17 G90
M2
