; generated by PrusaSlicer 2.6.0+MacOS-x64 on 2023-06-25 at 14:19:19 UTC

; 

; external perimeters extrusion width = 0.45mm
; perimeters extrusion width = 0.40mm
; infill extrusion width = 0.45mm
; solid infill extrusion width = 0.50mm
; top infill extrusion width = 0.45mm
; support material extrusion width = 0.42mm
; first layer extrusion width = 0.56mm

M201 X2500 Y2500 Z800 E2500 ; sets maximum accelerations, mm/sec^2
M203 X300 Y250 Z8 E80 ; sets maximum feedrates, mm / sec
M204 S2500 T2500 ; sets acceleration (S) and retract acceleration (R), mm/sec^2
M205 X15.00 Y10.00 Z2.00 E10.00 ; sets the jerk limits, mm/sec
M205 S0 T0 ; sets the minimum extruding and travel feed rate, mm/sec
;TYPE:Custom
G90 ; use absolute coordinates
M83 ; extruder relative mode
M104 S215 ; set extruder temp
M140 S65 ; set bed temp
M190 S65 ; wait for bed temp
M109 S215 ; wait for extruder temp
G28                                        ; move X/Y/Z to min endstops
G1 Z0.28                                   ; lift nozzle a bit 
G92 E0 
G1 Y3 F1800                                    ; zero the extruded length 
G1 X60  E25 F500                       ; Extrude 25mm of filament in a 5cm line. 
G92 E0                                     ; zero the extruded length again 
G1 E-2 F500                                ; Retract a little 
G1 X70 F4000                              ; Quickly wipe away from the filament line
M117
G21 ; set units to millimeters
G90 ; use absolute coordinates
M82 ; use absolute distances for extrusion
G92 E0
M107
;LAYER_CHANGE
;Z:0.28
;HEIGHT:0.28
; BEFORE_LAYER_CHANGE 0 @ 0.28mm
G1 E-2 F4800
G92 E0
G1 Z.28 F7200
; AFTER_LAYER_CHANGE 0 @ 0.28mm
G1 X100.4 Y101.9
G1 E2 F4800
M204 S2000
;TYPE:External perimeter
;WIDTH:0.56
G1 F3000
G1 X129.6 Y101.9 E3.69929
G1 X129.6 Y128.1 E5.224
G1 X100.4 Y128.1 E6.92329
G1 X100.4 Y101.96 E8.44451
M204 S2500
G1 X100.788 Y101.997 F7200
G1 X100.9 Y102.4
M204 S2000
;TYPE:Perimeter
G1 F3000
G1 X129.1 Y102.4 E10.08561
G1 X129.1 Y127.6 E11.55212
G1 X100.9 Y127.6 E13.19322
G1 X100.9 Y102.46 E14.65624
M204 S2500
G1 X101.4 Y102.9 F7200
M204 S2000
G1 F3000
G1 X128.6 Y102.9 E16.23914
G1 X128.6 Y127.1 E17.64746
G1 X101.4 Y127.1 E19.23036
G1 X101.4 Y102.96 E20.63519
M204 S2500
G1 E19.23519 F4800
;WIPE_START
G1 F5760
G1 X102.158 Y102.958 E18.63519
;WIPE_END
G92 E0
G1 X117.379 Y123.798 F7200
G1 E2 F4800
M204 S2000
;TYPE:External perimeter
G1 F3000
G1 X112.978 Y123.798 E2.25612
G1 X112.978 Y109.382 E3.09506
G1 X107.424 Y109.382 E3.41827
G1 X107.424 Y105.799 E3.62678
G1 X122.945 Y105.799 E4.53002
G1 X122.945 Y109.382 E4.73853
G1 X117.379 Y109.382 E5.06244
G1 X117.379 Y123.738 E5.89789
M204 S2500
G1 X117.33 Y124.195 F7200
G1 X117.879 Y124.298
M204 S2000
;TYPE:Perimeter
G1 F3000
G1 X112.478 Y124.298 E6.2122
G1 X112.478 Y109.882 E7.05114
G1 X106.924 Y109.882 E7.37435
G1 X106.924 Y105.3 E7.641
G1 X123.445 Y105.3 E8.60244
G1 X123.445 Y109.882 E8.86909
G1 X117.879 Y109.882 E9.193
G1 X117.879 Y124.238 E10.02845
M204 S2500
G1 X118.379 Y124.798 F7200
M204 S2000
G1 F3000
G1 X111.978 Y124.798 E10.40096
G1 X111.978 Y110.382 E11.2399
G1 X106.424 Y110.382 E11.56311
G1 X106.424 Y104.8 E11.88795
G1 X123.945 Y104.8 E12.90758
G1 X123.945 Y110.382 E13.23242
G1 X118.379 Y110.382 E13.55633
G1 X118.379 Y124.738 E14.39178
M204 S2500
G1 E12.99178 F4800
;WIPE_START
G1 F5760
G1 X117.621 Y124.745 E12.39178
;WIPE_END
G92 E0
G1 X128.4 Y104.121 F7200
G1 E2 F4800
M204 S2000
;TYPE:Solid infill
;WIDTH:0.565031
G1 F3000
G1 X127.604 Y103.325 E2.06617
G1 X126.89 Y103.325 E2.10814
G1 X128.175 Y104.61 E2.21496
G1 X128.175 Y105.324 E2.25693
G1 X126.176 Y103.325 E2.4231
G1 X125.462 Y103.325 E2.46507
G1 X128.175 Y106.038 E2.6906
G1 X128.175 Y106.752 E2.73257
G1 X124.748 Y103.325 E3.01745
G1 X124.033 Y103.325 E3.05948
G1 X128.175 Y107.467 E3.4038
G1 X128.175 Y108.181 E3.44577
G1 X123.319 Y103.325 E3.84944
G1 X122.605 Y103.325 E3.89141
G1 X123.655 Y104.375 E3.97869
G1 X122.941 Y104.375 E4.02066
G1 X121.891 Y103.325 E4.10794
G1 X121.177 Y103.325 E4.14991
G1 X122.227 Y104.375 E4.23719
G1 X121.513 Y104.375 E4.27916
G1 X120.463 Y103.325 E4.36644
G1 X119.749 Y103.325 E4.40841
G1 X120.799 Y104.375 E4.49569
G1 X120.085 Y104.375 E4.53766
G1 X119.035 Y103.325 E4.62494
G1 X118.321 Y103.325 E4.66691
G1 X119.371 Y104.375 E4.75419
G1 X118.657 Y104.375 E4.79616
G1 X117.607 Y103.325 E4.88344
G1 X116.893 Y103.325 E4.92541
G1 X117.943 Y104.375 E5.01269
G1 X117.228 Y104.375 E5.05472
G1 X116.178 Y103.325 E5.142
G1 X115.464 Y103.325 E5.18397
G1 X116.514 Y104.375 E5.27125
G1 X115.8 Y104.375 E5.31322
G1 X114.75 Y103.325 E5.4005
G1 X114.036 Y103.325 E5.44247
G1 X115.086 Y104.375 E5.52975
G1 X114.372 Y104.375 E5.57172
G1 X113.322 Y103.325 E5.659
G1 X112.608 Y103.325 E5.70097
G1 X113.658 Y104.375 E5.78825
G1 X112.944 Y104.375 E5.83022
G1 X111.894 Y103.325 E5.9175
G1 X111.18 Y103.325 E5.95947
G1 X112.23 Y104.375 E6.04675
G1 X111.516 Y104.375 E6.08872
G1 X110.466 Y103.325 E6.176
G1 X109.752 Y103.325 E6.21797
G1 X110.802 Y104.375 E6.30525
G1 X110.087 Y104.375 E6.34728
G1 X109.037 Y103.325 E6.43456
G1 X108.323 Y103.325 E6.47653
G1 X109.373 Y104.375 E6.56381
G1 X108.659 Y104.375 E6.60578
G1 X107.609 Y103.325 E6.69306
G1 X106.895 Y103.325 E6.73503
G1 X107.945 Y104.375 E6.82231
G1 X107.231 Y104.375 E6.86428
G1 X106.181 Y103.325 E6.95156
G1 X105.467 Y103.325 E6.99353
G1 X106.517 Y104.375 E7.08081
G1 X106 Y104.375 E7.1112
G1 X106 Y104.571 E7.12272
G1 X104.753 Y103.325 E7.22634
G1 X104.039 Y103.325 E7.26831
G1 X106 Y105.285 E7.43128
G1 X106 Y106 E7.47331
G1 X103.325 Y103.325 E7.69568
G1 X102.611 Y103.325 E7.73765
G1 X106 Y106.714 E8.01937
G1 X106 Y107.428 E8.06134
G1 X101.897 Y103.325 E8.40242
G1 X101.825 Y103.325 E8.40665
G1 X101.825 Y103.967 E8.44439
G1 X106 Y108.142 E8.79145
G1 X106 Y108.856 E8.83342
G1 X101.825 Y104.681 E9.18048
G1 X101.825 Y105.395 E9.22245
G1 X106.224 Y109.795 E9.58817
M204 S2500
G1 E8.18817 F4800
;WIPE_START
G1 F5760
G1 X105.688 Y109.259 E7.58817
;WIPE_END
G92 E0
G1 X111.296 Y110.582 F7200
G1 E2 F4800
M204 S2000
G1 F3000
G1 X111.553 Y110.839 E2.02136
G1 X111.553 Y111.553 E2.06333
G1 X110.807 Y110.807 E2.12534
G1 X110.093 Y110.807 E2.16731
G1 X111.553 Y112.267 E2.28868
G1 X111.553 Y112.981 E2.33065
G1 X109.379 Y110.807 E2.51137
G1 X108.665 Y110.807 E2.55334
G1 X111.553 Y113.696 E2.79346
G1 X111.553 Y114.41 E2.83543
G1 X107.951 Y110.807 E3.1349
G1 X107.237 Y110.807 E3.17687
G1 X111.553 Y115.124 E3.53569
G1 X111.553 Y115.838 E3.57766
G1 X106.523 Y110.807 E3.99584
G1 X106 Y110.807 E4.02658
G1 X106 Y110.284 E4.05732
G1 X101.825 Y106.109 E4.40438
G1 X101.825 Y106.823 E4.44635
G1 X111.553 Y116.552 E5.25506
G1 X111.553 Y117.266 E5.29703
G1 X101.825 Y107.538 E6.1057
G1 X101.825 Y108.252 E6.14767
G1 X111.553 Y117.98 E6.95634
G1 X111.553 Y118.694 E6.99831
G1 X101.825 Y108.966 E7.80698
G1 X101.825 Y109.68 E7.84895
G1 X111.553 Y119.408 E8.65762
G1 X111.553 Y120.122 E8.69959
G1 X101.825 Y110.394 E9.50826
G1 X101.825 Y111.108 E9.55023
G1 X111.553 Y120.837 E10.35894
G1 X111.553 Y121.551 E10.40091
G1 X101.825 Y111.822 E11.20962
G1 X101.825 Y112.536 E11.25159
G1 X111.553 Y122.265 E12.0603
G1 X111.553 Y122.979 E12.10227
G1 X101.825 Y113.25 E12.91098
G1 X101.825 Y113.964 E12.95295
G1 X111.553 Y123.693 E13.76166
G1 X111.553 Y124.407 E13.80363
G1 X101.6 Y114.454 E14.63101
M204 S2500
G1 E13.23101 F4800
;WIPE_START
G1 F5760
G1 X102.136 Y114.99 E12.63101
;WIPE_END
G92 E0
G1 X124.145 Y104.864 F7200
G1 E2 F4800
M204 S2000
G1 F3000
G1 X128.175 Y108.895 E2.33505
G1 X128.175 Y109.609 E2.37702
G1 X124.37 Y105.803 E2.69336
G1 X124.37 Y106.517 E2.73533
G1 X128.175 Y110.323 E3.05167
G1 X128.175 Y111.037 E3.09364
G1 X124.37 Y107.232 E3.40994
G1 X124.37 Y107.946 E3.45191
G1 X128.175 Y111.751 E3.76821
G1 X128.175 Y112.465 E3.81018
G1 X124.37 Y108.66 E4.12648
G1 X124.37 Y109.374 E4.16845
G1 X128.175 Y113.179 E4.48475
G1 X128.175 Y113.893 E4.52672
G1 X124.37 Y110.088 E4.84302
G1 X124.37 Y110.802 E4.88499
G1 X128.175 Y114.607 E5.20129
G1 X128.175 Y115.322 E5.24332
G1 X123.661 Y110.807 E5.6186
G1 X122.947 Y110.807 E5.66057
G1 X128.175 Y116.036 E6.09521
G1 X128.175 Y116.75 E6.13718
G1 X122.233 Y110.807 E6.63117
G1 X121.519 Y110.807 E6.67314
G1 X128.175 Y117.464 E7.22648
G1 X128.175 Y118.178 E7.26845
G1 X120.805 Y110.807 E7.88115
G1 X120.09 Y110.807 E7.92318
G1 X128.175 Y118.892 E8.59527
G1 X128.175 Y119.606 E8.63724
G1 X119.376 Y110.807 E9.36869
G1 X118.804 Y110.807 E9.40231
G1 X118.804 Y110.949 E9.41066
G1 X128.175 Y120.32 E10.18965
G1 X128.175 Y121.034 E10.23162
G1 X118.804 Y111.663 E11.01061
G1 X118.804 Y112.377 E11.05258
G1 X128.175 Y121.748 E11.83157
G1 X128.175 Y122.463 E11.8736
G1 X118.804 Y113.091 E12.65264
G1 X118.804 Y113.805 E12.69461
G1 X128.175 Y123.177 E13.47365
G1 X128.175 Y123.891 E13.51562
G1 X118.804 Y114.519 E14.29466
G1 X118.804 Y115.233 E14.33663
G1 X128.175 Y124.605 E15.11567
G1 X128.175 Y125.319 E15.15764
G1 X118.804 Y115.947 E15.93668
G1 X118.804 Y116.661 E15.97865
G1 X128.175 Y126.033 E16.75769
G1 X128.175 Y126.675 E16.79543
G1 X128.103 Y126.675 E16.79966
G1 X118.804 Y117.375 E17.57271
G1 X118.804 Y118.09 E17.61474
G1 X127.389 Y126.675 E18.3284
G1 X126.675 Y126.675 E18.37037
G1 X118.804 Y118.804 E19.02467
G1 X118.804 Y119.518 E19.06664
G1 X125.961 Y126.675 E19.66159
G1 X125.247 Y126.675 E19.70356
G1 X118.804 Y120.232 E20.23916
G1 X118.804 Y120.946 E20.28113
G1 X124.533 Y126.675 E20.75737
G1 X123.819 Y126.675 E20.79934
G1 X118.804 Y121.66 E21.21623
G1 X118.804 Y122.374 E21.2582
G1 X123.105 Y126.675 E21.61573
G1 X122.391 Y126.675 E21.6577
G1 X118.804 Y123.088 E21.95588
G1 X118.804 Y123.802 E21.99785
G1 X121.677 Y126.675 E22.23668
G1 X120.962 Y126.675 E22.27871
G1 X118.804 Y124.516 E22.45814
G1 X118.796 Y125.223 E22.4997
G1 X120.248 Y126.675 E22.6204
G1 X119.534 Y126.675 E22.66237
G1 X118.082 Y125.223 E22.78307
G1 X117.368 Y125.223 E22.82504
G1 X118.82 Y126.675 E22.94574
G1 X118.106 Y126.675 E22.98771
G1 X116.654 Y125.223 E23.10841
G1 X115.94 Y125.223 E23.15038
G1 X117.392 Y126.675 E23.27108
G1 X116.678 Y126.675 E23.31305
G1 X115.225 Y125.223 E23.43379
G1 X114.511 Y125.223 E23.47576
G1 X115.964 Y126.675 E23.5965
G1 X115.25 Y126.675 E23.63847
G1 X113.797 Y125.223 E23.75921
G1 X113.083 Y125.223 E23.80118
G1 X114.536 Y126.675 E23.92192
G1 X113.821 Y126.675 E23.96395
G1 X112.144 Y124.998 E24.10336
M204 S2500
G1 E22.70336 F4800
;WIPE_START
G1 F5760
G1 X112.68 Y125.534 E22.10336
;WIPE_END
G92 E0
G1 X113.332 Y126.9 F7200
G1 E2 F4800
M204 S2000
G1 F3000
G1 X101.825 Y115.393 E2.95656
G1 X101.825 Y116.107 E2.99853
G1 X112.393 Y126.675 E3.87703
G1 X111.679 Y126.675 E3.919
G1 X101.825 Y116.821 E4.73815
G1 X101.825 Y117.535 E4.78012
G1 X110.965 Y126.675 E5.53991
G1 X110.251 Y126.675 E5.58188
G1 X101.825 Y118.249 E6.28232
G1 X101.825 Y118.963 E6.32429
G1 X109.537 Y126.675 E6.96537
G1 X108.823 Y126.675 E7.00734
G1 X101.825 Y119.677 E7.58907
G1 X101.825 Y120.391 E7.63104
G1 X108.109 Y126.675 E8.15342
G1 X107.395 Y126.675 E8.19539
G1 X101.825 Y121.105 E8.65841
G1 X101.825 Y121.819 E8.70038
G1 X106.681 Y126.675 E9.10405
G1 X105.966 Y126.675 E9.14608
G1 X101.825 Y122.534 E9.49031
G1 X101.825 Y123.248 E9.53228
G1 X105.252 Y126.675 E9.81716
G1 X104.538 Y126.675 E9.85913
G1 X101.825 Y123.962 E10.08466
G1 X101.825 Y124.676 E10.12663
G1 X103.824 Y126.675 E10.2928
G1 X103.11 Y126.675 E10.33477
G1 X101.825 Y125.39 E10.44159
G1 X101.825 Y126.104 E10.48356
G1 X102.621 Y126.9 E10.54973
M204 S2500
;LAYER_CHANGE
;Z:0.48
;HEIGHT:0.2
; BEFORE_LAYER_CHANGE 1 @ 0.48mm
G1 E9.14973 F4800
;WIPE_START
G1 F5760
G1 X102.085 Y126.364 E8.54973
;WIPE_END
G92 E0
G1 Z.48 F7200
; AFTER_LAYER_CHANGE 1 @ 0.48mm
M104 S190 ; set temperature
G1 X100.245 Y101.745
G1 E2 F4800
;TYPE:External perimeter
;WIDTH:0.45
G1 X129.755 Y101.745 E2.99888
G1 X129.755 Y128.255 E3.89621
G1 X100.245 Y128.255 E4.89509
G1 X100.245 Y101.805 E5.79039
G1 X100.633 Y101.842 F7200
G1 X100.627 Y102.127
;TYPE:Perimeter
;WIDTH:0.4
G1 F9000
G1 X129.373 Y102.127 E6.6439
G1 X129.373 Y127.873 E7.40833
G1 X100.627 Y127.873 E8.26184
G1 X100.627 Y102.187 E9.02449
G1 X100.984 Y102.484 F7200
G1 F9000
G1 X129.016 Y102.484 E9.8568
G1 X129.016 Y127.516 E10.60003
G1 X100.984 Y127.516 E11.43234
G1 X100.984 Y102.544 E12.17379
G1 E10.77379 F4800
;WIPE_START
G1 F5760
G1 X101.742 Y102.542 E10.17379
;WIPE_END
G92 E0
G1 X117.224 Y123.643 F7200
G1 E2 F4800
;TYPE:External perimeter
;WIDTH:0.45
G1 X113.133 Y123.643 E2.13848
G1 X113.133 Y109.227 E2.62644
G1 X107.579 Y109.227 E2.81444
G1 X107.579 Y105.954 E2.92523
G1 X122.79 Y105.954 E3.4401
G1 X122.79 Y109.227 E3.55089
G1 X117.224 Y109.227 E3.73929
G1 X117.224 Y123.583 E4.22522
G1 X117.175 Y124.04 F7200
G1 X117.606 Y124.025
;TYPE:Perimeter
;WIDTH:0.4
G1 F9000
G1 X112.751 Y124.025 E4.36937
G1 X112.751 Y109.61 E4.79737
G1 X107.197 Y109.61 E4.96228
G1 X107.197 Y105.572 E5.08217
G1 X123.172 Y105.572 E5.55649
G1 X123.172 Y109.61 E5.67638
G1 X117.606 Y109.61 E5.84164
G1 X117.606 Y123.965 E6.26786
G1 X117.963 Y124.382 F7200
G1 F9000
G1 X112.394 Y124.382 E6.43321
G1 X112.394 Y109.967 E6.86121
G1 X106.84 Y109.967 E7.02612
G1 X106.84 Y105.215 E7.16721
G1 X123.529 Y105.215 E7.66273
G1 X123.529 Y109.967 E7.80382
G1 X117.963 Y109.967 E7.96908
G1 X117.963 Y124.322 E8.3953
G1 E6.9953 F4800
;WIPE_START
G1 F5760
G1 X117.205 Y124.33 E6.3953
;WIPE_END
G92 E0
G1 X101.454 Y102.867 F7200
G1 E2 F4800
;TYPE:Solid infill
;WIDTH:0.610898
G1 F9000
G1 X101.404 Y102.817 E2.00334
G1 X101.335 Y102.835 E2.00671
G1 X101.317 Y102.904 E2.01008
G1 X101.367 Y102.954 E2.01342
G1 X101.436 Y102.936 E2.01679
;WIDTH:0.499999
G1 X101.33 Y103.666 E2.04483
G1 X102.166 Y102.83 E2.08976
G1 X102.812 Y102.83 E2.11431
G1 X101.33 Y104.312 E2.19397
G1 X101.33 Y104.959 E2.21856
G1 X103.459 Y102.83 E2.33299
G1 X104.105 Y102.83 E2.35754
G1 X101.33 Y105.605 E2.50669
G1 X101.33 Y106.252 E2.53128
G1 X104.752 Y102.83 E2.71521
G1 X105.398 Y102.83 E2.73976
G1 X101.33 Y106.898 E2.95841
G1 X101.33 Y107.544 E2.98296
G1 X106.044 Y102.83 E3.23633
G1 X106.691 Y102.83 E3.26092
G1 X101.33 Y108.191 E3.54907
G1 X101.33 Y108.837 E3.57362
G1 X107.337 Y102.83 E3.89649
G1 X107.984 Y102.83 E3.92108
G1 X101.33 Y109.484 E4.27873
G1 E2.87873 F4800
;WIPE_START
G1 F5760
G1 X101.866 Y108.948 E2.27873
;WIPE_END
G92 E0
G1 X108.468 Y102.83 F7200
G1 E2 F4800
G1 F9000
G1 X108.468 Y102.992 E2.00616
G1 X106.817 Y104.643 E2.0949
G1 X106.884 Y104.804 E2.10153
G1 X106.884 Y104.869 E2.104
G1 X123.647 Y104.869 E2.7411
G1 X123.845 Y105.068 E2.75177
G1 X126.083 Y102.83 E2.87206
G1 X108.697 Y102.83 E3.53284
G1 X108.792 Y103.287 E3.55058
G1 X108.655 Y103.452 E3.55873
G1 X107.694 Y104.412 E3.61036
G1 X123.647 Y104.412 E4.21667
G1 X123.751 Y104.516 E4.22226
G1 X124.979 Y103.287 E4.28829
G1 X109.02 Y103.287 E4.89483
G1 X109.084 Y103.419 E4.90041
;WIDTH:0.458957
G1 X109.148 Y103.551 E4.90548
;WIDTH:0.417915
G1 X109.212 Y103.683 E4.91005
;WIDTH:0.376873
G1 X124.025 Y103.683 E5.32138
G1 X123.669 Y104.039 E5.33536
G1 X123.647 Y104.017 E5.33622
G1 X108.649 Y104.017 E5.75269
G1 X108.983 Y103.683 E5.76581
G1 E4.36581 F4800
;WIPE_START
G1 F5760
G1 X108.649 Y104.017 E3.99187
G1 X108.935 Y104.017 E3.76581
;WIPE_END
G92 E0
G1 X106.494 Y104.966 F7200
G1 E2 F4800
;WIDTH:0.499999
G1 F9000
G1 X101.33 Y110.13 E2.27756
G1 X101.33 Y110.776 E2.30211
G1 X106.494 Y105.612 E2.57967
G1 X106.494 Y106.259 E2.60426
G1 X101.33 Y111.423 E2.88182
G1 X101.33 Y112.069 E2.90637
G1 X106.494 Y106.905 E3.18393
G1 X106.494 Y107.552 E3.20852
G1 X101.33 Y112.716 E3.48608
G1 X101.33 Y113.362 E3.51063
G1 X106.494 Y108.198 E3.78819
G1 X106.494 Y108.845 E3.81278
G1 X101.33 Y114.008 E4.09031
G1 X101.33 Y114.655 E4.1149
G1 X106.494 Y109.491 E4.39246
G1 X106.494 Y110.137 E4.41701
G1 X101.33 Y115.301 E4.69457
G1 X101.33 Y115.948 E4.71916
G1 X106.965 Y110.313 E5.02204
G1 X107.612 Y110.313 E5.04663
G1 X101.33 Y116.594 E5.38425
G1 X101.33 Y117.24 E5.4088
G1 X108.258 Y110.313 E5.78115
G1 X108.904 Y110.313 E5.8057
G1 X101.33 Y117.887 E6.21279
G1 X101.33 Y118.533 E6.23734
G1 X109.551 Y110.313 E6.67918
G1 X110.197 Y110.313 E6.70373
G1 X101.33 Y119.18 E7.18032
G1 X101.33 Y119.826 E7.20487
G1 X110.844 Y110.313 E7.71621
G1 X111.49 Y110.313 E7.74076
