; generated by PrusaSlicer 2.6.0+MacOS-x64 on 2023-06-23 at 14:38:37 UTC

; 

; external perimeters extrusion width = 0.45mm
; perimeters extrusion width = 0.40mm
; infill extrusion width = 0.45mm
; solid infill extrusion width = 0.50mm
; top infill extrusion width = 0.45mm
; first layer extrusion width = 0.56mm

M201 X2500 Y2500 Z800 E2500 ; sets maximum accelerations, mm/sec^2
M203 X300 Y250 Z8 E80 ; sets maximum feedrates, mm / sec
M204 S2500 T2500 ; sets acceleration (S) and retract acceleration (R), mm/sec^2
M205 X15.00 Y10.00 Z2.00 E10.00 ; sets the jerk limits, mm/sec
M205 S0 T0 ; sets the minimum extruding and travel feed rate, mm/sec
;TYPE:Custom
G90 ; use absolute coordinates
M83 ; extruder relative mode
M104 S215 ; set extruder temp
M140 S60 ; set bed temp
M190 S60 ; wait for bed temp
M109 S215 ; wait for extruder temp
G28                                        ; move X/Y/Z to min endstops
G1 Z0.28                                   ; lift nozzle a bit 
G92 E0 
G1 Y3 F1800                                    ; zero the extruded length 
G1 X60  E25 F500                       ; Extrude 25mm of filament in a 5cm line. 
G92 E0                                     ; zero the extruded length again 
G1 E-2 F500                                ; Retract a little 
G1 X70 F4000                              ; Quickly wipe away from the filament line
M117
G21 ; set units to millimeters
G90 ; use absolute coordinates
M82 ; use absolute distances for extrusion
G92 E0
M107
;LAYER_CHANGE
;Z:0.28
;HEIGHT:0.28
; BEFORE_LAYER_CHANGE 0 @ 0.28mm
G1 E-2 F4800
G92 E0
G1 Z.28 F7200
; AFTER_LAYER_CHANGE 0 @ 0.28mm
G1 X67.586 Y109.56
G1 E2 F4800
M204 S2000
;TYPE:Skirt/Brim
;WIDTH:0.56
G1 F3000
G1 X68.071 Y109.36 E2.03053
G1 X68.648 Y109.25 E2.06471
G1 X161.406 Y109.255 E7.46276
G1 X161.938 Y109.363 E7.49435
G1 X162.415 Y109.56 E7.52438
G1 X162.821 Y109.82 E7.55244
G1 X163.323 Y110.31 E7.59326
G1 X163.629 Y110.763 E7.62507
G1 X163.852 Y111.31 E7.65945
G1 X163.94 Y111.748 E7.68545
G1 X163.95 Y112.252 E7.71479
G1 X164.507 Y112.267 E7.74722
G1 X164.978 Y112.376 E7.77535
G1 X165.476 Y112.592 E7.80694
G1 X165.887 Y112.874 E7.83595
G1 X166.373 Y113.369 E7.87632
G1 X166.635 Y113.775 E7.90444
G1 X166.839 Y114.268 E7.93549
G1 X166.95 Y114.847 E7.9698
G1 X166.95 Y118.144 E8.16167
G1 X166.862 Y118.655 E8.19185
G1 X166.612 Y119.268 E8.23038
G1 X166.291 Y119.728 E8.26302
G1 X165.735 Y120.247 E8.30728
G1 X165.382 Y120.457 E8.33118
G1 X164.932 Y120.639 E8.35943
G1 X164.353 Y120.75 E8.39374
G1 X65.647 Y120.75 E14.13793
G1 X65.069 Y120.639 E14.17218
G1 X64.565 Y120.43 E14.20393
G1 X64.118 Y120.13 E14.23526
G1 X63.701 Y119.719 E14.26933
G1 X63.399 Y119.289 E14.29991
G1 X63.162 Y118.735 E14.33498
G1 X63.05 Y118.152 E14.36953
G1 X63.05 Y114.848 E14.56181
G1 X63.182 Y114.205 E14.60001
G1 X63.458 Y113.607 E14.63834
G1 X63.714 Y113.267 E14.66311
G1 X64.181 Y112.818 E14.70081
G1 X64.593 Y112.556 E14.72922
G1 X65.133 Y112.341 E14.76304
G1 X65.564 Y112.258 E14.78858
G1 X66.05 Y112.248 E14.81687
G1 X66.06 Y111.749 E14.84592
G1 X66.148 Y111.31 E14.87198
G1 X66.371 Y110.763 E14.90636
G1 X66.677 Y110.31 E14.93817
G1 X67.179 Y109.82 E14.97899
G1 X67.535 Y109.592 E15.00359
M204 S2500
G1 X67.796 Y110.014 F7200
M204 S2000
G1 F3000
G1 X68.238 Y109.832 E15.03141
G1 X68.671 Y109.75 E15.05706
G1 X161.381 Y109.755 E20.45231
G1 X161.77 Y109.834 E20.47541
G1 X162.204 Y110.014 E20.50275
G1 X162.491 Y110.196 E20.52253
G1 X162.956 Y110.65 E20.56035
G1 X163.177 Y110.979 E20.58341
G1 X163.367 Y111.433 E20.61205
G1 X163.445 Y111.821 E20.63508
G1 X163.449 Y112.75 E20.68914
G1 X164.427 Y112.761 E20.74606
G1 X164.806 Y112.845 E20.76865
G1 X165.215 Y113.019 E20.79452
G1 X165.584 Y113.273 E20.82059
G1 X165.969 Y113.665 E20.85256
G1 X166.184 Y113.992 E20.87533
G1 X166.354 Y114.393 E20.90068
G1 X166.45 Y114.873 E20.92917
G1 X166.45 Y118.124 E21.11836
G1 X166.388 Y118.496 E21.14031
G1 X166.183 Y119.01 E21.17251
G1 X165.926 Y119.385 E21.19897
G1 X165.452 Y119.834 E21.23697
G1 X165.171 Y120.003 E21.25605
G1 X164.808 Y120.154 E21.27893
G1 X164.327 Y120.25 E21.30747
G1 X65.673 Y120.25 E27.04863
G1 X65.193 Y120.154 E27.07712
G1 X64.786 Y119.981 E27.10286
G1 X64.42 Y119.731 E27.12865
G1 X64.072 Y119.383 E27.15729
G1 X63.826 Y119.028 E27.18242
G1 X63.634 Y118.568 E27.21143
G1 X63.55 Y118.129 E27.23744
G1 X63.55 Y114.873 E27.42692
G1 X63.649 Y114.384 E27.45595
G1 X63.877 Y113.882 E27.48804
G1 X64.077 Y113.612 E27.50759
G1 X64.508 Y113.197 E27.54241
G1 X64.837 Y112.993 E27.56494
G1 X65.25 Y112.827 E27.59084
G1 X65.634 Y112.754 E27.61359
G1 X66.551 Y112.749 E27.66696
G1 X66.555 Y111.821 E27.72097
G1 X66.633 Y111.433 E27.744
G1 X66.823 Y110.979 E27.77264
G1 X67.044 Y110.65 E27.7957
G1 X67.509 Y110.196 E27.83352
G1 X67.745 Y110.046 E27.84979
M204 S2500
G1 X68.006 Y110.471 F7200
M204 S2000
G1 F3000
G1 X68.361 Y110.317 E27.87231
G1 X68.697 Y110.25 E27.89225
G1 X161.353 Y110.255 E33.28436
G1 X161.64 Y110.318 E33.30146
G1 X161.961 Y110.45 E33.32166
G1 X162.166 Y110.576 E33.33566
G1 X162.56 Y110.956 E33.36752
G1 X162.729 Y111.2 E33.38479
G1 X162.884 Y111.564 E33.40781
G1 X162.945 Y111.851 E33.42489
G1 X162.951 Y113.249 E33.50625
G1 X164.349 Y113.255 E33.58761
G1 X164.638 Y113.317 E33.60481
G1 X164.959 Y113.45 E33.62503
G1 X165.246 Y113.642 E33.64512
G1 X165.593 Y113.996 E33.67397
G1 X165.75 Y114.241 E33.6909
G1 X165.883 Y114.561 E33.71107
G1 X165.95 Y114.897 E33.73101
G1 X165.95 Y118.105 E33.9177
G1 X165.912 Y118.342 E33.93167
G1 X165.751 Y118.758 E33.95763
G1 X165.559 Y119.045 E33.97772
G1 X165.166 Y119.424 E34.00949
G1 X164.961 Y119.55 E34.02349
G1 X164.639 Y119.683 E34.04376
G1 X164.303 Y119.75 E34.0637
G1 X65.697 Y119.75 E39.80207
G1 X65.361 Y119.683 E39.82201
G1 X65.041 Y119.55 E39.84218
G1 X64.756 Y119.36 E39.86211
G1 X64.441 Y119.045 E39.88803
G1 X64.274 Y118.806 E39.905
G1 X64.118 Y118.442 E39.92805
G1 X64.05 Y118.103 E39.94817
G1 X64.05 Y114.897 E40.13474
G1 X64.118 Y114.559 E40.1548
G1 X64.298 Y114.152 E40.1807
G1 X64.44 Y113.956 E40.19479
G1 X64.834 Y113.577 E40.2266
G1 X65.042 Y113.449 E40.24081
G1 X65.411 Y113.302 E40.26393
G1 X65.698 Y113.25 E40.2809
G1 X67.049 Y113.25 E40.35952
G1 X67.055 Y111.851 E40.44094
G1 X67.116 Y111.564 E40.45802
G1 X67.271 Y111.2 E40.48104
G1 X67.44 Y110.956 E40.49831
G1 X67.834 Y110.576 E40.53017
G1 X67.955 Y110.502 E40.53842
M204 S2500
G1 X68.222 Y110.923 F7200
M204 S2000
G1 F3000
G1 X68.529 Y110.788 E40.55794
G1 X68.722 Y110.75 E40.56939
G1 X161.324 Y110.755 E45.95836
G1 X161.468 Y110.787 E45.96694
G1 X161.748 Y110.903 E45.98458
G1 X161.874 Y110.983 E45.99327
G1 X162.189 Y111.293 E46.01899
G1 X162.298 Y111.455 E46.03035
G1 X162.412 Y111.729 E46.04762
G1 X162.45 Y111.922 E46.05907
G1 X162.45 Y113.75 E46.16545
G1 X164.278 Y113.75 E46.27183
G1 X164.471 Y113.788 E46.28328
G1 X164.745 Y113.902 E46.30055
G1 X164.907 Y114.011 E46.31191
G1 X165.217 Y114.326 E46.33763
G1 X165.297 Y114.452 E46.34632
G1 X165.412 Y114.729 E46.36377
G1 X165.45 Y114.922 E46.37522
G1 X165.45 Y118.081 E46.55906
G1 X165.424 Y118.228 E46.56775
G1 X165.297 Y118.547 E46.58773
G1 X165.189 Y118.707 E46.59896
G1 X164.874 Y119.017 E46.62468
G1 X164.748 Y119.097 E46.63337
G1 X164.471 Y119.212 E46.65082
G1 X164.278 Y119.25 E46.66227
G1 X65.722 Y119.25 E52.39773
G1 X65.529 Y119.212 E52.40918
G1 X65.255 Y119.098 E52.42645
G1 X65.092 Y118.989 E52.43786
G1 X64.809 Y118.706 E52.46115
G1 X64.723 Y118.584 E52.46984
G1 X64.588 Y118.269 E52.48978
G1 X64.55 Y118.078 E52.50111
G1 X64.55 Y114.922 E52.68477
G1 X64.588 Y114.731 E52.6961
G1 X64.723 Y114.416 E52.71604
G1 X64.808 Y114.295 E52.72465
G1 X65.126 Y113.983 E52.75058
G1 X65.251 Y113.904 E52.75919
G1 X65.572 Y113.776 E52.7793
G1 X65.719 Y113.75 E52.78799
G1 X67.55 Y113.75 E52.89454
G1 X67.55 Y111.922 E53.00092
G1 X67.588 Y111.729 E53.01237
G1 X67.702 Y111.455 E53.02964
G1 X67.811 Y111.293 E53.041
G1 X68.171 Y110.955 E53.06974
M204 S2500
G1 X68.448 Y111.369 F7200
M204 S2000
G1 F3000
G1 X68.746 Y111.25 E53.08841
G1 X161.254 Y111.25 E58.47191
G1 X161.572 Y111.382 E58.49195
G1 X161.818 Y111.628 E58.5122
G1 X161.94 Y111.898 E58.52944
G1 X161.95 Y114.25 E58.66632
G1 X164.254 Y114.25 E58.8004
G1 X164.572 Y114.382 E58.82044
G1 X164.845 Y114.669 E58.84349
G1 X164.95 Y114.946 E58.86073
G1 X164.95 Y118.054 E59.0416
G1 X164.818 Y118.372 E59.06164
G1 X164.572 Y118.618 E59.08189
G1 X164.254 Y118.75 E59.10193
G1 X65.698 Y118.74 E64.83739
G1 X65.428 Y118.618 E64.85463
G1 X65.182 Y118.372 E64.87488
G1 X65.05 Y118.054 E64.89492
G1 X65.06 Y114.898 E65.07858
G1 X65.182 Y114.628 E65.09582
G1 X65.428 Y114.382 E65.11607
G1 X65.698 Y114.26 E65.13331
G1 X68.05 Y114.25 E65.27019
G1 X68.05 Y111.946 E65.40427
G1 X68.155 Y111.669 E65.42151
G1 X68.402 Y111.408 E65.44242
M204 S2500
G1 X68.729 Y111.788 F7200
M204 S2000
G1 F3000
G1 X68.821 Y111.75 E65.44821
G1 X161.179 Y111.75 E70.82298
G1 X161.271 Y111.788 E70.82877
G1 X161.412 Y111.929 E70.84037
G1 X161.45 Y112.021 E70.84616
G1 X161.45 Y114.75 E71.00497
G1 X164.179 Y114.75 E71.16378
G1 X164.271 Y114.788 E71.16957
G1 X164.412 Y114.929 E71.18117
G1 X164.45 Y115.021 E71.18696
G1 X164.45 Y117.979 E71.3591
G1 X164.412 Y118.071 E71.36489
G1 X164.271 Y118.212 E71.37649
G1 X164.179 Y118.25 E71.38228
G1 X65.821 Y118.25 E77.10622
G1 X65.729 Y118.212 E77.11201
G1 X65.588 Y118.071 E77.12361
G1 X65.55 Y117.979 E77.1294
G1 X65.55 Y115.021 E77.30154
G1 X65.588 Y114.929 E77.30733
G1 X65.729 Y114.788 E77.31893
G1 X65.821 Y114.75 E77.32472
G1 X68.55 Y114.75 E77.48353
G1 X68.55 Y112.021 E77.64234
G1 X68.588 Y111.929 E77.64813
G1 X68.686 Y111.831 E77.6562
M204 S2500
G1 E76.2562 F4800
;WIPE_START
G1 F5760
G1 X68.821 Y111.75 E76.13156
G1 X69.421 Y111.75 E75.6562
;WIPE_END
G92 E0
G1 X160.8 Y115.4 F7200
G1 E2 F4800
M204 S2000
;TYPE:External perimeter
G1 F3000
G1 X163.8 Y115.4 E2.17458
G1 X163.8 Y117.6 E2.30261
G1 X66.2 Y117.6 E7.98244
G1 X66.2 Y115.4 E8.11047
G1 X69.2 Y115.4 E8.28505
G1 X69.2 Y112.4 E8.45963
G1 X160.8 Y112.4 E13.79029
G1 X160.8 Y115.34 E13.96138
M204 S2500
G1 X160.996 Y115.749 F7200
G1 X160.3 Y115.4
M204 S2000
;TYPE:Perimeter
G1 F3000
G1 X160.3 Y115.9 E13.99048
G1 X163.3 Y115.9 E14.16506
G1 X163.3 Y117.1 E14.23489
G1 X66.7 Y117.1 E19.85652
G1 X66.7 Y115.9 E19.92635
G1 X69.7 Y115.9 E20.10093
G1 X69.7 Y112.9 E20.27551
G1 X160.3 Y112.9 E25.54797
G1 X160.3 Y115.34 E25.68997
M204 S2500
G1 X159.8 Y115.4 F7200
M204 S2000
G1 F3000
G1 X159.8 Y116.6 E25.7598
G1 X70.2 Y116.6 E30.97407
G1 X70.2 Y113.4 E31.16029
G1 X159.8 Y113.4 E36.37456
G1 X159.8 Y115.34 E36.48746
M204 S2500
G1 E35.08746 F4800
;WIPE_START
G1 F5760
G1 X159.8 Y116.098 E34.48746
;WIPE_END
G92 E0
G1 X160.05 Y116.5 F7200
G1 E2 F4800
M204 S2000
;TYPE:Gap fill
;WIDTH:0.760356
G1 F3000
G1 X163.05 Y116.5 E2.24456
M204 S2500
G1 E.84456 F4800
;WIPE_START
G1 F5760
G1 X162.292 Y116.5 E.24456
;WIPE_END
G92 E0
G1 X158.587 Y113.6 F7200
G1 E2 F4800
M204 S2000
;TYPE:Solid infill
;WIDTH:0.561051
G1 F3000
G1 X159.375 Y114.388 E2.06499
G1 X159.375 Y115.096 E2.10628
G1 X158.104 Y113.825 E2.2111
G1 X157.395 Y113.825 E2.25245
G1 X159.375 Y115.805 E2.41575
G1 X159.375 Y116.175 E2.43733
G1 X159.037 Y116.175 E2.45704
G1 X156.687 Y113.825 E2.65085
G1 X155.979 Y113.825 E2.69214
G1 X158.329 Y116.175 E2.88595
G1 X157.621 Y116.175 E2.92724
G1 X155.27 Y113.825 E3.12109
G1 X154.562 Y113.825 E3.16238
G1 X156.912 Y116.175 E3.35619
G1 X156.204 Y116.175 E3.39748
G1 X153.853 Y113.825 E3.59133
G1 X153.145 Y113.825 E3.63262
G1 X155.495 Y116.175 E3.82643
G1 X154.787 Y116.175 E3.86772
G1 X152.436 Y113.825 E4.06157
G1 X151.728 Y113.825 E4.10286
G1 X154.078 Y116.175 E4.29667
G1 X153.37 Y116.175 E4.33796
G1 X151.019 Y113.825 E4.53181
G1 X150.311 Y113.825 E4.5731
G1 X152.661 Y116.175 E4.76691
G1 X151.953 Y116.175 E4.8082
G1 X149.602 Y113.825 E5.00205
G1 X148.894 Y113.825 E5.04334
G1 X151.244 Y116.175 E5.23715
G1 X150.536 Y116.175 E5.27844
G1 X148.185 Y113.825 E5.47229
G1 X147.477 Y113.825 E5.51358
G1 X149.827 Y116.175 E5.70739
G1 X149.119 Y116.175 E5.74868
G1 X146.768 Y113.825 E5.94253
G1 X146.06 Y113.825 E5.98382
G1 X148.41 Y116.175 E6.17763
G1 X147.702 Y116.175 E6.21892
G1 X145.352 Y113.825 E6.41273
G1 X144.643 Y113.825 E6.45408
G1 X146.994 Y116.175 E6.64793
G1 X146.285 Y116.175 E6.68928
G1 X143.935 Y113.825 E6.88309
G1 X143.226 Y113.825 E6.92444
G1 X145.577 Y116.175 E7.11829
G1 X144.868 Y116.175 E7.15964
G1 X142.518 Y113.825 E7.35345
G1 X141.809 Y113.825 E7.3948
G1 X144.16 Y116.175 E7.58865
G1 X143.451 Y116.175 E7.63
G1 X141.101 Y113.825 E7.82381
G1 X140.392 Y113.825 E7.86516
G1 X142.743 Y116.175 E8.05901
G1 X142.034 Y116.175 E8.10036
G1 X139.684 Y113.825 E8.29417
G1 X138.975 Y113.825 E8.33552
G1 X141.326 Y116.175 E8.52937
G1 X140.617 Y116.175 E8.57072
G1 X138.267 Y113.825 E8.76453
G1 X137.558 Y113.825 E8.80588
G1 X139.909 Y116.175 E8.99973
G1 X139.2 Y116.175 E9.04108
G1 X136.85 Y113.825 E9.23489
G1 X136.141 Y113.825 E9.27624
G1 X138.492 Y116.175 E9.47009
G1 X137.783 Y116.175 E9.51144
G1 X135.433 Y113.825 E9.70525
G1 X134.725 Y113.825 E9.74654
G1 X137.075 Y116.175 E9.94035
G1 X136.367 Y116.175 E9.98164
G1 X134.016 Y113.825 E10.17549
G1 X133.308 Y113.825 E10.21678
G1 X135.658 Y116.175 E10.41059
G1 X134.95 Y116.175 E10.45188
G1 X132.599 Y113.825 E10.64573
G1 X131.891 Y113.825 E10.68702
G1 X134.241 Y116.175 E10.88083
G1 X133.533 Y116.175 E10.92212
G1 X131.182 Y113.825 E11.11597
G1 X130.474 Y113.825 E11.15726
G1 X132.824 Y116.175 E11.35107
G1 X132.116 Y116.175 E11.39236
G1 X129.765 Y113.825 E11.58621
G1 X129.057 Y113.825 E11.6275
G1 X131.407 Y116.175 E11.82131
G1 X130.699 Y116.175 E11.8626
G1 X128.348 Y113.825 E12.05645
G1 X127.64 Y113.825 E12.09774
G1 X129.99 Y116.175 E12.29155
G1 X129.282 Y116.175 E12.33284
G1 X126.931 Y113.825 E12.52669
G1 X126.223 Y113.825 E12.56798
G1 X128.573 Y116.175 E12.76179
G1 X127.865 Y116.175 E12.80308
G1 X125.514 Y113.825 E12.99693
G1 X124.806 Y113.825 E13.03822
G1 X127.156 Y116.175 E13.23203
G1 X126.448 Y116.175 E13.27332
G1 X124.097 Y113.825 E13.46717
G1 X123.389 Y113.825 E13.50846
G1 X125.74 Y116.175 E13.70231
G1 X125.031 Y116.175 E13.74366
G1 X122.681 Y113.825 E13.93747
G1 X121.972 Y113.825 E13.97882
G1 X124.323 Y116.175 E14.17267
G1 X123.614 Y116.175 E14.21402
G1 X121.264 Y113.825 E14.40783
G1 X120.555 Y113.825 E14.44918
G1 X122.906 Y116.175 E14.64303
G1 X122.197 Y116.175 E14.68438
G1 X119.847 Y113.825 E14.87819
G1 X119.138 Y113.825 E14.91954
G1 X121.489 Y116.175 E15.11339
G1 X120.78 Y116.175 E15.15474
G1 X118.43 Y113.825 E15.34855
G1 X117.721 Y113.825 E15.3899
G1 X120.072 Y116.175 E15.58375
G1 X119.363 Y116.175 E15.6251
G1 X117.013 Y113.825 E15.81891
G1 X116.304 Y113.825 E15.86026
G1 X118.655 Y116.175 E16.05411
G1 X117.946 Y116.175 E16.09546
G1 X115.596 Y113.825 E16.28927
G1 X114.887 Y113.825 E16.33062
G1 X117.238 Y116.175 E16.52447
G1 X116.529 Y116.175 E16.56582
G1 X114.179 Y113.825 E16.75963
G1 X113.47 Y113.825 E16.80098
G1 X115.821 Y116.175 E16.99483
G1 X115.113 Y116.175 E17.03612
G1 X112.762 Y113.825 E17.22997
G1 X112.054 Y113.825 E17.27126
G1 X114.404 Y116.175 E17.46507
G1 X113.696 Y116.175 E17.50636
G1 X111.345 Y113.825 E17.70021
G1 X110.637 Y113.825 E17.7415
G1 X112.987 Y116.175 E17.93531
G1 X112.279 Y116.175 E17.9766
G1 X109.928 Y113.825 E18.17045
G1 X109.22 Y113.825 E18.21174
G1 X111.57 Y116.175 E18.40555
G1 X110.862 Y116.175 E18.44684
G1 X108.511 Y113.825 E18.64069
G1 X107.803 Y113.825 E18.68198
G1 X110.153 Y116.175 E18.87579
G1 X109.445 Y116.175 E18.91708
G1 X107.094 Y113.825 E19.11093
G1 X106.386 Y113.825 E19.15222
G1 X108.736 Y116.175 E19.34603
G1 X108.028 Y116.175 E19.38732
G1 X105.677 Y113.825 E19.58117
G1 X104.969 Y113.825 E19.62246
G1 X107.319 Y116.175 E19.81627
G1 X106.611 Y116.175 E19.85756
G1 X104.26 Y113.825 E20.05141
G1 X103.552 Y113.825 E20.0927
G1 X105.902 Y116.175 E20.28651
G1 X105.194 Y116.175 E20.3278
G1 X102.843 Y113.825 E20.52165
G1 X102.135 Y113.825 E20.56294
G1 X104.486 Y116.175 E20.75679
G1 X103.777 Y116.175 E20.79814
G1 X101.427 Y113.825 E20.99195
G1 X100.718 Y113.825 E21.0333
G1 X103.069 Y116.175 E21.22715
G1 X102.36 Y116.175 E21.2685
G1 X100.01 Y113.825 E21.46231
G1 X99.301 Y113.825 E21.50366
G1 X101.652 Y116.175 E21.69751
