; generated by PrusaSlicer 2.5.2+MacOS-x64 on 2023-06-21 at 21:40:40 UTC

; 

; external perimeters extrusion width = 0.45mm
; perimeters extrusion width = 0.40mm
; infill extrusion width = 0.45mm
; solid infill extrusion width = 0.50mm
; top infill extrusion width = 0.45mm
; first layer extrusion width = 0.56mm

M201 X2500 Y2500 Z800 E2500 ; sets maximum accelerations, mm/sec^2
M203 X300 Y250 Z8 E80 ; sets maximum feedrates, mm / sec
M204 P2500 R2500 T2500 ; sets acceleration (P, T) and retract acceleration (R), mm/sec^2
M205 X15.00 Y10.00 Z2.00 E10.00 ; sets the jerk limits, mm/sec
M205 S0 T0 ; sets the minimum extruding and travel feed rate, mm/sec
M107
;TYPE:Custom
G90 ; use absolute coordinates
M83 ; extruder relative mode
M104 S215 ; set extruder temp
M140 S60 ; set bed temp
M190 S60 ; wait for bed temp
M109 S215 ; wait for extruder temp
G28                                        ; move X/Y/Z to min endstops
G1 Z0.28                                   ; lift nozzle a bit 
G92 E0 
G1 Y3 F1800                                    ; zero the extruded length 
G1 X60  E25 F500                       ; Extrude 25mm of filament in a 5cm line. 
G92 E0                                     ; zero the extruded length again 
G1 E-2 F500                                ; Retract a little 
G1 X70 F4000                              ; Quickly wipe away from the filament line
M117
G21 ; set units to millimeters
G90 ; use absolute coordinates
M82 ; use absolute distances for extrusion
G92 E0
M107
;LAYER_CHANGE
;Z:0.28
;HEIGHT:0.28
; BEFORE_LAYER_CHANGE 0 @ 0.28mm
G1 E-2 F4800
G92 E0
G1 Z.28 F7200
; AFTER_LAYER_CHANGE 0 @ 0.28mm
G1 X64.195 Y93.633
G1 E2 F4800
M204 S2000
;TYPE:Skirt/Brim
;WIDTH:0.56
G1 F3000
G1 X64.541 Y93.422 E2.02363
G1 X64.938 Y93.252 E2.04873
G1 X65.552 Y93.121 E2.08525
G1 X66.716 Y93.101 E2.153
G1 X70.088 Y93.101 E2.34926
G1 X70.37 Y92.826 E2.37217
G1 X70.782 Y92.56 E2.40072
G1 X71.322 Y92.344 E2.43453
G1 X71.847 Y92.25 E2.46562
G1 X162.207 Y92.254 E7.72406
G1 X162.691 Y92.348 E7.75279
G1 X163.218 Y92.56 E7.78584
G1 X163.623 Y92.82 E7.81386
G1 X163.94 Y93.119 E7.83923
G1 X164.654 Y93.145 E7.8808
G1 X165.072 Y93.257 E7.90597
G1 X165.659 Y93.533 E7.94376
G1 X165.987 Y93.781 E7.96766
G1 X166.358 Y94.157 E7.99836
G1 X166.6 Y94.485 E8.0221
G1 X166.871 Y95.077 E8.06002
G1 X167 Y95.721 E8.09822
G1 X166.983 Y97.452 E8.19897
G1 X166.875 Y97.911 E8.2264
G1 X166.677 Y98.376 E8.25584
G1 X166.436 Y98.748 E8.28159
G1 X165.858 Y99.326 E8.32917
G1 X165.452 Y99.582 E8.35715
G1 X165.045 Y99.754 E8.38286
G1 X164.75 Y99.83 E8.40058
G1 X164.759 Y123.643 E9.78636
G1 X165.445 Y123.915 E9.82935
G1 X165.9 Y124.208 E9.86082
G1 X166.435 Y124.751 E9.90519
G1 X166.695 Y125.158 E9.93332
G1 X166.887 Y125.626 E9.96275
G1 X166.989 Y126.1 E9.99092
G1 X166.99 Y127.881 E10.09461
G1 X166.872 Y128.421 E10.12674
G1 X166.652 Y128.924 E10.15874
G1 X166.354 Y129.347 E10.18885
G1 X165.948 Y129.752 E10.22221
G1 X165.596 Y130.004 E10.2474
G1 X165.008 Y130.266 E10.28487
G1 X164.753 Y130.336 E10.30024
G1 X164.738 Y135.267 E10.58723
G1 X164.634 Y135.748 E10.61584
G1 X164.431 Y136.232 E10.64639
G1 X164.089 Y136.73 E10.68154
G1 X163.575 Y137.216 E10.72274
G1 X163.212 Y137.442 E10.74764
G1 X162.776 Y137.625 E10.77516
G1 X162.152 Y137.75 E10.81217
G1 X71.848 Y137.75 E16.0674
G1 X71.221 Y137.624 E16.1046
G1 X70.766 Y137.431 E16.13338
G1 X70.318 Y137.13 E16.1648
G1 X69.903 Y136.721 E16.1987
G1 X69.657 Y136.391 E16.22264
G1 X69.368 Y135.75 E16.26356
G1 X69.256 Y135.207 E16.29584
G1 X69.246 Y130.399 E16.57563
G1 X66.712 Y130.399 E16.72311
G1 X65.496 Y130.373 E16.7939
G1 X65.026 Y130.276 E16.82185
G1 X64.497 Y130.054 E16.85521
G1 X64.005 Y129.711 E16.8901
G1 X63.495 Y129.158 E16.93393
G1 X63.287 Y128.806 E16.95771
G1 X63.122 Y128.404 E16.98298
G1 X63 Y127.784 E17.01975
G1 X63 Y126.223 E17.11063
G1 X63.058 Y125.819 E17.13437
G1 X63.279 Y125.213 E17.17191
G1 X63.494 Y124.844 E17.19675
G1 X64.08 Y124.224 E17.24641
G1 X64.484 Y123.952 E17.27475
G1 X64.933 Y123.754 E17.30328
G1 X65.505 Y123.626 E17.3374
G1 X66.72 Y123.601 E17.40816
G1 X69.249 Y123.601 E17.55531
G1 X69.241 Y99.899 E18.93459
G1 X66.719 Y99.899 E19.08135
G1 X65.447 Y99.867 E19.15545
G1 X64.972 Y99.759 E19.1838
G1 X64.454 Y99.532 E19.21668
G1 X64.055 Y99.254 E19.24499
G1 X63.568 Y98.753 E19.28565
G1 X63.302 Y98.334 E19.31455
G1 X63.102 Y97.842 E19.34544
G1 X63.008 Y97.37 E19.37344
G1 X63.005 Y95.663 E19.47281
G1 X63.095 Y95.185 E19.50111
G1 X63.31 Y94.649 E19.5347
G1 X63.649 Y94.15 E19.56981
G1 X64.151 Y93.674 E19.61007
M204 S2500
G1 X64.481 Y94.044 F7200
M204 S2000
G1 F3000
G1 X64.756 Y93.874 E19.62887
G1 X65.112 Y93.721 E19.65143
G1 X65.585 Y93.62 E19.67953
G1 X66.718 Y93.6 E19.74549
G1 X70.299 Y93.6 E19.95389
G1 X70.669 Y93.227 E19.98449
G1 X70.996 Y93.012 E20.00724
G1 X71.44 Y92.83 E20.0352
G1 X71.872 Y92.75 E20.06073
G1 X162.18 Y92.754 E25.31625
G1 X162.567 Y92.832 E25.3392
G1 X163.005 Y93.012 E25.36674
G1 X163.327 Y93.223 E25.38919
G1 X163.732 Y93.615 E25.42192
G1 X164.559 Y93.637 E25.47007
G1 X164.885 Y93.721 E25.48967
G1 X165.383 Y93.951 E25.52159
G1 X165.645 Y94.146 E25.54063
G1 X165.988 Y94.494 E25.56906
G1 X166.18 Y94.757 E25.58797
G1 X166.403 Y95.255 E25.61977
G1 X166.501 Y95.743 E25.64873
G1 X166.49 Y97.369 E25.74333
G1 X166.405 Y97.739 E25.76545
G1 X166.242 Y98.129 E25.79004
G1 X166.06 Y98.418 E25.8099
G1 X165.564 Y98.921 E25.85101
G1 X165.237 Y99.13 E25.87362
G1 X164.874 Y99.283 E25.89652
G1 X164.25 Y99.424 E25.93377
G1 X164.259 Y124.085 E27.36893
G1 X164.824 Y124.201 E27.40249
G1 X165.234 Y124.369 E27.42831
G1 X165.564 Y124.579 E27.45107
G1 X166.06 Y125.082 E27.49218
G1 X166.242 Y125.371 E27.51204
G1 X166.405 Y125.761 E27.53663
G1 X166.49 Y126.131 E27.55872
G1 X166.496 Y127.806 E27.65618
G1 X166.403 Y128.245 E27.6823
G1 X166.204 Y128.7 E27.71124
G1 X165.986 Y129.008 E27.73321
G1 X165.611 Y129.383 E27.76405
G1 X165.331 Y129.58 E27.78397
G1 X164.837 Y129.795 E27.81531
G1 X164.254 Y129.922 E27.85002
G1 X164.238 Y135.238 E28.15941
G1 X164.164 Y135.575 E28.17947
G1 X163.98 Y136.015 E28.20724
G1 X163.726 Y136.385 E28.23333
G1 X163.252 Y136.834 E28.27134
G1 X162.971 Y137.003 E28.29042
G1 X162.608 Y137.154 E28.31332
G1 X162.127 Y137.25 E28.34183
G1 X71.873 Y137.25 E33.59421
G1 X71.393 Y137.154 E33.62264
G1 X70.986 Y136.981 E33.64843
G1 X70.62 Y136.731 E33.67417
G1 X70.271 Y136.382 E33.70292
G1 X70.077 Y136.118 E33.72199
G1 X69.836 Y135.574 E33.75663
G1 X69.755 Y135.181 E33.77994
G1 X69.745 Y129.9 E34.08732
G1 X66.715 Y129.899 E34.26368
G1 X65.529 Y129.874 E34.33268
G1 X65.192 Y129.804 E34.35271
G1 X64.755 Y129.626 E34.38018
G1 X64.35 Y129.348 E34.40876
G1 X63.909 Y128.877 E34.44633
G1 X63.742 Y128.598 E34.46526
G1 X63.594 Y128.237 E34.48798
G1 X63.5 Y127.76 E34.51627
G1 X63.5 Y126.242 E34.60459
G1 X63.548 Y125.921 E34.62351
G1 X63.739 Y125.41 E34.65521
G1 X63.908 Y125.124 E34.67459
G1 X64.386 Y124.621 E34.71494
G1 X64.708 Y124.4 E34.7377
G1 X65.11 Y124.222 E34.76327
G1 X65.585 Y124.12 E34.79153
G1 X66.722 Y124.1 E34.85772
G1 X69.749 Y124.1 E35.03388
G1 X69.741 Y99.4 E36.47134
G1 X66.723 Y99.4 E36.647
G1 X65.487 Y99.368 E36.71895
G1 X65.113 Y99.279 E36.74134
G1 X64.68 Y99.085 E36.7689
G1 X64.396 Y98.888 E36.789
G1 X63.946 Y98.425 E36.8266
G1 X63.739 Y98.091 E36.84947
G1 X63.575 Y97.679 E36.87528
G1 X63.508 Y97.344 E36.89515
G1 X63.504 Y95.685 E36.99169
G1 X63.569 Y95.344 E37.01189
G1 X63.742 Y94.902 E37.03956
G1 X64.016 Y94.49 E37.06832
G1 X64.438 Y94.085 E37.10234
M204 S2500
G1 X64.771 Y94.451 F7200
M204 S2000
G1 F3000
G1 X64.972 Y94.325 E37.11613
G1 X65.287 Y94.19 E37.13609
G1 X65.617 Y94.12 E37.15576
G1 X66.72 Y94.1 E37.21993
G1 X70.507 Y94.1 E37.44033
G1 X71.005 Y93.598 E37.4815
G1 X71.211 Y93.464 E37.49578
G1 X71.564 Y93.315 E37.5181
G1 X71.897 Y93.249 E37.53784
G1 X162.152 Y93.254 E42.79024
G1 X162.436 Y93.315 E42.80715
G1 X162.789 Y93.464 E42.82943
G1 X162.997 Y93.599 E42.84386
G1 X163.357 Y93.948 E42.873
G1 X163.477 Y94.111 E42.88481
G1 X164.468 Y94.129 E42.94249
G1 X164.703 Y94.187 E42.95654
G1 X165.11 Y94.37 E42.98255
G1 X165.304 Y94.513 E42.99654
G1 X165.618 Y94.83 E43.02254
G1 X165.757 Y95.025 E43.03642
G1 X165.934 Y95.429 E43.06215
G1 X166 Y95.765 E43.08206
G1 X165.99 Y97.336 E43.1735
G1 X165.935 Y97.568 E43.18733
G1 X165.804 Y97.888 E43.20751
G1 X165.68 Y98.092 E43.22139
G1 X165.266 Y98.519 E43.25599
G1 X165.021 Y98.679 E43.27302
G1 X164.701 Y98.814 E43.2932
G1 X164.413 Y98.878 E43.31038
G1 X163.75 Y98.89 E43.34899
G1 X163.759 Y124.613 E44.84597
G1 X164.369 Y124.618 E44.88146
G1 X164.659 Y124.673 E44.89864
G1 X165.022 Y124.822 E44.92146
G1 X165.266 Y124.981 E44.93841
G1 X165.68 Y125.408 E44.97301
G1 X165.804 Y125.612 E44.98689
G1 X165.935 Y125.932 E45.00706
G1 X165.99 Y126.164 E45.0209
G1 X166 Y127.735 E45.11234
G1 X165.934 Y128.071 E45.13225
G1 X165.757 Y128.475 E45.15797
G1 X165.618 Y128.669 E45.17181
G1 X165.275 Y129.012 E45.20007
G1 X165.07 Y129.152 E45.2145
G1 X164.665 Y129.325 E45.24013
G1 X164.42 Y129.377 E45.25473
G1 X163.756 Y129.386 E45.29336
G1 X163.739 Y135.206 E45.63208
G1 X163.683 Y135.438 E45.64597
G1 X163.55 Y135.759 E45.6662
G1 X163.359 Y136.045 E45.68622
G1 X162.966 Y136.424 E45.71798
G1 X162.761 Y136.55 E45.73197
G1 X162.439 Y136.683 E45.75222
G1 X162.103 Y136.75 E45.77218
G1 X71.897 Y136.75 E51.0217
G1 X71.561 Y136.683 E51.04166
G1 X71.241 Y136.55 E51.06182
G1 X70.956 Y136.36 E51.08178
G1 X70.639 Y136.043 E51.10781
G1 X70.499 Y135.849 E51.12175
G1 X70.305 Y135.401 E51.15018
G1 X70.255 Y135.156 E51.16474
G1 X70.244 Y129.4 E51.49971
G1 X66.717 Y129.4 E51.70495
G1 X65.566 Y129.375 E51.77198
G1 X65.324 Y129.322 E51.7864
G1 X64.972 Y129.175 E51.80857
G1 X64.693 Y128.984 E51.82825
G1 X64.321 Y128.592 E51.8597
G1 X64.197 Y128.389 E51.87359
G1 X64.065 Y128.069 E51.89368
G1 X63.999 Y127.735 E51.91349
G1 X63.999 Y126.263 E51.99918
G1 X64.037 Y126.027 E52.01308
G1 X64.196 Y125.613 E52.03891
G1 X64.321 Y125.407 E52.05289
G1 X64.694 Y125.015 E52.08443
G1 X64.934 Y124.846 E52.10145
G1 X65.288 Y124.69 E52.124
G1 X65.617 Y124.62 E52.1436
G1 X66.724 Y124.6 E52.20802
G1 X70.249 Y124.6 E52.41315
G1 X70.241 Y98.9 E53.9088
G1 X66.725 Y98.9 E54.11341
G1 X65.572 Y98.875 E54.18054
G1 X65.29 Y98.811 E54.19738
G1 X64.939 Y98.657 E54.21965
G1 X64.733 Y98.518 E54.23413
G1 X64.352 Y98.133 E54.26562
G1 X64.195 Y97.884 E54.28278
G1 X64.049 Y97.518 E54.30569
G1 X64.003 Y97.275 E54.32006
G1 X64.004 Y95.713 E54.41101
G1 X64.054 Y95.468 E54.42552
G1 X64.196 Y95.112 E54.44784
G1 X64.385 Y94.828 E54.46766
G1 X64.728 Y94.493 E54.49558
M204 S2500
G1 X65.066 Y94.855 F7200
M204 S2000
G1 F3000
G1 X65.189 Y94.776 E54.5041
G1 X65.461 Y94.659 E54.52132
G1 X65.65 Y94.619 E54.53257
G1 X66.722 Y94.6 E54.59495
G1 X70.81 Y94.6 E54.83286
G1 X71.018 Y94.281 E54.855
G1 X71.33 Y93.978 E54.88033
G1 X71.455 Y93.9 E54.88891
G1 X71.731 Y93.787 E54.90624
G1 X71.921 Y93.749 E54.91756
G1 X162.124 Y93.754 E60.16689
G1 X162.267 Y93.786 E60.17539
G1 X162.545 Y93.9 E60.1929
G1 X162.67 Y93.978 E60.20147
G1 X162.982 Y94.281 E60.22675
G1 X163.191 Y94.608 E60.24939
G1 X164.384 Y94.622 E60.31882
G1 X164.527 Y94.655 E60.32732
G1 X164.843 Y94.794 E60.34744
G1 X164.964 Y94.88 E60.35609
G1 X165.246 Y95.165 E60.37942
G1 X165.33 Y95.286 E60.388
G1 X165.463 Y95.6 E60.4078
G1 X165.501 Y95.789 E60.41901
G1 X165.496 Y97.256 E60.50442
G1 X165.464 Y97.399 E60.51294
G1 X165.35 Y97.677 E60.53045
G1 X165.272 Y97.801 E60.53895
G1 X164.931 Y98.147 E60.56722
G1 X164.807 Y98.226 E60.57578
G1 X164.531 Y98.343 E60.59324
G1 X164.339 Y98.383 E60.60464
G1 X163.255 Y98.391 E60.66771
G1 X163.259 Y125.109 E62.22261
G1 X164.339 Y125.117 E62.28544
G1 X164.531 Y125.157 E62.29684
G1 X164.807 Y125.274 E62.31429
G1 X164.931 Y125.353 E62.32285
G1 X165.272 Y125.699 E62.35112
G1 X165.35 Y125.823 E62.35962
G1 X165.464 Y126.101 E62.37713
G1 X165.496 Y126.244 E62.38566
G1 X165.501 Y127.711 E62.47106
G1 X165.463 Y127.9 E62.48227
G1 X165.33 Y128.214 E62.50207
G1 X165.246 Y128.335 E62.51066
G1 X164.964 Y128.62 E62.53398
G1 X164.843 Y128.706 E62.54263
G1 X164.527 Y128.845 E62.56275
G1 X164.384 Y128.878 E62.57126
G1 X163.257 Y128.892 E62.63687
G1 X163.245 Y135.125 E62.99958
G1 X163.213 Y135.268 E63.00814
G1 X163.098 Y135.545 E63.0256
G1 X162.989 Y135.707 E63.03694
G1 X162.674 Y136.017 E63.06269
G1 X162.548 Y136.097 E63.07133
G1 X162.271 Y136.212 E63.08881
G1 X162.078 Y136.25 E63.10022
G1 X71.922 Y136.25 E68.34688
G1 X71.729 Y136.212 E68.3583
G1 X71.455 Y136.098 E68.37559
G1 X71.292 Y135.989 E68.38701
G1 X71.009 Y135.706 E68.41027
G1 X70.923 Y135.585 E68.41893
G1 X70.787 Y135.267 E68.43906
G1 X70.755 Y135.125 E68.44752
G1 X70.743 Y128.9 E68.80978
G1 X66.726 Y128.9 E69.04359
G1 X65.606 Y128.876 E69.10877
G1 X65.464 Y128.842 E69.11725
G1 X65.192 Y128.725 E69.13447
G1 X65.033 Y128.617 E69.14564
G1 X64.729 Y128.302 E69.17114
G1 X64.65 Y128.178 E69.17972
G1 X64.537 Y127.902 E69.19706
G1 X64.499 Y127.711 E69.20838
G1 X64.499 Y126.286 E69.29132
G1 X64.524 Y126.14 E69.29992
G1 X64.651 Y125.821 E69.3199
G1 X64.729 Y125.698 E69.32839
G1 X65.033 Y125.383 E69.35389
G1 X65.192 Y125.275 E69.36507
G1 X65.461 Y125.159 E69.38211
G1 X65.65 Y125.119 E69.39336
G1 X66.726 Y125.1 E69.45599
G1 X70.749 Y125.1 E69.69009
G1 X70.741 Y98.4 E71.24393
G1 X66.726 Y98.4 E71.47753
G1 X65.65 Y98.381 E71.54016
G1 X65.461 Y98.341 E71.55141
G1 X65.189 Y98.224 E71.56863
G1 X65.067 Y98.145 E71.57707
G1 X64.728 Y97.801 E71.6052
G1 X64.651 Y97.679 E71.61361
G1 X64.524 Y97.36 E71.6336
G1 X64.499 Y97.215 E71.64217
G1 X64.504 Y95.744 E71.72776
G1 X64.536 Y95.601 E71.73629
G1 X64.649 Y95.325 E71.75362
G1 X64.756 Y95.164 E71.76488
G1 X65.024 Y94.898 E71.78687
M204 S2500
G1 X65.371 Y95.252 F7200
M204 S2000
G1 F3000
G1 X65.683 Y95.118 E71.80664
G1 X66.729 Y95.1 E71.86748
G1 X71.182 Y95.1 E72.12665
G1 X71.385 Y94.621 E72.15693
G1 X71.63 Y94.379 E72.17696
G1 X71.946 Y94.249 E72.19685
G1 X162.054 Y94.249 E77.44071
G1 X162.37 Y94.379 E77.4606
G1 X162.615 Y94.621 E77.48063
G1 X162.818 Y95.106 E77.51123
G1 X164.359 Y95.127 E77.60091
G1 X164.628 Y95.251 E77.61815
G1 X164.871 Y95.497 E77.63827
G1 X164.991 Y95.765 E77.65538
G1 X165.001 Y97.187 E77.7381
G1 X164.898 Y97.462 E77.75522
G1 X164.628 Y97.749 E77.77813
G1 X164.311 Y97.883 E77.79817
G1 X162.759 Y97.894 E77.88847
G1 X162.76 Y125.606 E79.50112
G1 X164.311 Y125.617 E79.5914
G1 X164.628 Y125.751 E79.61143
G1 X164.871 Y125.997 E79.63155
G1 X165.001 Y126.313 E79.65145
G1 X165.001 Y127.687 E79.73137
G1 X164.871 Y128.003 E79.75127
G1 X164.628 Y128.249 E79.77139
G1 X164.359 Y128.373 E79.78863
G1 X162.757 Y128.394 E79.88185
G1 X162.74 Y135.102 E80.27221
G1 X162.618 Y135.372 E80.28946
G1 X162.372 Y135.618 E80.30968
G1 X162.054 Y135.75 E80.32974
G1 X71.898 Y135.74 E85.57635
G1 X71.628 Y135.618 E85.59361
G1 X71.382 Y135.372 E85.61384
G1 X71.25 Y135.054 E85.63388
G1 X71.243 Y128.4 E86.02112
G1 X66.727 Y128.4 E86.28391
G1 X65.683 Y128.382 E86.34466
G1 X65.371 Y128.248 E86.36443
G1 X65.129 Y128.003 E86.38446
G1 X64.999 Y127.687 E86.40436
G1 X65.009 Y126.265 E86.48708
G1 X65.129 Y125.997 E86.5042
G1 X65.371 Y125.752 E86.52423
G1 X65.636 Y125.629 E86.54124
G1 X66.729 Y125.6 E86.60485
G1 X71.249 Y125.6 E86.86793
G1 X71.24 Y97.9 E88.47995
G1 X66.729 Y97.9 E88.7425
G1 X65.683 Y97.882 E88.80335
G1 X65.411 Y97.775 E88.82035
G1 X65.129 Y97.503 E88.84316
G1 X64.999 Y97.187 E88.86306
G1 X64.999 Y95.813 E88.94299
G1 X65.102 Y95.538 E88.96011
G1 X65.329 Y95.295 E88.97944
M204 S2500
G1 X65.675 Y95.656 F7200
M204 S2000
G1 F3000
G1 X65.765 Y95.617 E88.98514
G1 X66.731 Y95.6 E89.04134
G1 X71.74 Y95.6 E89.33282
G1 X71.749 Y95.015 E89.36686
G1 X71.788 Y94.925 E89.37257
G1 X71.928 Y94.787 E89.38404
G1 X72.019 Y94.749 E89.38978
G1 X161.981 Y94.749 E94.62505
G1 X162.072 Y94.787 E94.63079
G1 X162.212 Y94.925 E94.64226
G1 X162.251 Y95.015 E94.64797
G1 X162.261 Y95.602 E94.68211
G1 X164.233 Y95.616 E94.7969
G1 X164.324 Y95.655 E94.80268
G1 X164.463 Y95.796 E94.81419
G1 X164.501 Y95.887 E94.81992
G1 X164.501 Y97.113 E94.89127
G1 X164.463 Y97.204 E94.89701
G1 X164.324 Y97.345 E94.90852
G1 X164.233 Y97.384 E94.9143
G1 X162.263 Y97.398 E95.02894
G1 X162.25 Y99.098 E95.12788
