; generated by PrusaSlicer 2.5.2+MacOS-x64 on 2023-06-18 at 14:33:37 UTC

; 

; external perimeters extrusion width = 0.45mm
; perimeters extrusion width = 0.40mm
; infill extrusion width = 0.45mm
; solid infill extrusion width = 0.50mm
; top infill extrusion width = 0.45mm
; first layer extrusion width = 0.80mm

M201 X2500 Y2500 Z800 E2500 ; sets maximum accelerations, mm/sec^2
M203 X300 Y250 Z8 E80 ; sets maximum feedrates, mm / sec
M204 P2500 R2500 T2500 ; sets acceleration (P, T) and retract acceleration (R), mm/sec^2
M205 X15.00 Y10.00 Z2.00 E10.00 ; sets the jerk limits, mm/sec
M205 S0 T0 ; sets the minimum extruding and travel feed rate, mm/sec
M107
;TYPE:Custom
G90 ; use absolute coordinates
M83 ; extruder relative mode
M104 S215 ; set extruder temp
M140 S60 ; set bed temp
M190 S60 ; wait for bed temp
M109 S215 ; wait for extruder temp
G28                                        ; move X/Y/Z to min endstops
G1 Z0.28                                   ; lift nozzle a bit 
G92 E0 
G1 Y3 F1800                                    ; zero the extruded length 
G1 X60  E25 F500                       ; Extrude 25mm of filament in a 5cm line. 
G92 E0                                     ; zero the extruded length again 
G1 E-2 F500                                ; Retract a little 
G1 X70 F4000                              ; Quickly wipe away from the filament line
M117
G21 ; set units to millimeters
G90 ; use absolute coordinates
M82 ; use absolute distances for extrusion
G92 E0
M107
;LAYER_CHANGE
;Z:0.4
;HEIGHT:0.4
; BEFORE_LAYER_CHANGE 0 @ 0.4mm
G1 E-2 F4800
G92 E0
G1 Z.4 F7200
; AFTER_LAYER_CHANGE 0 @ 0.4mm
G1 X159.63 Y139.172
G1 E2 F4800
M204 S2000
;TYPE:External perimeter
;WIDTH:0.8
G1 F3000
G1 X160.453 Y139.172 E2.09778
G1 X160.984 Y139.243 E2.16141
G1 X160.984 Y139.757 E2.22253
G1 X160.453 Y139.828 E2.28617
G1 X159.639 Y139.828 E2.38289
G1 X159.515 Y140.605 E2.47633
G1 X159.498 Y140.98 E2.52092
G1 X70.502 Y140.98 E13.09065
G1 X70.485 Y140.605 E13.13524
G1 X70.361 Y139.828 E13.22868
G1 X69.547 Y139.828 E13.3254
G1 X69.016 Y139.757 E13.38904
G1 X69.016 Y139.243 E13.45016
G1 X69.547 Y139.172 E13.51379
G1 X70.37 Y139.172 E13.61157
G1 X70.485 Y138.312 E13.71459
G1 X70.515 Y137.788 E13.77694
G1 X70.52 Y89.02 E19.56886
G1 X159.48 Y89.02 E30.13422
G1 X159.48 Y136.783 E35.80677
G1 X159.485 Y137.789 E35.92626
G1 X159.515 Y138.312 E35.98849
G1 X159.622 Y139.112 E36.08438
M204 S2500
G1 X159.644 Y139.571 F7200
G1 X158.918 Y139.816
M204 S2000
;TYPE:Perimeter
G1 F3000
G1 X158.846 Y140.266 E36.13856
G1 X71.154 Y140.266 E46.55322
G1 X71.04 Y139.55 E46.63939
G1 X71.197 Y138.38 E46.77961
G1 X71.229 Y137.808 E46.84762
G1 X71.234 Y89.734 E52.55709
G1 X158.766 Y89.734 E62.95282
G1 X158.766 Y136.785 E68.54081
G1 X158.771 Y137.811 E68.66264
G1 X158.803 Y138.38 E68.7303
G1 X158.96 Y139.55 E68.87052
G1 X158.927 Y139.756 E68.89539
M204 S2500
G1 X158.24 Y139.552 F7200
M204 S2000
G1 F3000
G1 X71.76 Y139.552 E79.16622
G1 X71.908 Y138.447 E79.29862
G1 X71.943 Y137.828 E79.37229
G1 X71.948 Y90.448 E84.99931
G1 X158.052 Y90.448 E95.22542
G1 X158.052 Y136.787 E100.72884
G1 X158.057 Y137.833 E100.85302
G1 X158.092 Y138.447 E100.92611
G1 X158.232 Y139.492 E101.05139
M204 S2500
G1 E99.65139 F4800
;WIPE_START
G1 F5760
G1 X157.512 Y139.493 E99.08139
;WIPE_END
G1 E99.05139 F4800
G92 E0
G1 X157.766 Y92.178 F7200
G1 E2 F4800
M204 S2000
;TYPE:Solid infill
;WIDTH:0.800177
G1 F3000
G1 X156.643 Y91.055 E2.1886
G1 X155.633 Y91.055 E2.30861
G1 X157.445 Y92.867 E2.61294
G1 X157.445 Y93.877 E2.73295
G1 X154.623 Y91.055 E3.207
G1 X153.613 Y91.055 E3.327
G1 X157.445 Y94.887 E3.97077
G1 X157.445 Y95.897 E4.09078
G1 X152.603 Y91.055 E4.90426
G1 X151.592 Y91.055 E5.02427
G1 X157.445 Y96.908 E6.00748
G1 X157.445 Y97.918 E6.12748
G1 X150.582 Y91.055 E7.28041
G1 X149.572 Y91.055 E7.40041
G1 X157.445 Y98.928 E8.72305
G1 X157.445 Y99.938 E8.84306
G1 X148.562 Y91.055 E10.33542
G1 X147.551 Y91.055 E10.45543
G1 X157.445 Y100.949 E12.11751
G1 X157.445 Y101.959 E12.23752
G1 X146.541 Y91.055 E14.06931
G1 X145.531 Y91.055 E14.18932
G1 X157.445 Y102.969 E16.19083
G1 X157.445 Y103.979 E16.31084
G1 X144.521 Y91.055 E18.48208
G1 X143.511 Y91.055 E18.60208
G1 X157.445 Y104.989 E20.94303
G1 X157.445 Y106 E21.06304
G1 X142.5 Y91.055 E23.57371
G1 X141.49 Y91.055 E23.69372
G1 X157.445 Y107.01 E26.37411
G1 X157.445 Y108.02 E26.49412
G1 X140.48 Y91.055 E29.34422
G1 X139.47 Y91.055 E29.46423
G1 X157.445 Y109.03 E32.48406
G1 X157.445 Y110.041 E32.60407
G1 X138.459 Y91.055 E35.79361
G1 X137.449 Y91.055 E35.91362
G1 X157.445 Y111.051 E39.27288
G1 X157.445 Y112.061 E39.39289
G1 X136.439 Y91.055 E42.92187
G1 X135.429 Y91.055 E43.04188
G1 X157.445 Y113.071 E46.74058
G1 X157.445 Y114.082 E46.86058
G1 X134.418 Y91.055 E50.729
G1 X133.408 Y91.055 E50.84901
G1 X157.445 Y115.092 E54.88715
G1 X157.445 Y116.102 E55.00715
G1 X132.398 Y91.055 E59.21501
G1 X131.388 Y91.055 E59.33502
G1 X157.445 Y117.112 E63.71259
G1 X157.445 Y118.122 E63.8326
G1 X130.378 Y91.055 E68.37989
G1 X129.367 Y91.055 E68.4999
G1 X157.445 Y119.133 E73.21691
G1 X157.445 Y120.143 E73.33692
G1 X128.357 Y91.055 E78.22364
G1 X127.347 Y91.055 E78.34365
G1 X157.445 Y121.153 E83.4001
G1 X157.445 Y122.163 E83.52011
G1 X126.337 Y91.055 E88.74627
G1 X125.326 Y91.055 E88.86628
G1 X157.445 Y123.174 E94.26216
G1 X157.445 Y124.184 E94.38217
G1 X124.316 Y91.055 E99.94777
G1 X123.306 Y91.055 E100.06778
G1 X157.445 Y125.194 E105.8031
G1 X157.445 Y126.204 E105.92311
G1 X122.296 Y91.055 E111.82815
G1 X121.286 Y91.055 E111.94816
G1 X157.445 Y127.214 E118.02292
G1 X157.445 Y128.225 E118.14293
G1 X120.275 Y91.055 E124.3874
G1 X119.265 Y91.055 E124.50741
G1 X157.445 Y129.235 E130.9216
G1 X157.445 Y130.245 E131.04161
G1 X118.255 Y91.055 E137.62553
G1 X117.245 Y91.055 E137.74553
G1 X157.445 Y131.255 E144.49916
G1 X157.445 Y132.266 E144.61917
G1 X116.234 Y91.055 E151.54252
G1 X115.224 Y91.055 E151.66253
G1 X157.445 Y133.276 E158.7556
G1 X157.445 Y134.286 E158.87561
G1 X114.214 Y91.055 E166.13839
G1 X113.204 Y91.055 E166.2584
G1 X157.445 Y135.296 E173.69091
G1 X157.445 Y136.306 E173.81092
G1 X112.194 Y91.055 E181.41314
G1 X111.183 Y91.055 E181.53315
G1 X157.448 Y137.32 E189.30557
G1 X157.45 Y137.851 E189.36873
G1 X157.479 Y138.361 E189.42941
G1 X110.173 Y91.055 E197.37682
G1 X109.163 Y91.055 E197.49683
G1 X157.052 Y138.945 E205.54232
G1 X156.042 Y138.945 E205.66233
G1 X108.153 Y91.055 E213.70782
G1 X107.142 Y91.055 E213.82783
G1 X155.032 Y138.945 E221.87333
G1 X154.022 Y138.945 E221.99334
G1 X106.132 Y91.055 E230.03883
G1 X105.122 Y91.055 E230.15884
G1 X153.012 Y138.945 E238.20433
G1 X152.001 Y138.945 E238.32434
G1 X104.112 Y91.055 E246.36984
G1 X103.102 Y91.055 E246.48985
G1 X150.991 Y138.945 E254.53534
G1 X149.981 Y138.945 E254.65535
G1 X102.091 Y91.055 E262.70084
G1 X101.081 Y91.055 E262.82085
G1 X148.971 Y138.945 E270.86635
G1 X147.96 Y138.945 E270.98635
G1 X100.071 Y91.055 E279.03185
G1 X99.061 Y91.055 E279.15186
G1 X146.95 Y138.945 E287.19735
G1 X145.94 Y138.945 E287.31736
G1 X98.05 Y91.055 E295.36285
G1 X97.04 Y91.055 E295.48286
G1 X144.93 Y138.945 E303.52836
G1 X143.92 Y138.945 E303.64837
G1 X96.03 Y91.055 E311.69386
G1 X95.02 Y91.055 E311.81387
G1 X142.909 Y138.945 E319.85936
G1 X141.899 Y138.945 E319.97937
G1 X94.01 Y91.055 E328.02487
G1 X92.999 Y91.055 E328.14488
G1 X140.889 Y138.945 E336.19037
G1 X139.879 Y138.945 E336.31038
G1 X91.989 Y91.055 E344.35587
G1 X90.979 Y91.055 E344.47588
G1 X138.868 Y138.945 E352.52138
G1 X137.858 Y138.945 E352.64138
G1 X89.969 Y91.055 E360.68688
G1 X88.958 Y91.055 E360.80689
G1 X136.848 Y138.945 E368.85238
G1 X135.838 Y138.945 E368.97239
G1 X87.948 Y91.055 E377.01788
G1 X86.938 Y91.055 E377.13789
G1 X134.828 Y138.945 E385.18339
G1 X133.817 Y138.945 E385.3034
G1 X85.928 Y91.055 E393.34889
G1 X84.918 Y91.055 E393.4689
G1 X132.807 Y138.945 E401.51439
G1 X131.797 Y138.945 E401.6344
G1 X83.907 Y91.055 E409.6799
G1 X82.897 Y91.055 E409.7999
G1 X130.787 Y138.945 E417.8454
G1 X129.776 Y138.945 E417.96541
G1 X81.887 Y91.055 E426.0109
G1 X80.877 Y91.055 E426.13091
G1 X128.766 Y138.945 E434.1764
G1 X127.756 Y138.945 E434.29641
G1 X79.866 Y91.055 E442.34191
G1 X78.856 Y91.055 E442.46192
G1 X126.746 Y138.945 E450.50741
G1 X125.736 Y138.945 E450.62742
G1 X77.846 Y91.055 E458.67291
G1 X76.836 Y91.055 E458.79292
G1 X124.725 Y138.945 E466.83842
G1 X123.715 Y138.945 E466.95842
G1 X75.826 Y91.055 E475.00392
G1 X74.815 Y91.055 E475.12393
G1 X122.705 Y138.945 E483.16942
G1 X121.695 Y138.945 E483.28943
G1 X73.805 Y91.055 E491.33492
G1 X72.795 Y91.055 E491.45493
G1 X120.684 Y138.945 E499.50043
G1 X119.674 Y138.945 E499.62044
G1 X72.555 Y91.826 E507.53651
G1 X72.555 Y92.836 E507.6565
G1 X118.664 Y138.945 E515.40288
G1 X117.654 Y138.945 E515.52289
G1 X72.555 Y93.846 E523.09956
G1 X72.555 Y94.856 E523.21956
G1 X116.644 Y138.945 E530.62653
G1 X115.633 Y138.945 E530.74654
G1 X72.555 Y95.866 E537.98381
G1 X72.554 Y96.876 E538.10381
G1 X114.623 Y138.945 E545.17138
G1 X113.613 Y138.945 E545.29139
G1 X72.554 Y97.886 E552.18926
G1 X72.554 Y98.896 E552.30926
G1 X112.603 Y138.945 E559.03743
G1 X111.592 Y138.945 E559.15744
G1 X72.554 Y99.907 E565.71591
G1 X72.554 Y100.917 E565.83591
G1 X110.582 Y138.945 E572.22468
G1 X109.572 Y138.945 E572.34469
G1 X72.554 Y101.927 E578.56377
G1 X72.554 Y102.937 E578.68376
G1 X108.562 Y138.945 E584.73314
G1 X107.552 Y138.945 E584.85314
G1 X72.554 Y103.947 E590.73282
G1 X72.554 Y104.957 E590.85281
G1 X106.541 Y138.945 E596.56279
G1 X105.531 Y138.945 E596.6828
G1 X72.553 Y105.967 E602.22307
G1 X72.553 Y106.977 E602.34307
G1 X104.521 Y138.945 E607.71364
G1 X103.511 Y138.945 E607.83365
G1 X72.553 Y107.988 E613.03453
G1 X72.553 Y108.998 E613.15452
G1 X102.5 Y138.945 E618.1857
G1 X101.49 Y138.945 E618.30571
G1 X72.553 Y110.008 E623.16718
G1 X72.553 Y111.018 E623.28718
G1 X100.48 Y138.945 E627.97895
G1 X99.47 Y138.945 E628.09896
G1 X72.553 Y112.028 E632.62104
G1 X72.553 Y113.038 E632.74103
G1 X98.46 Y138.945 E637.09341
G1 X97.449 Y138.945 E637.21342
G1 X72.553 Y114.048 E641.39609
G1 X72.552 Y115.058 E641.51609
G1 X96.439 Y138.945 E645.52906
G1 X95.429 Y138.945 E645.64907
G1 X72.552 Y116.068 E649.49235
G1 X72.552 Y117.079 E649.61235
G1 X94.419 Y138.945 E653.28592
G1 X93.408 Y138.945 E653.40593
G1 X72.552 Y118.089 E656.90981
G1 X72.552 Y119.099 E657.0298
G1 X92.398 Y138.945 E660.36398
G1 X91.388 Y138.945 E660.48399
G1 X72.552 Y120.109 E663.64846
G1 X72.552 Y121.119 E663.76846
G1 X90.378 Y138.945 E666.76324
G1 X89.368 Y138.945 E666.88325
G1 X72.552 Y122.129 E669.70832
G1 X72.552 Y123.139 E669.82832
G1 X88.357 Y138.945 E672.4837
G1 X87.347 Y138.945 E672.60371
G1 X72.551 Y124.149 E675.08938
G1 X72.551 Y125.159 E675.20938
G1 X86.337 Y138.945 E677.52536
G1 X85.327 Y138.945 E677.64536
G1 X72.551 Y126.17 E679.79164
G1 X72.551 Y127.18 E679.91164
G1 X84.316 Y138.945 E681.88822
G1 X83.306 Y138.945 E682.00822
G1 X72.551 Y128.19 E683.8151
G1 X72.551 Y129.2 E683.9351
G1 X82.296 Y138.945 E685.57228
G1 X81.286 Y138.945 E685.69229
G1 X72.551 Y130.21 E687.15976
G1 X72.551 Y131.22 E687.27976
G1 X80.275 Y138.945 E688.57754
G1 X79.265 Y138.945 E688.69755
G1 X72.551 Y132.23 E689.82562
G1 X72.55 Y133.24 E689.94562
G1 X78.255 Y138.945 E690.904
G1 X77.245 Y138.945 E691.02401
G1 X72.55 Y134.25 E691.81269
G1 X72.55 Y135.261 E691.93268
G1 X76.235 Y138.945 E692.55166
G1 X75.224 Y138.945 E692.67167
G1 X72.55 Y136.271 E693.12095
G1 X72.55 Y137.281 E693.24095
G1 X74.214 Y138.945 E693.52052
G1 X73.204 Y138.945 E693.64053
G1 X72.221 Y137.962 E693.80558
M204 S2500
;LAYER_CHANGE
;Z:0.7
;HEIGHT:0.3
; BEFORE_LAYER_CHANGE 1 @ 0.7mm
G1 E692.40558 F4800
;WIPE_START
G1 F5760
G1 X72.731 Y138.472 E691.83558
;WIPE_END
G1 E691.80558 F4800
G92 E0
G1 Z.7 F7200
; AFTER_LAYER_CHANGE 1 @ 0.7mm
M104 S190 ; set temperature
G1 X159.755 Y138.584
G1 E2 F4800
;TYPE:External perimeter
;WIDTH:0.45
G1 X161.255 Y138.584 E2.07214
G1 X161.255 Y140.416 E2.16024
G1 X159.755 Y140.416 E2.23238
G1 X159.755 Y141.255 E2.27275
G1 X70.245 Y141.255 E6.57787
G1 X70.245 Y140.416 E6.61823
G1 X68.745 Y140.416 E6.69038
G1 X68.745 Y138.584 E6.77847
G1 X70.245 Y138.584 E6.85062
G1 X70.245 Y88.745 E9.24771
G1 X159.755 Y88.745 E13.55284
G1 X159.755 Y138.524 E15.94705
G1 X159.894 Y138.959 F7200
G1 X159.394 Y138.584
;TYPE:Perimeter
;WIDTH:0.4
G1 F9000
G1 X159.394 Y138.945 E15.96214
G1 X160.894 Y138.945 E16.02493
G1 X160.894 Y140.055 E16.07141
G1 X159.394 Y140.055 E16.1342
G1 X159.394 Y140.894 E16.16933
G1 X70.606 Y140.894 E19.88606
G1 X70.606 Y140.055 E19.92119
G1 X69.106 Y140.055 E19.98398
G1 X69.106 Y138.945 E20.03046
G1 X70.606 Y138.945 E20.09325
G1 X70.606 Y89.106 E22.17953
G1 X159.394 Y89.106 E25.89626
G1 X159.394 Y138.524 E27.96494
G1 X159.059 Y138.584 F7200
G1 F9000
G1 X159.059 Y139.28 E27.99408
G1 X160.559 Y139.28 E28.05687
G1 X160.559 Y139.72 E28.07525
G1 X159.059 Y139.72 E28.13804
G1 X159.059 Y140.559 E28.17317
G1 X70.941 Y140.559 E31.8618
G1 X70.941 Y139.72 E31.89693
G1 X69.441 Y139.72 E31.95972
G1 X69.441 Y139.28 E31.9781
G1 X70.941 Y139.28 E32.04089
G1 X70.941 Y89.441 E34.12718
G1 X159.059 Y89.441 E37.8158
G1 X159.059 Y138.524 E39.87043
G1 X158.891 Y139.5 F7200
;TYPE:Gap fill
;WIDTH:0.167913
G1 F6000
G1 X160.391 Y139.5 E39.8898
G1 E38.4898 F4800
;WIPE_START
G1 F5760
G1 X159.671 Y139.5 E37.9198
;WIPE_END
G1 E37.8898 F4800
G92 E0
G1 X158.045 Y140.427 F7200
G1 E2 F4800
;TYPE:Solid infill
;WIDTH:0.500572
G1 F9000
G1 X158.563 Y139.909 E2.03985
G1 X158.563 Y139.292 E2.07341
G1 X157.624 Y140.231 E2.14565
G1 X157.008 Y140.231 E2.17921
G1 X158.731 Y138.508 E2.31181
G1 X158.731 Y137.891 E2.34537
G1 X156.391 Y140.231 E2.52543
G1 X155.774 Y140.231 E2.55899
G1 X158.731 Y137.274 E2.78652
G1 X158.731 Y136.657 E2.82008
G1 X155.157 Y140.231 E3.09507
G1 X154.54 Y140.231 E3.12863
G1 X158.731 Y136.04 E3.45108
G1 X158.731 Y135.423 E3.48464
G1 X153.923 Y140.231 E3.85455
G1 X153.306 Y140.231 E3.88811
G1 X158.731 Y134.806 E4.30548
G1 X158.731 Y134.189 E4.33904
G1 X152.689 Y140.231 E4.80387
G1 X152.073 Y140.231 E4.83743
G1 X158.731 Y133.573 E5.34972
G1 X158.731 Y132.956 E5.38328
G1 X151.456 Y140.231 E5.94304
G1 X150.839 Y140.231 E5.9766
G1 X158.731 Y132.339 E6.58381
G1 X158.731 Y131.722 E6.61737
G1 X150.222 Y140.231 E7.27205
G1 X149.605 Y140.231 E7.30561
G1 X158.731 Y131.105 E8.00775
G1 X158.731 Y130.488 E8.04131
G1 X148.988 Y140.231 E8.79091
G1 X148.371 Y140.231 E8.82447
G1 X158.731 Y129.871 E9.62153
G1 X158.731 Y129.255 E9.65509
G1 X147.755 Y140.231 E10.49961
G1 X147.138 Y140.231 E10.53317
G1 X158.731 Y128.638 E11.42515
G1 X158.731 Y128.021 E11.45871
G1 X146.521 Y140.231 E12.39816
G1 X145.904 Y140.231 E12.43172
G1 X158.731 Y127.404 E13.41862
G1 X158.731 Y126.787 E13.45218
G1 X145.287 Y140.231 E14.48655
G1 X144.67 Y140.231 E14.52011
G1 X158.731 Y126.17 E15.60193
G1 X158.731 Y125.553 E15.63549
G1 X144.053 Y140.231 E16.76478
G1 X143.436 Y140.231 E16.79834
G1 X158.731 Y124.936 E17.97509
G1 X158.731 Y124.32 E18.00865
G1 X142.82 Y140.231 E19.23286
G1 X142.203 Y140.231 E19.26642
G1 X158.731 Y123.703 E20.5381
G1 X158.731 Y123.086 E20.57166
G1 X141.586 Y140.231 E21.89079
G1 X140.969 Y140.231 E21.92435
G1 X158.731 Y122.469 E23.29095
G1 X158.731 Y121.852 E23.32451
G1 X140.352 Y140.231 E24.73856
G1 X139.735 Y140.231 E24.77212
G1 X158.731 Y121.235 E26.23364
G1 X158.731 Y120.618 E26.2672
G1 X139.118 Y140.231 E27.77618
G1 X138.501 Y140.231 E27.80974
G1 X158.731 Y120.001 E29.36618
G1 X158.731 Y119.385 E29.39974
G1 X137.885 Y140.231 E31.00364
G1 X137.268 Y140.231 E31.0372
G1 X158.731 Y118.768 E32.68856
G1 X158.731 Y118.151 E32.72212
G1 X136.651 Y140.231 E34.42094
G1 X136.034 Y140.231 E34.4545
G1 X158.731 Y117.534 E36.20079
G1 X158.731 Y116.917 E36.23435
G1 X135.417 Y140.231 E38.02809
G1 X134.8 Y140.231 E38.06165
G1 X158.731 Y116.3 E39.90286
G1 X158.731 Y115.683 E39.93642
G1 X134.183 Y140.231 E41.82509
G1 X133.567 Y140.231 E41.85865
G1 X158.731 Y115.067 E43.79478
G1 X158.731 Y114.45 E43.82834
G1 X132.95 Y140.231 E45.81193
G1 X132.333 Y140.231 E45.84549
G1 X158.731 Y113.833 E47.87654
G1 X158.731 Y113.216 E47.9101
G1 X131.716 Y140.231 E49.98861
G1 X131.099 Y140.231 E50.02217
G1 X158.731 Y112.599 E52.14815
