(Exported by FreeCAD)
(Post Processor: grbl_post)
(Output Time:2024-01-22 12:56:04.247745)
(Begin preamble)
G17 G90
G21
(Begin operation: Fixture)
(Path: Fixture)
G54
(Finish operation: Fixture)
(Begin operation: 1.2mm010)
(Path: 1.2mm010)
(1.2mm010)
(Begin toolchange)
( M6 T2 )
M3 S12000
(Finish operation: 1.2mm010)
(Begin operation: Pocket_Shape)
(Path: Pocket_Shape)
(Pocket_Shape)
G0 Z14.100
G0 X16.667 Y21.010
G0 Z12.100
G1 X16.667 Y21.010 Z14.500 F2000.000
G3 X15.044 Y21.785 Z14.500 I-1.882 J-1.854 K0.000 F2000.000
G1 X17.404 Y19.425 Z14.500 F2000.000
G2 X17.501 Y18.479 Z14.500 I-3.935 J-0.884 K0.000 F2000.000
G1 X14.136 Y21.845 Z14.500 F2000.000
G1 X13.519 Y21.845 Z14.500 F2000.000
G1 X13.519 Y21.613 Z14.500 F2000.000
G1 X17.476 Y17.656 Z14.500 F2000.000
G2 X17.376 Y16.908 Z14.500 I-3.171 J0.043 K0.000 F2000.000
G1 X13.519 Y20.765 Z14.500 F2000.000
G1 X13.519 Y19.916 Z14.500 F2000.000
G1 X17.177 Y16.258 Z14.500 F2000.000
G2 X16.885 Y15.702 Z14.500 I-1.932 J0.659 K0.000 F2000.000
G1 X13.519 Y19.068 Z14.500 F2000.000
G1 X13.519 Y18.219 Z14.500 F2000.000
G1 X16.488 Y15.250 Z14.500 F2000.000
G2 X15.964 Y14.925 Z14.500 I-1.166 J1.297 K0.000 F2000.000
G1 X13.519 Y17.370 Z14.500 F2000.000
G1 X13.519 Y16.522 Z14.500 F2000.000
G1 X15.336 Y14.705 Z14.500 F2000.000
G2 X14.585 Y14.608 Z14.500 I-0.830 J3.460 K0.000 F2000.000
G1 X13.519 Y15.673 Z14.500 F2000.000
G1 X13.519 Y14.825 Z14.500 F2000.000
G1 X13.747 Y14.597 Z14.500 F2000.000
G1 X13.519 Y14.597 Z14.500 F2000.000
G1 X13.519 Y14.825 Z14.500 F2000.000
G1 X13.519 Y14.825 Z13.900 F2000.000
G1 X13.519 Y14.597 Z13.900 F2000.000
G1 X13.747 Y14.597 Z13.900 F2000.000
G1 X13.519 Y14.825 Z13.900 F2000.000
G1 X13.519 Y15.673 Z13.900 F2000.000
G1 X14.585 Y14.608 Z13.900 F2000.000
G3 X15.336 Y14.705 Z13.900 I-0.079 J3.558 K0.000 F2000.000
G1 X13.519 Y16.522 Z13.900 F2000.000
G1 X13.519 Y17.370 Z13.900 F2000.000
G1 X15.964 Y14.925 Z13.900 F2000.000
G3 X16.488 Y15.250 Z13.900 I-0.642 J1.621 K0.000 F2000.000
G1 X13.519 Y18.219 Z13.900 F2000.000
G1 X13.519 Y19.068 Z13.900 F2000.000
G1 X16.885 Y15.702 Z13.900 F2000.000
G3 X17.177 Y16.258 Z13.900 I-1.640 J1.216 K0.000 F2000.000
G1 X13.519 Y19.916 Z13.900 F2000.000
G1 X13.519 Y20.765 Z13.900 F2000.000
G1 X17.376 Y16.908 Z13.900 F2000.000
G3 X17.476 Y17.656 Z13.900 I-3.072 J0.791 K0.000 F2000.000
G1 X13.519 Y21.613 Z13.900 F2000.000
G1 X13.519 Y21.845 Z13.900 F2000.000
G1 X14.136 Y21.845 Z13.900 F2000.000
G1 X17.501 Y18.479 Z13.900 F2000.000
G3 X17.404 Y19.425 Z13.900 I-4.032 J0.062 K0.000 F2000.000
G1 X15.044 Y21.785 Z13.900 F2000.000
G2 X16.667 Y21.010 Z13.900 I-0.258 J-2.629 K0.000 F2000.000
G1 X16.667 Y21.010 Z13.300 F2000.000
G3 X15.044 Y21.785 Z13.300 I-1.882 J-1.854 K0.000 F2000.000
G1 X17.404 Y19.425 Z13.300 F2000.000
G2 X17.501 Y18.479 Z13.300 I-3.935 J-0.884 K0.000 F2000.000
G1 X14.136 Y21.845 Z13.300 F2000.000
G1 X13.519 Y21.845 Z13.300 F2000.000
G1 X13.519 Y21.613 Z13.300 F2000.000
G1 X17.476 Y17.656 Z13.300 F2000.000
G2 X17.376 Y16.908 Z13.300 I-3.171 J0.043 K0.000 F2000.000
G1 X13.519 Y20.765 Z13.300 F2000.000
G1 X13.519 Y19.916 Z13.300 F2000.000
G1 X17.177 Y16.258 Z13.300 F2000.000
G2 X16.885 Y15.702 Z13.300 I-1.932 J0.659 K0.000 F2000.000
G1 X13.519 Y19.068 Z13.300 F2000.000
G1 X13.519 Y18.219 Z13.300 F2000.000
G1 X16.488 Y15.250 Z13.300 F2000.000
G2 X15.964 Y14.925 Z13.300 I-1.166 J1.297 K0.000 F2000.000
G1 X13.519 Y17.370 Z13.300 F2000.000
G1 X13.519 Y16.522 Z13.300 F2000.000
G1 X15.336 Y14.705 Z13.300 F2000.000
G2 X14.585 Y14.608 Z13.300 I-0.830 J3.460 K0.000 F2000.000
G1 X13.519 Y15.673 Z13.300 F2000.000
G1 X13.519 Y14.825 Z13.300 F2000.000
G1 X13.747 Y14.597 Z13.300 F2000.000
G1 X13.519 Y14.597 Z13.300 F2000.000
G1 X13.519 Y14.825 Z13.300 F2000.000
G1 X13.519 Y14.825 Z12.700 F2000.000
G1 X13.519 Y14.597 Z12.700 F2000.000
G1 X13.747 Y14.597 Z12.700 F2000.000
G1 X13.519 Y14.825 Z12.700 F2000.000
G1 X13.519 Y15.673 Z12.700 F2000.000
G1 X14.585 Y14.608 Z12.700 F2000.000
G3 X15.336 Y14.705 Z12.700 I-0.079 J3.558 K0.000 F2000.000
G1 X13.519 Y16.522 Z12.700 F2000.000
G1 X13.519 Y17.370 Z12.700 F2000.000
G1 X15.964 Y14.925 Z12.700 F2000.000
G3 X16.488 Y15.250 Z12.700 I-0.642 J1.621 K0.000 F2000.000
G1 X13.519 Y18.219 Z12.700 F2000.000
G1 X13.519 Y19.068 Z12.700 F2000.000
G1 X16.885 Y15.702 Z12.700 F2000.000
G3 X17.177 Y16.258 Z12.700 I-1.640 J1.216 K0.000 F2000.000
G1 X13.519 Y19.916 Z12.700 F2000.000
G1 X13.519 Y20.765 Z12.700 F2000.000
G1 X17.376 Y16.908 Z12.700 F2000.000
G3 X17.476 Y17.656 Z12.700 I-3.072 J0.791 K0.000 F2000.000
G1 X13.519 Y21.613 Z12.700 F2000.000
G1 X13.519 Y21.845 Z12.700 F2000.000
G1 X14.136 Y21.845 Z12.700 F2000.000
G1 X17.501 Y18.479 Z12.700 F2000.000
G3 X17.404 Y19.425 Z12.700 I-4.032 J0.062 K0.000 F2000.000
G1 X15.044 Y21.785 Z12.700 F2000.000
G2 X16.667 Y21.010 Z12.700 I-0.258 J-2.629 K0.000 F2000.000
G1 X16.667 Y21.010 Z12.100 F2000.000
G3 X15.044 Y21.785 Z12.100 I-1.882 J-1.854 K0.000 F2000.000
G1 X17.404 Y19.425 Z12.100 F2000.000
G2 X17.501 Y18.479 Z12.100 I-3.935 J-0.884 K0.000 F2000.000
G1 X14.136 Y21.845 Z12.100 F2000.000
G1 X13.519 Y21.845 Z12.100 F2000.000
G1 X13.519 Y21.613 Z12.100 F2000.000
G1 X17.476 Y17.656 Z12.100 F2000.000
G2 X17.376 Y16.908 Z12.100 I-3.171 J0.043 K0.000 F2000.000
G1 X13.519 Y20.765 Z12.100 F2000.000
G1 X13.519 Y19.916 Z12.100 F2000.000
G1 X17.177 Y16.258 Z12.100 F2000.000
G2 X16.885 Y15.702 Z12.100 I-1.932 J0.659 K0.000 F2000.000
G1 X13.519 Y19.068 Z12.100 F2000.000
G1 X13.519 Y18.219 Z12.100 F2000.000
G1 X16.488 Y15.250 Z12.100 F2000.000
G2 X15.964 Y14.925 Z12.100 I-1.166 J1.297 K0.000 F2000.000
G1 X13.519 Y17.370 Z12.100 F2000.000
G1 X13.519 Y16.522 Z12.100 F2000.000
G1 X15.336 Y14.705 Z12.100 F2000.000
G2 X14.585 Y14.608 Z12.100 I-0.830 J3.460 K0.000 F2000.000
G1 X13.519 Y15.673 Z12.100 F2000.000
G1 X13.519 Y14.825 Z12.100 F2000.000
G1 X13.747 Y14.597 Z12.100 F2000.000
G1 X13.519 Y14.597 Z12.100 F2000.000
G1 X13.519 Y14.825 Z12.100 F2000.000
G1 X13.519 Y14.825 Z11.500 F2000.000
G1 X13.519 Y14.597 Z11.500 F2000.000
G1 X13.747 Y14.597 Z11.500 F2000.000
G1 X13.519 Y14.825 Z11.500 F2000.000
G1 X13.519 Y15.673 Z11.500 F2000.000
G1 X14.585 Y14.608 Z11.500 F2000.000
G3 X15.336 Y14.705 Z11.500 I-0.079 J3.558 K0.000 F2000.000
G1 X13.519 Y16.522 Z11.500 F2000.000
G1 X13.519 Y17.370 Z11.500 F2000.000
G1 X15.964 Y14.925 Z11.500 F2000.000
G3 X16.488 Y15.250 Z11.500 I-0.642 J1.621 K0.000 F2000.000
G1 X13.519 Y18.219 Z11.500 F2000.000
G1 X13.519 Y19.068 Z11.500 F2000.000
G1 X16.885 Y15.702 Z11.500 F2000.000
G3 X17.177 Y16.258 Z11.500 I-1.640 J1.216 K0.000 F2000.000
G1 X13.519 Y19.916 Z11.500 F2000.000
G1 X13.519 Y20.765 Z11.500 F2000.000
G1 X17.376 Y16.908 Z11.500 F2000.000
G3 X17.476 Y17.656 Z11.500 I-3.072 J0.791 K0.000 F2000.000
G1 X13.519 Y21.613 Z11.500 F2000.000
G1 X13.519 Y21.845 Z11.500 F2000.000
G1 X14.136 Y21.845 Z11.500 F2000.000
G1 X17.501 Y18.479 Z11.500 F2000.000
G3 X17.404 Y19.425 Z11.500 I-4.032 J0.062 K0.000 F2000.000
G1 X15.044 Y21.785 Z11.500 F2000.000
G2 X16.667 Y21.010 Z11.500 I-0.258 J-2.629 K0.000 F2000.000
G1 X16.667 Y21.010 Z10.900 F2000.000
G3 X15.044 Y21.785 Z10.900 I-1.882 J-1.854 K0.000 F2000.000
G1 X17.404 Y19.425 Z10.900 F2000.000
G2 X17.501 Y18.479 Z10.900 I-3.935 J-0.884 K0.000 F2000.000
G1 X14.136 Y21.845 Z10.900 F2000.000
G1 X13.519 Y21.845 Z10.900 F2000.000
G1 X13.519 Y21.613 Z10.900 F2000.000
G1 X17.476 Y17.656 Z10.900 F2000.000
G2 X17.376 Y16.908 Z10.900 I-3.171 J0.043 K0.000 F2000.000
G1 X13.519 Y20.765 Z10.900 F2000.000
G1 X13.519 Y19.916 Z10.900 F2000.000
G1 X17.177 Y16.258 Z10.900 F2000.000
G2 X16.885 Y15.702 Z10.900 I-1.932 J0.659 K0.000 F2000.000
G1 X13.519 Y19.068 Z10.900 F2000.000
G1 X13.519 Y18.219 Z10.900 F2000.000
G1 X16.488 Y15.250 Z10.900 F2000.000
G2 X15.964 Y14.925 Z10.900 I-1.166 J1.297 K0.000 F2000.000
G1 X13.519 Y17.370 Z10.900 F2000.000
G1 X13.519 Y16.522 Z10.900 F2000.000
G1 X15.336 Y14.705 Z10.900 F2000.000
G2 X14.585 Y14.608 Z10.900 I-0.830 J3.460 K0.000 F2000.000
G1 X13.519 Y15.673 Z10.900 F2000.000
G1 X13.519 Y14.825 Z10.900 F2000.000
G1 X13.747 Y14.597 Z10.900 F2000.000
G1 X13.519 Y14.597 Z10.900 F2000.000
G1 X13.519 Y14.825 Z10.900 F2000.000
G1 X13.519 Y14.825 Z10.550 F2000.000
G1 X13.519 Y14.597 Z10.550 F2000.000
G1 X13.747 Y14.597 Z10.550 F2000.000
G1 X13.519 Y14.825 Z10.550 F2000.000
G1 X13.519 Y15.673 Z10.550 F2000.000
G1 X14.585 Y14.608 Z10.550 F2000.000
G3 X15.336 Y14.705 Z10.550 I-0.079 J3.558 K0.000 F2000.000
G1 X13.519 Y16.522 Z10.550 F2000.000
G1 X13.519 Y17.370 Z10.550 F2000.000
G1 X15.964 Y14.925 Z10.550 F2000.000
G3 X16.488 Y15.250 Z10.550 I-0.642 J1.621 K0.000 F2000.000
G1 X13.519 Y18.219 Z10.550 F2000.000
G1 X13.519 Y19.068 Z10.550 F2000.000
G1 X16.885 Y15.702 Z10.550 F2000.000
G3 X17.177 Y16.258 Z10.550 I-1.640 J1.216 K0.000 F2000.000
G1 X13.519 Y19.916 Z10.550 F2000.000
G1 X13.519 Y20.765 Z10.550 F2000.000
G1 X17.376 Y16.908 Z10.550 F2000.000
G3 X17.476 Y17.656 Z10.550 I-3.072 J0.791 K0.000 F2000.000
G1 X13.519 Y21.613 Z10.550 F2000.000
G1 X13.519 Y21.845 Z10.550 F2000.000
G1 X14.136 Y21.845 Z10.550 F2000.000
G1 X17.501 Y18.479 Z10.550 F2000.000
G3 X17.404 Y19.425 Z10.550 I-4.032 J0.062 K0.000 F2000.000
G1 X15.044 Y21.785 Z10.550 F2000.000
G2 X16.667 Y21.010 Z10.550 I-0.258 J-2.629 K0.000 F2000.000
G0 Z14.100
G0 Z14.100
G0 X16.667 Y21.010
G0 X25.121 Y14.575
G0 X25.121 Y14.575 Z12.100
G1 X25.121 Y14.575 Z14.500 F2000.000
G2 X25.233 Y15.028 Z14.500 I0.519 J0.112 K0.000 F2000.000
G2 X25.842 Y15.296 Z14.500 I0.733 J-0.841 K0.000 F2000.000
G1 X25.121 Y14.575 Z14.500 F2000.000
G3 X25.511 Y14.117 Z14.500 I0.441 J-0.020 K0.000 F2000.000
G1 X26.759 Y15.365 Z14.500 F2000.000
G1 X26.995 Y15.365 Z14.500 F2000.000
G1 X26.995 Y14.753 Z14.500 F2000.000
G1 X26.768 Y14.526 Z14.500 F2000.000
G1 X26.768 Y14.526 Z13.900 F2000.000
G1 X26.995 Y14.753 Z13.900 F2000.000
G1 X26.995 Y15.365 Z13.900 F2000.000
G1 X26.759 Y15.365 Z13.900 F2000.000
G1 X25.511 Y14.117 Z13.900 F2000.000
G2 X25.121 Y14.575 Z13.900 I0.051 J0.438 K0.000 F2000.000
G1 X25.842 Y15.296 Z13.900 F2000.000
G3 X25.233 Y15.028 Z13.900 I0.124 J-1.109 K0.000 F2000.000
G3 X25.121 Y14.575 Z13.900 I0.407 J-0.340 K0.000 F2000.000
G1 X25.121 Y14.575 Z13.300 F2000.000
G2 X25.233 Y15.028 Z13.300 I0.519 J0.112 K0.000 F2000.000
G2 X25.842 Y15.296 Z13.300 I0.733 J-0.841 K0.000 F2000.000
G1 X25.121 Y14.575 Z13.300 F2000.000
G3 X25.511 Y14.117 Z13.300 I0.441 J-0.020 K0.000 F2000.000
G1 X26.759 Y15.365 Z13.300 F2000.000
G1 X26.995 Y15.365 Z13.300 F2000.000
G1 X26.995 Y14.753 Z13.300 F2000.000
G1 X26.768 Y14.526 Z13.300 F2000.000
G1 X26.768 Y14.526 Z12.700 F2000.000
G1 X26.995 Y14.753 Z12.700 F2000.000
G1 X26.995 Y15.365 Z12.700 F2000.000
G1 X26.759 Y15.365 Z12.700 F2000.000
G1 X25.511 Y14.117 Z12.700 F2000.000
G2 X25.121 Y14.575 Z12.700 I0.051 J0.438 K0.000 F2000.000
G1 X25.842 Y15.296 Z12.700 F2000.000
G3 X25.233 Y15.028 Z12.700 I0.124 J-1.109 K0.000 F2000.000
G3 X25.121 Y14.575 Z12.700 I0.407 J-0.340 K0.000 F2000.000
G1 X25.121 Y14.575 Z12.100 F2000.000
G2 X25.233 Y15.028 Z12.100 I0.519 J0.112 K0.000 F2000.000
G2 X25.842 Y15.296 Z12.100 I0.733 J-0.841 K0.000 F2000.000
G1 X25.121 Y14.575 Z12.100 F2000.000
G3 X25.511 Y14.117 Z12.100 I0.441 J-0.020 K0.000 F2000.000
G1 X26.759 Y15.365 Z12.100 F2000.000
G1 X26.995 Y15.365 Z12.100 F2000.000
G1 X26.995 Y14.753 Z12.100 F2000.000
G1 X26.768 Y14.526 Z12.100 F2000.000
G1 X26.768 Y14.526 Z11.500 F2000.000
G1 X26.995 Y14.753 Z11.500 F2000.000
G1 X26.995 Y15.365 Z11.500 F2000.000
G1 X26.759 Y15.365 Z11.500 F2000.000
G1 X25.511 Y14.117 Z11.500 F2000.000
G2 X25.121 Y14.575 Z11.500 I0.051 J0.438 K0.000 F2000.000
G1 X25.842 Y15.296 Z11.500 F2000.000
G3 X25.233 Y15.028 Z11.500 I0.124 J-1.109 K0.000 F2000.000
G3 X25.121 Y14.575 Z11.500 I0.407 J-0.340 K0.000 F2000.000
G1 X25.121 Y14.575 Z10.900 F2000.000
G2 X25.233 Y15.028 Z10.900 I0.519 J0.112 K0.000 F2000.000
G2 X25.842 Y15.296 Z10.900 I0.733 J-0.841 K0.000 F2000.000
G1 X25.121 Y14.575 Z10.900 F2000.000
G3 X25.511 Y14.117 Z10.900 I0.441 J-0.020 K0.000 F2000.000
G1 X26.759 Y15.365 Z10.900 F2000.000
G1 X26.995 Y15.365 Z10.900 F2000.000
G1 X26.995 Y14.753 Z10.900 F2000.000
G1 X26.768 Y14.526 Z10.900 F2000.000
G1 X26.768 Y14.526 Z10.550 F2000.000
G1 X26.995 Y14.753 Z10.550 F2000.000
G1 X26.995 Y15.365 Z10.550 F2000.000
G1 X26.759 Y15.365 Z10.550 F2000.000
G1 X25.511 Y14.117 Z10.550 F2000.000
G2 X25.121 Y14.575 Z10.550 I0.051 J0.438 K0.000 F2000.000
G1 X25.842 Y15.296 Z10.550 F2000.000
G3 X25.233 Y15.028 Z10.550 I0.124 J-1.109 K0.000 F2000.000
G3 X25.121 Y14.575 Z10.550 I0.407 J-0.340 K0.000 F2000.000
G0 Z14.100
G0 Z14.100
G0 X25.121 Y14.575
G0 X92.397 Y18.975
G0 X92.397 Y18.975 Z12.100
G1 X92.397 Y18.975 Z14.500 F2000.000
G3 X92.050 Y18.627 Z14.500 I0.448 J-0.796 K0.000 F2000.000
G2 X93.363 Y19.092 Z14.500 I0.976 J-0.669 K0.000 F2000.000
G1 X92.420 Y18.149 Z14.500 F2000.000
G1 X93.268 Y18.149 Z14.500 F2000.000
G1 X93.880 Y18.761 Z14.500 F2000.000
G2 X94.117 Y18.149 Z14.500 I-1.066 J-0.764 K0.000 F2000.000
G1 X94.117 Y18.149 Z13.900 F2000.000
G3 X93.880 Y18.761 Z13.900 I-1.303 J-0.152 K0.000 F2000.000
G1 X93.268 Y18.149 Z13.900 F2000.000
G1 X92.420 Y18.149 Z13.900 F2000.000
G1 X93.363 Y19.092 Z13.900 F2000.000
G3 X92.050 Y18.627 Z13.900 I-0.338 J-1.134 K0.000 F2000.000
G2 X92.397 Y18.975 Z13.900 I0.796 J-0.448 K0.000 F2000.000
G1 X92.397 Y18.975 Z13.300 F2000.000
G3 X92.050 Y18.627 Z13.300 I0.448 J-0.796 K0.000 F2000.000
G2 X93.363 Y19.092 Z13.300 I0.976 J-0.669 K0.000 F2000.000
G1 X92.420 Y18.149 Z13.300 F2000.000
G1 X93.268 Y18.149 Z13.300 F2000.000
G1 X93.880 Y18.761 Z13.300 F2000.000
G2 X94.117 Y18.149 Z13.300 I-1.066 J-0.764 K0.000 F2000.000
G1 X94.117 Y18.149 Z12.700 F2000.000
G3 X93.880 Y18.761 Z12.700 I-1.303 J-0.152 K0.000 F2000.000
G1 X93.268 Y18.149 Z12.700 F2000.000
G1 X92.420 Y18.149 Z12.700 F2000.000
G1 X93.363 Y19.092 Z12.700 F2000.000
G3 X92.050 Y18.627 Z12.700 I-0.338 J-1.134 K0.000 F2000.000
G2 X92.397 Y18.975 Z12.700 I0.796 J-0.448 K0.000 F2000.000
G1 X92.397 Y18.975 Z12.100 F2000.000
G3 X92.050 Y18.627 Z12.100 I0.448 J-0.796 K0.000 F2000.000
G2 X93.363 Y19.092 Z12.100 I0.976 J-0.669 K0.000 F2000.000
G1 X92.420 Y18.149 Z12.100 F2000.000
G1 X93.268 Y18.149 Z12.100 F2000.000
G1 X93.880 Y18.761 Z12.100 F2000.000
G2 X94.117 Y18.149 Z12.100 I-1.066 J-0.764 K0.000 F2000.000
G1 X94.117 Y18.149 Z11.500 F2000.000
G3 X93.880 Y18.761 Z11.500 I-1.303 J-0.152 K0.000 F2000.000
G1 X93.268 Y18.149 Z11.500 F2000.000
G1 X92.420 Y18.149 Z11.500 F2000.000
G1 X93.363 Y19.092 Z11.500 F2000.000
G3 X92.050 Y18.627 Z11.500 I-0.338 J-1.134 K0.000 F2000.000
G2 X92.397 Y18.975 Z11.500 I0.796 J-0.448 K0.000 F2000.000
G1 X92.397 Y18.975 Z10.900 F2000.000
G3 X92.050 Y18.627 Z10.900 I0.448 J-0.796 K0.000 F2000.000
G2 X93.363 Y19.092 Z10.900 I0.976 J-0.669 K0.000 F2000.000
G1 X92.420 Y18.149 Z10.900 F2000.000
G1 X93.268 Y18.149 Z10.900 F2000.000
G1 X93.880 Y18.761 Z10.900 F2000.000
G2 X94.117 Y18.149 Z10.900 I-1.066 J-0.764 K0.000 F2000.000
G1 X94.117 Y18.149 Z10.550 F2000.000
G3 X93.880 Y18.761 Z10.550 I-1.303 J-0.152 K0.000 F2000.000
G1 X93.268 Y18.149 Z10.550 F2000.000
G1 X92.420 Y18.149 Z10.550 F2000.000
G1 X93.363 Y19.092 Z10.550 F2000.000
G3 X92.050 Y18.627 Z10.550 I-0.338 J-1.134 K0.000 F2000.000
G2 X92.397 Y18.975 Z10.550 I0.796 J-0.448 K0.000 F2000.000
G0 Z14.100
G0 Z14.100
G0 X92.397 Y18.975
G0 X91.848 Y15.201
G0 X91.848 Y15.201 Z12.100
G1 X91.848 Y15.201 Z14.500 F2000.000
G1 X91.808 Y15.394 Z14.500 F2000.000
G1 X92.041 Y15.394 Z14.500 F2000.000
G1 X91.848 Y15.201 Z14.500 F2000.000
G3 X92.141 Y14.646 Z14.500 I1.236 J0.297 K0.000 F2000.000
G1 X92.889 Y15.394 Z14.500 F2000.000
G1 X93.738 Y15.394 Z14.500 F2000.000
G1 X92.668 Y14.324 Z14.500 F2000.000
G3 X93.403 Y14.210 Z14.500 I0.692 J2.050 K0.000 F2000.000
G1 X94.586 Y15.394 Z14.500 F2000.000
G1 X95.435 Y15.394 Z14.500 F2000.000
G1 X94.301 Y14.260 Z14.500 F2000.000
G3 X95.413 Y14.524 Z14.500 I-0.488 J4.536 K0.000 F2000.000
G1 X96.283 Y15.394 Z14.500 F2000.000
G0 Z14.100
G0 X95.827 Y11.543 Z14.100
G0 X95.827 Y11.543 Z12.100
G1 X95.827 Y11.543 Z14.500 F2000.000
G1 X89.884 Y5.600 Z14.500 F2000.000
G1 X89.035 Y5.600 Z14.500 F2000.000
G1 X94.739 Y11.304 Z14.500 F2000.000
G2 X93.782 Y11.195 Z14.500 I-1.135 J5.728 K0.000 F2000.000
G1 X88.187 Y5.600 Z14.500 F2000.000
G1 X87.338 Y5.600 Z14.500 F2000.000
G1 X92.927 Y11.189 Z14.500 F2000.000
G2 X92.143 Y11.254 Z14.500 I0.112 J6.145 K0.000 F2000.000
G1 X86.490 Y5.600 Z14.500 F2000.000
G1 X85.641 Y5.600 Z14.500 F2000.000
G1 X91.440 Y11.399 Z14.500 F2000.000
G2 X90.796 Y11.603 Z14.500 I0.816 J3.704 K0.000 F2000.000
G1 X84.793 Y5.600 Z14.500 F2000.000
G1 X83.944 Y5.600 Z14.500 F2000.000
G1 X90.226 Y11.882 Z14.500 F2000.000
G2 X89.731 Y12.236 Z14.500 I1.341 J2.403 K0.000 F2000.000
G1 X83.096 Y5.600 Z14.500 F2000.000
G1 X82.247 Y5.600 Z14.500 F2000.000
G1 X89.293 Y12.646 Z14.500 F2000.000
G2 X88.928 Y13.129 Z14.500 I1.799 J1.737 K0.000 F2000.000
G1 X87.898 Y12.100 Z14.500 F2000.000
G3 X88.058 Y13.108 Z14.500 I-2.749 J0.953 K0.000 F2000.000
G1 X88.622 Y13.672 Z14.500 F2000.000
G2 X88.387 Y14.286 Z14.500 I3.386 J1.643 K0.000 F2000.000
G1 X87.992 Y13.891 Z14.500 F2000.000
G3 X87.710 Y14.457 Z14.500 I-0.962 J-0.125 K0.000 F2000.000
G1 X88.229 Y14.976 Z14.500 F2000.000
G2 X88.125 Y15.721 Z14.500 I3.808 J0.910 K0.000 F2000.000
G1 X87.040 Y14.636 Z14.500 F2000.000
G3 X86.455 Y14.459 Z14.500 I0.832 J-3.810 K0.000 F2000.000
G2 X86.015 Y14.460 Z14.500 I-0.219 J0.793 K0.000 F2000.000
G1 X88.091 Y16.535 Z14.500 F2000.000
G2 X88.144 Y17.436 Z14.500 I6.794 J0.053 K0.000 F2000.000
G1 X85.818 Y15.111 Z14.500 F2000.000
G2 X85.813 Y15.954 Z14.500 I10.254 J0.490 K0.000 F2000.000
G1 X88.345 Y18.486 Z14.500 F2000.000
G2 X88.997 Y19.987 Z14.500 I4.792 J-1.190 K0.000 F2000.000
G1 X85.813 Y16.802 Z14.500 F2000.000
G0 Z14.100
G0 X85.971 Y18.658 Z14.100
G0 X85.971 Y18.658 Z12.100
G1 X85.971 Y18.658 Z14.500 F2000.000
G1 X85.813 Y18.658 Z14.500 F2000.000
G1 X85.813 Y18.499 Z14.500 F2000.000
G1 X85.971 Y18.658 Z14.500 F2000.000
G1 X86.819 Y18.658 Z14.500 F2000.000
G1 X85.813 Y17.651 Z14.500 F2000.000
G1 X85.813 Y16.802 Z14.500 F2000.000
G1 X88.997 Y19.987 Z14.500 F2000.000
G2 X90.278 Y21.268 Z14.500 I3.510 J-2.229 K0.000 F2000.000
G1 X99.210 Y30.200 Z14.500 F2000.000
G1 X100.059 Y30.200 Z14.500 F2000.000
G1 X91.742 Y21.883 Z14.500 F2000.000
G2 X92.726 Y22.019 Z14.500 I0.992 J-3.557 K0.000 F2000.000
G1 X100.907 Y30.200 Z14.500 F2000.000
G1 X101.756 Y30.200 Z14.500 F2000.000
G1 X93.573 Y22.017 Z14.500 F2000.000
G2 X94.319 Y21.915 Z14.500 I-0.173 J-4.028 K0.000 F2000.000
G1 X102.604 Y30.200 Z14.500 F2000.000
G1 X103.453 Y30.200 Z14.500 F2000.000
G1 X94.978 Y21.725 Z14.500 F2000.000
G2 X95.560 Y21.458 Z14.500 I-0.796 J-2.502 K0.000 F2000.000
G1 X104.302 Y30.200 Z14.500 F2000.000
G1 X105.150 Y30.200 Z14.500 F2000.000
G1 X96.076 Y21.126 Z14.500 F2000.000
G2 X96.518 Y20.720 Z14.500 I-1.498 J-2.080 K0.000 F2000.000
G1 X105.999 Y30.200 Z14.500 F2000.000
G1 X106.847 Y30.200 Z14.500 F2000.000
G1 X96.894 Y20.247 Z14.500 F2000.000
G2 X97.205 Y19.709 Z14.500 I-2.914 J-2.043 K0.000 F2000.000
G1 X107.696 Y30.200 Z14.500 F2000.000
G1 X108.544 Y30.200 Z14.500 F2000.000
G1 X99.927 Y21.583 Z14.500 F2000.000
G3 X98.297 Y19.952 Z14.500 I1.288 J-2.919 K0.000 F2000.000
G1 X97.440 Y19.096 Z14.500 F2000.000
G2 X97.599 Y18.407 Z14.500 I-4.550 J-1.411 K0.000 F2000.000
G1 X98.057 Y18.864 Z14.500 F2000.000
G3 X98.089 Y18.048 Z14.500 I2.591 J-0.308 K0.000 F2000.000
G1 X97.676 Y17.635 Z14.500 F2000.000
G2 X97.698 Y16.808 Z14.500 I-6.308 J-0.583 K0.000 F2000.000
G1 X98.271 Y17.381 Z14.500 F2000.000
G3 X98.570 Y16.832 Z14.500 I2.164 J0.825 K0.000 F2000.000
G1 X96.514 Y14.775 Z14.500 F2000.000
G2 X97.053 Y14.466 Z14.500 I-0.059 J-0.728 K0.000 F2000.000
G1 X98.960 Y16.374 Z14.500 F2000.000
G3 X99.431 Y15.995 Z14.500 I1.630 J1.546 K0.000 F2000.000
G1 X97.279 Y13.844 Z14.500 F2000.000
G2 X97.286 Y13.003 Z14.500 I-6.497 J-0.474 K0.000 F2000.000
G1 X98.005 Y13.721 Z14.500 F2000.000
G2 X98.026 Y14.002 Z14.500 I1.377 J0.041 K0.000 F2000.000
G2 X99.156 Y14.872 Z14.500 I0.882 J0.022 K0.000 F2000.000
G1 X99.972 Y15.688 Z14.500 F2000.000
G3 X100.546 Y15.413 Z14.500 I2.062 J3.563 K0.000 F2000.000
G1 X99.736 Y14.604 Z14.500 F2000.000
G3 X100.329 Y14.348 Z14.500 I1.410 J2.450 K0.000 F2000.000
G1 X101.155 Y15.174 Z14.500 F2000.000
G2 X101.749 Y14.920 Z14.500 I-3.220 J-8.330 K0.000 F2000.000
G1 X100.994 Y14.164 Z14.500 F2000.000
G3 X101.889 Y14.211 Z14.500 I0.349 J1.901 K0.000 F2000.000
G1 X102.165 Y14.487 Z14.500 F2000.000
G1 X102.156 Y14.413 Z14.500 F2000.000
G2 X101.889 Y14.211 Z14.500 I-0.372 J0.214 K0.000 F2000.000
G0 Z14.100
G0 X105.577 Y13.656 Z14.100
G0 X105.577 Y13.656 Z12.100
G1 X105.577 Y13.656 Z14.500 F2000.000
G1 X109.400 Y17.479 Z14.500 F2000.000
G1 X109.400 Y18.328 Z14.500 F2000.000
G1 X105.727 Y14.655 Z14.500 F2000.000
G3 X105.666 Y15.442 Z14.500 I-3.726 J0.106 K0.000 F2000.000
G1 X109.400 Y19.176 Z14.500 F2000.000
G1 X109.400 Y20.025 Z14.500 F2000.000
G1 X105.456 Y16.081 Z14.500 F2000.000
G3 X105.140 Y16.613 Z14.500 I-1.774 J-0.695 K0.000 F2000.000
G1 X109.400 Y20.874 Z14.500 F2000.000
G1 X109.400 Y21.722 Z14.500 F2000.000
G1 X104.739 Y17.061 Z14.500 F2000.000
G3 X104.257 Y17.428 Z14.500 I-1.937 J-2.049 K0.000 F2000.000
G1 X109.400 Y22.571 Z14.500 F2000.000
G1 X109.400 Y23.419 Z14.500 F2000.000
G1 X105.189 Y19.208 Z14.500 F2000.000
G3 X105.244 Y20.112 Z14.500 I-3.806 J0.686 K0.000 F2000.000
G1 X109.400 Y24.268 Z14.500 F2000.000
G1 X109.400 Y25.116 Z14.500 F2000.000
G1 X105.137 Y20.853 Z14.500 F2000.000
G3 X104.783 Y21.348 Z14.500 I-1.024 J-0.357 K0.000 F2000.000
G1 X109.400 Y25.965 Z14.500 F2000.000
G1 X109.400 Y26.813 Z14.500 F2000.000
G1 X104.230 Y21.643 Z14.500 F2000.000
G3 X103.588 Y21.850 Z14.500 I-1.116 J-2.373 K0.000 F2000.000
G1 X109.400 Y27.662 Z14.500 F2000.000
G1 X109.400 Y28.510 Z14.500 F2000.000
G1 X102.876 Y21.986 Z14.500 F2000.000
G3 X102.076 Y22.035 Z14.500 I-0.667 J-4.396 K0.000 F2000.000
G1 X109.400 Y29.359 Z14.500 F2000.000
G1 X109.400 Y30.200 Z14.500 F2000.000
G1 X109.393 Y30.200 Z14.500 F2000.000
G1 X101.144 Y21.951 Z14.500 F2000.000
G3 X99.927 Y21.583 Z14.500 I0.519 J-3.908 K0.000 F2000.000
G1 X108.544 Y30.200 Z14.500 F2000.000
G0 Z14.100
G0 X104.490 Y18.509 Z14.100
G0 X104.490 Y18.509 Z12.100
G1 X104.490 Y18.509 Z14.500 F2000.000
G1 X103.701 Y17.720 Z14.500 F2000.000
G3 X103.119 Y17.986 Z14.500 I-1.970 J-3.543 K0.000 F2000.000
G1 X103.802 Y18.669 Z14.500 F2000.000
G3 X103.208 Y18.924 Z14.500 I-1.402 J-2.454 K0.000 F2000.000
G1 X102.504 Y18.221 Z14.500 F2000.000
G2 X101.909 Y18.473 Z14.500 I3.034 J7.987 K0.000 F2000.000
G1 X102.537 Y19.101 Z14.500 F2000.000
G3 X101.693 Y19.051 Z14.500 I-0.324 J-1.673 K0.000 F2000.000
G3 X101.625 Y18.645 Z14.500 I0.045 J-0.216 K0.000 F2000.000
G3 X101.909 Y18.473 Z14.500 I0.645 J0.744 K0.000 F2000.000
G0 Z14.100
G0 X88.044 Y19.882 Z14.100
G0 X88.044 Y19.882 Z12.100
G1 X88.044 Y19.882 Z14.500 F2000.000
G1 X98.362 Y30.200 Z14.500 F2000.000
G1 X97.513 Y30.200 Z14.500 F2000.000
G1 X88.035 Y20.721 Z14.500 F2000.000
G3 X87.839 Y21.374 Z14.500 I-1.431 J-0.073 K0.000 F2000.000
G1 X96.665 Y30.200 Z14.500 F2000.000
G1 X95.816 Y30.200 Z14.500 F2000.000
G1 X87.378 Y21.762 Z14.500 F2000.000
G3 X86.584 Y21.816 Z14.500 I-0.529 J-1.899 K0.000 F2000.000
G1 X94.968 Y30.200 Z14.500 F2000.000
G1 X94.119 Y30.200 Z14.500 F2000.000
G1 X85.813 Y21.893 Z14.500 F2000.000
G1 X85.813 Y22.742 Z14.500 F2000.000
G1 X93.271 Y30.200 Z14.500 F2000.000
G1 X92.422 Y30.200 Z14.500 F2000.000
G1 X85.726 Y23.504 Z14.500 F2000.000
G3 X85.303 Y23.929 Z14.500 I-0.830 J-0.402 K0.000 F2000.000
G1 X91.574 Y30.200 Z14.500 F2000.000
G1 X90.725 Y30.200 Z14.500 F2000.000
G1 X84.629 Y24.104 Z14.500 F2000.000
G3 X83.798 Y24.122 Z14.500 I-0.524 J-5.181 K0.000 F2000.000
G1 X89.877 Y30.200 Z14.500 F2000.000
G1 X89.028 Y30.200 Z14.500 F2000.000
G1 X82.805 Y23.977 Z14.500 F2000.000
G3 X82.253 Y23.425 Z14.500 I0.324 J-0.877 K0.000 F2000.000
G1 X80.206 Y21.378 Z14.500 F2000.000
G3 X79.642 Y21.663 Z14.500 I-1.167 J-1.613 K0.000 F2000.000
G1 X88.179 Y30.200 Z14.500 F2000.000
G1 X87.331 Y30.200 Z14.500 F2000.000
G1 X78.993 Y21.862 Z14.500 F2000.000
G3 X78.276 Y21.994 Z14.500 I-1.083 J-3.884 K0.000 F2000.000
G1 X86.482 Y30.200 Z14.500 F2000.000
G1 X85.634 Y30.200 Z14.500 F2000.000
G1 X77.464 Y22.030 Z14.500 F2000.000
G3 X76.517 Y21.932 Z14.500 I-0.127 J-3.379 K0.000 F2000.000
G1 X84.785 Y30.200 Z14.500 F2000.000
G1 X83.937 Y30.200 Z14.500 F2000.000
G1 X75.262 Y21.525 Z14.500 F2000.000
G3 X73.826 Y20.089 Z14.500 I1.402 J-2.839 K0.000 F2000.000
G1 X72.360 Y18.624 Z14.500 F2000.000
G3 X72.249 Y19.361 Z14.500 I-2.197 J0.045 K0.000 F2000.000
G1 X83.088 Y30.200 Z14.500 F2000.000
G1 X82.240 Y30.200 Z14.500 F2000.000
G1 X71.892 Y19.852 Z14.500 F2000.000
G3 X71.202 Y20.011 Z14.500 I-0.562 J-0.864 K0.000 F2000.000
G1 X81.391 Y30.200 Z14.500 F2000.000
G1 X80.543 Y30.200 Z14.500 F2000.000
G1 X72.948 Y22.605 Z14.500 F2000.000
G3 X73.036 Y23.542 Z14.500 I-3.124 J0.768 K0.000 F2000.000
G1 X79.694 Y30.200 Z14.500 F2000.000
G1 X78.846 Y30.200 Z14.500 F2000.000
G1 X72.941 Y24.295 Z14.500 F2000.000
G3 X72.624 Y24.827 Z14.500 I-1.102 J-0.297 K0.000 F2000.000
G1 X77.997 Y30.200 Z14.500 F2000.000
G1 X77.149 Y30.200 Z14.500 F2000.000
G1 X71.971 Y25.022 Z14.500 F2000.000
G1 X71.122 Y25.022 Z14.500 F2000.000
G1 X76.300 Y30.200 Z14.500 F2000.000
G1 X75.452 Y30.200 Z14.500 F2000.000
G1 X70.274 Y25.022 Z14.500 F2000.000
G1 X69.425 Y25.022 Z14.500 F2000.000
G1 X74.603 Y30.200 Z14.500 F2000.000
G1 X73.755 Y30.200 Z14.500 F2000.000
G1 X68.577 Y25.022 Z14.500 F2000.000
G1 X67.728 Y25.022 Z14.500 F2000.000
G1 X72.906 Y30.200 Z14.500 F2000.000
G1 X72.057 Y30.200 Z14.500 F2000.000
G1 X66.880 Y25.022 Z14.500 F2000.000
G1 X66.031 Y25.022 Z14.500 F2000.000
G1 X71.209 Y30.200 Z14.500 F2000.000
G0 Z14.100
G0 X72.200 Y21.857 Z14.100
G0 X72.200 Y21.857 Z12.100
G1 X72.200 Y21.857 Z14.500 F2000.000
G1 X70.354 Y20.011 Z14.500 F2000.000
G1 X69.505 Y20.011 Z14.500 F2000.000
G1 X71.339 Y21.845 Z14.500 F2000.000
G1 X70.490 Y21.845 Z14.500 F2000.000
G1 X68.657 Y20.011 Z14.500 F2000.000
G1 X68.241 Y20.011 Z14.500 F2000.000
G1 X68.241 Y20.444 Z14.500 F2000.000
G1 X69.642 Y21.845 Z14.500 F2000.000
G1 X68.793 Y21.845 Z14.500 F2000.000
G1 X68.241 Y21.845 Z14.500 F2000.000
G1 X68.241 Y21.293 Z14.500 F2000.000
G1 X68.793 Y21.845 Z14.500 F2000.000
G0 Z14.100
G0 X72.360 Y18.624 Z14.100
G0 X72.360 Y18.624 Z12.100
G1 X72.360 Y18.624 Z14.500 F2000.000
G1 X73.826 Y20.089 Z14.500 F2000.000
G3 X73.529 Y18.944 Z14.500 I2.546 J-1.270 K0.000 F2000.000
G1 X72.297 Y17.711 Z14.500 F2000.000
G0 Z14.100
G0 X68.921 Y16.882 Z14.100
G0 X68.921 Y16.882 Z12.100
G1 X68.921 Y16.882 Z14.500 F2000.000
G1 X68.241 Y16.202 Z14.500 F2000.000
G1 X68.241 Y16.882 Z14.500 F2000.000
G1 X68.921 Y16.882 Z14.500 F2000.000
G1 X69.770 Y16.882 Z14.500 F2000.000
G1 X68.241 Y15.353 Z14.500 F2000.000
G1 X68.241 Y14.578 Z14.500 F2000.000
G1 X68.314 Y14.578 Z14.500 F2000.000
G1 X70.618 Y16.882 Z14.500 F2000.000
G3 X71.472 Y16.887 Z14.500 I0.397 J5.081 K0.000 F2000.000
G1 X69.163 Y14.578 Z14.500 F2000.000
G1 X70.011 Y14.578 Z14.500 F2000.000
G1 X73.548 Y18.114 Z14.500 F2000.000
G3 X73.715 Y17.433 Z14.500 I2.259 J0.192 K0.000 F2000.000
G1 X70.860 Y14.578 Z14.500 F2000.000
G1 X71.709 Y14.578 Z14.500 F2000.000
G1 X74.004 Y16.873 Z14.500 F2000.000
G3 X74.388 Y16.408 Z14.500 I1.954 J1.222 K0.000 F2000.000
G1 X72.474 Y14.495 Z14.500 F2000.000
G2 X72.902 Y14.074 Z14.500 I-0.337 J-0.771 K0.000 F2000.000
G1 X74.853 Y16.025 Z14.500 F2000.000
G3 X75.389 Y15.712 Z14.500 I1.493 J1.947 K0.000 F2000.000
G1 X74.562 Y14.886 Z14.500 F2000.000
G3 X73.945 Y14.807 Z14.500 I-0.207 J-0.835 K0.000 F2000.000
G3 X73.473 Y13.797 Z14.500 I0.650 J-0.919 K0.000 F2000.000
G1 X73.069 Y13.393 Z14.500 F2000.000
G2 X73.067 Y12.542 Z14.500 I-4.218 J-0.414 K0.000 F2000.000
G1 X73.483 Y12.958 Z14.500 F2000.000
G3 X73.671 Y12.297 Z14.500 I1.621 J0.103 K0.000 F2000.000
G1 X66.974 Y5.600 Z14.500 F2000.000
G1 X67.822 Y5.600 Z14.500 F2000.000
G1 X74.092 Y11.870 Z14.500 F2000.000
G3 X74.665 Y11.595 Z14.500 I1.144 J1.649 K0.000 F2000.000
G1 X68.671 Y5.600 Z14.500 F2000.000
G1 X69.519 Y5.600 Z14.500 F2000.000
G1 X75.301 Y11.382 Z14.500 F2000.000
G3 X76.012 Y11.244 Z14.500 I1.190 J4.234 K0.000 F2000.000
G1 X70.368 Y5.600 Z14.500 F2000.000
G1 X71.216 Y5.600 Z14.500 F2000.000
G1 X76.798 Y11.181 Z14.500 F2000.000
G3 X77.691 Y11.226 Z14.500 I0.166 J5.654 K0.000 F2000.000
G1 X72.065 Y5.600 Z14.500 F2000.000
G1 X72.913 Y5.600 Z14.500 F2000.000
G1 X78.798 Y11.485 Z14.500 F2000.000
G0 Z14.100
G0 X77.639 Y14.569 Z14.100
G0 X77.639 Y14.569 Z12.100
G1 X77.639 Y14.569 Z14.500 F2000.000
G2 X77.368 Y14.216 Z14.500 I-0.305 J-0.046 K0.000 F2000.000
G2 X77.254 Y14.184 Z14.500 I-0.167 J0.372 K0.000 F2000.000
G1 X77.639 Y14.569 Z14.500 F2000.000
G3 X77.529 Y14.733 Z14.500 I-0.198 J-0.013 K0.000 F2000.000
G3 X77.164 Y14.941 Z14.500 I-0.783 J-0.952 K0.000 F2000.000
G1 X76.392 Y14.169 Z14.500 F2000.000
G2 X75.741 Y14.367 Z14.500 I0.374 J2.399 K0.000 F2000.000
G1 X76.568 Y15.195 Z14.500 F2000.000
G1 X75.959 Y15.434 Z14.500 F2000.000
G1 X75.153 Y14.628 Z14.500 F2000.000
G3 X74.562 Y14.886 Z14.500 I-1.063 J-1.632 K0.000 F2000.000
G1 X75.389 Y15.712 Z14.500 F2000.000
G0 Z14.100
G0 X77.934 Y19.106 Z14.100
G0 X77.934 Y19.106 Z12.100
G1 X77.934 Y19.106 Z14.500 F2000.000
G1 X77.323 Y18.495 Z14.500 F2000.000
G2 X77.005 Y18.732 Z14.500 I0.178 J0.571 K0.000 F2000.000
G2 X77.235 Y19.078 Z14.500 I0.235 J0.094 K0.000 F2000.000
G2 X77.934 Y19.106 Z14.500 I0.422 J-1.799 K0.000 F2000.000
G2 X78.619 Y18.942 Z14.500 I-0.045 J-1.698 K0.000 F2000.000
G1 X77.918 Y18.241 Z14.500 F2000.000
G3 X78.531 Y18.006 Z14.500 I3.410 J7.972 K0.000 F2000.000
G1 X79.218 Y18.693 Z14.500 F2000.000
G3 X79.870 Y18.497 Z14.500 I0.878 J1.742 K0.000 F2000.000
G1 X79.117 Y17.744 Z14.500 F2000.000
G2 X79.678 Y17.456 Z14.500 I-1.141 J-2.907 K0.000 F2000.000
G1 X81.152 Y18.929 Z14.500 F2000.000
G3 X81.730 Y18.659 Z14.500 I0.616 J0.565 K0.000 F2000.000
G1 X80.167 Y17.096 Z14.500 F2000.000
G2 X80.573 Y16.653 Z14.500 I-1.454 J-1.737 K0.000 F2000.000
G1 X82.203 Y18.284 Z14.500 F2000.000
G1 X82.203 Y17.435 Z14.500 F2000.000
G1 X80.896 Y16.128 Z14.500 F2000.000
G2 X81.115 Y15.499 Z14.500 I-1.648 J-0.926 K0.000 F2000.000
G1 X82.203 Y16.587 Z14.500 F2000.000
G1 X82.203 Y15.738 Z14.500 F2000.000
G1 X81.195 Y14.731 Z14.500 F2000.000
G2 X81.069 Y13.755 Z14.500 I-3.772 J-0.006 K0.000 F2000.000
G1 X82.203 Y14.890 Z14.500 F2000.000
G3 X82.248 Y14.087 Z14.500 I7.776 J0.037 K0.000 F2000.000
G1 X73.762 Y5.600 Z14.500 F2000.000
G1 X74.610 Y5.600 Z14.500 F2000.000
G1 X82.382 Y13.371 Z14.500 F2000.000
G3 X82.616 Y12.757 Z14.500 I3.282 J0.901 K0.000 F2000.000
G1 X75.459 Y5.600 Z14.500 F2000.000
G1 X76.307 Y5.600 Z14.500 F2000.000
G1 X82.952 Y12.245 Z14.500 F2000.000
G3 X83.390 Y11.834 Z14.500 I1.483 J1.139 K0.000 F2000.000
G1 X77.156 Y5.600 Z14.500 F2000.000
G1 X78.004 Y5.600 Z14.500 F2000.000
G1 X83.929 Y11.525 Z14.500 F2000.000
G3 X84.566 Y11.313 Z14.500 I0.943 J1.774 K0.000 F2000.000
G1 X78.853 Y5.600 Z14.500 F2000.000
G1 X79.702 Y5.600 Z14.500 F2000.000
G1 X85.327 Y11.225 Z14.500 F2000.000
G3 X86.190 Y11.240 Z14.500 I0.367 J3.774 K0.000 F2000.000
G1 X80.550 Y5.600 Z14.500 F2000.000
G1 X81.399 Y5.600 Z14.500 F2000.000
G1 X87.337 Y11.538 Z14.500 F2000.000
G0 Z14.100
G0 X89.884 Y5.600 Z14.100
G0 X89.884 Y5.600 Z12.100
G1 X89.884 Y5.600 Z14.500 F2000.000
G1 X95.827 Y11.543 Z14.500 F2000.000
G1 X96.341 Y11.707 Z14.500 F2000.000
G3 X97.286 Y13.003 Z14.500 I-0.315 J1.223 K0.000 F2000.000
G1 X98.005 Y13.721 Z14.500 F2000.000
G3 X98.028 Y12.895 Z14.500 I3.968 J-0.304 K0.000 F2000.000
G1 X90.732 Y5.600 Z14.500 F2000.000
G1 X91.581 Y5.600 Z14.500 F2000.000
G1 X98.235 Y12.254 Z14.500 F2000.000
G3 X98.669 Y11.840 Z14.500 I0.953 J0.566 K0.000 F2000.000
G1 X92.429 Y5.600 Z14.500 F2000.000
G1 X93.278 Y5.600 Z14.500 F2000.000
G1 X99.252 Y11.574 Z14.500 F2000.000
G3 X99.893 Y11.366 Z14.500 I1.321 J2.974 K0.000 F2000.000
G1 X94.126 Y5.600 Z14.500 F2000.000
G1 X94.975 Y5.600 Z14.500 F2000.000
G1 X100.612 Y11.237 Z14.500 F2000.000
G3 X101.403 Y11.180 Z14.500 I0.761 J5.008 K0.000 F2000.000
G1 X95.824 Y5.600 Z14.500 F2000.000
G1 X96.672 Y5.600 Z14.500 F2000.000
G1 X102.311 Y11.239 Z14.500 F2000.000
G3 X103.447 Y11.526 Z14.500 I-0.386 J3.915 K0.000 F2000.000
G1 X97.521 Y5.600 Z14.500 F2000.000
G1 X98.369 Y5.600 Z14.500 F2000.000
G1 X109.400 Y16.631 Z14.500 F2000.000
G1 X109.400 Y15.782 Z14.500 F2000.000
G1 X99.218 Y5.600 Z14.500 F2000.000
G1 X100.066 Y5.600 Z14.500 F2000.000
G1 X109.400 Y14.934 Z14.500 F2000.000
G1 X109.400 Y14.085 Z14.500 F2000.000
G1 X100.915 Y5.600 Z14.500 F2000.000
G1 X101.763 Y5.600 Z14.500 F2000.000
G1 X109.400 Y13.237 Z14.500 F2000.000
G1 X109.400 Y12.388 Z14.500 F2000.000
G1 X102.612 Y5.600 Z14.500 F2000.000
G1 X103.460 Y5.600 Z14.500 F2000.000
G1 X109.400 Y11.540 Z14.500 F2000.000
G1 X109.400 Y10.691 Z14.500 F2000.000
G1 X104.309 Y5.600 Z14.500 F2000.000
G1 X105.157 Y5.600 Z14.500 F2000.000
G1 X109.400 Y9.843 Z14.500 F2000.000
G1 X109.400 Y8.994 Z14.500 F2000.000
G1 X106.006 Y5.600 Z14.500 F2000.000
G1 X106.854 Y5.600 Z14.500 F2000.000
G1 X109.400 Y8.146 Z14.500 F2000.000
G1 X109.400 Y7.297 Z14.500 F2000.000
G1 X107.703 Y5.600 Z14.500 F2000.000
G1 X108.551 Y5.600 Z14.500 F2000.000
G1 X109.400 Y6.449 Z14.500 F2000.000
G1 X109.400 Y5.600 Z14.500 F2000.000
G0 Z14.100
G0 X82.203 Y21.816 Z14.100
G0 X82.203 Y21.816 Z12.100
G1 X82.203 Y21.816 Z14.500 F2000.000
G1 X82.203 Y22.526 Z14.500 F2000.000
G1 X81.409 Y21.733 Z14.500 F2000.000
G2 X82.203 Y21.816 Z14.500 I0.542 J-1.344 K0.000 F2000.000
G0 Z14.100
G0 X80.206 Y21.378 Z14.100
G0 X80.206 Y21.378 Z12.100
G1 X80.206 Y21.378 Z14.500 F2000.000
G1 X82.253 Y23.425 Z14.500 F2000.000
G3 X82.203 Y22.526 Z14.500 I2.261 J-0.576 K0.000 F2000.000
G1 X81.409 Y21.733 Z14.500 F2000.000
G3 X80.968 Y21.292 Z14.500 I0.381 J-0.822 K0.000 F2000.000
G1 X80.584 Y20.907 Z14.500 F2000.000
G2 X80.706 Y20.181 Z14.500 I-1.854 J-0.687 K0.000 F2000.000
G1 X80.803 Y20.278 Z14.500 F2000.000
G3 X80.871 Y19.498 Z14.500 I3.451 J-0.089 K0.000 F2000.000
G1 X80.670 Y19.297 Z14.500 F2000.000
G0 Z14.100
G0 X71.925 Y11.400 Z14.100
G0 X71.925 Y11.400 Z12.100
G1 X71.925 Y11.400 Z14.500 F2000.000
G1 X66.125 Y5.600 Z14.500 F2000.000
G1 X65.277 Y5.600 Z14.500 F2000.000
G1 X71.077 Y11.400 Z14.500 F2000.000
G1 X70.228 Y11.400 Z14.500 F2000.000
G1 X64.428 Y5.600 Z14.500 F2000.000
G1 X63.579 Y5.600 Z14.500 F2000.000
G1 X69.379 Y11.400 Z14.500 F2000.000
G1 X68.531 Y11.400 Z14.500 F2000.000
G1 X62.731 Y5.600 Z14.500 F2000.000
G1 X61.882 Y5.600 Z14.500 F2000.000
G1 X67.682 Y11.400 Z14.500 F2000.000
G1 X66.834 Y11.400 Z14.500 F2000.000
G1 X61.034 Y5.600 Z14.500 F2000.000
G1 X60.185 Y5.600 Z14.500 F2000.000
G1 X65.985 Y11.400 Z14.500 F2000.000
G2 X65.268 Y11.532 Z14.500 I-0.088 J1.540 K0.000 F2000.000
G1 X59.337 Y5.600 Z14.500 F2000.000
G1 X58.488 Y5.600 Z14.500 F2000.000
G1 X64.794 Y11.906 Z14.500 F2000.000
G2 X64.558 Y12.519 Z14.500 I0.902 J0.698 K0.000 F2000.000
G1 X57.640 Y5.600 Z14.500 F2000.000
G1 X56.791 Y5.600 Z14.500 F2000.000
G1 X64.526 Y13.335 Z14.500 F2000.000
G1 X64.526 Y14.183 Z14.500 F2000.000
G1 X55.943 Y5.600 Z14.500 F2000.000
G1 X55.094 Y5.600 Z14.500 F2000.000
G1 X64.526 Y15.032 Z14.500 F2000.000
G1 X64.526 Y15.880 Z14.500 F2000.000
G1 X54.246 Y5.600 Z14.500 F2000.000
G1 X53.397 Y5.600 Z14.500 F2000.000
G1 X64.526 Y16.729 Z14.500 F2000.000
G1 X64.526 Y17.578 Z14.500 F2000.000
G1 X52.549 Y5.600 Z14.500 F2000.000
G1 X51.700 Y5.600 Z14.500 F2000.000
G1 X57.466 Y11.366 Z14.500 F2000.000
G2 X56.605 Y11.354 Z14.500 I-0.503 J5.338 K0.000 F2000.000
G1 X50.852 Y5.600 Z14.500 F2000.000
G1 X50.003 Y5.600 Z14.500 F2000.000
G1 X55.848 Y11.445 Z14.500 F2000.000
G2 X55.304 Y11.749 Z14.500 I0.207 J1.010 K0.000 F2000.000
G1 X49.155 Y5.600 Z14.500 F2000.000
G1 X48.306 Y5.600 Z14.500 F2000.000
G1 X55.084 Y12.378 Z14.500 F2000.000
G1 X55.084 Y13.227 Z14.500 F2000.000
G1 X51.011 Y9.153 Z14.500 F2000.000
G1 X51.451 Y10.442 Z14.500 F2000.000
G1 X55.084 Y14.075 Z14.500 F2000.000
G1 X55.084 Y14.924 Z14.500 F2000.000
G1 X51.892 Y11.731 Z14.500 F2000.000
G3 X52.329 Y13.017 Z14.500 I-367.003 J125.473 K0.000 F2000.000
G1 X55.084 Y15.772 Z14.500 F2000.000
G1 X55.084 Y16.621 Z14.500 F2000.000
G1 X52.766 Y14.302 Z14.500 F2000.000
G1 X53.202 Y15.588 Z14.500 F2000.000
G1 X55.084 Y17.469 Z14.500 F2000.000
G1 X55.084 Y18.318 Z14.500 F2000.000
G1 X53.639 Y16.873 Z14.500 F2000.000
G1 X54.076 Y18.158 Z14.500 F2000.000
G1 X55.084 Y19.166 Z14.500 F2000.000
G1 X55.084 Y20.015 Z14.500 F2000.000
G1 X54.513 Y19.443 Z14.500 F2000.000
G3 X54.854 Y20.546 Z14.500 I-5.688 J2.364 K0.000 F2000.000
G1 X54.864 Y20.643 Z14.500 F2000.000
G1 X55.084 Y20.864 Z14.500 F2000.000
G1 X55.084 Y21.712 Z14.500 F2000.000
G1 X54.717 Y21.345 Z14.500 F2000.000
G3 X54.244 Y21.720 Z14.500 I-0.817 J-0.543 K0.000 F2000.000
G1 X55.084 Y22.561 Z14.500 F2000.000
G1 X55.084 Y23.409 Z14.500 F2000.000
G1 X53.524 Y21.848 Z14.500 F2000.000
G3 X52.694 Y21.868 Z14.500 I-0.575 J-6.860 K0.000 F2000.000
G1 X55.084 Y24.258 Z14.500 F2000.000
G0 Z14.100
G0 X49.144 Y19.166 Z14.100
G0 X49.144 Y19.166 Z12.100
G1 X49.144 Y19.166 Z14.500 F2000.000
G1 X55.105 Y25.127 Z14.500 F2000.000
G3 X55.084 Y24.258 Z14.500 I3.072 J-0.507 K0.000 F2000.000
G1 X52.694 Y21.868 Z14.500 F2000.000
G3 X52.547 Y21.861 Z14.500 I0.125 J-4.545 K0.000 F2000.000
G3 X51.442 Y21.338 Z14.500 I-0.074 J-1.272 K0.000 F2000.000
G3 X51.068 Y20.241 Z14.500 I7.787 J-3.270 K0.000 F2000.000
G1 X49.365 Y18.539 Z14.500 F2000.000
G1 X49.586 Y17.911 Z14.500 F2000.000
G1 X50.677 Y19.002 Z14.500 F2000.000
G1 X50.286 Y17.763 Z14.500 F2000.000
G1 X49.807 Y17.283 Z14.500 F2000.000
G1 X49.980 Y16.791 Z14.500 F2000.000
G1 X50.286 Y17.763 Z14.500 F2000.000
G0 Z14.100
G0 X43.426 Y18.539 Z14.100
G0 X43.426 Y18.539 Z12.100
G1 X43.426 Y18.539 Z14.500 F2000.000
G3 X43.274 Y18.467 Z14.500 I0.128 J-0.463 K0.000 F2000.000
G3 X42.503 Y17.616 Z14.500 I1.481 J-2.118 K0.000 F2000.000
G1 X43.426 Y18.539 Z14.500 F2000.000
G1 X43.494 Y18.559 Z14.500 F2000.000
G2 X44.166 Y18.430 Z14.500 I0.078 J-1.406 K0.000 F2000.000
G1 X42.401 Y16.666 Z14.500 F2000.000
G1 X42.401 Y15.817 Z14.500 F2000.000
G1 X45.421 Y18.837 Z14.500 F2000.000
G1 X45.652 Y18.220 Z14.500 F2000.000
G1 X42.401 Y14.969 Z14.500 F2000.000
G1 X42.401 Y14.120 Z14.500 F2000.000
G1 X45.883 Y17.602 Z14.500 F2000.000
G1 X46.115 Y16.985 Z14.500 F2000.000
G1 X42.401 Y13.272 Z14.500 F2000.000
G1 X42.401 Y12.423 Z14.500 F2000.000
G1 X46.346 Y16.368 Z14.500 F2000.000
G1 X46.577 Y15.750 Z14.500 F2000.000
G1 X36.427 Y5.600 Z14.500 F2000.000
G1 X37.275 Y5.600 Z14.500 F2000.000
G1 X46.808 Y15.133 Z14.500 F2000.000
G1 X47.039 Y14.516 Z14.500 F2000.000
G1 X38.124 Y5.600 Z14.500 F2000.000
G1 X38.972 Y5.600 Z14.500 F2000.000
G1 X47.270 Y13.898 Z14.500 F2000.000
G1 X47.501 Y13.281 Z14.500 F2000.000
G1 X39.821 Y5.600 Z14.500 F2000.000
G1 X40.669 Y5.600 Z14.500 F2000.000
G1 X47.733 Y12.663 Z14.500 F2000.000
G3 X47.981 Y12.063 Z14.500 I2.129 J0.528 K0.000 F2000.000
G1 X41.518 Y5.600 Z14.500 F2000.000
G1 X42.366 Y5.600 Z14.500 F2000.000
G1 X47.807 Y11.040 Z14.500 F2000.000
G1 X47.246 Y9.631 Z14.500 F2000.000
G1 X43.215 Y5.600 Z14.500 F2000.000
G1 X44.063 Y5.600 Z14.500 F2000.000
G1 X47.075 Y8.612 Z14.500 F2000.000
G3 X47.455 Y8.143 Z14.500 I0.819 J0.275 K0.000 F2000.000
G1 X44.912 Y5.600 Z14.500 F2000.000
G1 X45.760 Y5.600 Z14.500 F2000.000
G1 X48.108 Y7.948 Z14.500 F2000.000
G3 X48.927 Y7.918 Z14.500 I0.633 J6.097 K0.000 F2000.000
G1 X46.609 Y5.600 Z14.500 F2000.000
G1 X47.457 Y5.600 Z14.500 F2000.000
G1 X49.872 Y8.015 Z14.500 F2000.000
G0 Z14.100
G0 X41.371 Y11.393 Z14.100
G0 X41.371 Y11.393 Z12.100
G1 X41.371 Y11.393 Z14.500 F2000.000
G1 X35.578 Y5.600 Z14.500 F2000.000
G1 X34.730 Y5.600 Z14.500 F2000.000
G1 X40.476 Y11.347 Z14.500 F2000.000
G2 X39.697 Y11.416 Z14.500 I-0.145 J2.803 K0.000 F2000.000
G1 X33.881 Y5.600 Z14.500 F2000.000
G1 X33.032 Y5.600 Z14.500 F2000.000
G1 X39.097 Y11.665 Z14.500 F2000.000
G2 X38.794 Y12.210 Z14.500 I0.501 J0.636 K0.000 F2000.000
G1 X32.184 Y5.600 Z14.500 F2000.000
G1 X31.335 Y5.600 Z14.500 F2000.000
G1 X38.782 Y13.047 Z14.500 F2000.000
G1 X38.782 Y13.895 Z14.500 F2000.000
G1 X30.487 Y5.600 Z14.500 F2000.000
G1 X29.638 Y5.600 Z14.500 F2000.000
G1 X38.782 Y14.744 Z14.500 F2000.000
G1 X38.782 Y15.592 Z14.500 F2000.000
G1 X35.388 Y12.198 Z14.500 F2000.000
G3 X35.397 Y13.056 Z14.500 I-4.849 J0.484 K0.000 F2000.000
G1 X38.782 Y16.441 Z14.500 F2000.000
G1 X38.782 Y17.289 Z14.500 F2000.000
G1 X35.397 Y13.904 Z14.500 F2000.000
G1 X35.397 Y14.753 Z14.500 F2000.000
G1 X38.782 Y18.138 Z14.500 F2000.000
G1 X38.782 Y18.986 Z14.500 F2000.000
G1 X35.397 Y15.601 Z14.500 F2000.000
G1 X35.397 Y16.450 Z14.500 F2000.000
G1 X37.336 Y18.389 Z14.500 F2000.000
G2 X36.657 Y18.559 Z14.500 I1.652 J8.034 K0.000 F2000.000
G3 X36.130 Y18.368 Z14.500 I-0.087 J-0.584 K0.000 F2000.000
G3 X35.397 Y17.473 Z14.500 I2.103 J-2.470 K0.000 F2000.000
G1 X35.397 Y17.299 Z14.500 F2000.000
G1 X36.657 Y18.559 Z14.500 F2000.000
G0 Z14.100
G0 X38.459 Y19.512 Z14.100
G0 X38.459 Y19.512 Z12.100
G1 X38.459 Y19.512 Z14.500 F2000.000
G1 X38.782 Y19.835 Z14.500 F2000.000
G1 X38.782 Y20.684 Z14.500 F2000.000
G1 X38.474 Y20.375 Z14.500 F2000.000
G0 Z14.100
G0 X30.473 Y19.162 Z14.100
G0 X30.473 Y19.162 Z12.100
G1 X30.473 Y19.162 Z14.500 F2000.000
G1 X31.778 Y20.468 Z14.500 F2000.000
G1 X31.778 Y19.619 Z14.500 F2000.000
G1 X30.548 Y18.389 Z14.500 F2000.000
G2 X30.566 Y17.559 Z14.500 I-7.043 J-0.575 K0.000 F2000.000
G1 X31.778 Y18.771 Z14.500 F2000.000
G1 X31.778 Y17.922 Z14.500 F2000.000
G1 X30.566 Y16.710 Z14.500 F2000.000
G1 X30.566 Y15.862 Z14.500 F2000.000
G1 X31.778 Y17.073 Z14.500 F2000.000
G1 X31.778 Y16.225 Z14.500 F2000.000
G1 X30.566 Y15.013 Z14.500 F2000.000
G1 X30.566 Y14.165 Z14.500 F2000.000
G1 X31.778 Y15.376 Z14.500 F2000.000
G1 X31.778 Y14.528 Z14.500 F2000.000
G1 X30.566 Y13.316 Z14.500 F2000.000
G1 X30.566 Y12.468 Z14.500 F2000.000
G1 X31.778 Y13.679 Z14.500 F2000.000
G1 X31.778 Y12.831 Z14.500 F2000.000
G1 X24.547 Y5.600 Z14.500 F2000.000
G1 X25.396 Y5.600 Z14.500 F2000.000
G1 X31.829 Y12.033 Z14.500 F2000.000
G3 X32.217 Y11.573 Z14.500 I0.796 J0.278 K0.000 F2000.000
G1 X26.244 Y5.600 Z14.500 F2000.000
G1 X27.093 Y5.600 Z14.500 F2000.000
G1 X32.873 Y11.381 Z14.500 F2000.000
G3 X33.687 Y11.346 Z14.500 I0.584 J4.156 K0.000 F2000.000
G1 X27.941 Y5.600 Z14.500 F2000.000
G1 X28.790 Y5.600 Z14.500 F2000.000
G1 X34.635 Y11.445 Z14.500 F2000.000
G0 Z14.100
G0 X29.462 Y11.364 Z14.100
G0 X29.462 Y11.364 Z12.100
G1 X29.462 Y11.364 Z14.500 F2000.000
G1 X23.699 Y5.600 Z14.500 F2000.000
G1 X22.850 Y5.600 Z14.500 F2000.000
G1 X28.601 Y11.351 Z14.500 F2000.000
G2 X27.890 Y11.488 Z14.500 I-0.028 J1.761 K0.000 F2000.000
G1 X22.002 Y5.600 Z14.500 F2000.000
G1 X21.153 Y5.600 Z14.500 F2000.000
G1 X27.202 Y11.649 Z14.500 F2000.000
G2 X25.933 Y11.228 Z14.500 I-1.782 J3.255 K0.000 F2000.000
G1 X20.305 Y5.600 Z14.500 F2000.000
G1 X19.456 Y5.600 Z14.500 F2000.000
G1 X25.049 Y11.193 Z14.500 F2000.000
G2 X24.288 Y11.280 Z14.500 I-0.072 J2.729 K0.000 F2000.000
G1 X18.607 Y5.600 Z14.500 F2000.000
G1 X17.759 Y5.600 Z14.500 F2000.000
G1 X23.625 Y11.466 Z14.500 F2000.000
G2 X23.044 Y11.734 Z14.500 I0.829 J2.564 K0.000 F2000.000
G1 X16.910 Y5.600 Z14.500 F2000.000
G1 X16.062 Y5.600 Z14.500 F2000.000
G1 X22.559 Y12.097 Z14.500 F2000.000
G2 X22.156 Y12.543 Z14.500 I1.505 J1.762 K0.000 F2000.000
G1 X15.213 Y5.600 Z14.500 F2000.000
G1 X14.365 Y5.600 Z14.500 F2000.000
G1 X21.841 Y13.076 Z14.500 F2000.000
G2 X21.632 Y13.716 Z14.500 I2.598 J1.202 K0.000 F2000.000
G1 X13.516 Y5.600 Z14.500 F2000.000
G1 X12.668 Y5.600 Z14.500 F2000.000
G1 X21.547 Y14.480 Z14.500 F2000.000
G2 X21.638 Y15.418 Z14.500 I3.470 J0.140 K0.000 F2000.000
G1 X20.191 Y13.972 Z14.500 F2000.000
G2 X18.795 Y12.575 Z14.500 I-4.062 J2.665 K0.000 F2000.000
G1 X11.819 Y5.600 Z14.500 F2000.000
G0 Z14.100
G0 X18.795 Y12.575 Z14.100
G0 X18.795 Y12.575 Z12.100
G1 X18.795 Y12.575 Z14.500 F2000.000
G1 X11.819 Y5.600 Z14.500 F2000.000
G1 X10.971 Y5.600 Z14.500 F2000.000
G1 X17.165 Y11.794 Z14.500 F2000.000
G2 X16.066 Y11.544 Z14.500 I-2.326 J7.678 K0.000 F2000.000
G1 X10.122 Y5.600 Z14.500 F2000.000
G1 X9.274 Y5.600 Z14.500 F2000.000
G1 X15.110 Y11.436 Z14.500 F2000.000
G1 X14.229 Y11.404 Z14.500 F2000.000
G1 X8.425 Y5.600 Z14.500 F2000.000
G1 X7.577 Y5.600 Z14.500 F2000.000
G1 X13.377 Y11.400 Z14.500 F2000.000
G1 X12.528 Y11.400 Z14.500 F2000.000
G1 X6.728 Y5.600 Z14.500 F2000.000
G1 X5.880 Y5.600 Z14.500 F2000.000
G1 X11.680 Y11.400 Z14.500 F2000.000
G2 X10.859 Y11.428 Z14.500 I-0.274 J4.040 K0.000 F2000.000
G1 X5.600 Y6.169 Z14.500 F2000.000
G1 X5.600 Y7.017 Z14.500 F2000.000
G1 X10.277 Y11.694 Z14.500 F2000.000
G2 X9.916 Y12.182 Z14.500 I0.716 J0.908 K0.000 F2000.000
G1 X5.600 Y7.866 Z14.500 F2000.000
G1 X5.600 Y8.715 Z14.500 F2000.000
G1 X9.804 Y12.918 Z14.500 F2000.000
G1 X9.804 Y13.767 Z14.500 F2000.000
G1 X5.600 Y9.563 Z14.500 F2000.000
G1 X5.600 Y10.412 Z14.500 F2000.000
G1 X9.804 Y14.615 Z14.500 F2000.000
G1 X9.804 Y15.464 Z14.500 F2000.000
G1 X5.600 Y11.260 Z14.500 F2000.000
G1 X5.600 Y12.109 Z14.500 F2000.000
G1 X9.804 Y16.312 Z14.500 F2000.000
G1 X9.804 Y17.161 Z14.500 F2000.000
G1 X5.600 Y12.957 Z14.500 F2000.000
G1 X5.600 Y13.806 Z14.500 F2000.000
G1 X9.804 Y18.009 Z14.500 F2000.000
G1 X9.804 Y18.858 Z14.500 F2000.000
G1 X5.600 Y14.654 Z14.500 F2000.000
G1 X5.600 Y15.503 Z14.500 F2000.000
G1 X9.804 Y19.706 Z14.500 F2000.000
G1 X9.804 Y20.555 Z14.500 F2000.000
G1 X5.600 Y16.351 Z14.500 F2000.000
G1 X5.600 Y17.200 Z14.500 F2000.000
G1 X9.804 Y21.403 Z14.500 F2000.000
G1 X9.804 Y22.252 Z14.500 F2000.000
G1 X5.600 Y18.048 Z14.500 F2000.000
G1 X5.600 Y18.897 Z14.500 F2000.000
G1 X9.804 Y23.100 Z14.500 F2000.000
G2 X9.840 Y23.986 Z14.500 I2.938 J0.322 K0.000 F2000.000
G1 X5.600 Y19.745 Z14.500 F2000.000
G0 Z14.100
G0 X5.872 Y30.200 Z14.100
G0 X5.872 Y30.200 Z12.100
G1 X5.872 Y30.200 Z14.500 F2000.000
G1 X5.600 Y29.928 Z14.500 F2000.000
G1 X5.600 Y30.200 Z14.500 F2000.000
G1 X5.872 Y30.200 Z14.500 F2000.000
G1 X6.721 Y30.200 Z14.500 F2000.000
G1 X5.600 Y29.079 Z14.500 F2000.000
G1 X5.600 Y28.231 Z14.500 F2000.000
G1 X7.569 Y30.200 Z14.500 F2000.000
G1 X8.418 Y30.200 Z14.500 F2000.000
G1 X5.600 Y27.382 Z14.500 F2000.000
G1 X5.600 Y26.534 Z14.500 F2000.000
G1 X9.266 Y30.200 Z14.500 F2000.000
G1 X10.115 Y30.200 Z14.500 F2000.000
G1 X5.600 Y25.685 Z14.500 F2000.000
G1 X5.600 Y24.837 Z14.500 F2000.000
G1 X10.963 Y30.200 Z14.500 F2000.000
G1 X11.812 Y30.200 Z14.500 F2000.000
G1 X5.600 Y23.988 Z14.500 F2000.000
G1 X5.600 Y23.140 Z14.500 F2000.000
G1 X12.660 Y30.200 Z14.500 F2000.000
G1 X13.509 Y30.200 Z14.500 F2000.000
G1 X5.600 Y22.291 Z14.500 F2000.000
G1 X5.600 Y21.442 Z14.500 F2000.000
G1 X14.358 Y30.200 Z14.500 F2000.000
G1 X15.206 Y30.200 Z14.500 F2000.000
G1 X5.600 Y20.594 Z14.500 F2000.000
G1 X5.600 Y19.745 Z14.500 F2000.000
G1 X9.840 Y23.986 Z14.500 F2000.000
G2 X10.838 Y24.984 Z14.500 I1.200 J-0.202 K0.000 F2000.000
G1 X16.055 Y30.200 Z14.500 F2000.000
G1 X16.903 Y30.200 Z14.500 F2000.000
G1 X11.726 Y25.022 Z14.500 F2000.000
G1 X12.574 Y25.022 Z14.500 F2000.000
G1 X17.752 Y30.200 Z14.500 F2000.000
G1 X18.600 Y30.200 Z14.500 F2000.000
G1 X13.423 Y25.022 Z14.500 F2000.000
G1 X14.271 Y25.022 Z14.500 F2000.000
G1 X19.449 Y30.200 Z14.500 F2000.000
G1 X20.297 Y30.200 Z14.500 F2000.000
G1 X15.087 Y24.990 Z14.500 F2000.000
G2 X15.869 Y24.923 Z14.500 I0.005 J-4.541 K0.000 F2000.000
G1 X21.146 Y30.200 Z14.500 F2000.000
G1 X21.994 Y30.200 Z14.500 F2000.000
G1 X16.600 Y24.805 Z14.500 F2000.000
G2 X17.268 Y24.625 Z14.500 I-1.013 J-5.092 K0.000 F2000.000
G1 X22.843 Y30.200 Z14.500 F2000.000
G1 X23.691 Y30.200 Z14.500 F2000.000
G1 X17.877 Y24.386 Z14.500 F2000.000
G2 X18.445 Y24.105 Z14.500 I-0.891 J-2.516 K0.000 F2000.000
G1 X24.540 Y30.200 Z14.500 F2000.000
G1 X25.388 Y30.200 Z14.500 F2000.000
G1 X18.966 Y23.778 Z14.500 F2000.000
G2 X19.430 Y23.393 Z14.500 I-2.000 J-2.885 K0.000 F2000.000
G1 X26.237 Y30.200 Z14.500 F2000.000
G1 X27.085 Y30.200 Z14.500 F2000.000
G1 X19.851 Y22.966 Z14.500 F2000.000
G2 X20.218 Y22.484 Z14.500 I-3.851 J-3.312 K0.000 F2000.000
G1 X27.934 Y30.200 Z14.500 F2000.000
G1 X28.783 Y30.200 Z14.500 F2000.000
G1 X20.536 Y21.954 Z14.500 F2000.000
G2 X20.802 Y21.371 Z14.500 I-2.643 J-1.557 K0.000 F2000.000
G1 X29.631 Y30.200 Z14.500 F2000.000
G1 X30.480 Y30.200 Z14.500 F2000.000
G1 X21.023 Y20.743 Z14.500 F2000.000
G2 X21.176 Y20.048 Z14.500 I-4.055 J-1.256 K0.000 F2000.000
G1 X31.328 Y30.200 Z14.500 F2000.000
G1 X32.177 Y30.200 Z14.500 F2000.000
G1 X23.517 Y21.540 Z14.500 F2000.000
G3 X23.009 Y21.315 Z14.500 I1.660 J-4.426 K0.000 F2000.000
G3 X22.035 Y20.058 Z14.500 I0.523 J-1.411 K0.000 F2000.000
G1 X21.284 Y19.307 Z14.500 F2000.000
G2 X21.320 Y18.495 Z14.500 I-10.622 J-0.880 K0.000 F2000.000
G1 X22.048 Y19.222 Z14.500 F2000.000
G3 X22.271 Y18.598 Z14.500 I1.440 J0.163 K0.000 F2000.000
G1 X21.288 Y17.615 Z14.500 F2000.000
G2 X21.191 Y16.669 Z14.500 I-5.322 J0.071 K0.000 F2000.000
G1 X22.722 Y18.200 Z14.500 F2000.000
G3 X23.704 Y18.333 Z14.500 I0.338 J1.191 K0.000 F2000.000
G1 X20.933 Y15.563 Z14.500 F2000.000
G2 X20.191 Y13.972 Z14.500 I-5.709 J1.695 K0.000 F2000.000
G1 X21.638 Y15.418 Z14.500 F2000.000
G2 X23.924 Y17.705 Z14.500 I3.055 J-0.769 K0.000 F2000.000
G1 X25.123 Y18.904 Z14.500 F2000.000
G2 X26.063 Y18.995 Z14.500 I0.758 J-2.905 K0.000 F2000.000
G1 X25.020 Y17.952 Z14.500 F2000.000
G2 X25.965 Y18.049 Z14.500 I0.979 J-4.912 K0.000 F2000.000
G1 X26.753 Y18.836 Z14.500 F2000.000
G1 X26.803 Y18.795 Z14.500 F2000.000
G2 X26.984 Y18.219 Z14.500 I-0.787 J-0.564 K0.000 F2000.000
G1 X26.846 Y18.082 Z14.500 F2000.000
G1 X26.991 Y18.082 Z14.500 F2000.000
G1 X26.984 Y18.219 Z14.500 F2000.000
G0 Z14.100
G0 X32.177 Y30.200 Z14.100
G0 X32.177 Y30.200 Z12.100
G1 X32.177 Y30.200 Z14.500 F2000.000
G1 X23.517 Y21.540 Z14.500 F2000.000
G2 X24.706 Y21.881 Z14.500 I2.471 J-6.384 K0.000 F2000.000
G1 X33.025 Y30.200 Z14.500 F2000.000
G1 X33.874 Y30.200 Z14.500 F2000.000
G1 X25.685 Y22.011 Z14.500 F2000.000
G2 X26.550 Y22.028 Z14.500 I0.547 J-5.804 K0.000 F2000.000
G1 X34.722 Y30.200 Z14.500 F2000.000
G1 X35.571 Y30.200 Z14.500 F2000.000
G1 X27.334 Y21.964 Z14.500 F2000.000
G2 X28.043 Y21.824 Z14.500 I-0.597 J-4.899 K0.000 F2000.000
G1 X36.419 Y30.200 Z14.500 F2000.000
G1 X37.268 Y30.200 Z14.500 F2000.000
G1 X28.667 Y21.599 Z14.500 F2000.000
G2 X29.207 Y21.291 Z14.500 I-0.932 J-2.255 K0.000 F2000.000
G1 X38.116 Y30.200 Z14.500 F2000.000
G1 X38.965 Y30.200 Z14.500 F2000.000
G1 X29.661 Y20.896 Z14.500 F2000.000
G2 X30.027 Y20.414 Z14.500 I-1.283 J-1.354 K0.000 F2000.000
G1 X39.813 Y30.200 Z14.500 F2000.000
G1 X40.662 Y30.200 Z14.500 F2000.000
G1 X30.299 Y19.838 Z14.500 F2000.000
G2 X30.473 Y19.162 Z14.500 I-2.921 J-1.109 K0.000 F2000.000
G1 X31.778 Y20.468 Z14.500 F2000.000
G1 X31.778 Y20.890 Z14.500 F2000.000
G2 X32.074 Y21.553 Z14.500 I0.875 J0.007 K0.000 F2000.000
G2 X33.173 Y21.862 Z14.500 I0.938 J-1.224 K0.000 F2000.000
G1 X41.510 Y30.200 Z14.500 F2000.000
G1 X42.359 Y30.200 Z14.500 F2000.000
G1 X34.003 Y21.844 Z14.500 F2000.000
G2 X34.643 Y21.635 Z14.500 I-0.105 J-1.408 K0.000 F2000.000
G1 X43.207 Y30.200 Z14.500 F2000.000
G1 X44.056 Y30.200 Z14.500 F2000.000
G1 X35.666 Y21.810 Z14.500 F2000.000
G2 X36.741 Y22.036 Z14.500 I1.044 J-2.293 K0.000 F2000.000
G1 X44.905 Y30.200 Z14.500 F2000.000
G1 X45.753 Y30.200 Z14.500 F2000.000
G1 X37.492 Y21.939 Z14.500 F2000.000
G2 X38.084 Y21.682 Z14.500 I-0.285 J-1.470 K0.000 F2000.000
G1 X46.602 Y30.200 Z14.500 F2000.000
G1 X47.450 Y30.200 Z14.500 F2000.000
G1 X38.404 Y21.154 Z14.500 F2000.000
G2 X38.474 Y20.375 Z14.500 I-2.484 J-0.614 K0.000 F2000.000
G1 X38.782 Y20.684 Z14.500 F2000.000
G2 X38.912 Y21.359 Z14.500 I1.051 J0.149 K0.000 F2000.000
G2 X39.950 Y21.851 Z14.500 I0.992 J-0.753 K0.000 F2000.000
G1 X48.299 Y30.200 Z14.500 F2000.000
G1 X49.147 Y30.200 Z14.500 F2000.000
G1 X40.803 Y21.856 Z14.500 F2000.000
G2 X41.509 Y21.713 Z14.500 I-0.040 J-2.015 K0.000 F2000.000
G1 X49.996 Y30.200 Z14.500 F2000.000
G1 X50.844 Y30.200 Z14.500 F2000.000
G1 X42.035 Y21.390 Z14.500 F2000.000
G2 X43.517 Y22.024 Z14.500 I1.647 J-1.800 K0.000 F2000.000
G1 X51.693 Y30.200 Z14.500 F2000.000
G1 X52.541 Y30.200 Z14.500 F2000.000
G1 X44.318 Y21.977 Z14.500 F2000.000
G2 X44.954 Y21.764 Z14.500 I-0.317 J-2.006 K0.000 F2000.000
G1 X53.390 Y30.200 Z14.500 F2000.000
G1 X54.238 Y30.200 Z14.500 F2000.000
G1 X45.874 Y21.836 Z14.500 F2000.000
G2 X46.757 Y21.871 Z14.500 I0.677 J-5.993 K0.000 F2000.000
G1 X55.087 Y30.200 Z14.500 F2000.000
G1 X55.935 Y30.200 Z14.500 F2000.000
G1 X47.563 Y21.828 Z14.500 F2000.000
G2 X48.150 Y21.566 Z14.500 I-0.136 J-1.094 K0.000 F2000.000
G1 X56.784 Y30.200 Z14.500 F2000.000
G1 X57.632 Y30.200 Z14.500 F2000.000
G1 X48.477 Y21.044 Z14.500 F2000.000
G2 X48.703 Y20.422 Z14.500 I-8.317 J-3.373 K0.000 F2000.000
G1 X58.481 Y30.200 Z14.500 F2000.000
G1 X59.330 Y30.200 Z14.500 F2000.000
G1 X48.924 Y19.794 Z14.500 F2000.000
G1 X49.144 Y19.166 Z14.500 F2000.000
G1 X55.105 Y25.127 Z14.500 F2000.000
G2 X55.819 Y25.840 Z14.500 I0.920 J-0.206 K0.000 F2000.000
G1 X60.178 Y30.200 Z14.500 F2000.000
G1 X61.027 Y30.200 Z14.500 F2000.000
G1 X56.785 Y25.959 Z14.500 F2000.000
G2 X57.598 Y25.923 Z14.500 I0.200 J-4.655 K0.000 F2000.000
G1 X61.875 Y30.200 Z14.500 F2000.000
G1 X62.724 Y30.200 Z14.500 F2000.000
G1 X58.249 Y25.725 Z14.500 F2000.000
G2 X58.643 Y25.271 Z14.500 I-0.454 J-0.793 K0.000 F2000.000
G1 X63.572 Y30.200 Z14.500 F2000.000
G1 X64.421 Y30.200 Z14.500 F2000.000
G1 X58.703 Y24.483 Z14.500 F2000.000
G1 X58.703 Y23.634 Z14.500 F2000.000
G1 X65.269 Y30.200 Z14.500 F2000.000
G1 X66.118 Y30.200 Z14.500 F2000.000
G1 X58.703 Y22.786 Z14.500 F2000.000
G1 X58.703 Y21.937 Z14.500 F2000.000
G1 X66.966 Y30.200 Z14.500 F2000.000
G1 X67.815 Y30.200 Z14.500 F2000.000
G1 X58.703 Y21.089 Z14.500 F2000.000
G1 X58.703 Y20.240 Z14.500 F2000.000
G1 X68.663 Y30.200 Z14.500 F2000.000
G1 X69.512 Y30.200 Z14.500 F2000.000
G1 X58.703 Y19.392 Z14.500 F2000.000
G1 X58.703 Y18.543 Z14.500 F2000.000
G1 X70.360 Y30.200 Z14.500 F2000.000
G1 X71.209 Y30.200 Z14.500 F2000.000
G1 X66.031 Y25.022 Z14.500 F2000.000
G1 X65.875 Y25.022 Z14.500 F2000.000
G3 X64.526 Y23.517 Z14.500 I-0.043 J-1.318 K0.000 F2000.000
G1 X58.703 Y17.695 Z14.500 F2000.000
G1 X58.703 Y16.846 Z14.500 F2000.000
G1 X64.526 Y22.669 Z14.500 F2000.000
G1 X64.526 Y21.820 Z14.500 F2000.000
G1 X58.703 Y15.997 Z14.500 F2000.000
G1 X58.703 Y15.149 Z14.500 F2000.000
G1 X64.526 Y20.972 Z14.500 F2000.000
G1 X64.526 Y20.123 Z14.500 F2000.000
G1 X58.703 Y14.300 Z14.500 F2000.000
G1 X58.703 Y13.452 Z14.500 F2000.000
G1 X64.526 Y19.275 Z14.500 F2000.000
G1 X64.526 Y18.426 Z14.500 F2000.000
G1 X58.703 Y12.603 Z14.500 F2000.000
G1 X58.703 Y12.603 Z13.900 F2000.000
G1 X64.526 Y18.426 Z13.900 F2000.000
G1 X64.526 Y19.275 Z13.900 F2000.000
G1 X58.703 Y13.452 Z13.900 F2000.000
G1 X58.703 Y14.300 Z13.900 F2000.000
G1 X64.526 Y20.123 Z13.900 F2000.000
G1 X64.526 Y20.972 Z13.900 F2000.000
G1 X58.703 Y15.149 Z13.900 F2000.000
G1 X58.703 Y15.997 Z13.900 F2000.000
G1 X64.526 Y21.820 Z13.900 F2000.000
G1 X64.526 Y22.669 Z13.900 F2000.000
G1 X58.703 Y16.846 Z13.900 F2000.000
G1 X58.703 Y17.695 Z13.900 F2000.000
G1 X64.526 Y23.517 Z13.900 F2000.000
G2 X65.875 Y25.022 Z13.900 I1.306 J0.187 K0.000 F2000.000
G1 X66.031 Y25.022 Z13.900 F2000.000
G1 X71.209 Y30.200 Z13.900 F2000.000
G1 X70.360 Y30.200 Z13.900 F2000.000
G1 X58.703 Y18.543 Z13.900 F2000.000
G1 X58.703 Y19.392 Z13.900 F2000.000
G1 X69.512 Y30.200 Z13.900 F2000.000
G1 X68.663 Y30.200 Z13.900 F2000.000
G1 X58.703 Y20.240 Z13.900 F2000.000
G1 X58.703 Y21.089 Z13.900 F2000.000
G1 X67.815 Y30.200 Z13.900 F2000.000
G1 X66.966 Y30.200 Z13.900 F2000.000
G1 X58.703 Y21.937 Z13.900 F2000.000
G1 X58.703 Y22.786 Z13.900 F2000.000
G1 X66.118 Y30.200 Z13.900 F2000.000
G1 X65.269 Y30.200 Z13.900 F2000.000
G1 X58.703 Y23.634 Z13.900 F2000.000
G1 X58.703 Y24.483 Z13.900 F2000.000
G1 X64.421 Y30.200 Z13.900 F2000.000
G1 X63.572 Y30.200 Z13.900 F2000.000
G1 X58.643 Y25.271 Z13.900 F2000.000
G3 X58.249 Y25.725 Z13.900 I-0.848 J-0.339 K0.000 F2000.000
G1 X62.724 Y30.200 Z13.900 F2000.000
G1 X61.875 Y30.200 Z13.900 F2000.000
G1 X57.598 Y25.923 Z13.900 F2000.000
G3 X56.785 Y25.959 Z13.900 I-0.612 J-4.619 K0.000 F2000.000
G1 X61.027 Y30.200 Z13.900 F2000.000
G1 X60.178 Y30.200 Z13.900 F2000.000
G1 X55.819 Y25.840 Z13.900 F2000.000
G3 X55.105 Y25.127 Z13.900 I0.206 J-0.920 K0.000 F2000.000
G1 X49.144 Y19.166 Z13.900 F2000.000
G1 X48.924 Y19.794 Z13.900 F2000.000
G1 X59.330 Y30.200 Z13.900 F2000.000
G1 X58.481 Y30.200 Z13.900 F2000.000
G1 X48.703 Y20.422 Z13.900 F2000.000
G3 X48.477 Y21.044 Z13.900 I-8.543 J-2.751 K0.000 F2000.000
G1 X57.632 Y30.200 Z13.900 F2000.000
G1 X56.784 Y30.200 Z13.900 F2000.000
G1 X48.150 Y21.566 Z13.900 F2000.000
G3 X47.563 Y21.828 Z13.900 I-0.723 J-0.832 K0.000 F2000.000
G1 X55.935 Y30.200 Z13.900 F2000.000
G1 X55.087 Y30.200 Z13.900 F2000.000
G1 X46.757 Y21.871 Z13.900 F2000.000
G3 X45.874 Y21.836 Z13.900 I-0.206 J-6.027 K0.000 F2000.000
G1 X54.238 Y30.200 Z13.900 F2000.000
G1 X53.390 Y30.200 Z13.900 F2000.000
G1 X44.954 Y21.764 Z13.900 F2000.000
G3 X44.318 Y21.977 Z13.900 I-0.953 J-1.794 K0.000 F2000.000
G1 X52.541 Y30.200 Z13.900 F2000.000
G1 X51.693 Y30.200 Z13.900 F2000.000
G1 X43.517 Y22.024 Z13.900 F2000.000
G3 X42.035 Y21.390 Z13.900 I0.164 J-2.434 K0.000 F2000.000
G1 X50.844 Y30.200 Z13.900 F2000.000
G1 X49.996 Y30.200 Z13.900 F2000.000
G1 X41.509 Y21.713 Z13.900 F2000.000
G3 X40.803 Y21.856 Z13.900 I-0.746 J-1.872 K0.000 F2000.000
G1 X49.147 Y30.200 Z13.900 F2000.000
G1 X48.299 Y30.200 Z13.900 F2000.000
G1 X39.950 Y21.851 Z13.900 F2000.000
G3 X38.912 Y21.359 Z13.900 I-0.046 J-1.245 K0.000 F2000.000
G3 X38.782 Y20.684 Z13.900 I0.921 J-0.527 K0.000 F2000.000
G1 X38.474 Y20.375 Z13.900 F2000.000
G3 X38.404 Y21.154 Z13.900 I-2.554 J0.165 K0.000 F2000.000
G1 X47.450 Y30.200 Z13.900 F2000.000
G1 X46.602 Y30.200 Z13.900 F2000.000
G1 X38.084 Y21.682 Z13.900 F2000.000
G3 X37.492 Y21.939 Z13.900 I-0.877 J-1.214 K0.000 F2000.000
G1 X45.753 Y30.200 Z13.900 F2000.000
G1 X44.905 Y30.200 Z13.900 F2000.000
G1 X36.741 Y22.036 Z13.900 F2000.000
G3 X35.666 Y21.810 Z13.900 I-0.031 J-2.519 K0.000 F2000.000
G1 X44.056 Y30.200 Z13.900 F2000.000
G1 X43.207 Y30.200 Z13.900 F2000.000
G1 X34.643 Y21.635 Z13.900 F2000.000
G3 X34.003 Y21.844 Z13.900 I-0.745 J-1.199 K0.000 F2000.000
G1 X42.359 Y30.200 Z13.900 F2000.000
G1 X41.510 Y30.200 Z13.900 F2000.000
G1 X33.173 Y21.862 Z13.900 F2000.000
G3 X32.074 Y21.553 Z13.900 I-0.161 J-1.534 K0.000 F2000.000
G3 X31.778 Y20.890 Z13.900 I0.578 J-0.656 K0.000 F2000.000
G1 X31.778 Y20.468 Z13.900 F2000.000
G1 X30.473 Y19.162 Z13.900 F2000.000
G3 X30.299 Y19.838 Z13.900 I-3.094 J-0.433 K0.000 F2000.000
G1 X40.662 Y30.200 Z13.900 F2000.000
G1 X39.813 Y30.200 Z13.900 F2000.000
G1 X30.027 Y20.414 Z13.900 F2000.000
G3 X29.661 Y20.896 Z13.900 I-1.649 J-0.871 K0.000 F2000.000
G1 X38.965 Y30.200 Z13.900 F2000.000
G1 X38.116 Y30.200 Z13.900 F2000.000
G1 X29.207 Y21.291 Z13.900 F2000.000
G3 X28.667 Y21.599 Z13.900 I-1.472 J-1.947 K0.000 F2000.000
G1 X37.268 Y30.200 Z13.900 F2000.000
G1 X36.419 Y30.200 Z13.900 F2000.000
G1 X28.043 Y21.824 Z13.900 F2000.000
G3 X27.334 Y21.964 Z13.900 I-1.306 J-4.759 K0.000 F2000.000
G1 X35.571 Y30.200 Z13.900 F2000.000
G1 X34.722 Y30.200 Z13.900 F2000.000
G1 X26.550 Y22.028 Z13.900 F2000.000
G3 X25.685 Y22.011 Z13.900 I-0.319 J-5.821 K0.000 F2000.000
G1 X33.874 Y30.200 Z13.900 F2000.000
G1 X33.025 Y30.200 Z13.900 F2000.000
G1 X24.706 Y21.881 Z13.900 F2000.000
G3 X23.517 Y21.540 Z13.900 I1.282 J-6.725 K0.000 F2000.000
G1 X32.177 Y30.200 Z13.900 F2000.000
G0 Z14.100
G0 X30.473 Y19.162 Z14.100
G0 X30.473 Y19.162 Z12.100
G1 X30.473 Y19.162 Z13.900 F2000.000
G1 X31.778 Y20.468 Z13.900 F2000.000
G1 X31.778 Y19.619 Z13.900 F2000.000
G1 X30.548 Y18.389 Z13.900 F2000.000
G2 X30.566 Y17.559 Z13.900 I-7.043 J-0.575 K0.000 F2000.000
G1 X31.778 Y18.771 Z13.900 F2000.000
G1 X31.778 Y17.922 Z13.900 F2000.000
G1 X30.566 Y16.710 Z13.900 F2000.000
G1 X30.566 Y15.862 Z13.900 F2000.000
G1 X31.778 Y17.073 Z13.900 F2000.000
G1 X31.778 Y16.225 Z13.900 F2000.000
G1 X30.566 Y15.013 Z13.900 F2000.000
G1 X30.566 Y14.165 Z13.900 F2000.000
G1 X31.778 Y15.376 Z13.900 F2000.000
G1 X31.778 Y14.528 Z13.900 F2000.000
G1 X30.566 Y13.316 Z13.900 F2000.000
G1 X30.566 Y12.468 Z13.900 F2000.000
G1 X31.778 Y13.679 Z13.900 F2000.000
G1 X31.778 Y12.831 Z13.900 F2000.000
G1 X24.547 Y5.600 Z13.900 F2000.000
G1 X25.396 Y5.600 Z13.900 F2000.000
G1 X31.829 Y12.033 Z13.900 F2000.000
G3 X32.217 Y11.573 Z13.900 I0.796 J0.278 K0.000 F2000.000
G1 X26.244 Y5.600 Z13.900 F2000.000
G1 X27.093 Y5.600 Z13.900 F2000.000
G1 X32.873 Y11.381 Z13.900 F2000.000
G3 X33.687 Y11.346 Z13.900 I0.584 J4.156 K0.000 F2000.000
G1 X27.941 Y5.600 Z13.900 F2000.000
G1 X28.790 Y5.600 Z13.900 F2000.000
G1 X34.635 Y11.445 Z13.900 F2000.000
G0 Z14.100
G0 X29.462 Y11.364 Z14.100
G0 X29.462 Y11.364 Z12.100
G1 X29.462 Y11.364 Z13.900 F2000.000
G1 X23.699 Y5.600 Z13.900 F2000.000
G1 X22.850 Y5.600 Z13.900 F2000.000
G1 X28.601 Y11.351 Z13.900 F2000.000
G2 X27.890 Y11.488 Z13.900 I-0.028 J1.761 K0.000 F2000.000
G1 X22.002 Y5.600 Z13.900 F2000.000
G1 X21.153 Y5.600 Z13.900 F2000.000
G1 X27.202 Y11.649 Z13.900 F2000.000
G2 X25.933 Y11.228 Z13.900 I-1.782 J3.255 K0.000 F2000.000
G1 X20.305 Y5.600 Z13.900 F2000.000
G1 X19.456 Y5.600 Z13.900 F2000.000
G1 X25.049 Y11.193 Z13.900 F2000.000
G2 X24.288 Y11.280 Z13.900 I-0.072 J2.729 K0.000 F2000.000
G1 X18.607 Y5.600 Z13.900 F2000.000
G1 X17.759 Y5.600 Z13.900 F2000.000
G1 X23.625 Y11.466 Z13.900 F2000.000
G2 X23.044 Y11.734 Z13.900 I0.829 J2.564 K0.000 F2000.000
G1 X16.910 Y5.600 Z13.900 F2000.000
G1 X16.062 Y5.600 Z13.900 F2000.000
G1 X22.559 Y12.097 Z13.900 F2000.000
G2 X22.156 Y12.543 Z13.900 I1.505 J1.762 K0.000 F2000.000
G1 X15.213 Y5.600 Z13.900 F2000.000
G1 X14.365 Y5.600 Z13.900 F2000.000
G1 X21.841 Y13.076 Z13.900 F2000.000
G2 X21.632 Y13.716 Z13.900 I2.598 J1.202 K0.000 F2000.000
G1 X13.516 Y5.600 Z13.900 F2000.000
G1 X12.668 Y5.600 Z13.900 F2000.000
G1 X21.547 Y14.480 Z13.900 F2000.000
G2 X21.638 Y15.418 Z13.900 I3.470 J0.140 K0.000 F2000.000
G1 X20.191 Y13.972 Z13.900 F2000.000
G2 X18.795 Y12.575 Z13.900 I-4.062 J2.665 K0.000 F2000.000
G1 X11.819 Y5.600 Z13.900 F2000.000
G0 Z14.100
G0 X18.795 Y12.575 Z14.100
G0 X18.795 Y12.575 Z12.100
G1 X18.795 Y12.575 Z13.900 F2000.000
G1 X11.819 Y5.600 Z13.900 F2000.000
G1 X10.971 Y5.600 Z13.900 F2000.000
G1 X17.165 Y11.794 Z13.900 F2000.000
G2 X16.066 Y11.544 Z13.900 I-2.326 J7.678 K0.000 F2000.000
G1 X10.122 Y5.600 Z13.900 F2000.000
G1 X9.274 Y5.600 Z13.900 F2000.000
G1 X15.110 Y11.436 Z13.900 F2000.000
G1 X14.229 Y11.404 Z13.900 F2000.000
G1 X8.425 Y5.600 Z13.900 F2000.000
G1 X7.577 Y5.600 Z13.900 F2000.000
G1 X13.377 Y11.400 Z13.900 F2000.000
G1 X12.528 Y11.400 Z13.900 F2000.000
G1 X6.728 Y5.600 Z13.900 F2000.000
G1 X5.880 Y5.600 Z13.900 F2000.000
G1 X11.680 Y11.400 Z13.900 F2000.000
G2 X10.859 Y11.428 Z13.900 I-0.274 J4.040 K0.000 F2000.000
G1 X5.600 Y6.169 Z13.900 F2000.000
G1 X5.600 Y7.017 Z13.900 F2000.000
G1 X10.277 Y11.694 Z13.900 F2000.000
G2 X9.916 Y12.182 Z13.900 I0.716 J0.908 K0.000 F2000.000
G1 X5.600 Y7.866 Z13.900 F2000.000
G1 X5.600 Y8.715 Z13.900 F2000.000
G1 X9.804 Y12.918 Z13.900 F2000.000
G1 X9.804 Y13.767 Z13.900 F2000.000
G1 X5.600 Y9.563 Z13.900 F2000.000
G1 X5.600 Y10.412 Z13.900 F2000.000
G1 X9.804 Y14.615 Z13.900 F2000.000
G1 X9.804 Y15.464 Z13.900 F2000.000
G1 X5.600 Y11.260 Z13.900 F2000.000
G1 X5.600 Y12.109 Z13.900 F2000.000
G1 X9.804 Y16.312 Z13.900 F2000.000
G1 X9.804 Y17.161 Z13.900 F2000.000
G1 X5.600 Y12.957 Z13.900 F2000.000
G1 X5.600 Y13.806 Z13.900 F2000.000
G1 X9.804 Y18.009 Z13.900 F2000.000
G1 X9.804 Y18.858 Z13.900 F2000.000
G1 X5.600 Y14.654 Z13.900 F2000.000
G1 X5.600 Y15.503 Z13.900 F2000.000
G1 X9.804 Y19.706 Z13.900 F2000.000
G1 X9.804 Y20.555 Z13.900 F2000.000
G1 X5.600 Y16.351 Z13.900 F2000.000
G1 X5.600 Y17.200 Z13.900 F2000.000
G1 X9.804 Y21.403 Z13.900 F2000.000
G1 X9.804 Y22.252 Z13.900 F2000.000
G1 X5.600 Y18.048 Z13.900 F2000.000
G1 X5.600 Y18.897 Z13.900 F2000.000
G1 X9.804 Y23.100 Z13.900 F2000.000
G2 X9.840 Y23.986 Z13.900 I2.938 J0.322 K0.000 F2000.000
G1 X5.600 Y19.745 Z13.900 F2000.000
G0 Z14.100
G0 X5.872 Y30.200 Z14.100
G0 X5.872 Y30.200 Z12.100
G1 X5.872 Y30.200 Z13.900 F2000.000
G1 X5.600 Y29.928 Z13.900 F2000.000
G1 X5.600 Y30.200 Z13.900 F2000.000
G1 X5.872 Y30.200 Z13.900 F2000.000
G1 X6.721 Y30.200 Z13.900 F2000.000
G1 X5.600 Y29.079 Z13.900 F2000.000
G1 X5.600 Y28.231 Z13.900 F2000.000
G1 X7.569 Y30.200 Z13.900 F2000.000
G1 X8.418 Y30.200 Z13.900 F2000.000
G1 X5.600 Y27.382 Z13.900 F2000.000
G1 X5.600 Y26.534 Z13.900 F2000.000
G1 X9.266 Y30.200 Z13.900 F2000.000
G1 X10.115 Y30.200 Z13.900 F2000.000
G1 X5.600 Y25.685 Z13.900 F2000.000
G1 X5.600 Y24.837 Z13.900 F2000.000
G1 X10.963 Y30.200 Z13.900 F2000.000
G1 X11.812 Y30.200 Z13.900 F2000.000
G1 X5.600 Y23.988 Z13.900 F2000.000
G1 X5.600 Y23.140 Z13.900 F2000.000
G1 X12.660 Y30.200 Z13.900 F2000.000
G1 X13.509 Y30.200 Z13.900 F2000.000
G1 X5.600 Y22.291 Z13.900 F2000.000
G1 X5.600 Y21.442 Z13.900 F2000.000
G1 X14.358 Y30.200 Z13.900 F2000.000
G1 X15.206 Y30.200 Z13.900 F2000.000
G1 X5.600 Y20.594 Z13.900 F2000.000
G1 X5.600 Y19.745 Z13.900 F2000.000
G1 X9.840 Y23.986 Z13.900 F2000.000
G2 X10.838 Y24.984 Z13.900 I1.200 J-0.202 K0.000 F2000.000
G1 X16.055 Y30.200 Z13.900 F2000.000
G1 X16.903 Y30.200 Z13.900 F2000.000
G1 X11.726 Y25.022 Z13.900 F2000.000
G1 X12.574 Y25.022 Z13.900 F2000.000
G1 X17.752 Y30.200 Z13.900 F2000.000
G1 X18.600 Y30.200 Z13.900 F2000.000
G1 X13.423 Y25.022 Z13.900 F2000.000
G1 X14.271 Y25.022 Z13.900 F2000.000
G1 X19.449 Y30.200 Z13.900 F2000.000
G1 X20.297 Y30.200 Z13.900 F2000.000
G1 X15.087 Y24.990 Z13.900 F2000.000
G2 X15.869 Y24.923 Z13.900 I0.005 J-4.541 K0.000 F2000.000
G1 X21.146 Y30.200 Z13.900 F2000.000
G1 X21.994 Y30.200 Z13.900 F2000.000
G1 X16.600 Y24.805 Z13.900 F2000.000
G2 X17.268 Y24.625 Z13.900 I-1.013 J-5.092 K0.000 F2000.000
G1 X22.843 Y30.200 Z13.900 F2000.000
G1 X23.691 Y30.200 Z13.900 F2000.000
G1 X17.877 Y24.386 Z13.900 F2000.000
G2 X18.445 Y24.105 Z13.900 I-0.891 J-2.516 K0.000 F2000.000
G1 X24.540 Y30.200 Z13.900 F2000.000
G1 X25.388 Y30.200 Z13.900 F2000.000
G1 X18.966 Y23.778 Z13.900 F2000.000
G2 X19.430 Y23.393 Z13.900 I-2.000 J-2.885 K0.000 F2000.000
G1 X26.237 Y30.200 Z13.900 F2000.000
G1 X27.085 Y30.200 Z13.900 F2000.000
G1 X19.851 Y22.966 Z13.900 F2000.000
G2 X20.218 Y22.484 Z13.900 I-3.851 J-3.312 K0.000 F2000.000
G1 X27.934 Y30.200 Z13.900 F2000.000
G1 X28.783 Y30.200 Z13.900 F2000.000
G1 X20.536 Y21.954 Z13.900 F2000.000
G2 X20.802 Y21.371 Z13.900 I-2.643 J-1.557 K0.000 F2000.000
G1 X29.631 Y30.200 Z13.900 F2000.000
G1 X30.480 Y30.200 Z13.900 F2000.000
G1 X21.023 Y20.743 Z13.900 F2000.000
G2 X21.176 Y20.048 Z13.900 I-4.055 J-1.256 K0.000 F2000.000
G1 X31.328 Y30.200 Z13.900 F2000.000
G1 X32.177 Y30.200 Z13.900 F2000.000
G1 X23.517 Y21.540 Z13.900 F2000.000
G3 X23.009 Y21.315 Z13.900 I1.660 J-4.426 K0.000 F2000.000
G3 X22.035 Y20.058 Z13.900 I0.523 J-1.411 K0.000 F2000.000
G1 X21.284 Y19.307 Z13.900 F2000.000
G2 X21.320 Y18.495 Z13.900 I-10.622 J-0.880 K0.000 F2000.000
G1 X22.048 Y19.222 Z13.900 F2000.000
G3 X22.271 Y18.598 Z13.900 I1.440 J0.163 K0.000 F2000.000
G1 X21.288 Y17.615 Z13.900 F2000.000
G2 X21.191 Y16.669 Z13.900 I-5.322 J0.071 K0.000 F2000.000
G1 X22.722 Y18.200 Z13.900 F2000.000
G3 X23.704 Y18.333 Z13.900 I0.338 J1.191 K0.000 F2000.000
G1 X20.933 Y15.563 Z13.900 F2000.000
G2 X20.191 Y13.972 Z13.900 I-5.709 J1.695 K0.000 F2000.000
G1 X21.638 Y15.418 Z13.900 F2000.000
G2 X23.924 Y17.705 Z13.900 I3.055 J-0.769 K0.000 F2000.000
G1 X25.123 Y18.904 Z13.900 F2000.000
G2 X26.063 Y18.995 Z13.900 I0.758 J-2.905 K0.000 F2000.000
G1 X25.020 Y17.952 Z13.900 F2000.000
G2 X25.965 Y18.049 Z13.900 I0.979 J-4.912 K0.000 F2000.000
G1 X26.753 Y18.836 Z13.900 F2000.000
G1 X26.803 Y18.795 Z13.900 F2000.000
G2 X26.984 Y18.219 Z13.900 I-0.787 J-0.564 K0.000 F2000.000
G1 X26.846 Y18.082 Z13.900 F2000.000
G1 X26.991 Y18.082 Z13.900 F2000.000
G1 X26.984 Y18.219 Z13.900 F2000.000
G0 Z14.100
G0 X36.657 Y18.559 Z14.100
G0 X36.657 Y18.559 Z12.100
G1 X36.657 Y18.559 Z13.900 F2000.000
G1 X35.397 Y17.299 Z13.900 F2000.000
G1 X35.397 Y17.473 Z13.900 F2000.000
G2 X36.130 Y18.368 Z13.900 I2.836 J-1.575 K0.000 F2000.000
G2 X36.657 Y18.559 Z13.900 I0.441 J-0.393 K0.000 F2000.000
G3 X37.336 Y18.389 Z13.900 I2.330 J7.864 K0.000 F2000.000
G1 X35.397 Y16.450 Z13.900 F2000.000
G1 X35.397 Y15.601 Z13.900 F2000.000
G1 X38.782 Y18.986 Z13.900 F2000.000
G1 X38.782 Y18.138 Z13.900 F2000.000
G1 X35.397 Y14.753 Z13.900 F2000.000
G1 X35.397 Y13.904 Z13.900 F2000.000
G1 X38.782 Y17.289 Z13.900 F2000.000
G1 X38.782 Y16.441 Z13.900 F2000.000
G1 X35.397 Y13.056 Z13.900 F2000.000
G2 X35.388 Y12.198 Z13.900 I-4.859 J-0.374 K0.000 F2000.000
G1 X38.782 Y15.592 Z13.900 F2000.000
G1 X38.782 Y14.744 Z13.900 F2000.000
G1 X29.638 Y5.600 Z13.900 F2000.000
G1 X30.487 Y5.600 Z13.900 F2000.000
G1 X38.782 Y13.895 Z13.900 F2000.000
G1 X38.782 Y13.047 Z13.900 F2000.000
G1 X31.335 Y5.600 Z13.900 F2000.000
G1 X32.184 Y5.600 Z13.900 F2000.000
G1 X38.794 Y12.210 Z13.900 F2000.000
G3 X39.097 Y11.665 Z13.900 I0.805 J0.092 K0.000 F2000.000
G1 X33.032 Y5.600 Z13.900 F2000.000
G1 X33.881 Y5.600 Z13.900 F2000.000
G1 X39.697 Y11.416 Z13.900 F2000.000
G3 X40.476 Y11.347 Z13.900 I0.634 J2.734 K0.000 F2000.000
G1 X34.730 Y5.600 Z13.900 F2000.000
G1 X35.578 Y5.600 Z13.900 F2000.000
G1 X41.371 Y11.393 Z13.900 F2000.000
G0 Z14.100
G0 X43.426 Y18.539 Z14.100
G0 X43.426 Y18.539 Z12.100
G1 X43.426 Y18.539 Z13.900 F2000.000
G3 X43.274 Y18.467 Z13.900 I0.128 J-0.463 K0.000 F2000.000
G3 X42.503 Y17.616 Z13.900 I1.481 J-2.118 K0.000 F2000.000
G1 X43.426 Y18.539 Z13.900 F2000.000
G1 X43.494 Y18.559 Z13.900 F2000.000
G2 X44.166 Y18.430 Z13.900 I0.078 J-1.406 K0.000 F2000.000
G1 X42.401 Y16.666 Z13.900 F2000.000
G1 X42.401 Y15.817 Z13.900 F2000.000
G1 X45.421 Y18.837 Z13.900 F2000.000
G1 X45.652 Y18.220 Z13.900 F2000.000
G1 X42.401 Y14.969 Z13.900 F2000.000
G1 X42.401 Y14.120 Z13.900 F2000.000
G1 X45.883 Y17.602 Z13.900 F2000.000
G1 X46.115 Y16.985 Z13.900 F2000.000
G1 X42.401 Y13.272 Z13.900 F2000.000
G1 X42.401 Y12.423 Z13.900 F2000.000
G1 X46.346 Y16.368 Z13.900 F2000.000
G1 X46.577 Y15.750 Z13.900 F2000.000
G1 X36.427 Y5.600 Z13.900 F2000.000
G1 X37.275 Y5.600 Z13.900 F2000.000
G1 X46.808 Y15.133 Z13.900 F2000.000
G1 X47.039 Y14.516 Z13.900 F2000.000
G1 X38.124 Y5.600 Z13.900 F2000.000
G1 X38.972 Y5.600 Z13.900 F2000.000
G1 X47.270 Y13.898 Z13.900 F2000.000
G1 X47.501 Y13.281 Z13.900 F2000.000
G1 X39.821 Y5.600 Z13.900 F2000.000
G1 X40.669 Y5.600 Z13.900 F2000.000
G1 X47.733 Y12.663 Z13.900 F2000.000
G3 X47.981 Y12.063 Z13.900 I2.129 J0.528 K0.000 F2000.000
G1 X41.518 Y5.600 Z13.900 F2000.000
G1 X42.366 Y5.600 Z13.900 F2000.000
G1 X47.807 Y11.040 Z13.900 F2000.000
G1 X47.246 Y9.631 Z13.900 F2000.000
G1 X43.215 Y5.600 Z13.900 F2000.000
G1 X44.063 Y5.600 Z13.900 F2000.000
G1 X47.075 Y8.612 Z13.900 F2000.000
G3 X47.455 Y8.143 Z13.900 I0.819 J0.275 K0.000 F2000.000
G1 X44.912 Y5.600 Z13.900 F2000.000
G1 X45.760 Y5.600 Z13.900 F2000.000
G1 X48.108 Y7.948 Z13.900 F2000.000
G3 X48.927 Y7.918 Z13.900 I0.633 J6.097 K0.000 F2000.000
G1 X46.609 Y5.600 Z13.900 F2000.000
G1 X47.457 Y5.600 Z13.900 F2000.000
G1 X49.872 Y8.015 Z13.900 F2000.000
G0 Z14.100
G0 X50.286 Y17.763 Z14.100
G0 X50.286 Y17.763 Z12.100
G1 X50.286 Y17.763 Z13.900 F2000.000
G1 X49.980 Y16.791 Z13.900 F2000.000
G1 X49.807 Y17.283 Z13.900 F2000.000
G1 X50.286 Y17.763 Z13.900 F2000.000
G1 X50.677 Y19.002 Z13.900 F2000.000
G1 X49.586 Y17.911 Z13.900 F2000.000
G1 X49.365 Y18.539 Z13.900 F2000.000
G1 X51.068 Y20.241 Z13.900 F2000.000
G2 X51.442 Y21.338 Z13.900 I8.161 J-2.174 K0.000 F2000.000
G2 X52.547 Y21.861 Z13.900 I1.031 J-0.748 K0.000 F2000.000
G2 X52.694 Y21.868 Z13.900 I0.273 J-4.539 K0.000 F2000.000
G1 X55.084 Y24.258 Z13.900 F2000.000
G2 X55.105 Y25.127 Z13.900 I3.092 J0.362 K0.000 F2000.000
G1 X49.144 Y19.166 Z13.900 F2000.000
G0 Z14.100
G0 X55.084 Y24.258 Z14.100
G0 X55.084 Y24.258 Z12.100
G1 X55.084 Y24.258 Z13.900 F2000.000
G1 X52.694 Y21.868 Z13.900 F2000.000
G2 X53.524 Y21.848 Z13.900 I0.254 J-6.880 K0.000 F2000.000
G1 X55.084 Y23.409 Z13.900 F2000.000
G1 X55.084 Y22.561 Z13.900 F2000.000
G1 X54.244 Y21.720 Z13.900 F2000.000
G2 X54.717 Y21.345 Z13.900 I-0.344 J-0.919 K0.000 F2000.000
G1 X55.084 Y21.712 Z13.900 F2000.000
G1 X55.084 Y20.864 Z13.900 F2000.000
G1 X54.864 Y20.643 Z13.900 F2000.000
G1 X54.854 Y20.546 Z13.900 F2000.000
G2 X54.513 Y19.443 Z13.900 I-6.029 J1.261 K0.000 F2000.000
G1 X55.084 Y20.015 Z13.900 F2000.000
G1 X55.084 Y19.166 Z13.900 F2000.000
G1 X54.076 Y18.158 Z13.900 F2000.000
G1 X53.639 Y16.873 Z13.900 F2000.000
G1 X55.084 Y18.318 Z13.900 F2000.000
G1 X55.084 Y17.469 Z13.900 F2000.000
G1 X53.202 Y15.588 Z13.900 F2000.000
G1 X52.766 Y14.302 Z13.900 F2000.000
G1 X55.084 Y16.621 Z13.900 F2000.000
G1 X55.084 Y15.772 Z13.900 F2000.000
G1 X52.329 Y13.017 Z13.900 F2000.000
G2 X51.892 Y11.731 Z13.900 I-367.440 J124.187 K0.000 F2000.000
G1 X55.084 Y14.924 Z13.900 F2000.000
G1 X55.084 Y14.075 Z13.900 F2000.000
G1 X51.451 Y10.442 Z13.900 F2000.000
G1 X51.011 Y9.153 Z13.900 F2000.000
G1 X55.084 Y13.227 Z13.900 F2000.000
G1 X55.084 Y12.378 Z13.900 F2000.000
G1 X48.306 Y5.600 Z13.900 F2000.000
G1 X49.155 Y5.600 Z13.900 F2000.000
G1 X55.304 Y11.749 Z13.900 F2000.000
G3 X55.848 Y11.445 Z13.900 I0.752 J0.706 K0.000 F2000.000
G1 X50.003 Y5.600 Z13.900 F2000.000
G1 X50.852 Y5.600 Z13.900 F2000.000
G1 X56.605 Y11.354 Z13.900 F2000.000
G3 X57.466 Y11.366 Z13.900 I0.357 J5.350 K0.000 F2000.000
G1 X51.700 Y5.600 Z13.900 F2000.000
G1 X52.549 Y5.600 Z13.900 F2000.000
G1 X64.526 Y17.578 Z13.900 F2000.000
G1 X64.526 Y16.729 Z13.900 F2000.000
G1 X53.397 Y5.600 Z13.900 F2000.000
G1 X54.246 Y5.600 Z13.900 F2000.000
G1 X64.526 Y15.880 Z13.900 F2000.000
G1 X64.526 Y15.032 Z13.900 F2000.000
G1 X55.094 Y5.600 Z13.900 F2000.000
G1 X55.943 Y5.600 Z13.900 F2000.000
G1 X64.526 Y14.183 Z13.900 F2000.000
G1 X64.526 Y13.335 Z13.900 F2000.000
G1 X56.791 Y5.600 Z13.900 F2000.000
G1 X57.640 Y5.600 Z13.900 F2000.000
G1 X64.558 Y12.519 Z13.900 F2000.000
G3 X64.794 Y11.906 Z13.900 I1.137 J0.085 K0.000 F2000.000
G1 X58.488 Y5.600 Z13.900 F2000.000
G1 X59.337 Y5.600 Z13.900 F2000.000
G1 X65.268 Y11.532 Z13.900 F2000.000
G3 X65.985 Y11.400 Z13.900 I0.629 J1.409 K0.000 F2000.000
G1 X60.185 Y5.600 Z13.900 F2000.000
G1 X61.034 Y5.600 Z13.900 F2000.000
G1 X66.834 Y11.400 Z13.900 F2000.000
G1 X67.682 Y11.400 Z13.900 F2000.000
G1 X61.882 Y5.600 Z13.900 F2000.000
G1 X62.731 Y5.600 Z13.900 F2000.000
G1 X68.531 Y11.400 Z13.900 F2000.000
G1 X69.379 Y11.400 Z13.900 F2000.000
G1 X63.579 Y5.600 Z13.900 F2000.000
G1 X64.428 Y5.600 Z13.900 F2000.000
G1 X70.228 Y11.400 Z13.900 F2000.000
G1 X71.077 Y11.400 Z13.900 F2000.000
G1 X65.277 Y5.600 Z13.900 F2000.000
G1 X66.125 Y5.600 Z13.900 F2000.000
G1 X71.925 Y11.400 Z13.900 F2000.000
G0 Z14.100
G0 X75.389 Y15.712 Z14.100
G0 X75.389 Y15.712 Z12.100
G1 X75.389 Y15.712 Z13.900 F2000.000
G1 X74.562 Y14.886 Z13.900 F2000.000
G2 X75.153 Y14.628 Z13.900 I-0.471 J-1.889 K0.000 F2000.000
G1 X75.959 Y15.434 Z13.900 F2000.000
G1 X76.568 Y15.195 Z13.900 F2000.000
G1 X75.741 Y14.367 Z13.900 F2000.000
G3 X76.392 Y14.169 Z13.900 I1.025 J2.201 K0.000 F2000.000
G1 X77.164 Y14.941 Z13.900 F2000.000
G2 X77.529 Y14.733 Z13.900 I-0.418 J-1.160 K0.000 F2000.000
G2 X77.639 Y14.569 Z13.900 I-0.088 J-0.178 K0.000 F2000.000
G1 X77.254 Y14.184 Z13.900 F2000.000
G3 X77.368 Y14.216 Z13.900 I-0.053 J0.404 K0.000 F2000.000
G3 X77.639 Y14.569 Z13.900 I-0.034 J0.307 K0.000 F2000.000
G0 Z14.100
G0 X78.798 Y11.485 Z14.100
G0 X78.798 Y11.485 Z12.100
G1 X78.798 Y11.485 Z13.900 F2000.000
G1 X72.913 Y5.600 Z13.900 F2000.000
G1 X72.065 Y5.600 Z13.900 F2000.000
G1 X77.691 Y11.226 Z13.900 F2000.000
G2 X76.798 Y11.181 Z13.900 I-0.728 J5.609 K0.000 F2000.000
G1 X71.216 Y5.600 Z13.900 F2000.000
G1 X70.368 Y5.600 Z13.900 F2000.000
G1 X76.012 Y11.244 Z13.900 F2000.000
G2 X75.301 Y11.382 Z13.900 I0.479 J4.372 K0.000 F2000.000
G1 X69.519 Y5.600 Z13.900 F2000.000
G1 X68.671 Y5.600 Z13.900 F2000.000
G1 X74.665 Y11.595 Z13.900 F2000.000
G2 X74.092 Y11.870 Z13.900 I0.571 J1.924 K0.000 F2000.000
G1 X67.822 Y5.600 Z13.900 F2000.000
G1 X66.974 Y5.600 Z13.900 F2000.000
G1 X73.671 Y12.297 Z13.900 F2000.000
G2 X73.483 Y12.958 Z13.900 I1.433 J0.764 K0.000 F2000.000
G1 X73.067 Y12.542 Z13.900 F2000.000
G3 X73.069 Y13.393 Z13.900 I-4.216 J0.436 K0.000 F2000.000
G1 X73.473 Y13.797 Z13.900 F2000.000
G2 X73.945 Y14.807 Z13.900 I1.121 J0.092 K0.000 F2000.000
G2 X74.562 Y14.886 Z13.900 I0.410 J-0.757 K0.000 F2000.000
G1 X75.389 Y15.712 Z13.900 F2000.000
G2 X74.853 Y16.025 Z13.900 I0.957 J2.259 K0.000 F2000.000
G1 X72.902 Y14.074 Z13.900 F2000.000
G3 X72.474 Y14.495 Z13.900 I-0.765 J-0.350 K0.000 F2000.000
G1 X74.388 Y16.408 Z13.900 F2000.000
G2 X74.004 Y16.873 Z13.900 I1.570 J1.687 K0.000 F2000.000
G1 X71.709 Y14.578 Z13.900 F2000.000
G1 X70.860 Y14.578 Z13.900 F2000.000
G1 X73.715 Y17.433 Z13.900 F2000.000
G2 X73.548 Y18.114 Z13.900 I2.093 J0.873 K0.000 F2000.000
G1 X70.011 Y14.578 Z13.900 F2000.000
G1 X69.163 Y14.578 Z13.900 F2000.000
G1 X71.472 Y16.887 Z13.900 F2000.000
G2 X70.618 Y16.882 Z13.900 I-0.457 J5.076 K0.000 F2000.000
G1 X68.314 Y14.578 Z13.900 F2000.000
G1 X68.241 Y14.578 Z13.900 F2000.000
G1 X68.241 Y15.353 Z13.900 F2000.000
G1 X69.770 Y16.882 Z13.900 F2000.000
G1 X68.921 Y16.882 Z13.900 F2000.000
G1 X68.241 Y16.882 Z13.900 F2000.000
G1 X68.241 Y16.202 Z13.900 F2000.000
G1 X68.921 Y16.882 Z13.900 F2000.000
G0 Z14.100
G0 X72.297 Y17.711 Z14.100
G0 X72.297 Y17.711 Z12.100
G1 X72.297 Y17.711 Z13.900 F2000.000
G1 X73.529 Y18.944 Z13.900 F2000.000
G2 X73.826 Y20.089 Z13.900 I2.842 J-0.125 K0.000 F2000.000
G1 X72.360 Y18.624 Z13.900 F2000.000
G0 Z14.100
G0 X72.200 Y21.857 Z14.100
G0 X72.200 Y21.857 Z12.100
G1 X72.200 Y21.857 Z13.900 F2000.000
G1 X70.354 Y20.011 Z13.900 F2000.000
G1 X69.505 Y20.011 Z13.900 F2000.000
G1 X71.339 Y21.845 Z13.900 F2000.000
G1 X70.490 Y21.845 Z13.900 F2000.000
G1 X68.657 Y20.011 Z13.900 F2000.000
G1 X68.241 Y20.011 Z13.900 F2000.000
G1 X68.241 Y20.444 Z13.900 F2000.000
G1 X69.642 Y21.845 Z13.900 F2000.000
G1 X68.793 Y21.845 Z13.900 F2000.000
G1 X68.241 Y21.845 Z13.900 F2000.000
G1 X68.241 Y21.293 Z13.900 F2000.000
G1 X68.793 Y21.845 Z13.900 F2000.000
G0 Z14.100
G0 X71.209 Y30.200 Z14.100
G0 X71.209 Y30.200 Z12.100
G1 X71.209 Y30.200 Z13.900 F2000.000
G1 X66.031 Y25.022 Z13.900 F2000.000
G1 X66.880 Y25.022 Z13.900 F2000.000
G1 X72.057 Y30.200 Z13.900 F2000.000
G1 X72.906 Y30.200 Z13.900 F2000.000
G1 X67.728 Y25.022 Z13.900 F2000.000
G1 X68.577 Y25.022 Z13.900 F2000.000
G1 X73.755 Y30.200 Z13.900 F2000.000
G1 X74.603 Y30.200 Z13.900 F2000.000
G1 X69.425 Y25.022 Z13.900 F2000.000
G1 X70.274 Y25.022 Z13.900 F2000.000
G1 X75.452 Y30.200 Z13.900 F2000.000
G1 X76.300 Y30.200 Z13.900 F2000.000
G1 X71.122 Y25.022 Z13.900 F2000.000
G1 X71.971 Y25.022 Z13.900 F2000.000
G1 X77.149 Y30.200 Z13.900 F2000.000
G1 X77.997 Y30.200 Z13.900 F2000.000
G1 X72.624 Y24.827 Z13.900 F2000.000
G2 X72.941 Y24.295 Z13.900 I-0.785 J-0.828 K0.000 F2000.000
G1 X78.846 Y30.200 Z13.900 F2000.000
G1 X79.694 Y30.200 Z13.900 F2000.000
G1 X73.036 Y23.542 Z13.900 F2000.000
G2 X72.948 Y22.605 Z13.900 I-3.212 J-0.169 K0.000 F2000.000
G1 X80.543 Y30.200 Z13.900 F2000.000
G1 X81.391 Y30.200 Z13.900 F2000.000
G1 X71.202 Y20.011 Z13.900 F2000.000
G2 X71.892 Y19.852 Z13.900 I0.128 J-1.023 K0.000 F2000.000
G1 X82.240 Y30.200 Z13.900 F2000.000
G1 X83.088 Y30.200 Z13.900 F2000.000
G1 X72.249 Y19.361 Z13.900 F2000.000
G2 X72.360 Y18.624 Z13.900 I-2.086 J-0.692 K0.000 F2000.000
G1 X73.826 Y20.089 Z13.900 F2000.000
G2 X75.262 Y21.525 Z13.900 I2.839 J-1.402 K0.000 F2000.000
G1 X83.937 Y30.200 Z13.900 F2000.000
G1 X84.785 Y30.200 Z13.900 F2000.000
G1 X76.517 Y21.932 Z13.900 F2000.000
G2 X77.464 Y22.030 Z13.900 I0.820 J-3.280 K0.000 F2000.000
G1 X85.634 Y30.200 Z13.900 F2000.000
G1 X86.482 Y30.200 Z13.900 F2000.000
G1 X78.276 Y21.994 Z13.900 F2000.000
G2 X78.993 Y21.862 Z13.900 I-0.366 J-4.015 K0.000 F2000.000
G1 X87.331 Y30.200 Z13.900 F2000.000
G1 X88.179 Y30.200 Z13.900 F2000.000
G1 X79.642 Y21.663 Z13.900 F2000.000
G2 X80.206 Y21.378 Z13.900 I-0.603 J-1.898 K0.000 F2000.000
G1 X82.253 Y23.425 Z13.900 F2000.000
G2 X82.805 Y23.977 Z13.900 I0.877 J-0.324 K0.000 F2000.000
G1 X89.028 Y30.200 Z13.900 F2000.000
G1 X89.877 Y30.200 Z13.900 F2000.000
G1 X83.798 Y24.122 Z13.900 F2000.000
G2 X84.629 Y24.104 Z13.900 I0.307 J-5.198 K0.000 F2000.000
G1 X90.725 Y30.200 Z13.900 F2000.000
G1 X91.574 Y30.200 Z13.900 F2000.000
G1 X85.303 Y23.929 Z13.900 F2000.000
G2 X85.726 Y23.504 Z13.900 I-0.407 J-0.828 K0.000 F2000.000
G1 X92.422 Y30.200 Z13.900 F2000.000
G1 X93.271 Y30.200 Z13.900 F2000.000
G1 X85.813 Y22.742 Z13.900 F2000.000
G1 X85.813 Y21.893 Z13.900 F2000.000
G1 X94.119 Y30.200 Z13.900 F2000.000
G1 X94.968 Y30.200 Z13.900 F2000.000
G1 X86.584 Y21.816 Z13.900 F2000.000
G2 X87.378 Y21.762 Z13.900 I0.266 J-1.953 K0.000 F2000.000
G1 X95.816 Y30.200 Z13.900 F2000.000
G1 X96.665 Y30.200 Z13.900 F2000.000
G1 X87.839 Y21.374 Z13.900 F2000.000
G2 X88.035 Y20.721 Z13.900 I-1.236 J-0.726 K0.000 F2000.000
G1 X97.513 Y30.200 Z13.900 F2000.000
G1 X98.362 Y30.200 Z13.900 F2000.000
G1 X88.044 Y19.882 Z13.900 F2000.000
G0 Z14.100
G0 X85.971 Y18.658 Z14.100
G0 X85.971 Y18.658 Z12.100
G1 X85.971 Y18.658 Z13.900 F2000.000
G1 X85.813 Y18.658 Z13.900 F2000.000
G1 X85.813 Y18.499 Z13.900 F2000.000
G1 X85.971 Y18.658 Z13.900 F2000.000
G1 X86.819 Y18.658 Z13.900 F2000.000
G1 X85.813 Y17.651 Z13.900 F2000.000
G1 X85.813 Y16.802 Z13.900 F2000.000
G1 X88.997 Y19.987 Z13.900 F2000.000
G2 X90.278 Y21.268 Z13.900 I3.510 J-2.229 K0.000 F2000.000
G1 X99.210 Y30.200 Z13.900 F2000.000
G1 X100.059 Y30.200 Z13.900 F2000.000
G1 X91.742 Y21.883 Z13.900 F2000.000
G2 X92.726 Y22.019 Z13.900 I0.992 J-3.557 K0.000 F2000.000
G1 X100.907 Y30.200 Z13.900 F2000.000
G1 X101.756 Y30.200 Z13.900 F2000.000
G1 X93.573 Y22.017 Z13.900 F2000.000
G2 X94.319 Y21.915 Z13.900 I-0.173 J-4.028 K0.000 F2000.000
G1 X102.604 Y30.200 Z13.900 F2000.000
G1 X103.453 Y30.200 Z13.900 F2000.000
G1 X94.978 Y21.725 Z13.900 F2000.000
G2 X95.560 Y21.458 Z13.900 I-0.796 J-2.502 K0.000 F2000.000
G1 X104.302 Y30.200 Z13.900 F2000.000
G1 X105.150 Y30.200 Z13.900 F2000.000
G1 X96.076 Y21.126 Z13.900 F2000.000
G2 X96.518 Y20.720 Z13.900 I-1.498 J-2.080 K0.000 F2000.000
G1 X105.999 Y30.200 Z13.900 F2000.000
G1 X106.847 Y30.200 Z13.900 F2000.000
G1 X96.894 Y20.247 Z13.900 F2000.000
G2 X97.205 Y19.709 Z13.900 I-2.914 J-2.043 K0.000 F2000.000
G1 X107.696 Y30.200 Z13.900 F2000.000
G1 X108.544 Y30.200 Z13.900 F2000.000
G1 X99.927 Y21.583 Z13.900 F2000.000
G3 X98.297 Y19.952 Z13.900 I1.288 J-2.919 K0.000 F2000.000
G1 X97.440 Y19.096 Z13.900 F2000.000
G2 X97.599 Y18.407 Z13.900 I-4.550 J-1.411 K0.000 F2000.000
G1 X98.057 Y18.864 Z13.900 F2000.000
G3 X98.089 Y18.048 Z13.900 I2.591 J-0.308 K0.000 F2000.000
G1 X97.676 Y17.635 Z13.900 F2000.000
G2 X97.698 Y16.808 Z13.900 I-6.308 J-0.583 K0.000 F2000.000
G1 X98.271 Y17.381 Z13.900 F2000.000
G3 X98.570 Y16.832 Z13.900 I2.164 J0.825 K0.000 F2000.000
G1 X96.514 Y14.775 Z13.900 F2000.000
G2 X97.053 Y14.466 Z13.900 I-0.059 J-0.728 K0.000 F2000.000
G1 X98.960 Y16.374 Z13.900 F2000.000
G3 X99.431 Y15.995 Z13.900 I1.630 J1.546 K0.000 F2000.000
G1 X97.279 Y13.844 Z13.900 F2000.000
G2 X97.286 Y13.003 Z13.900 I-6.497 J-0.474 K0.000 F2000.000
G1 X98.005 Y13.721 Z13.900 F2000.000
G2 X98.026 Y14.002 Z13.900 I1.377 J0.041 K0.000 F2000.000
G2 X99.156 Y14.872 Z13.900 I0.882 J0.022 K0.000 F2000.000
G1 X99.972 Y15.688 Z13.900 F2000.000
G3 X100.546 Y15.413 Z13.900 I2.062 J3.563 K0.000 F2000.000
G1 X99.736 Y14.604 Z13.900 F2000.000
G3 X100.329 Y14.348 Z13.900 I1.410 J2.450 K0.000 F2000.000
G1 X101.155 Y15.174 Z13.900 F2000.000
G2 X101.749 Y14.920 Z13.900 I-3.220 J-8.330 K0.000 F2000.000
G1 X100.994 Y14.164 Z13.900 F2000.000
G3 X101.889 Y14.211 Z13.900 I0.349 J1.901 K0.000 F2000.000
G1 X102.165 Y14.487 Z13.900 F2000.000
G1 X102.156 Y14.413 Z13.900 F2000.000
G2 X101.889 Y14.211 Z13.900 I-0.372 J0.214 K0.000 F2000.000
G0 Z14.100
G0 X105.577 Y13.656 Z14.100
G0 X105.577 Y13.656 Z12.100
G1 X105.577 Y13.656 Z13.900 F2000.000
G1 X109.400 Y17.479 Z13.900 F2000.000
G1 X109.400 Y18.328 Z13.900 F2000.000
G1 X105.727 Y14.655 Z13.900 F2000.000
G3 X105.666 Y15.442 Z13.900 I-3.726 J0.106 K0.000 F2000.000
G1 X109.400 Y19.176 Z13.900 F2000.000
G1 X109.400 Y20.025 Z13.900 F2000.000
G1 X105.456 Y16.081 Z13.900 F2000.000
G3 X105.140 Y16.613 Z13.900 I-1.774 J-0.695 K0.000 F2000.000
G1 X109.400 Y20.874 Z13.900 F2000.000
G1 X109.400 Y21.722 Z13.900 F2000.000
G1 X104.739 Y17.061 Z13.900 F2000.000
G3 X104.257 Y17.428 Z13.900 I-1.937 J-2.049 K0.000 F2000.000
G1 X109.400 Y22.571 Z13.900 F2000.000
G1 X109.400 Y23.419 Z13.900 F2000.000
G1 X105.189 Y19.208 Z13.900 F2000.000
G3 X105.244 Y20.112 Z13.900 I-3.806 J0.686 K0.000 F2000.000
G1 X109.400 Y24.268 Z13.900 F2000.000
G1 X109.400 Y25.116 Z13.900 F2000.000
G1 X105.137 Y20.853 Z13.900 F2000.000
G3 X104.783 Y21.348 Z13.900 I-1.024 J-0.357 K0.000 F2000.000
G1 X109.400 Y25.965 Z13.900 F2000.000
G1 X109.400 Y26.813 Z13.900 F2000.000
G1 X104.230 Y21.643 Z13.900 F2000.000
G3 X103.588 Y21.850 Z13.900 I-1.116 J-2.373 K0.000 F2000.000
G1 X109.400 Y27.662 Z13.900 F2000.000
G1 X109.400 Y28.510 Z13.900 F2000.000
G1 X102.876 Y21.986 Z13.900 F2000.000
G3 X102.076 Y22.035 Z13.900 I-0.667 J-4.396 K0.000 F2000.000
G1 X109.400 Y29.359 Z13.900 F2000.000
G1 X109.400 Y30.200 Z13.900 F2000.000
G1 X109.393 Y30.200 Z13.900 F2000.000
G1 X101.144 Y21.951 Z13.900 F2000.000
G3 X99.927 Y21.583 Z13.900 I0.519 J-3.908 K0.000 F2000.000
G1 X108.544 Y30.200 Z13.900 F2000.000
G0 Z14.100
G0 X104.490 Y18.509 Z14.100
G0 X104.490 Y18.509 Z12.100
G1 X104.490 Y18.509 Z13.900 F2000.000
G1 X103.701 Y17.720 Z13.900 F2000.000
G3 X103.119 Y17.986 Z13.900 I-1.970 J-3.543 K0.000 F2000.000
G1 X103.802 Y18.669 Z13.900 F2000.000
G3 X103.208 Y18.924 Z13.900 I-1.402 J-2.454 K0.000 F2000.000
G1 X102.504 Y18.221 Z13.900 F2000.000
G2 X101.909 Y18.473 Z13.900 I3.034 J7.987 K0.000 F2000.000
G1 X102.537 Y19.101 Z13.900 F2000.000
G3 X101.693 Y19.051 Z13.900 I-0.324 J-1.673 K0.000 F2000.000
G3 X101.625 Y18.645 Z13.900 I0.045 J-0.216 K0.000 F2000.000
G3 X101.909 Y18.473 Z13.900 I0.645 J0.744 K0.000 F2000.000
G0 Z14.100
G0 X96.283 Y15.394 Z14.100
G0 X96.283 Y15.394 Z12.100
G1 X96.283 Y15.394 Z13.900 F2000.000
G1 X95.413 Y14.524 Z13.900 F2000.000
G2 X94.301 Y14.260 Z13.900 I-1.600 J4.273 K0.000 F2000.000
G1 X95.435 Y15.394 Z13.900 F2000.000
G1 X94.586 Y15.394 Z13.900 F2000.000
G1 X93.403 Y14.210 Z13.900 F2000.000
G2 X92.668 Y14.324 Z13.900 I-0.043 J2.164 K0.000 F2000.000
G1 X93.738 Y15.394 Z13.900 F2000.000
G1 X92.889 Y15.394 Z13.900 F2000.000
G1 X92.141 Y14.646 Z13.900 F2000.000
G2 X91.848 Y15.201 Z13.900 I0.942 J0.853 K0.000 F2000.000
G1 X92.041 Y15.394 Z13.900 F2000.000
G1 X91.808 Y15.394 Z13.900 F2000.000
G1 X91.848 Y15.201 Z13.900 F2000.000
G0 Z14.100
G0 X95.827 Y11.543 Z14.100
G0 X95.827 Y11.543 Z12.100
G1 X95.827 Y11.543 Z13.900 F2000.000
G1 X89.884 Y5.600 Z13.900 F2000.000
G1 X89.035 Y5.600 Z13.900 F2000.000
G1 X94.739 Y11.304 Z13.900 F2000.000
G2 X93.782 Y11.195 Z13.900 I-1.135 J5.728 K0.000 F2000.000
G1 X88.187 Y5.600 Z13.900 F2000.000
G1 X87.338 Y5.600 Z13.900 F2000.000
G1 X92.927 Y11.189 Z13.900 F2000.000
G2 X92.143 Y11.254 Z13.900 I0.112 J6.145 K0.000 F2000.000
G1 X86.490 Y5.600 Z13.900 F2000.000
G1 X85.641 Y5.600 Z13.900 F2000.000
G1 X91.440 Y11.399 Z13.900 F2000.000
G2 X90.796 Y11.603 Z13.900 I0.816 J3.704 K0.000 F2000.000
G1 X84.793 Y5.600 Z13.900 F2000.000
G1 X83.944 Y5.600 Z13.900 F2000.000
G1 X90.226 Y11.882 Z13.900 F2000.000
G2 X89.731 Y12.236 Z13.900 I1.341 J2.403 K0.000 F2000.000
G1 X83.096 Y5.600 Z13.900 F2000.000
G1 X82.247 Y5.600 Z13.900 F2000.000
G1 X89.293 Y12.646 Z13.900 F2000.000
G2 X88.928 Y13.129 Z13.900 I1.799 J1.737 K0.000 F2000.000
G1 X87.898 Y12.100 Z13.900 F2000.000
G3 X88.058 Y13.108 Z13.900 I-2.749 J0.953 K0.000 F2000.000
G1 X88.622 Y13.672 Z13.900 F2000.000
G2 X88.387 Y14.286 Z13.900 I3.386 J1.643 K0.000 F2000.000
G1 X87.992 Y13.891 Z13.900 F2000.000
G3 X87.710 Y14.457 Z13.900 I-0.962 J-0.125 K0.000 F2000.000
G1 X88.229 Y14.976 Z13.900 F2000.000
G2 X88.125 Y15.721 Z13.900 I3.808 J0.910 K0.000 F2000.000
G1 X87.040 Y14.636 Z13.900 F2000.000
G3 X86.455 Y14.459 Z13.900 I0.832 J-3.810 K0.000 F2000.000
G2 X86.015 Y14.460 Z13.900 I-0.219 J0.793 K0.000 F2000.000
G1 X88.091 Y16.535 Z13.900 F2000.000
G2 X88.144 Y17.436 Z13.900 I6.794 J0.053 K0.000 F2000.000
G1 X85.818 Y15.111 Z13.900 F2000.000
G2 X85.813 Y15.954 Z13.900 I10.254 J0.490 K0.000 F2000.000
G1 X88.345 Y18.486 Z13.900 F2000.000
G2 X88.997 Y19.987 Z13.900 I4.792 J-1.190 K0.000 F2000.000
G1 X85.813 Y16.802 Z13.900 F2000.000
G0 Z14.100
G0 X87.337 Y11.538 Z14.100
G0 X87.337 Y11.538 Z12.100
G1 X87.337 Y11.538 Z13.900 F2000.000
G1 X81.399 Y5.600 Z13.900 F2000.000
G1 X80.550 Y5.600 Z13.900 F2000.000
G1 X86.190 Y11.240 Z13.900 F2000.000
G2 X85.327 Y11.225 Z13.900 I-0.497 J3.760 K0.000 F2000.000
G1 X79.702 Y5.600 Z13.900 F2000.000
G1 X78.853 Y5.600 Z13.900 F2000.000
G1 X84.566 Y11.313 Z13.900 F2000.000
G2 X83.929 Y11.525 Z13.900 I0.307 J1.986 K0.000 F2000.000
G1 X78.004 Y5.600 Z13.900 F2000.000
G1 X77.156 Y5.600 Z13.900 F2000.000
G1 X83.390 Y11.834 Z13.900 F2000.000
G2 X82.952 Y12.245 Z13.900 I1.046 J1.550 K0.000 F2000.000
G1 X76.307 Y5.600 Z13.900 F2000.000
G1 X75.459 Y5.600 Z13.900 F2000.000
G1 X82.616 Y12.757 Z13.900 F2000.000
G2 X82.382 Y13.371 Z13.900 I3.047 J1.515 K0.000 F2000.000
G1 X74.610 Y5.600 Z13.900 F2000.000
G1 X73.762 Y5.600 Z13.900 F2000.000
G1 X82.248 Y14.087 Z13.900 F2000.000
G2 X82.203 Y14.890 Z13.900 I7.730 J0.840 K0.000 F2000.000
G1 X81.069 Y13.755 Z13.900 F2000.000
G3 X81.195 Y14.731 Z13.900 I-3.645 J0.969 K0.000 F2000.000
G1 X82.203 Y15.738 Z13.900 F2000.000
G1 X82.203 Y16.587 Z13.900 F2000.000
G1 X81.115 Y15.499 Z13.900 F2000.000
G3 X80.896 Y16.128 Z13.900 I-1.867 J-0.297 K0.000 F2000.000
G1 X82.203 Y17.435 Z13.900 F2000.000
G1 X82.203 Y18.284 Z13.900 F2000.000
G1 X80.573 Y16.653 Z13.900 F2000.000
G3 X80.167 Y17.096 Z13.900 I-1.859 J-1.294 K0.000 F2000.000
G1 X81.730 Y18.659 Z13.900 F2000.000
G2 X81.152 Y18.929 Z13.900 I0.037 J0.835 K0.000 F2000.000
G1 X79.678 Y17.456 Z13.900 F2000.000
G3 X79.117 Y17.744 Z13.900 I-1.701 J-2.619 K0.000 F2000.000
G1 X79.870 Y18.497 Z13.900 F2000.000
G2 X79.218 Y18.693 Z13.900 I0.226 J1.938 K0.000 F2000.000
G1 X78.531 Y18.006 Z13.900 F2000.000
G2 X77.918 Y18.241 Z13.900 I2.796 J8.207 K0.000 F2000.000
G1 X78.619 Y18.942 Z13.900 F2000.000
G3 X77.934 Y19.106 Z13.900 I-0.730 J-1.534 K0.000 F2000.000
G3 X77.235 Y19.078 Z13.900 I-0.278 J-1.827 K0.000 F2000.000
G3 X77.005 Y18.732 Z13.900 I0.006 J-0.253 K0.000 F2000.000
G3 X77.323 Y18.495 Z13.900 I0.496 J0.335 K0.000 F2000.000
G1 X77.934 Y19.106 Z13.900 F2000.000
G0 Z14.100
G0 X80.670 Y19.297 Z14.100
G0 X80.670 Y19.297 Z12.100
G1 X80.670 Y19.297 Z13.900 F2000.000
G1 X80.871 Y19.498 Z13.900 F2000.000
G2 X80.803 Y20.278 Z13.900 I3.382 J0.691 K0.000 F2000.000
G1 X80.706 Y20.181 Z13.900 F2000.000
G3 X80.584 Y20.907 Z13.900 I-1.977 J0.039 K0.000 F2000.000
G1 X80.968 Y21.292 Z13.900 F2000.000
G2 X81.409 Y21.733 Z13.900 I0.822 J-0.381 K0.000 F2000.000
G1 X82.203 Y22.526 Z13.900 F2000.000
G2 X82.253 Y23.425 Z13.900 I2.311 J0.322 K0.000 F2000.000
G1 X80.206 Y21.378 Z13.900 F2000.000
G0 Z14.100
G0 X81.409 Y21.733 Z14.100
G0 X81.409 Y21.733 Z12.100
G1 X81.409 Y21.733 Z13.900 F2000.000
G2 X82.203 Y21.816 Z13.900 I0.542 J-1.344 K0.000 F2000.000
G1 X82.203 Y22.526 Z13.900 F2000.000
G1 X81.409 Y21.733 Z13.900 F2000.000
G0 Z14.100
G0 X89.884 Y5.600 Z14.100
G0 X89.884 Y5.600 Z12.100
G1 X89.884 Y5.600 Z13.900 F2000.000
G1 X95.827 Y11.543 Z13.900 F2000.000
G1 X96.341 Y11.707 Z13.900 F2000.000
G3 X97.286 Y13.003 Z13.900 I-0.315 J1.223 K0.000 F2000.000
G1 X98.005 Y13.721 Z13.900 F2000.000
G3 X98.028 Y12.895 Z13.900 I3.968 J-0.304 K0.000 F2000.000
G1 X90.732 Y5.600 Z13.900 F2000.000
G1 X91.581 Y5.600 Z13.900 F2000.000
G1 X98.235 Y12.254 Z13.900 F2000.000
G3 X98.669 Y11.840 Z13.900 I0.953 J0.566 K0.000 F2000.000
G1 X92.429 Y5.600 Z13.900 F2000.000
G1 X93.278 Y5.600 Z13.900 F2000.000
G1 X99.252 Y11.574 Z13.900 F2000.000
G3 X99.893 Y11.366 Z13.900 I1.321 J2.974 K0.000 F2000.000
G1 X94.126 Y5.600 Z13.900 F2000.000
G1 X94.975 Y5.600 Z13.900 F2000.000
G1 X100.612 Y11.237 Z13.900 F2000.000
G3 X101.403 Y11.180 Z13.900 I0.761 J5.008 K0.000 F2000.000
G1 X95.824 Y5.600 Z13.900 F2000.000
G1 X96.672 Y5.600 Z13.900 F2000.000
G1 X102.311 Y11.239 Z13.900 F2000.000
G3 X103.447 Y11.526 Z13.900 I-0.386 J3.915 K0.000 F2000.000
G1 X97.521 Y5.600 Z13.900 F2000.000
G1 X98.369 Y5.600 Z13.900 F2000.000
G1 X109.400 Y16.631 Z13.900 F2000.000
G1 X109.400 Y15.782 Z13.900 F2000.000
G1 X99.218 Y5.600 Z13.900 F2000.000
G1 X100.066 Y5.600 Z13.900 F2000.000
G1 X109.400 Y14.934 Z13.900 F2000.000
G1 X109.400 Y14.085 Z13.900 F2000.000
G1 X100.915 Y5.600 Z13.900 F2000.000
G1 X101.763 Y5.600 Z13.900 F2000.000
G1 X109.400 Y13.237 Z13.900 F2000.000
G1 X109.400 Y12.388 Z13.900 F2000.000
G1 X102.612 Y5.600 Z13.900 F2000.000
G1 X103.460 Y5.600 Z13.900 F2000.000
G1 X109.400 Y11.540 Z13.900 F2000.000
G1 X109.400 Y10.691 Z13.900 F2000.000
G1 X104.309 Y5.600 Z13.900 F2000.000
G1 X105.157 Y5.600 Z13.900 F2000.000
G1 X109.400 Y9.843 Z13.900 F2000.000
G1 X109.400 Y8.994 Z13.900 F2000.000
G1 X106.006 Y5.600 Z13.900 F2000.000
G1 X106.854 Y5.600 Z13.900 F2000.000
G1 X109.400 Y8.146 Z13.900 F2000.000
G1 X109.400 Y7.297 Z13.900 F2000.000
G1 X107.703 Y5.600 Z13.900 F2000.000
G1 X108.551 Y5.600 Z13.900 F2000.000
G1 X109.400 Y6.449 Z13.900 F2000.000
G1 X109.400 Y5.600 Z13.900 F2000.000
G0 Z14.100
G0 X38.459 Y19.512 Z14.100
G0 X38.459 Y19.512 Z12.100
G1 X38.459 Y19.512 Z13.900 F2000.000
G1 X38.782 Y19.835 Z13.900 F2000.000
G1 X38.782 Y20.684 Z13.900 F2000.000
G1 X38.474 Y20.375 Z13.900 F2000.000
G1 X38.474 Y20.375 Z13.300 F2000.000
G1 X38.782 Y20.684 Z13.300 F2000.000
G1 X38.782 Y19.835 Z13.300 F2000.000
G1 X38.459 Y19.512 Z13.300 F2000.000
G0 Z14.100
G0 X36.657 Y18.559 Z14.100
G0 X36.657 Y18.559 Z12.100
G1 X36.657 Y18.559 Z13.300 F2000.000
G1 X35.397 Y17.299 Z13.300 F2000.000
G1 X35.397 Y17.473 Z13.300 F2000.000
G2 X36.130 Y18.368 Z13.300 I2.836 J-1.575 K0.000 F2000.000
G2 X36.657 Y18.559 Z13.300 I0.441 J-0.393 K0.000 F2000.000
G3 X37.336 Y18.389 Z13.300 I2.330 J7.864 K0.000 F2000.000
G1 X35.397 Y16.450 Z13.300 F2000.000
G1 X35.397 Y15.601 Z13.300 F2000.000
G1 X38.782 Y18.986 Z13.300 F2000.000
G1 X38.782 Y18.138 Z13.300 F2000.000
G1 X35.397 Y14.753 Z13.300 F2000.000
G1 X35.397 Y13.904 Z13.300 F2000.000
G1 X38.782 Y17.289 Z13.300 F2000.000
G1 X38.782 Y16.441 Z13.300 F2000.000
G1 X35.397 Y13.056 Z13.300 F2000.000
G2 X35.388 Y12.198 Z13.300 I-4.859 J-0.374 K0.000 F2000.000
G1 X38.782 Y15.592 Z13.300 F2000.000
G1 X38.782 Y14.744 Z13.300 F2000.000
G1 X29.638 Y5.600 Z13.300 F2000.000
G1 X30.487 Y5.600 Z13.300 F2000.000
G1 X38.782 Y13.895 Z13.300 F2000.000
G1 X38.782 Y13.047 Z13.300 F2000.000
G1 X31.335 Y5.600 Z13.300 F2000.000
G1 X32.184 Y5.600 Z13.300 F2000.000
G1 X38.794 Y12.210 Z13.300 F2000.000
G3 X39.097 Y11.665 Z13.300 I0.805 J0.092 K0.000 F2000.000
G1 X33.032 Y5.600 Z13.300 F2000.000
G1 X33.881 Y5.600 Z13.300 F2000.000
G1 X39.697 Y11.416 Z13.300 F2000.000
G3 X40.476 Y11.347 Z13.300 I0.634 J2.734 K0.000 F2000.000
G1 X34.730 Y5.600 Z13.300 F2000.000
G1 X35.578 Y5.600 Z13.300 F2000.000
G1 X41.371 Y11.393 Z13.300 F2000.000
G0 Z14.100
G0 X34.635 Y11.445 Z14.100
G0 X34.635 Y11.445 Z12.100
G1 X34.635 Y11.445 Z13.300 F2000.000
G1 X28.790 Y5.600 Z13.300 F2000.000
G1 X27.941 Y5.600 Z13.300 F2000.000
G1 X33.687 Y11.346 Z13.300 F2000.000
G2 X32.873 Y11.381 Z13.300 I-0.230 J4.191 K0.000 F2000.000
G1 X27.093 Y5.600 Z13.300 F2000.000
G1 X26.244 Y5.600 Z13.300 F2000.000
G1 X32.217 Y11.573 Z13.300 F2000.000
G2 X31.829 Y12.033 Z13.300 I0.408 J0.738 K0.000 F2000.000
G1 X25.396 Y5.600 Z13.300 F2000.000
G1 X24.547 Y5.600 Z13.300 F2000.000
G1 X31.778 Y12.831 Z13.300 F2000.000
G1 X31.778 Y13.679 Z13.300 F2000.000
G1 X30.566 Y12.468 Z13.300 F2000.000
G1 X30.566 Y13.316 Z13.300 F2000.000
G1 X31.778 Y14.528 Z13.300 F2000.000
G1 X31.778 Y15.376 Z13.300 F2000.000
G1 X30.566 Y14.165 Z13.300 F2000.000
G1 X30.566 Y15.013 Z13.300 F2000.000
G1 X31.778 Y16.225 Z13.300 F2000.000
G1 X31.778 Y17.073 Z13.300 F2000.000
G1 X30.566 Y15.862 Z13.300 F2000.000
G1 X30.566 Y16.710 Z13.300 F2000.000
G1 X31.778 Y17.922 Z13.300 F2000.000
G1 X31.778 Y18.771 Z13.300 F2000.000
G1 X30.566 Y17.559 Z13.300 F2000.000
G3 X30.548 Y18.389 Z13.300 I-7.062 J0.255 K0.000 F2000.000
G1 X31.778 Y19.619 Z13.300 F2000.000
G1 X31.778 Y20.468 Z13.300 F2000.000
G1 X30.473 Y19.162 Z13.300 F2000.000
G0 Z14.100
G0 X26.984 Y18.219 Z14.100
G0 X26.984 Y18.219 Z12.100
G1 X26.984 Y18.219 Z13.300 F2000.000
G1 X26.991 Y18.082 Z13.300 F2000.000
G1 X26.846 Y18.082 Z13.300 F2000.000
G1 X26.984 Y18.219 Z13.300 F2000.000
G3 X26.803 Y18.795 Z13.300 I-0.969 J0.012 K0.000 F2000.000
G1 X26.753 Y18.836 Z13.300 F2000.000
G1 X25.965 Y18.049 Z13.300 F2000.000
G3 X25.020 Y17.952 Z13.300 I0.034 J-5.009 K0.000 F2000.000
G1 X26.063 Y18.995 Z13.300 F2000.000
G3 X25.123 Y18.904 Z13.300 I-0.182 J-2.997 K0.000 F2000.000
G1 X23.924 Y17.705 Z13.300 F2000.000
G3 X21.638 Y15.418 Z13.300 I0.769 J-3.055 K0.000 F2000.000
G1 X20.191 Y13.972 Z13.300 F2000.000
G3 X20.933 Y15.563 Z13.300 I-4.967 J3.285 K0.000 F2000.000
G1 X23.704 Y18.333 Z13.300 F2000.000
G2 X22.722 Y18.200 Z13.300 I-0.644 J1.057 K0.000 F2000.000
G1 X21.191 Y16.669 Z13.300 F2000.000
G3 X21.288 Y17.615 Z13.300 I-5.225 J1.017 K0.000 F2000.000
G1 X22.271 Y18.598 Z13.300 F2000.000
G2 X22.048 Y19.222 Z13.300 I1.216 J0.788 K0.000 F2000.000
G1 X21.320 Y18.495 Z13.300 F2000.000
G3 X21.284 Y19.307 Z13.300 I-10.658 J-0.068 K0.000 F2000.000
G1 X22.035 Y20.058 Z13.300 F2000.000
G2 X23.009 Y21.315 Z13.300 I1.497 J-0.155 K0.000 F2000.000
G2 X23.517 Y21.540 Z13.300 I2.168 J-4.201 K0.000 F2000.000
G1 X32.177 Y30.200 Z13.300 F2000.000
G1 X31.328 Y30.200 Z13.300 F2000.000
G1 X21.176 Y20.048 Z13.300 F2000.000
G3 X21.023 Y20.743 Z13.300 I-4.208 J-0.560 K0.000 F2000.000
G1 X30.480 Y30.200 Z13.300 F2000.000
G1 X29.631 Y30.200 Z13.300 F2000.000
G1 X20.802 Y21.371 Z13.300 F2000.000
G3 X20.536 Y21.954 Z13.300 I-2.908 J-0.974 K0.000 F2000.000
G1 X28.783 Y30.200 Z13.300 F2000.000
G1 X27.934 Y30.200 Z13.300 F2000.000
G1 X20.218 Y22.484 Z13.300 F2000.000
G3 X19.851 Y22.966 Z13.300 I-4.218 J-2.831 K0.000 F2000.000
G1 X27.085 Y30.200 Z13.300 F2000.000
G1 X26.237 Y30.200 Z13.300 F2000.000
G1 X19.430 Y23.393 Z13.300 F2000.000
G3 X18.966 Y23.778 Z13.300 I-2.464 J-2.500 K0.000 F2000.000
G1 X25.388 Y30.200 Z13.300 F2000.000
G1 X24.540 Y30.200 Z13.300 F2000.000
G1 X18.445 Y24.105 Z13.300 F2000.000
G3 X17.877 Y24.386 Z13.300 I-1.458 J-2.236 K0.000 F2000.000
G1 X23.691 Y30.200 Z13.300 F2000.000
G1 X22.843 Y30.200 Z13.300 F2000.000
G1 X17.268 Y24.625 Z13.300 F2000.000
G3 X16.600 Y24.805 Z13.300 I-1.682 J-4.912 K0.000 F2000.000
G1 X21.994 Y30.200 Z13.300 F2000.000
G1 X21.146 Y30.200 Z13.300 F2000.000
G1 X15.869 Y24.923 Z13.300 F2000.000
G3 X15.087 Y24.990 Z13.300 I-0.776 J-4.474 K0.000 F2000.000
G1 X20.297 Y30.200 Z13.300 F2000.000
G1 X19.449 Y30.200 Z13.300 F2000.000
G1 X14.271 Y25.022 Z13.300 F2000.000
G1 X13.423 Y25.022 Z13.300 F2000.000
G1 X18.600 Y30.200 Z13.300 F2000.000
G1 X17.752 Y30.200 Z13.300 F2000.000
G1 X12.574 Y25.022 Z13.300 F2000.000
G1 X11.726 Y25.022 Z13.300 F2000.000
G1 X16.903 Y30.200 Z13.300 F2000.000
G1 X16.055 Y30.200 Z13.300 F2000.000
G1 X10.838 Y24.984 Z13.300 F2000.000
G3 X9.840 Y23.986 Z13.300 I0.202 J-1.200 K0.000 F2000.000
G1 X5.600 Y19.745 Z13.300 F2000.000
G1 X5.600 Y20.594 Z13.300 F2000.000
G1 X15.206 Y30.200 Z13.300 F2000.000
G1 X14.358 Y30.200 Z13.300 F2000.000
G1 X5.600 Y21.442 Z13.300 F2000.000
G1 X5.600 Y22.291 Z13.300 F2000.000
G1 X13.509 Y30.200 Z13.300 F2000.000
G1 X12.660 Y30.200 Z13.300 F2000.000
G1 X5.600 Y23.140 Z13.300 F2000.000
G1 X5.600 Y23.988 Z13.300 F2000.000
G1 X11.812 Y30.200 Z13.300 F2000.000
G1 X10.963 Y30.200 Z13.300 F2000.000
G1 X5.600 Y24.837 Z13.300 F2000.000
G1 X5.600 Y25.685 Z13.300 F2000.000
G1 X10.115 Y30.200 Z13.300 F2000.000
G1 X9.266 Y30.200 Z13.300 F2000.000
G1 X5.600 Y26.534 Z13.300 F2000.000
G1 X5.600 Y27.382 Z13.300 F2000.000
G1 X8.418 Y30.200 Z13.300 F2000.000
G1 X7.569 Y30.200 Z13.300 F2000.000
G1 X5.600 Y28.231 Z13.300 F2000.000
G1 X5.600 Y29.079 Z13.300 F2000.000
G1 X6.721 Y30.200 Z13.300 F2000.000
G1 X5.872 Y30.200 Z13.300 F2000.000
