(Exported by FreeCAD)
(Post Processor: grbl_post)
(Output Time:2024-01-17 15:44:30.718024)
(Begin preamble)
G17 G90
G21
(Begin operation: Fixture)
(Path: Fixture)
G54
(Finish operation: Fixture)
(Begin operation: Endmill004)
(Path: Endmill004)
(Endmill004)
(Begin toolchange)
( M6 T2 )
(Finish operation: Endmill004)
(Begin operation: Pocket_Shape)
(Path: Pocket_Shape)
(Pocket_Shape)
G0 Z15.400
G0 X16.057 Y23.234
G0 Z13.400
G1 X16.057 Y23.234 Z7.225
G1 X15.599 Y23.234 Z7.225
G1 X15.599 Y22.776 Z7.225
G1 X16.057 Y23.234 Z7.225
G2 X19.248 Y23.135 Z7.225 I0.735 J-27.760 K0.000
G2 X20.158 Y22.845 Z7.225 I-0.175 J-2.127 K0.000
G1 X15.599 Y18.286 Z7.225
G1 X15.599 Y13.796 Z7.225
G1 X21.728 Y19.925 Z7.225
G2 X21.683 Y16.762 Z7.225 I-11.515 J-1.416 K0.000
G2 X20.617 Y14.324 Z7.225 I-4.516 J0.522 K0.000
G1 X20.617 Y14.324 Z4.050
G3 X21.683 Y16.762 Z4.050 I-3.451 J2.960 K0.000
G3 X21.728 Y19.925 Z4.050 I-11.470 J1.747 K0.000
G1 X15.599 Y13.796 Z4.050
G1 X15.599 Y18.286 Z4.050
G1 X20.158 Y22.845 Z4.050
G3 X19.248 Y23.135 Z4.050 I-1.086 J-1.837 K0.000
G3 X16.057 Y23.234 Z4.050 I-2.455 J-27.661 K0.000
G1 X15.599 Y22.776 Z4.050
G1 X15.599 Y23.234 Z4.050
G1 X16.057 Y23.234 Z4.050
G1 X16.057 Y23.234 Z4.000
G1 X15.599 Y23.234 Z4.000
G1 X15.599 Y22.776 Z4.000
G1 X16.057 Y23.234 Z4.000
G2 X19.248 Y23.135 Z4.000 I0.735 J-27.760 K0.000
G2 X20.158 Y22.845 Z4.000 I-0.175 J-2.127 K0.000
G1 X15.599 Y18.286 Z4.000
G1 X15.599 Y13.796 Z4.000
G1 X21.728 Y19.925 Z4.000
G2 X21.683 Y16.762 Z4.000 I-11.515 J-1.416 K0.000
G2 X20.617 Y14.324 Z4.000 I-4.516 J0.522 K0.000
G0 Z15.400
G0 Z15.400
G0 X20.617 Y14.324
G0 X27.241 Y19.734
G0 X27.241 Y19.734 Z13.400
G1 X27.241 Y19.734 Z7.225
G1 X34.712 Y12.262 Z7.225
G1 X34.712 Y7.772 Z7.225
G1 X26.992 Y15.493 Z7.225
G2 X25.738 Y12.256 Z7.225 I-10.416 J2.173 K0.000
G1 X34.712 Y3.282 Z7.225
G1 X34.712 Y1.588 Z7.225
G1 X31.916 Y1.588 Z7.225
G1 X23.595 Y9.909 Z7.225
G2 X20.389 Y8.625 Z7.225 I-4.478 J6.537 K0.000
G1 X27.426 Y1.588 Z7.225
G1 X22.936 Y1.588 Z7.225
G1 X16.111 Y8.413 Z7.225
G1 X11.810 Y8.413 Z7.225
G1 X11.597 Y8.436 Z7.225
G1 X18.446 Y1.588 Z7.225
G0 Z15.400
G0 X4.976 Z15.400
G0 X4.976 Z13.400
G1 X4.976 Y1.588 Z7.225
G1 X1.588 Y4.976 Z7.225
G1 X1.588 Y1.588 Z7.225
G1 X4.976 Y1.588 Z7.225
G1 X9.466 Y1.588 Z7.225
G1 X1.588 Y9.466 Z7.225
G1 X1.588 Y13.956 Z7.225
G1 X13.956 Y1.588 Z7.225
G1 X18.446 Y1.588 Z7.225
G1 X11.597 Y8.436 Z7.225
G2 X10.246 Y9.787 Z7.225 I0.180 J1.530 K0.000
G1 X1.588 Y18.446 Z7.225
G1 X1.588 Y22.936 Z7.225
G1 X10.222 Y14.301 Z7.225
G1 X10.222 Y18.791 Z7.225
G1 X1.588 Y27.426 Z7.225
G1 X1.588 Y31.916 Z7.225
G1 X10.222 Y23.282 Z7.225
G1 X10.222 Y26.828 Z7.225
G2 X10.418 Y27.577 Z7.225 I1.496 J0.010 K0.000
G1 X3.282 Y34.712 Z7.225
G1 X7.772 Y34.712 Z7.225
G1 X14.069 Y28.415 Z7.225
G2 X18.576 Y28.399 Z7.225 I1.770 J-132.073 K0.000
G1 X12.262 Y34.712 Z7.225
G1 X16.752 Y34.712 Z7.225
G1 X34.712 Y16.752 Z7.225
G1 X34.712 Y21.242 Z7.225
G1 X21.242 Y34.712 Z7.225
G1 X25.732 Y34.712 Z7.225
G1 X34.712 Y25.732 Z7.225
G1 X34.712 Y30.222 Z7.225
G1 X30.222 Y34.712 Z7.225
G1 X34.712 Y34.712 Z7.225
G1 X34.712 Y34.712 Z4.050
G1 X30.222 Y34.712 Z4.050
G1 X34.712 Y30.222 Z4.050
G1 X34.712 Y25.732 Z4.050
G1 X25.732 Y34.712 Z4.050
G1 X21.242 Y34.712 Z4.050
G1 X34.712 Y21.242 Z4.050
G1 X34.712 Y16.752 Z4.050
G1 X16.752 Y34.712 Z4.050
G1 X12.262 Y34.712 Z4.050
G1 X18.576 Y28.399 Z4.050
G3 X14.069 Y28.415 Z4.050 I-2.737 J-132.056 K0.000
G1 X7.772 Y34.712 Z4.050
G1 X3.282 Y34.712 Z4.050
G1 X10.418 Y27.577 Z4.050
G3 X10.222 Y26.828 Z4.050 I1.301 J-0.739 K0.000
G1 X10.222 Y23.282 Z4.050
G1 X1.588 Y31.916 Z4.050
G1 X1.588 Y27.426 Z4.050
G1 X10.222 Y18.791 Z4.050
G1 X10.222 Y14.301 Z4.050
G1 X1.588 Y22.936 Z4.050
G1 X1.588 Y18.446 Z4.050
G1 X10.246 Y9.787 Z4.050
G3 X11.597 Y8.436 Z4.050 I1.530 J0.180 K0.000
G1 X18.446 Y1.588 Z4.050
G1 X13.956 Y1.588 Z4.050
G1 X1.588 Y13.956 Z4.050
G1 X1.588 Y9.466 Z4.050
G1 X9.466 Y1.588 Z4.050
G1 X4.976 Y1.588 Z4.050
G1 X1.588 Y1.588 Z4.050
G1 X1.588 Y4.976 Z4.050
G1 X4.976 Y1.588 Z4.050
G0 Z15.400
G0 X18.446 Z15.400
G0 X18.446 Z13.400
G1 X18.446 Y1.588 Z4.050
G1 X11.597 Y8.436 Z4.050
G1 X11.810 Y8.413 Z4.050
G1 X16.111 Y8.413 Z4.050
G1 X22.936 Y1.588 Z4.050
G1 X27.426 Y1.588 Z4.050
G1 X20.389 Y8.625 Z4.050
G3 X23.595 Y9.909 Z4.050 I-1.272 J7.821 K0.000
G1 X31.916 Y1.588 Z4.050
G1 X34.712 Y1.588 Z4.050
G1 X34.712 Y3.282 Z4.050
G1 X25.738 Y12.256 Z4.050
G3 X26.992 Y15.493 Z4.050 I-9.162 J5.409 K0.000
G1 X34.712 Y7.772 Z4.050
G1 X34.712 Y12.262 Z4.050
G1 X27.241 Y19.734 Z4.050
G1 X27.241 Y19.734 Z4.000
G1 X34.712 Y12.262 Z4.000
G1 X34.712 Y7.772 Z4.000
G1 X26.992 Y15.493 Z4.000
G2 X25.738 Y12.256 Z4.000 I-10.416 J2.173 K0.000
G1 X34.712 Y3.282 Z4.000
G1 X34.712 Y1.588 Z4.000
G1 X31.916 Y1.588 Z4.000
G1 X23.595 Y9.909 Z4.000
G2 X20.389 Y8.625 Z4.000 I-4.478 J6.537 K0.000
G1 X27.426 Y1.588 Z4.000
G1 X22.936 Y1.588 Z4.000
G1 X16.111 Y8.413 Z4.000
G1 X11.810 Y8.413 Z4.000
G1 X11.597 Y8.436 Z4.000
G1 X18.446 Y1.588 Z4.000
G0 Z15.400
G0 X4.976 Z15.400
G0 X4.976 Z13.400
G1 X4.976 Y1.588 Z4.000
G1 X1.588 Y4.976 Z4.000
G1 X1.588 Y1.588 Z4.000
G1 X4.976 Y1.588 Z4.000
G1 X9.466 Y1.588 Z4.000
G1 X1.588 Y9.466 Z4.000
G1 X1.588 Y13.956 Z4.000
G1 X13.956 Y1.588 Z4.000
G1 X18.446 Y1.588 Z4.000
G1 X11.597 Y8.436 Z4.000
G2 X10.246 Y9.787 Z4.000 I0.180 J1.530 K0.000
G1 X1.588 Y18.446 Z4.000
G1 X1.588 Y22.936 Z4.000
G1 X10.222 Y14.301 Z4.000
G1 X10.222 Y18.791 Z4.000
G1 X1.588 Y27.426 Z4.000
G1 X1.588 Y31.916 Z4.000
G1 X10.222 Y23.282 Z4.000
G1 X10.222 Y26.828 Z4.000
G2 X10.418 Y27.577 Z4.000 I1.496 J0.010 K0.000
G1 X3.282 Y34.712 Z4.000
G1 X7.772 Y34.712 Z4.000
G1 X14.069 Y28.415 Z4.000
G2 X18.576 Y28.399 Z4.000 I1.770 J-132.073 K0.000
G1 X12.262 Y34.712 Z4.000
G1 X16.752 Y34.712 Z4.000
G1 X34.712 Y16.752 Z4.000
G1 X34.712 Y21.242 Z4.000
G1 X21.242 Y34.712 Z4.000
G1 X25.732 Y34.712 Z4.000
G1 X34.712 Y25.732 Z4.000
G1 X34.712 Y30.222 Z4.000
G1 X30.222 Y34.712 Z4.000
G1 X34.712 Y34.712 Z4.000
G0 Z15.400
G0 Z15.400
(Finish operation: Pocket_Shape)
(Begin postamble)
M5
G17 G90
M2
