(Exported by FreeCAD)
(Post Processor: grbl_post)
(Output Time:2024-01-29 09:22:44.836010)
(Begin preamble)
G17 G90
G21
(Begin operation: Fixture)
(Path: Fixture)
G54
(Finish operation: Fixture)
(Begin operation: 3.175mm-endmill002)
(Path: 3.175mm-endmill002)
(3.175mm-endmill002)
(Begin toolchange)
( M6 T3 )
M3 S10000
(Finish operation: 3.175mm-endmill002)
(Begin operation: Profile)
(Path: Profile)
(Profile)
(Compensated Tool Path. Diameter: 3.17)
G0 Z20.000
G0 X216.121 Y51.121
G0 Z18.000
G1 X216.121 Y51.121 Z15.000 F1000.000
G2 X216.585 Y50.000 Z15.000 I-1.121 J-1.121 K0.000 F1000.000
G1 X216.585 Y0.000 Z15.000 F1000.000
G2 X215.000 Y-1.585 Z15.000 I-1.585 J0.000 K0.000 F1000.000
G1 X0.000 Y-1.585 Z15.000 F1000.000
G2 X-1.585 Y0.000 Z15.000 I0.000 J1.585 K0.000 F1000.000
G1 X-1.585 Y50.000 Z15.000 F1000.000
G2 X0.000 Y51.585 Z15.000 I1.585 J-0.000 K0.000 F1000.000
G1 X215.000 Y51.585 Z15.000 F1000.000
G2 X216.121 Y51.121 Z15.000 I-0.000 J-1.585 K0.000 F1000.000
G1 X216.121 Y51.121 Z13.943 F1000.000
G2 X216.585 Y50.000 Z13.943 I-1.121 J-1.121 K0.000 F1000.000
G1 X216.585 Y0.000 Z13.943 F1000.000
G2 X215.000 Y-1.585 Z13.943 I-1.585 J0.000 K0.000 F1000.000
G1 X0.000 Y-1.585 Z13.943 F1000.000
G2 X-1.585 Y0.000 Z13.943 I0.000 J1.585 K0.000 F1000.000
G1 X-1.585 Y50.000 Z13.943 F1000.000
G2 X0.000 Y51.585 Z13.943 I1.585 J-0.000 K0.000 F1000.000
G1 X215.000 Y51.585 Z13.943 F1000.000
G2 X216.121 Y51.121 Z13.943 I-0.000 J-1.585 K0.000 F1000.000
G1 X216.121 Y51.121 Z12.887 F1000.000
G2 X216.585 Y50.000 Z12.887 I-1.121 J-1.121 K0.000 F1000.000
G1 X216.585 Y0.000 Z12.887 F1000.000
G2 X215.000 Y-1.585 Z12.887 I-1.585 J0.000 K0.000 F1000.000
G1 X0.000 Y-1.585 Z12.887 F1000.000
G2 X-1.585 Y0.000 Z12.887 I0.000 J1.585 K0.000 F1000.000
G1 X-1.585 Y50.000 Z12.887 F1000.000
G2 X0.000 Y51.585 Z12.887 I1.585 J-0.000 K0.000 F1000.000
G1 X215.000 Y51.585 Z12.887 F1000.000
G2 X216.121 Y51.121 Z12.887 I-0.000 J-1.585 K0.000 F1000.000
G1 X216.121 Y51.121 Z11.830 F1000.000
G2 X216.585 Y50.000 Z11.830 I-1.121 J-1.121 K0.000 F1000.000
G1 X216.585 Y0.000 Z11.830 F1000.000
G2 X215.000 Y-1.585 Z11.830 I-1.585 J0.000 K0.000 F1000.000
G1 X0.000 Y-1.585 Z11.830 F1000.000
G2 X-1.585 Y0.000 Z11.830 I0.000 J1.585 K0.000 F1000.000
G1 X-1.585 Y50.000 Z11.830 F1000.000
G2 X0.000 Y51.585 Z11.830 I1.585 J-0.000 K0.000 F1000.000
G1 X215.000 Y51.585 Z11.830 F1000.000
G2 X216.121 Y51.121 Z11.830 I-0.000 J-1.585 K0.000 F1000.000
G1 X216.121 Y51.121 Z10.773 F1000.000
G2 X216.585 Y50.000 Z10.773 I-1.121 J-1.121 K0.000 F1000.000
G1 X216.585 Y0.000 Z10.773 F1000.000
G2 X215.000 Y-1.585 Z10.773 I-1.585 J0.000 K0.000 F1000.000
G1 X0.000 Y-1.585 Z10.773 F1000.000
G2 X-1.585 Y0.000 Z10.773 I0.000 J1.585 K0.000 F1000.000
G1 X-1.585 Y50.000 Z10.773 F1000.000
G2 X0.000 Y51.585 Z10.773 I1.585 J-0.000 K0.000 F1000.000
G1 X215.000 Y51.585 Z10.773 F1000.000
G2 X216.121 Y51.121 Z10.773 I-0.000 J-1.585 K0.000 F1000.000
G1 X216.121 Y51.121 Z9.717 F1000.000
G2 X216.585 Y50.000 Z9.717 I-1.121 J-1.121 K0.000 F1000.000
G1 X216.585 Y0.000 Z9.717 F1000.000
G2 X215.000 Y-1.585 Z9.717 I-1.585 J0.000 K0.000 F1000.000
G1 X0.000 Y-1.585 Z9.717 F1000.000
G2 X-1.585 Y0.000 Z9.717 I0.000 J1.585 K0.000 F1000.000
G1 X-1.585 Y50.000 Z9.717 F1000.000
G2 X0.000 Y51.585 Z9.717 I1.585 J-0.000 K0.000 F1000.000
G1 X215.000 Y51.585 Z9.717 F1000.000
G2 X216.121 Y51.121 Z9.717 I-0.000 J-1.585 K0.000 F1000.000
G1 X216.121 Y51.121 Z8.660 F1000.000
G2 X216.585 Y50.000 Z8.660 I-1.121 J-1.121 K0.000 F1000.000
G1 X216.585 Y0.000 Z8.660 F1000.000
G2 X215.000 Y-1.585 Z8.660 I-1.585 J0.000 K0.000 F1000.000
G1 X0.000 Y-1.585 Z8.660 F1000.000
G2 X-1.585 Y0.000 Z8.660 I0.000 J1.585 K0.000 F1000.000
G1 X-1.585 Y50.000 Z8.660 F1000.000
G2 X0.000 Y51.585 Z8.660 I1.585 J-0.000 K0.000 F1000.000
G1 X215.000 Y51.585 Z8.660 F1000.000
G2 X216.121 Y51.121 Z8.660 I-0.000 J-1.585 K0.000 F1000.000
G1 X216.121 Y51.121 Z7.603 F1000.000
G2 X216.585 Y50.000 Z7.603 I-1.121 J-1.121 K0.000 F1000.000
G1 X216.585 Y0.000 Z7.603 F1000.000
G2 X215.000 Y-1.585 Z7.603 I-1.585 J0.000 K0.000 F1000.000
G1 X0.000 Y-1.585 Z7.603 F1000.000
G2 X-1.585 Y0.000 Z7.603 I0.000 J1.585 K0.000 F1000.000
G1 X-1.585 Y50.000 Z7.603 F1000.000
G2 X0.000 Y51.585 Z7.603 I1.585 J-0.000 K0.000 F1000.000
G1 X215.000 Y51.585 Z7.603 F1000.000
G2 X216.121 Y51.121 Z7.603 I-0.000 J-1.585 K0.000 F1000.000
G1 X216.121 Y51.121 Z6.547 F1000.000
G2 X216.585 Y50.000 Z6.547 I-1.121 J-1.121 K0.000 F1000.000
G1 X216.585 Y0.000 Z6.547 F1000.000
G2 X215.000 Y-1.585 Z6.547 I-1.585 J0.000 K0.000 F1000.000
G1 X0.000 Y-1.585 Z6.547 F1000.000
G2 X-1.585 Y0.000 Z6.547 I0.000 J1.585 K0.000 F1000.000
G1 X-1.585 Y50.000 Z6.547 F1000.000
G2 X0.000 Y51.585 Z6.547 I1.585 J-0.000 K0.000 F1000.000
G1 X215.000 Y51.585 Z6.547 F1000.000
G2 X216.121 Y51.121 Z6.547 I-0.000 J-1.585 K0.000 F1000.000
G1 X216.121 Y51.121 Z5.490 F1000.000
G2 X216.585 Y50.000 Z5.490 I-1.121 J-1.121 K0.000 F1000.000
G1 X216.585 Y0.000 Z5.490 F1000.000
G2 X215.000 Y-1.585 Z5.490 I-1.585 J0.000 K0.000 F1000.000
G1 X0.000 Y-1.585 Z5.490 F1000.000
G2 X-1.585 Y0.000 Z5.490 I0.000 J1.585 K0.000 F1000.000
G1 X-1.585 Y50.000 Z5.490 F1000.000
G2 X0.000 Y51.585 Z5.490 I1.585 J-0.000 K0.000 F1000.000
G1 X215.000 Y51.585 Z5.490 F1000.000
G2 X216.121 Y51.121 Z5.490 I-0.000 J-1.585 K0.000 F1000.000
G1 X216.121 Y51.121 Z4.433 F1000.000
G2 X216.585 Y50.000 Z4.433 I-1.121 J-1.121 K0.000 F1000.000
G1 X216.585 Y0.000 Z4.433 F1000.000
G2 X215.000 Y-1.585 Z4.433 I-1.585 J0.000 K0.000 F1000.000
G1 X0.000 Y-1.585 Z4.433 F1000.000
G2 X-1.585 Y0.000 Z4.433 I0.000 J1.585 K0.000 F1000.000
G1 X-1.585 Y50.000 Z4.433 F1000.000
G2 X0.000 Y51.585 Z4.433 I1.585 J-0.000 K0.000 F1000.000
G1 X215.000 Y51.585 Z4.433 F1000.000
G2 X216.121 Y51.121 Z4.433 I-0.000 J-1.585 K0.000 F1000.000
G1 X216.121 Y51.121 Z3.377 F1000.000
G2 X216.585 Y50.000 Z3.377 I-1.121 J-1.121 K0.000 F1000.000
G1 X216.585 Y0.000 Z3.377 F1000.000
G2 X215.000 Y-1.585 Z3.377 I-1.585 J0.000 K0.000 F1000.000
G1 X0.000 Y-1.585 Z3.377 F1000.000
G2 X-1.585 Y0.000 Z3.377 I0.000 J1.585 K0.000 F1000.000
G1 X-1.585 Y50.000 Z3.377 F1000.000
G2 X0.000 Y51.585 Z3.377 I1.585 J-0.000 K0.000 F1000.000
G1 X215.000 Y51.585 Z3.377 F1000.000
G2 X216.121 Y51.121 Z3.377 I-0.000 J-1.585 K0.000 F1000.000
G1 X216.121 Y51.121 Z2.320 F1000.000
G2 X216.585 Y50.000 Z2.320 I-1.121 J-1.121 K0.000 F1000.000
G1 X216.585 Y0.000 Z2.320 F1000.000
G2 X215.000 Y-1.585 Z2.320 I-1.585 J0.000 K0.000 F1000.000
G1 X0.000 Y-1.585 Z2.320 F1000.000
G2 X-1.585 Y0.000 Z2.320 I0.000 J1.585 K0.000 F1000.000
G1 X-1.585 Y50.000 Z2.320 F1000.000
G2 X0.000 Y51.585 Z2.320 I1.585 J-0.000 K0.000 F1000.000
G1 X215.000 Y51.585 Z2.320 F1000.000
G2 X216.121 Y51.121 Z2.320 I-0.000 J-1.585 K0.000 F1000.000
G1 X216.121 Y51.121 Z1.263 F1000.000
G2 X216.585 Y50.000 Z1.263 I-1.121 J-1.121 K0.000 F1000.000
G1 X216.585 Y0.000 Z1.263 F1000.000
G2 X215.000 Y-1.585 Z1.263 I-1.585 J0.000 K0.000 F1000.000
G1 X0.000 Y-1.585 Z1.263 F1000.000
G2 X-1.585 Y0.000 Z1.263 I0.000 J1.585 K0.000 F1000.000
G1 X-1.585 Y50.000 Z1.263 F1000.000
G2 X0.000 Y51.585 Z1.263 I1.585 J-0.000 K0.000 F1000.000
G1 X215.000 Y51.585 Z1.263 F1000.000
G2 X216.121 Y51.121 Z1.263 I-0.000 J-1.585 K0.000 F1000.000
G1 X216.121 Y51.121 Z0.207 F1000.000
G2 X216.585 Y50.000 Z0.207 I-1.121 J-1.121 K0.000 F1000.000
G1 X216.585 Y0.000 Z0.207 F1000.000
G2 X215.000 Y-1.585 Z0.207 I-1.585 J0.000 K0.000 F1000.000
G1 X0.000 Y-1.585 Z0.207 F1000.000
G2 X-1.585 Y0.000 Z0.207 I0.000 J1.585 K0.000 F1000.000
G1 X-1.585 Y50.000 Z0.207 F1000.000
G2 X0.000 Y51.585 Z0.207 I1.585 J-0.000 K0.000 F1000.000
G1 X215.000 Y51.585 Z0.207 F1000.000
G2 X216.121 Y51.121 Z0.207 I-0.000 J-1.585 K0.000 F1000.000
G1 X216.121 Y51.121 Z0.000 F1000.000
G2 X216.585 Y50.000 Z0.000 I-1.121 J-1.121 K0.000 F1000.000
G1 X216.585 Y0.000 Z0.000 F1000.000
G2 X215.000 Y-1.585 Z0.000 I-1.585 J0.000 K0.000 F1000.000
G1 X0.000 Y-1.585 Z0.000 F1000.000
G2 X-1.585 Y0.000 Z0.000 I0.000 J1.585 K0.000 F1000.000
G1 X-1.585 Y50.000 Z0.000 F1000.000
G2 X0.000 Y51.585 Z0.000 I1.585 J-0.000 K0.000 F1000.000
G1 X215.000 Y51.585 Z0.000 F1000.000
G2 X216.121 Y51.121 Z0.000 I-0.000 J-1.585 K0.000 F1000.000
G0 Z20.000
G0 Z20.000
(Finish operation: Profile)
(Begin postamble)
M5
G17 G90
M2
