(Exported by FreeCAD)
(Post Processor: grbl_post)
(Output Time:2024-03-02 05:50:17.264563)
(Begin preamble)
G17 G90
G21
(Begin operation: Fixture)
(Path: Fixture)
G54
(Finish operation: Fixture)
(Begin operation: 1.4mm-endmill001)
(Path: 1.4mm-endmill001)
(1.4mm-endmill001)
(Begin toolchange)
( M6 T2 )
M3 S3000
(Finish operation: 1.4mm-endmill001)
(Begin operation: Pocket_Shape)
(Path: Pocket_Shape)
(Pocket_Shape)
G0 Z27.241
G0 X37.790 Y22.249
G0 Z25.241
G1 X37.790 Y22.249 Z8.833 F500.000
G2 X38.214 Y21.467 Z8.833 I-1.115 J-1.111 K0.000 F500.000
G2 X36.652 Y19.538 Z8.833 I-1.532 J-0.357 K0.000 F500.000
G2 X35.082 Y20.900 Z8.833 I-0.093 J1.479 K0.000 F500.000
G2 X36.182 Y22.633 Z8.833 I1.523 J0.249 K0.000 F500.000
G2 X37.790 Y22.249 Z8.833 I0.493 J-1.495 K0.000 F500.000
G0 Z27.241
G0 X37.794 Y19.998 Z27.241
G0 X37.794 Y19.998 Z25.241
G1 X37.794 Y19.998 Z8.833 F500.000
G3 X37.926 Y22.109 Z8.833 I-1.222 J1.136 K0.000 F500.000
G1 X35.660 Y19.844 Z8.833 F500.000
G2 X35.083 Y21.247 Z8.833 I0.943 J1.208 K0.000 F500.000
G2 X36.522 Y22.685 Z8.833 I1.499 J-0.060 K0.000 F500.000
G1 X35.083 Y21.247 Z8.833 F500.000
G1 X35.083 Y21.247 Z8.367 F500.000
G1 X36.522 Y22.685 Z8.367 F500.000
G3 X35.083 Y21.247 Z8.367 I0.060 J-1.499 K0.000 F500.000
G3 X35.660 Y19.844 Z8.367 I1.520 J-0.194 K0.000 F500.000
G1 X37.926 Y22.109 Z8.367 F500.000
G2 X37.794 Y19.998 Z8.367 I-1.353 J-0.976 K0.000 F500.000
G1 X37.794 Y19.998 Z8.367 F500.000
G2 X36.652 Y19.538 Z8.367 I-1.112 J1.113 K0.000 F500.000
G2 X35.082 Y20.900 Z8.367 I-0.093 J1.479 K0.000 F500.000
G2 X36.182 Y22.633 Z8.367 I1.523 J0.249 K0.000 F500.000
G2 X38.214 Y21.467 Z8.367 I0.493 J-1.495 K0.000 F500.000
G2 X37.794 Y19.998 Z8.367 I-1.532 J-0.357 K0.000 F500.000
G1 X37.794 Y19.998 Z7.900 F500.000
G2 X36.652 Y19.538 Z7.900 I-1.112 J1.113 K0.000 F500.000
G2 X35.082 Y20.900 Z7.900 I-0.093 J1.479 K0.000 F500.000
G2 X36.182 Y22.633 Z7.900 I1.523 J0.249 K0.000 F500.000
G2 X38.214 Y21.467 Z7.900 I0.493 J-1.495 K0.000 F500.000
G2 X37.794 Y19.998 Z7.900 I-1.532 J-0.357 K0.000 F500.000
G1 X37.794 Y19.998 Z7.900 F500.000
G3 X37.926 Y22.109 Z7.900 I-1.222 J1.136 K0.000 F500.000
G1 X35.660 Y19.844 Z7.900 F500.000
G2 X35.083 Y21.247 Z7.900 I0.943 J1.208 K0.000 F500.000
G2 X36.522 Y22.685 Z7.900 I1.499 J-0.060 K0.000 F500.000
G1 X35.083 Y21.247 Z7.900 F500.000
G1 X35.083 Y21.247 Z7.433 F500.000
G1 X36.522 Y22.685 Z7.433 F500.000
G3 X35.083 Y21.247 Z7.433 I0.060 J-1.499 K0.000 F500.000
G3 X35.660 Y19.844 Z7.433 I1.520 J-0.194 K0.000 F500.000
G1 X37.926 Y22.109 Z7.433 F500.000
G2 X37.794 Y19.998 Z7.433 I-1.353 J-0.976 K0.000 F500.000
G1 X37.794 Y19.998 Z7.433 F500.000
G2 X36.652 Y19.538 Z7.433 I-1.112 J1.113 K0.000 F500.000
G2 X35.082 Y20.900 Z7.433 I-0.093 J1.479 K0.000 F500.000
G2 X36.182 Y22.633 Z7.433 I1.523 J0.249 K0.000 F500.000
G2 X38.214 Y21.467 Z7.433 I0.493 J-1.495 K0.000 F500.000
G2 X37.794 Y19.998 Z7.433 I-1.532 J-0.357 K0.000 F500.000
G1 X37.794 Y19.998 Z7.300 F500.000
G2 X36.652 Y19.538 Z7.300 I-1.112 J1.113 K0.000 F500.000
G2 X35.082 Y20.900 Z7.300 I-0.093 J1.479 K0.000 F500.000
G2 X36.182 Y22.633 Z7.300 I1.523 J0.249 K0.000 F500.000
G2 X38.214 Y21.467 Z7.300 I0.493 J-1.495 K0.000 F500.000
G2 X37.794 Y19.998 Z7.300 I-1.532 J-0.357 K0.000 F500.000
G1 X37.794 Y19.998 Z7.300 F500.000
G3 X37.926 Y22.109 Z7.300 I-1.222 J1.136 K0.000 F500.000
G1 X35.660 Y19.844 Z7.300 F500.000
G2 X35.083 Y21.247 Z7.300 I0.943 J1.208 K0.000 F500.000
G2 X36.522 Y22.685 Z7.300 I1.499 J-0.060 K0.000 F500.000
G1 X35.083 Y21.247 Z7.300 F500.000
G0 Z27.241
G0 Z27.241
G0 X35.083 Y21.247
G0 X40.741 Y21.146
G0 X40.741 Y21.146 Z25.241
G1 X40.741 Y21.146 Z8.833 F500.000
G2 X40.955 Y21.807 Z8.833 I1.193 J-0.021 K0.000 F500.000
G2 X42.201 Y22.184 Z8.833 I0.875 J-0.643 K0.000 F500.000
G2 X41.396 Y20.060 Z8.833 I-0.414 J-1.058 K0.000 F500.000
G2 X40.741 Y21.146 Z8.833 I0.539 J1.065 K0.000 F500.000
G0 Z27.241
G0 X42.388 Y22.094 Z27.241
G0 X42.388 Y22.094 Z25.241
G1 X42.388 Y22.094 Z8.833 F500.000
G1 X40.869 Y20.575 Z8.833 F500.000
G2 X41.386 Y22.155 Z8.833 I1.049 J0.531 K0.000 F500.000
G2 X42.388 Y22.094 Z8.833 I0.442 J-1.009 K0.000 F500.000
G2 X42.591 Y20.317 Z8.833 I-0.616 J-0.970 K0.000 F500.000
G1 X42.591 Y20.317 Z8.367 F500.000
G3 X42.388 Y22.094 Z8.367 I-0.819 J0.807 K0.000 F500.000
G3 X41.386 Y22.155 Z8.367 I-0.560 J-0.948 K0.000 F500.000
G3 X40.869 Y20.575 Z8.367 I0.532 J-1.049 K0.000 F500.000
G1 X42.388 Y22.094 Z8.367 F500.000
G0 Z27.241
G0 X42.387 Y22.092 Z27.241
G0 X42.387 Y22.092 Z25.241
G1 X42.387 Y22.092 Z8.367 F500.000
G2 X41.396 Y20.060 Z8.367 I-0.599 J-0.965 K0.000 F500.000
G2 X40.955 Y21.807 Z8.367 I0.539 J1.065 K0.000 F500.000
G2 X42.201 Y22.184 Z8.367 I0.875 J-0.643 K0.000 F500.000
G2 X42.387 Y22.092 Z8.367 I-0.414 J-1.058 K0.000 F500.000
G1 X42.387 Y22.092 Z7.900 F500.000
G2 X41.396 Y20.060 Z7.900 I-0.599 J-0.965 K0.000 F500.000
G2 X40.955 Y21.807 Z7.900 I0.539 J1.065 K0.000 F500.000
G2 X42.201 Y22.184 Z7.900 I0.875 J-0.643 K0.000 F500.000
G2 X42.387 Y22.092 Z7.900 I-0.414 J-1.058 K0.000 F500.000
G0 Z27.241
G0 X42.388 Y22.094 Z27.241
G0 X42.388 Y22.094 Z25.241
G1 X42.388 Y22.094 Z7.900 F500.000
G1 X40.869 Y20.575 Z7.900 F500.000
G2 X41.386 Y22.155 Z7.900 I1.049 J0.531 K0.000 F500.000
G2 X42.388 Y22.094 Z7.900 I0.442 J-1.009 K0.000 F500.000
G2 X42.591 Y20.317 Z7.900 I-0.616 J-0.970 K0.000 F500.000
G1 X42.591 Y20.317 Z7.433 F500.000
G3 X42.388 Y22.094 Z7.433 I-0.819 J0.807 K0.000 F500.000
G3 X41.386 Y22.155 Z7.433 I-0.560 J-0.948 K0.000 F500.000
G3 X40.869 Y20.575 Z7.433 I0.532 J-1.049 K0.000 F500.000
G1 X42.388 Y22.094 Z7.433 F500.000
G0 Z27.241
G0 X42.387 Y22.092 Z27.241
G0 X42.387 Y22.092 Z25.241
G1 X42.387 Y22.092 Z7.433 F500.000
G2 X41.396 Y20.060 Z7.433 I-0.599 J-0.965 K0.000 F500.000
G2 X40.955 Y21.807 Z7.433 I0.539 J1.065 K0.000 F500.000
G2 X42.201 Y22.184 Z7.433 I0.875 J-0.643 K0.000 F500.000
G2 X42.387 Y22.092 Z7.433 I-0.414 J-1.058 K0.000 F500.000
G1 X42.387 Y22.092 Z7.300 F500.000
G2 X41.396 Y20.060 Z7.300 I-0.599 J-0.965 K0.000 F500.000
G2 X40.955 Y21.807 Z7.300 I0.539 J1.065 K0.000 F500.000
G2 X42.201 Y22.184 Z7.300 I0.875 J-0.643 K0.000 F500.000
G2 X42.387 Y22.092 Z7.300 I-0.414 J-1.058 K0.000 F500.000
G0 Z27.241
G0 X42.388 Y22.094 Z27.241
G0 X42.388 Y22.094 Z25.241
G1 X42.388 Y22.094 Z7.300 F500.000
G1 X40.869 Y20.575 Z7.300 F500.000
G2 X41.386 Y22.155 Z7.300 I1.049 J0.531 K0.000 F500.000
G2 X42.388 Y22.094 Z7.300 I0.442 J-1.009 K0.000 F500.000
G2 X42.591 Y20.317 Z7.300 I-0.616 J-0.970 K0.000 F500.000
G0 Z27.241
G0 Z27.241
G0 X42.591 Y20.317
G0 X44.939 Y19.099
G0 X44.939 Y19.099 Z25.241
G1 X44.939 Y19.099 Z8.833 F500.000
G3 X45.337 Y22.071 Z8.833 I-3.931 J2.039 K0.000 F500.000
G3 X41.866 Y25.053 Z8.833 I-3.508 J-0.572 K0.000 F500.000
G3 X39.597 Y24.171 Z8.833 I-0.166 J-2.937 K0.000 F500.000
G3 X39.011 Y24.757 Z8.833 I-1.971 J-1.386 K0.000 F500.000
G3 X33.364 Y23.812 Z8.833 I-2.349 J-3.311 K0.000 F500.000
G3 X32.640 Y20.169 Z8.833 I3.998 J-2.688 K0.000 F500.000
G3 X36.649 Y16.720 Z8.833 I4.018 J0.617 K0.000 F500.000
G1 X36.672 Y16.721 Z8.833 F500.000
G3 X39.582 Y18.100 Z8.833 I0.178 J3.384 K0.000 F500.000
G3 X40.084 Y17.660 Z8.833 I1.853 J1.608 K0.000 F500.000
G3 X44.745 Y18.762 Z8.833 I1.755 J2.986 K0.000 F500.000
G3 X44.939 Y19.099 Z8.833 I-3.737 J2.376 K0.000 F500.000
G0 Z27.241
G0 Y16.607 Z27.241
G0 Y16.607 Z25.241
G1 X44.939 Y16.607 Z8.833 F500.000
G1 X12.657 Y16.607 Z8.833 F500.000
G1 X12.657 Y31.207 Z8.833 F500.000
G1 X63.257 Y31.207 Z8.833 F500.000
G1 X63.257 Y16.607 Z8.833 F500.000
G1 X44.939 Y16.607 Z8.833 F500.000
G0 Z27.241
G0 X42.065 Y17.194 Z27.241
G0 X42.065 Y17.194 Z25.241
G1 X42.065 Y17.194 Z8.833 F500.000
G1 X41.478 Y16.607 Z8.833 F500.000
G1 X39.498 Y16.607 Z8.833 F500.000
G1 X40.385 Y17.495 Z8.833 F500.000
G2 X39.582 Y18.100 Z8.833 I1.013 J2.180 K0.000 F500.000
G2 X37.778 Y16.867 Z8.833 I-2.561 J1.811 K0.000 F500.000
G1 X37.518 Y16.607 Z8.833 F500.000
G1 X35.538 Y16.607 Z8.833 F500.000
G1 X35.751 Y16.820 Z8.833 F500.000
G2 X34.372 Y17.421 Z8.833 I0.625 J3.321 K0.000 F500.000
G1 X33.558 Y16.607 Z8.833 F500.000
G1 X31.578 Y16.607 Z8.833 F500.000
G1 X33.373 Y18.402 Z8.833 F500.000
G2 X32.746 Y19.755 Z8.833 I2.989 J2.207 K0.000 F500.000
G1 X29.598 Y16.607 Z8.833 F500.000
G1 X27.618 Y16.607 Z8.833 F500.000
G1 X32.583 Y21.572 Z8.833 F500.000
G2 X36.506 Y25.494 Z8.833 I4.082 J-0.159 K0.000 F500.000
G1 X36.616 Y25.605 Z8.833 F500.000
G1 X34.636 Y25.605 Z8.833 F500.000
G1 X25.639 Y16.607 Z8.833 F500.000
G1 X23.659 Y16.607 Z8.833 F500.000
G1 X32.917 Y25.866 Z8.833 F500.000
G2 X32.757 Y26.305 Z8.833 I0.501 J0.433 K0.000 F500.000
G1 X32.757 Y27.682 Z8.833 F500.000
G1 X32.757 Y27.686 Z8.833 F500.000
G1 X21.679 Y16.607 Z8.833 F500.000
G0 Z27.241
G0 X32.916 Y25.860 Z27.241
G0 X32.916 Y25.860 Z25.241
G1 X32.916 Y25.860 Z8.833 F500.000
G3 X33.457 Y25.605 Z8.833 I0.540 J0.445 K0.000 F500.000
G1 X44.722 Y25.605 Z8.833 F500.000
G3 X45.422 Y26.305 Z8.833 I-0.000 J0.700 K0.000 F500.000
G1 X45.422 Y27.200 Z8.833 F500.000
G3 X45.081 Y27.801 Z8.833 I-0.700 J-0.000 K0.000 F500.000
G2 X44.353 Y28.277 Z8.833 I1.948 J3.773 K0.000 F500.000
G2 X42.538 Y30.762 Z8.833 I4.659 J5.309 K0.000 F500.000
G3 X41.914 Y31.145 Z8.833 I-0.624 J-0.317 K0.000 F500.000
G1 X40.575 Y31.145 Z8.833 F500.000
G3 X39.877 Y30.386 Z8.833 I-0.000 J-0.700 K0.000 F500.000
G3 X40.825 Y28.382 Z8.833 I8.544 J2.817 K0.000 F500.000
G1 X33.457 Y28.382 Z8.833 F500.000
G3 X32.757 Y27.682 Z8.833 I0.000 J-0.700 K0.000 F500.000
G1 X32.757 Y26.305 Z8.833 F500.000
G3 X32.916 Y25.860 Z8.833 I0.700 J0.000 K0.000 F500.000
G0 Z27.241
G0 X36.616 Y25.605 Z27.241
G0 X36.616 Y25.605 Z25.241
G1 X36.616 Y25.605 Z8.833 F500.000
G1 X36.506 Y25.494 Z8.833 F500.000
G2 X38.204 Y25.212 Z8.833 I0.247 J-3.767 K0.000 F500.000
G1 X38.596 Y25.605 Z8.833 F500.000
G1 X40.576 Y25.605 Z8.833 F500.000
G1 X39.393 Y24.422 Z8.833 F500.000
G2 X39.597 Y24.171 Z8.833 I-1.464 J-1.395 K0.000 F500.000
G2 X41.995 Y25.044 Z8.833 I2.108 J-2.062 K0.000 F500.000
G1 X42.556 Y25.605 Z8.833 F500.000
G1 X44.535 Y25.605 Z8.833 F500.000
G1 X43.549 Y24.618 Z8.833 F500.000
G2 X44.604 Y23.693 Z8.833 I-1.624 J-2.917 K0.000 F500.000
G1 X52.118 Y31.207 Z8.833 F500.000
G1 X54.098 Y31.207 Z8.833 F500.000
G1 X45.256 Y22.366 Z8.833 F500.000
G2 X45.376 Y20.505 Z8.833 I-4.188 J-1.202 K0.000 F500.000
G1 X56.078 Y31.207 Z8.833 F500.000
G1 X58.058 Y31.207 Z8.833 F500.000
G1 X43.458 Y16.607 Z8.833 F500.000
G1 X45.438 Y16.607 Z8.833 F500.000
G1 X60.038 Y31.207 Z8.833 F500.000
G1 X62.017 Y31.207 Z8.833 F500.000
G1 X47.417 Y16.607 Z8.833 F500.000
G1 X49.397 Y16.607 Z8.833 F500.000
G1 X63.257 Y30.466 Z8.833 F500.000
G1 X63.257 Y28.487 Z8.833 F500.000
G1 X51.377 Y16.607 Z8.833 F500.000
G1 X53.357 Y16.607 Z8.833 F500.000
G1 X63.257 Y26.507 Z8.833 F500.000
G1 X63.257 Y24.527 Z8.833 F500.000
G1 X55.337 Y16.607 Z8.833 F500.000
G1 X57.317 Y16.607 Z8.833 F500.000
G1 X63.257 Y22.547 Z8.833 F500.000
G1 X63.257 Y20.567 Z8.833 F500.000
G1 X59.297 Y16.607 Z8.833 F500.000
G1 X61.277 Y16.607 Z8.833 F500.000
G1 X63.257 Y18.587 Z8.833 F500.000
G1 X63.257 Y16.607 Z8.833 F500.000
G0 Z27.241
G0 X45.422 Y26.491 Z27.241
G0 X45.422 Y26.491 Z25.241
G1 X45.422 Y26.491 Z8.833 F500.000
G1 X50.138 Y31.207 Z8.833 F500.000
G1 X48.158 Y31.207 Z8.833 F500.000
G1 X44.875 Y27.924 Z8.833 F500.000
G2 X43.789 Y28.818 Z8.833 I2.061 J3.612 K0.000 F500.000
G1 X46.178 Y31.207 Z8.833 F500.000
G1 X44.198 Y31.207 Z8.833 F500.000
G1 X42.961 Y29.970 Z8.833 F500.000
G2 X42.538 Y30.762 Z8.833 I6.681 J4.079 K0.000 F500.000
G3 X42.122 Y31.111 Z8.833 I-0.606 J-0.301 K0.000 F500.000
G1 X42.218 Y31.207 Z8.833 F500.000
G0 Z27.241
G0 X40.314 Y29.303 Z27.241
G0 X40.314 Y29.303 Z25.241
G1 X40.314 Y29.303 Z8.833 F500.000
G3 X40.825 Y28.382 Z8.833 I7.128 J3.354 K0.000 F500.000
G1 X39.393 Y28.382 Z8.833 F500.000
G1 X40.314 Y29.303 Z8.833 F500.000
G1 X39.935 Y30.162 Z8.833 F500.000
G2 X40.575 Y31.145 Z8.833 I0.640 J0.283 K0.000 F500.000
G1 X41.914 Y31.145 Z8.833 F500.000
G2 X42.122 Y31.111 Z8.833 I0.043 J-0.386 K0.000 F500.000
G1 X42.218 Y31.207 Z8.833 F500.000
G1 X40.239 Y31.207 Z8.833 F500.000
G1 X37.414 Y28.382 Z8.833 F500.000
G1 X35.434 Y28.382 Z8.833 F500.000
G1 X38.259 Y31.207 Z8.833 F500.000
G1 X36.279 Y31.207 Z8.833 F500.000
G1 X33.453 Y28.382 Z8.833 F500.000
G3 X32.757 Y27.686 Z8.833 I0.002 J-0.698 K0.000 F500.000
G1 X21.679 Y16.607 Z8.833 F500.000
G1 X19.699 Y16.607 Z8.833 F500.000
G1 X34.299 Y31.207 Z8.833 F500.000
G1 X32.319 Y31.207 Z8.833 F500.000
G1 X17.719 Y16.607 Z8.833 F500.000
G1 X15.739 Y16.607 Z8.833 F500.000
G1 X30.339 Y31.207 Z8.833 F500.000
G1 X28.359 Y31.207 Z8.833 F500.000
G1 X13.759 Y16.607 Z8.833 F500.000
G1 X12.657 Y16.607 Z8.833 F500.000
G1 X12.657 Y17.485 Z8.833 F500.000
G1 X26.379 Y31.207 Z8.833 F500.000
G1 X24.399 Y31.207 Z8.833 F500.000
G1 X12.657 Y19.464 Z8.833 F500.000
G1 X12.657 Y21.444 Z8.833 F500.000
G1 X22.419 Y31.207 Z8.833 F500.000
G1 X20.440 Y31.207 Z8.833 F500.000
G1 X12.657 Y23.424 Z8.833 F500.000
G1 X12.657 Y25.404 Z8.833 F500.000
G1 X18.460 Y31.207 Z8.833 F500.000
G1 X16.480 Y31.207 Z8.833 F500.000
G1 X12.657 Y27.384 Z8.833 F500.000
G1 X12.657 Y29.364 Z8.833 F500.000
G1 X12.657 Y31.207 Z8.833 F500.000
G1 X14.500 Y31.207 Z8.833 F500.000
G1 X12.657 Y29.364 Z8.833 F500.000
G1 X12.657 Y29.364 Z8.367 F500.000
G1 X14.500 Y31.207 Z8.367 F500.000
G1 X12.657 Y31.207 Z8.367 F500.000
G1 X12.657 Y29.364 Z8.367 F500.000
G1 X12.657 Y27.384 Z8.367 F500.000
G1 X16.480 Y31.207 Z8.367 F500.000
G1 X18.460 Y31.207 Z8.367 F500.000
G1 X12.657 Y25.404 Z8.367 F500.000
G1 X12.657 Y23.424 Z8.367 F500.000
G1 X20.440 Y31.207 Z8.367 F500.000
G1 X22.419 Y31.207 Z8.367 F500.000
G1 X12.657 Y21.444 Z8.367 F500.000
G1 X12.657 Y19.464 Z8.367 F500.000
G1 X24.399 Y31.207 Z8.367 F500.000
G1 X26.379 Y31.207 Z8.367 F500.000
G1 X12.657 Y17.485 Z8.367 F500.000
G1 X12.657 Y16.607 Z8.367 F500.000
G1 X13.759 Y16.607 Z8.367 F500.000
G1 X28.359 Y31.207 Z8.367 F500.000
G1 X30.339 Y31.207 Z8.367 F500.000
G1 X15.739 Y16.607 Z8.367 F500.000
G1 X17.719 Y16.607 Z8.367 F500.000
G1 X32.319 Y31.207 Z8.367 F500.000
G1 X34.299 Y31.207 Z8.367 F500.000
G1 X19.699 Y16.607 Z8.367 F500.000
G1 X21.679 Y16.607 Z8.367 F500.000
G1 X32.757 Y27.686 Z8.367 F500.000
G2 X33.453 Y28.382 Z8.367 I0.698 J-0.002 K0.000 F500.000
G1 X36.279 Y31.207 Z8.367 F500.000
G1 X38.259 Y31.207 Z8.367 F500.000
G1 X35.434 Y28.382 Z8.367 F500.000
G1 X37.414 Y28.382 Z8.367 F500.000
G1 X40.239 Y31.207 Z8.367 F500.000
G1 X42.218 Y31.207 Z8.367 F500.000
G1 X42.122 Y31.111 Z8.367 F500.000
G3 X41.914 Y31.145 Z8.367 I-0.165 J-0.352 K0.000 F500.000
G1 X40.575 Y31.145 Z8.367 F500.000
G3 X39.935 Y30.162 Z8.367 I0.000 J-0.700 K0.000 F500.000
G1 X40.314 Y29.303 Z8.367 F500.000
G1 X39.393 Y28.382 Z8.367 F500.000
G1 X40.825 Y28.382 Z8.367 F500.000
G2 X40.314 Y29.303 Z8.367 I6.617 J4.275 K0.000 F500.000
G0 Z27.241
G0 X40.314 Y29.303 Z27.241
G0 X40.314 Y29.303 Z25.241
G1 X40.314 Y29.303 Z8.367 F500.000
G3 X40.825 Y28.382 Z8.367 I8.108 J3.899 K0.000 F500.000
G1 X33.457 Y28.382 Z8.367 F500.000
G3 X32.757 Y27.682 Z8.367 I0.000 J-0.700 K0.000 F500.000
G1 X32.757 Y26.305 Z8.367 F500.000
G3 X33.457 Y25.605 Z8.367 I0.700 J0.000 K0.000 F500.000
G1 X44.722 Y25.605 Z8.367 F500.000
G3 X45.422 Y26.305 Z8.367 I-0.000 J0.700 K0.000 F500.000
G1 X45.422 Y27.200 Z8.367 F500.000
G3 X45.081 Y27.801 Z8.367 I-0.700 J-0.000 K0.000 F500.000
G2 X44.353 Y28.277 Z8.367 I1.948 J3.773 K0.000 F500.000
G2 X42.538 Y30.762 Z8.367 I4.659 J5.309 K0.000 F500.000
G3 X41.914 Y31.145 Z8.367 I-0.624 J-0.317 K0.000 F500.000
G1 X40.575 Y31.145 Z8.367 F500.000
G3 X39.877 Y30.386 Z8.367 I-0.000 J-0.700 K0.000 F500.000
G3 X40.314 Y29.303 Z8.367 I8.544 J2.817 K0.000 F500.000
G0 Z27.241
G0 Y31.207 Z27.241
G0 Y31.207 Z25.241
G1 X40.314 Y31.207 Z8.367 F500.000
G1 X63.257 Y31.207 Z8.367 F500.000
G1 X63.257 Y16.607 Z8.367 F500.000
G1 X12.657 Y16.607 Z8.367 F500.000
G1 X12.657 Y31.207 Z8.367 F500.000
G1 X40.314 Y31.207 Z8.367 F500.000
G0 Z27.241
G0 X42.218 Z27.241
G0 X42.218 Z25.241
G1 X42.218 Y31.207 Z8.367 F500.000
G1 X42.122 Y31.111 Z8.367 F500.000
G2 X42.538 Y30.762 Z8.367 I-0.190 J-0.649 K0.000 F500.000
G3 X42.961 Y29.970 Z8.367 I7.104 J3.287 K0.000 F500.000
G1 X44.198 Y31.207 Z8.367 F500.000
G1 X46.178 Y31.207 Z8.367 F500.000
G1 X43.789 Y28.818 Z8.367 F500.000
G3 X44.875 Y27.924 Z8.367 I3.147 J2.718 K0.000 F500.000
G1 X48.158 Y31.207 Z8.367 F500.000
G1 X50.138 Y31.207 Z8.367 F500.000
G1 X45.422 Y26.491 Z8.367 F500.000
G0 Z27.241
G0 X43.905 Y24.383 Z27.241
G0 X43.905 Y24.383 Z25.241
G1 X43.905 Y24.383 Z8.367 F500.000
G3 X41.866 Y25.053 Z8.367 I-2.076 J-2.885 K0.000 F500.000
G3 X39.597 Y24.171 Z8.367 I-0.166 J-2.937 K0.000 F500.000
G3 X39.011 Y24.757 Z8.367 I-1.971 J-1.386 K0.000 F500.000
G3 X33.364 Y23.812 Z8.367 I-2.349 J-3.311 K0.000 F500.000
G3 X32.640 Y20.169 Z8.367 I3.998 J-2.688 K0.000 F500.000
G3 X36.649 Y16.720 Z8.367 I4.018 J0.617 K0.000 F500.000
G1 X36.672 Y16.721 Z8.367 F500.000
G3 X39.582 Y18.100 Z8.367 I0.178 J3.384 K0.000 F500.000
G3 X40.084 Y17.660 Z8.367 I1.853 J1.608 K0.000 F500.000
G3 X44.745 Y18.762 Z8.367 I1.755 J2.986 K0.000 F500.000
G3 X45.337 Y22.071 Z8.367 I-3.737 J2.376 K0.000 F500.000
G3 X43.905 Y24.383 Z8.367 I-3.508 J-0.572 K0.000 F500.000
G0 Z27.241
G0 X36.616 Y25.605 Z27.241
G0 X36.616 Y25.605 Z25.241
G1 X36.616 Y25.605 Z8.367 F500.000
G1 X36.506 Y25.494 Z8.367 F500.000
G2 X38.204 Y25.212 Z8.367 I0.247 J-3.767 K0.000 F500.000
G1 X38.596 Y25.605 Z8.367 F500.000
G1 X40.576 Y25.605 Z8.367 F500.000
G1 X39.393 Y24.422 Z8.367 F500.000
G2 X39.597 Y24.171 Z8.367 I-1.464 J-1.395 K0.000 F500.000
G2 X41.995 Y25.044 Z8.367 I2.108 J-2.062 K0.000 F500.000
G1 X42.556 Y25.605 Z8.367 F500.000
G1 X44.535 Y25.605 Z8.367 F500.000
G1 X43.549 Y24.618 Z8.367 F500.000
G2 X44.604 Y23.693 Z8.367 I-1.624 J-2.917 K0.000 F500.000
G1 X52.118 Y31.207 Z8.367 F500.000
G1 X54.098 Y31.207 Z8.367 F500.000
G1 X45.256 Y22.366 Z8.367 F500.000
G2 X45.376 Y20.505 Z8.367 I-4.188 J-1.202 K0.000 F500.000
G1 X56.078 Y31.207 Z8.367 F500.000
G1 X58.058 Y31.207 Z8.367 F500.000
G1 X43.458 Y16.607 Z8.367 F500.000
G1 X45.438 Y16.607 Z8.367 F500.000
G1 X60.038 Y31.207 Z8.367 F500.000
G1 X62.017 Y31.207 Z8.367 F500.000
G1 X47.417 Y16.607 Z8.367 F500.000
G1 X49.397 Y16.607 Z8.367 F500.000
G1 X63.257 Y30.466 Z8.367 F500.000
G1 X63.257 Y28.487 Z8.367 F500.000
G1 X51.377 Y16.607 Z8.367 F500.000
G1 X53.357 Y16.607 Z8.367 F500.000
G1 X63.257 Y26.507 Z8.367 F500.000
G1 X63.257 Y24.527 Z8.367 F500.000
G1 X55.337 Y16.607 Z8.367 F500.000
G1 X57.317 Y16.607 Z8.367 F500.000
G1 X63.257 Y22.547 Z8.367 F500.000
G1 X63.257 Y20.567 Z8.367 F500.000
G1 X59.297 Y16.607 Z8.367 F500.000
G1 X61.277 Y16.607 Z8.367 F500.000
G1 X63.257 Y18.587 Z8.367 F500.000
G1 X63.257 Y16.607 Z8.367 F500.000
G0 Z27.241
G0 X42.065 Y17.194 Z27.241
G0 X42.065 Y17.194 Z25.241
G1 X42.065 Y17.194 Z8.367 F500.000
G1 X41.478 Y16.607 Z8.367 F500.000
G1 X39.498 Y16.607 Z8.367 F500.000
G1 X40.385 Y17.495 Z8.367 F500.000
G2 X39.582 Y18.100 Z8.367 I1.013 J2.180 K0.000 F500.000
G2 X37.778 Y16.867 Z8.367 I-2.561 J1.811 K0.000 F500.000
G1 X37.518 Y16.607 Z8.367 F500.000
G1 X35.538 Y16.607 Z8.367 F500.000
G1 X35.751 Y16.820 Z8.367 F500.000
G2 X34.372 Y17.421 Z8.367 I0.625 J3.321 K0.000 F500.000
G1 X33.558 Y16.607 Z8.367 F500.000
G1 X31.578 Y16.607 Z8.367 F500.000
G1 X33.373 Y18.402 Z8.367 F500.000
G2 X32.746 Y19.755 Z8.367 I2.989 J2.207 K0.000 F500.000
G1 X29.598 Y16.607 Z8.367 F500.000
G1 X27.618 Y16.607 Z8.367 F500.000
G1 X32.583 Y21.572 Z8.367 F500.000
G2 X36.506 Y25.494 Z8.367 I4.082 J-0.159 K0.000 F500.000
G1 X36.616 Y25.605 Z8.367 F500.000
G1 X34.636 Y25.605 Z8.367 F500.000
G1 X25.639 Y16.607 Z8.367 F500.000
G1 X23.659 Y16.607 Z8.367 F500.000
G1 X32.917 Y25.866 Z8.367 F500.000
G2 X32.757 Y26.305 Z8.367 I0.501 J0.433 K0.000 F500.000
G1 X32.757 Y27.682 Z8.367 F500.000
G1 X32.757 Y27.686 Z8.367 F500.000
G1 X21.679 Y16.607 Z8.367 F500.000
G1 X21.679 Y16.607 Z7.900 F500.000
G1 X32.757 Y27.686 Z7.900 F500.000
G1 X32.757 Y27.682 Z7.900 F500.000
G1 X32.757 Y26.305 Z7.900 F500.000
G3 X32.917 Y25.866 Z7.900 I0.662 J-0.006 K0.000 F500.000
G1 X23.659 Y16.607 Z7.900 F500.000
G1 X25.639 Y16.607 Z7.900 F500.000
G1 X34.636 Y25.605 Z7.900 F500.000
G1 X36.616 Y25.605 Z7.900 F500.000
G1 X36.506 Y25.494 Z7.900 F500.000
G3 X32.583 Y21.572 Z7.900 I0.159 J-4.082 K0.000 F500.000
G1 X27.618 Y16.607 Z7.900 F500.000
G1 X29.598 Y16.607 Z7.900 F500.000
G1 X32.746 Y19.755 Z7.900 F500.000
G3 X33.373 Y18.402 Z7.900 I3.616 J0.854 K0.000 F500.000
G1 X31.578 Y16.607 Z7.900 F500.000
G1 X33.558 Y16.607 Z7.900 F500.000
G1 X34.372 Y17.421 Z7.900 F500.000
G3 X35.751 Y16.820 Z7.900 I2.005 J2.721 K0.000 F500.000
G1 X35.538 Y16.607 Z7.900 F500.000
G1 X37.518 Y16.607 Z7.900 F500.000
G1 X37.778 Y16.867 Z7.900 F500.000
G3 X39.582 Y18.100 Z7.900 I-0.757 J3.044 K0.000 F500.000
G3 X40.385 Y17.495 Z7.900 I1.816 J1.574 K0.000 F500.000
G1 X39.498 Y16.607 Z7.900 F500.000
G1 X41.478 Y16.607 Z7.900 F500.000
G1 X42.065 Y17.194 Z7.900 F500.000
G0 Z27.241
G0 X42.065 Y17.190 Z27.241
G0 X42.065 Y17.190 Z25.241
G1 X42.065 Y17.190 Z7.900 F500.000
G3 X44.745 Y18.762 Z7.900 I-0.226 J3.456 K0.000 F500.000
G3 X45.337 Y22.071 Z7.900 I-3.737 J2.376 K0.000 F500.000
G3 X41.866 Y25.053 Z7.900 I-3.508 J-0.572 K0.000 F500.000
G3 X39.597 Y24.171 Z7.900 I-0.166 J-2.937 K0.000 F500.000
G3 X39.011 Y24.757 Z7.900 I-1.971 J-1.386 K0.000 F500.000
G3 X33.364 Y23.812 Z7.900 I-2.349 J-3.311 K0.000 F500.000
G3 X32.640 Y20.169 Z7.900 I3.998 J-2.688 K0.000 F500.000
G3 X36.649 Y16.720 Z7.900 I4.018 J0.617 K0.000 F500.000
G1 X36.672 Y16.721 Z7.900 F500.000
G3 X39.582 Y18.100 Z7.900 I0.178 J3.384 K0.000 F500.000
G3 X40.084 Y17.660 Z7.900 I1.853 J1.608 K0.000 F500.000
G3 X42.065 Y17.190 Z7.900 I1.755 J2.986 K0.000 F500.000
G0 Z27.241
G0 Y16.607 Z27.241
G0 Y16.607 Z25.241
G1 X42.065 Y16.607 Z7.900 F500.000
G1 X12.657 Y16.607 Z7.900 F500.000
G1 X12.657 Y31.207 Z7.900 F500.000
G1 X63.257 Y31.207 Z7.900 F500.000
G1 X63.257 Y16.607 Z7.900 F500.000
G1 X42.065 Y16.607 Z7.900 F500.000
G0 Z27.241
G0 Y25.605 Z27.241
G0 Y25.605 Z25.241
G1 X42.065 Y25.605 Z7.900 F500.000
G1 X44.722 Y25.605 Z7.900 F500.000
G3 X45.422 Y26.305 Z7.900 I-0.000 J0.700 K0.000 F500.000
G1 X45.422 Y27.200 Z7.900 F500.000
G3 X45.081 Y27.801 Z7.900 I-0.700 J-0.000 K0.000 F500.000
G2 X44.353 Y28.277 Z7.900 I1.948 J3.773 K0.000 F500.000
G2 X42.538 Y30.762 Z7.900 I4.659 J5.309 K0.000 F500.000
G3 X41.914 Y31.145 Z7.900 I-0.624 J-0.317 K0.000 F500.000
G1 X40.575 Y31.145 Z7.900 F500.000
G3 X39.877 Y30.386 Z7.900 I-0.000 J-0.700 K0.000 F500.000
G3 X40.825 Y28.382 Z7.900 I8.544 J2.817 K0.000 F500.000
G1 X33.457 Y28.382 Z7.900 F500.000
G3 X32.757 Y27.682 Z7.900 I0.000 J-0.700 K0.000 F500.000
G1 X32.757 Y26.305 Z7.900 F500.000
G3 X33.457 Y25.605 Z7.900 I0.700 J0.000 K0.000 F500.000
G1 X42.065 Y25.605 Z7.900 F500.000
G0 Z27.241
G0 X45.422 Y26.491 Z27.241
G0 X45.422 Y26.491 Z25.241
G1 X45.422 Y26.491 Z7.900 F500.000
G1 X50.138 Y31.207 Z7.900 F500.000
G1 X48.158 Y31.207 Z7.900 F500.000
G1 X44.875 Y27.924 Z7.900 F500.000
G2 X43.789 Y28.818 Z7.900 I2.061 J3.612 K0.000 F500.000
G1 X46.178 Y31.207 Z7.900 F500.000
G1 X44.198 Y31.207 Z7.900 F500.000
G1 X42.961 Y29.970 Z7.900 F500.000
G2 X42.538 Y30.762 Z7.900 I6.681 J4.079 K0.000 F500.000
G3 X42.122 Y31.111 Z7.900 I-0.606 J-0.301 K0.000 F500.000
G1 X42.218 Y31.207 Z7.900 F500.000
G0 Z27.241
G0 X40.314 Y29.303 Z27.241
G0 X40.314 Y29.303 Z25.241
G1 X40.314 Y29.303 Z7.900 F500.000
G3 X40.825 Y28.382 Z7.900 I7.128 J3.354 K0.000 F500.000
G1 X39.393 Y28.382 Z7.900 F500.000
G1 X40.314 Y29.303 Z7.900 F500.000
G1 X39.935 Y30.162 Z7.900 F500.000
G2 X40.575 Y31.145 Z7.900 I0.640 J0.283 K0.000 F500.000
G1 X41.914 Y31.145 Z7.900 F500.000
G2 X42.122 Y31.111 Z7.900 I0.043 J-0.386 K0.000 F500.000
G1 X42.218 Y31.207 Z7.900 F500.000
G1 X40.239 Y31.207 Z7.900 F500.000
G1 X37.414 Y28.382 Z7.900 F500.000
G1 X35.434 Y28.382 Z7.900 F500.000
G1 X38.259 Y31.207 Z7.900 F500.000
G1 X36.279 Y31.207 Z7.900 F500.000
G1 X33.453 Y28.382 Z7.900 F500.000
G3 X32.757 Y27.686 Z7.900 I0.002 J-0.698 K0.000 F500.000
G1 X21.679 Y16.607 Z7.900 F500.000
G1 X19.699 Y16.607 Z7.900 F500.000
G1 X34.299 Y31.207 Z7.900 F500.000
G1 X32.319 Y31.207 Z7.900 F500.000
G1 X17.719 Y16.607 Z7.900 F500.000
G1 X15.739 Y16.607 Z7.900 F500.000
G1 X30.339 Y31.207 Z7.900 F500.000
G1 X28.359 Y31.207 Z7.900 F500.000
G1 X13.759 Y16.607 Z7.900 F500.000
G1 X12.657 Y16.607 Z7.900 F500.000
G1 X12.657 Y17.485 Z7.900 F500.000
G1 X26.379 Y31.207 Z7.900 F500.000
G1 X24.399 Y31.207 Z7.900 F500.000
G1 X12.657 Y19.464 Z7.900 F500.000
G1 X12.657 Y21.444 Z7.900 F500.000
G1 X22.419 Y31.207 Z7.900 F500.000
G1 X20.440 Y31.207 Z7.900 F500.000
G1 X12.657 Y23.424 Z7.900 F500.000
G1 X12.657 Y25.404 Z7.900 F500.000
G1 X18.460 Y31.207 Z7.900 F500.000
G1 X16.480 Y31.207 Z7.900 F500.000
G1 X12.657 Y27.384 Z7.900 F500.000
G1 X12.657 Y29.364 Z7.900 F500.000
G1 X12.657 Y31.207 Z7.900 F500.000
G1 X14.500 Y31.207 Z7.900 F500.000
G1 X12.657 Y29.364 Z7.900 F500.000
G0 Z27.241
G0 X36.616 Y25.605 Z27.241
G0 X36.616 Y25.605 Z25.241
G1 X36.616 Y25.605 Z7.900 F500.000
G1 X36.506 Y25.494 Z7.900 F500.000
G2 X38.204 Y25.212 Z7.900 I0.247 J-3.767 K0.000 F500.000
G1 X38.596 Y25.605 Z7.900 F500.000
G1 X40.576 Y25.605 Z7.900 F500.000
G1 X39.393 Y24.422 Z7.900 F500.000
G2 X39.597 Y24.171 Z7.900 I-1.464 J-1.395 K0.000 F500.000
G2 X41.995 Y25.044 Z7.900 I2.108 J-2.062 K0.000 F500.000
G1 X42.556 Y25.605 Z7.900 F500.000
G1 X44.535 Y25.605 Z7.900 F500.000
G1 X43.549 Y24.618 Z7.900 F500.000
G2 X44.604 Y23.693 Z7.900 I-1.624 J-2.917 K0.000 F500.000
G1 X52.118 Y31.207 Z7.900 F500.000
G1 X54.098 Y31.207 Z7.900 F500.000
G1 X45.256 Y22.366 Z7.900 F500.000
G2 X45.376 Y20.505 Z7.900 I-4.188 J-1.202 K0.000 F500.000
G1 X56.078 Y31.207 Z7.900 F500.000
G1 X58.058 Y31.207 Z7.900 F500.000
G1 X43.458 Y16.607 Z7.900 F500.000
G1 X45.438 Y16.607 Z7.900 F500.000
G1 X60.038 Y31.207 Z7.900 F500.000
G1 X62.017 Y31.207 Z7.900 F500.000
G1 X47.417 Y16.607 Z7.900 F500.000
G1 X49.397 Y16.607 Z7.900 F500.000
G1 X63.257 Y30.466 Z7.900 F500.000
G1 X63.257 Y28.487 Z7.900 F500.000
G1 X51.377 Y16.607 Z7.900 F500.000
G1 X53.357 Y16.607 Z7.900 F500.000
G1 X63.257 Y26.507 Z7.900 F500.000
G1 X63.257 Y24.527 Z7.900 F500.000
G1 X55.337 Y16.607 Z7.900 F500.000
G1 X57.317 Y16.607 Z7.900 F500.000
G1 X63.257 Y22.547 Z7.900 F500.000
G1 X63.257 Y20.567 Z7.900 F500.000
G1 X59.297 Y16.607 Z7.900 F500.000
G1 X61.277 Y16.607 Z7.900 F500.000
G1 X63.257 Y18.587 Z7.900 F500.000
G1 X63.257 Y16.607 Z7.900 F500.000
G1 X63.257 Y16.607 Z7.433 F500.000
G1 X63.257 Y18.587 Z7.433 F500.000
G1 X61.277 Y16.607 Z7.433 F500.000
G1 X59.297 Y16.607 Z7.433 F500.000
G1 X63.257 Y20.567 Z7.433 F500.000
G1 X63.257 Y22.547 Z7.433 F500.000
G1 X57.317 Y16.607 Z7.433 F500.000
G1 X55.337 Y16.607 Z7.433 F500.000
G1 X63.257 Y24.527 Z7.433 F500.000
G1 X63.257 Y26.507 Z7.433 F500.000
G1 X53.357 Y16.607 Z7.433 F500.000
G1 X51.377 Y16.607 Z7.433 F500.000
G1 X63.257 Y28.487 Z7.433 F500.000
G1 X63.257 Y30.466 Z7.433 F500.000
G1 X49.397 Y16.607 Z7.433 F500.000
G1 X47.417 Y16.607 Z7.433 F500.000
G1 X62.017 Y31.207 Z7.433 F500.000
G1 X60.038 Y31.207 Z7.433 F500.000
G1 X45.438 Y16.607 Z7.433 F500.000
G1 X43.458 Y16.607 Z7.433 F500.000
G1 X58.058 Y31.207 Z7.433 F500.000
G1 X56.078 Y31.207 Z7.433 F500.000
G1 X45.376 Y20.505 Z7.433 F500.000
G3 X45.256 Y22.366 Z7.433 I-4.307 J0.658 K0.000 F500.000
G1 X54.098 Y31.207 Z7.433 F500.000
G1 X52.118 Y31.207 Z7.433 F500.000
G1 X44.604 Y23.693 Z7.433 F500.000
G3 X43.549 Y24.618 Z7.433 I-2.679 J-1.993 K0.000 F500.000
G1 X44.535 Y25.605 Z7.433 F500.000
G1 X42.556 Y25.605 Z7.433 F500.000
G1 X41.995 Y25.044 Z7.433 F500.000
G3 X39.597 Y24.171 Z7.433 I-0.290 J-2.935 K0.000 F500.000
G3 X39.393 Y24.422 Z7.433 I-1.668 J-1.144 K0.000 F500.000
G1 X40.576 Y25.605 Z7.433 F500.000
G1 X38.596 Y25.605 Z7.433 F500.000
G1 X38.204 Y25.212 Z7.433 F500.000
G3 X36.506 Y25.494 Z7.433 I-1.451 J-3.486 K0.000 F500.000
G1 X36.616 Y25.605 Z7.433 F500.000
G1 X36.616 Y25.605 Z7.433 F500.000
G1 X44.722 Y25.605 Z7.433 F500.000
G3 X45.422 Y26.305 Z7.433 I-0.000 J0.700 K0.000 F500.000
G1 X45.422 Y27.200 Z7.433 F500.000
G3 X45.081 Y27.801 Z7.433 I-0.700 J-0.000 K0.000 F500.000
G2 X44.353 Y28.277 Z7.433 I1.948 J3.773 K0.000 F500.000
G2 X42.538 Y30.762 Z7.433 I4.659 J5.309 K0.000 F500.000
G3 X41.914 Y31.145 Z7.433 I-0.624 J-0.317 K0.000 F500.000
G1 X40.575 Y31.145 Z7.433 F500.000
G3 X39.877 Y30.386 Z7.433 I-0.000 J-0.700 K0.000 F500.000
G3 X40.825 Y28.382 Z7.433 I8.544 J2.817 K0.000 F500.000
G1 X33.457 Y28.382 Z7.433 F500.000
G3 X32.757 Y27.682 Z7.433 I0.000 J-0.700 K0.000 F500.000
G1 X32.757 Y26.305 Z7.433 F500.000
G3 X33.457 Y25.605 Z7.433 I0.700 J0.000 K0.000 F500.000
G1 X36.616 Y25.605 Z7.433 F500.000
G0 Z27.241
G0 X36.617 Y25.505 Z27.241
G0 X36.617 Y25.505 Z25.241
G1 X36.617 Y25.505 Z7.433 F500.000
G3 X33.364 Y23.812 Z7.433 I0.045 J-4.059 K0.000 F500.000
G3 X32.640 Y20.169 Z7.433 I3.998 J-2.688 K0.000 F500.000
G3 X36.649 Y16.720 Z7.433 I4.018 J0.617 K0.000 F500.000
G1 X36.672 Y16.721 Z7.433 F500.000
G3 X39.582 Y18.100 Z7.433 I0.178 J3.384 K0.000 F500.000
G3 X40.084 Y17.660 Z7.433 I1.853 J1.608 K0.000 F500.000
G3 X44.745 Y18.762 Z7.433 I1.755 J2.986 K0.000 F500.000
G3 X45.337 Y22.071 Z7.433 I-3.737 J2.376 K0.000 F500.000
G3 X41.866 Y25.053 Z7.433 I-3.508 J-0.572 K0.000 F500.000
G3 X39.597 Y24.171 Z7.433 I-0.166 J-2.937 K0.000 F500.000
G3 X39.011 Y24.757 Z7.433 I-1.971 J-1.386 K0.000 F500.000
G3 X36.617 Y25.505 Z7.433 I-2.349 J-3.311 K0.000 F500.000
G0 Z27.241
G0 X40.314 Y29.303 Z27.241
G0 X40.314 Y29.303 Z25.241
G1 X40.314 Y29.303 Z7.433 F500.000
G3 X40.825 Y28.382 Z7.433 I7.128 J3.354 K0.000 F500.000
G1 X39.393 Y28.382 Z7.433 F500.000
G1 X40.314 Y29.303 Z7.433 F500.000
G1 X39.935 Y30.162 Z7.433 F500.000
G2 X40.575 Y31.145 Z7.433 I0.640 J0.283 K0.000 F500.000
G1 X41.914 Y31.145 Z7.433 F500.000
G2 X42.122 Y31.111 Z7.433 I0.043 J-0.386 K0.000 F500.000
G1 X42.218 Y31.207 Z7.433 F500.000
G1 X40.239 Y31.207 Z7.433 F500.000
G1 X37.414 Y28.382 Z7.433 F500.000
G1 X35.434 Y28.382 Z7.433 F500.000
G1 X38.259 Y31.207 Z7.433 F500.000
G1 X36.279 Y31.207 Z7.433 F500.000
G1 X33.453 Y28.382 Z7.433 F500.000
G3 X32.757 Y27.686 Z7.433 I0.002 J-0.698 K0.000 F500.000
G1 X21.679 Y16.607 Z7.433 F500.000
G1 X19.699 Y16.607 Z7.433 F500.000
G1 X34.299 Y31.207 Z7.433 F500.000
G1 X32.319 Y31.207 Z7.433 F500.000
G1 X17.719 Y16.607 Z7.433 F500.000
G1 X15.739 Y16.607 Z7.433 F500.000
G1 X30.339 Y31.207 Z7.433 F500.000
G1 X28.359 Y31.207 Z7.433 F500.000
G1 X13.759 Y16.607 Z7.433 F500.000
G1 X12.657 Y16.607 Z7.433 F500.000
G1 X12.657 Y17.485 Z7.433 F500.000
G1 X26.379 Y31.207 Z7.433 F500.000
G1 X24.399 Y31.207 Z7.433 F500.000
G1 X12.657 Y19.464 Z7.433 F500.000
G1 X12.657 Y21.444 Z7.433 F500.000
G1 X22.419 Y31.207 Z7.433 F500.000
G1 X20.440 Y31.207 Z7.433 F500.000
G1 X12.657 Y23.424 Z7.433 F500.000
G1 X12.657 Y25.404 Z7.433 F500.000
G1 X18.460 Y31.207 Z7.433 F500.000
G1 X16.480 Y31.207 Z7.433 F500.000
G1 X12.657 Y27.384 Z7.433 F500.000
G1 X12.657 Y29.364 Z7.433 F500.000
G1 X12.657 Y31.207 Z7.433 F500.000
G1 X14.500 Y31.207 Z7.433 F500.000
G1 X12.657 Y29.364 Z7.433 F500.000
G1 X12.657 Y29.364 Z7.433 F500.000
G1 X12.657 Y31.207 Z7.433 F500.000
G1 X63.257 Y31.207 Z7.433 F500.000
G1 X63.257 Y16.607 Z7.433 F500.000
G1 X12.657 Y16.607 Z7.433 F500.000
G1 X12.657 Y29.364 Z7.433 F500.000
G0 Z27.241
G0 X21.679 Y16.607 Z27.241
G0 X21.679 Y16.607 Z25.241
G1 X21.679 Y16.607 Z7.433 F500.000
G1 X32.757 Y27.686 Z7.433 F500.000
G1 X32.757 Y27.682 Z7.433 F500.000
G1 X32.757 Y26.305 Z7.433 F500.000
G3 X32.917 Y25.866 Z7.433 I0.662 J-0.006 K0.000 F500.000
G1 X23.659 Y16.607 Z7.433 F500.000
G1 X25.639 Y16.607 Z7.433 F500.000
G1 X34.636 Y25.605 Z7.433 F500.000
G1 X36.616 Y25.605 Z7.433 F500.000
G1 X36.506 Y25.494 Z7.433 F500.000
G3 X32.583 Y21.572 Z7.433 I0.159 J-4.082 K0.000 F500.000
G1 X27.618 Y16.607 Z7.433 F500.000
G1 X29.598 Y16.607 Z7.433 F500.000
G1 X32.746 Y19.755 Z7.433 F500.000
G3 X33.373 Y18.402 Z7.433 I3.616 J0.854 K0.000 F500.000
G1 X31.578 Y16.607 Z7.433 F500.000
G1 X33.558 Y16.607 Z7.433 F500.000
G1 X34.372 Y17.421 Z7.433 F500.000
G3 X35.751 Y16.820 Z7.433 I2.005 J2.721 K0.000 F500.000
G1 X35.538 Y16.607 Z7.433 F500.000
G1 X37.518 Y16.607 Z7.433 F500.000
G1 X37.778 Y16.867 Z7.433 F500.000
G3 X39.582 Y18.100 Z7.433 I-0.757 J3.044 K0.000 F500.000
G3 X40.385 Y17.495 Z7.433 I1.816 J1.574 K0.000 F500.000
G1 X39.498 Y16.607 Z7.433 F500.000
G1 X41.478 Y16.607 Z7.433 F500.000
G1 X42.065 Y17.194 Z7.433 F500.000
G0 Z27.241
G0 X45.422 Y26.491 Z27.241
G0 X45.422 Y26.491 Z25.241
G1 X45.422 Y26.491 Z7.433 F500.000
G1 X50.138 Y31.207 Z7.433 F500.000
G1 X48.158 Y31.207 Z7.433 F500.000
G1 X44.875 Y27.924 Z7.433 F500.000
G2 X43.789 Y28.818 Z7.433 I2.061 J3.612 K0.000 F500.000
G1 X46.178 Y31.207 Z7.433 F500.000
G1 X44.198 Y31.207 Z7.433 F500.000
G1 X42.961 Y29.970 Z7.433 F500.000
G2 X42.538 Y30.762 Z7.433 I6.681 J4.079 K0.000 F500.000
G3 X42.122 Y31.111 Z7.433 I-0.606 J-0.301 K0.000 F500.000
G1 X42.218 Y31.207 Z7.433 F500.000
G1 X42.218 Y31.207 Z7.300 F500.000
G1 X42.122 Y31.111 Z7.300 F500.000
G2 X42.538 Y30.762 Z7.300 I-0.190 J-0.649 K0.000 F500.000
G3 X42.961 Y29.970 Z7.300 I7.104 J3.287 K0.000 F500.000
G1 X44.198 Y31.207 Z7.300 F500.000
G1 X46.178 Y31.207 Z7.300 F500.000
G1 X43.789 Y28.818 Z7.300 F500.000
G3 X44.875 Y27.924 Z7.300 I3.147 J2.718 K0.000 F500.000
G1 X48.158 Y31.207 Z7.300 F500.000
G1 X50.138 Y31.207 Z7.300 F500.000
G1 X45.422 Y26.491 Z7.300 F500.000
G1 X45.422 Y26.491 Z7.300 F500.000
G1 X45.422 Y27.200 Z7.300 F500.000
G3 X45.081 Y27.801 Z7.300 I-0.700 J-0.000 K0.000 F500.000
G2 X44.353 Y28.277 Z7.300 I1.948 J3.773 K0.000 F500.000
G2 X42.538 Y30.762 Z7.300 I4.659 J5.309 K0.000 F500.000
G3 X41.914 Y31.145 Z7.300 I-0.624 J-0.317 K0.000 F500.000
G1 X40.575 Y31.145 Z7.300 F500.000
G3 X39.877 Y30.386 Z7.300 I-0.000 J-0.700 K0.000 F500.000
G3 X40.825 Y28.382 Z7.300 I8.544 J2.817 K0.000 F500.000
G1 X33.457 Y28.382 Z7.300 F500.000
G3 X32.757 Y27.682 Z7.300 I0.000 J-0.700 K0.000 F500.000
G1 X32.757 Y26.305 Z7.300 F500.000
G3 X33.457 Y25.605 Z7.300 I0.700 J0.000 K0.000 F500.000
G1 X44.722 Y25.605 Z7.300 F500.000
G3 X45.422 Y26.305 Z7.300 I-0.000 J0.700 K0.000 F500.000
G1 X45.422 Y26.491 Z7.300 F500.000
G0 Z27.241
G0 X43.905 Y24.383 Z27.241
G0 X43.905 Y24.383 Z25.241
G1 X43.905 Y24.383 Z7.300 F500.000
G3 X41.866 Y25.053 Z7.300 I-2.076 J-2.885 K0.000 F500.000
G3 X39.597 Y24.171 Z7.300 I-0.166 J-2.937 K0.000 F500.000
G3 X39.011 Y24.757 Z7.300 I-1.971 J-1.386 K0.000 F500.000
G3 X33.364 Y23.812 Z7.300 I-2.349 J-3.311 K0.000 F500.000
G3 X32.640 Y20.169 Z7.300 I3.998 J-2.688 K0.000 F500.000
G3 X36.649 Y16.720 Z7.300 I4.018 J0.617 K0.000 F500.000
G1 X36.672 Y16.721 Z7.300 F500.000
G3 X39.582 Y18.100 Z7.300 I0.178 J3.384 K0.000 F500.000
G3 X40.084 Y17.660 Z7.300 I1.853 J1.608 K0.000 F500.000
G3 X44.745 Y18.762 Z7.300 I1.755 J2.986 K0.000 F500.000
G3 X45.337 Y22.071 Z7.300 I-3.737 J2.376 K0.000 F500.000
G3 X43.905 Y24.383 Z7.300 I-3.508 J-0.572 K0.000 F500.000
G0 Z27.241
G0 X40.314 Y29.303 Z27.241
G0 X40.314 Y29.303 Z25.241
G1 X40.314 Y29.303 Z7.300 F500.000
G3 X40.825 Y28.382 Z7.300 I7.128 J3.354 K0.000 F500.000
G1 X39.393 Y28.382 Z7.300 F500.000
G1 X40.314 Y29.303 Z7.300 F500.000
G1 X39.935 Y30.162 Z7.300 F500.000
G2 X40.575 Y31.145 Z7.300 I0.640 J0.283 K0.000 F500.000
G1 X41.914 Y31.145 Z7.300 F500.000
G2 X42.122 Y31.111 Z7.300 I0.043 J-0.386 K0.000 F500.000
G1 X42.218 Y31.207 Z7.300 F500.000
G1 X40.239 Y31.207 Z7.300 F500.000
G1 X37.414 Y28.382 Z7.300 F500.000
G1 X35.434 Y28.382 Z7.300 F500.000
G1 X38.259 Y31.207 Z7.300 F500.000
G1 X36.279 Y31.207 Z7.300 F500.000
G1 X33.453 Y28.382 Z7.300 F500.000
G3 X32.757 Y27.686 Z7.300 I0.002 J-0.698 K0.000 F500.000
G1 X21.679 Y16.607 Z7.300 F500.000
G1 X19.699 Y16.607 Z7.300 F500.000
G1 X34.299 Y31.207 Z7.300 F500.000
G1 X32.319 Y31.207 Z7.300 F500.000
G1 X17.719 Y16.607 Z7.300 F500.000
G1 X15.739 Y16.607 Z7.300 F500.000
G1 X30.339 Y31.207 Z7.300 F500.000
G1 X28.359 Y31.207 Z7.300 F500.000
G1 X13.759 Y16.607 Z7.300 F500.000
G1 X12.657 Y16.607 Z7.300 F500.000
G1 X12.657 Y17.485 Z7.300 F500.000
G1 X26.379 Y31.207 Z7.300 F500.000
G1 X24.399 Y31.207 Z7.300 F500.000
G1 X12.657 Y19.464 Z7.300 F500.000
G1 X12.657 Y21.444 Z7.300 F500.000
G1 X22.419 Y31.207 Z7.300 F500.000
G1 X20.440 Y31.207 Z7.300 F500.000
G1 X12.657 Y23.424 Z7.300 F500.000
G1 X12.657 Y25.404 Z7.300 F500.000
G1 X18.460 Y31.207 Z7.300 F500.000
G1 X16.480 Y31.207 Z7.300 F500.000
G1 X12.657 Y27.384 Z7.300 F500.000
G1 X12.657 Y29.364 Z7.300 F500.000
G1 X12.657 Y31.207 Z7.300 F500.000
G1 X14.500 Y31.207 Z7.300 F500.000
G1 X12.657 Y29.364 Z7.300 F500.000
G1 X12.657 Y29.364 Z7.300 F500.000
G1 X12.657 Y31.207 Z7.300 F500.000
G1 X63.257 Y31.207 Z7.300 F500.000
G1 X63.257 Y16.607 Z7.300 F500.000
G1 X12.657 Y16.607 Z7.300 F500.000
G1 X12.657 Y29.364 Z7.300 F500.000
G0 Z27.241
G0 X21.679 Y16.607 Z27.241
G0 X21.679 Y16.607 Z25.241
G1 X21.679 Y16.607 Z7.300 F500.000
G1 X32.757 Y27.686 Z7.300 F500.000
G1 X32.757 Y27.682 Z7.300 F500.000
G1 X32.757 Y26.305 Z7.300 F500.000
G3 X32.917 Y25.866 Z7.300 I0.662 J-0.006 K0.000 F500.000
G1 X23.659 Y16.607 Z7.300 F500.000
G1 X25.639 Y16.607 Z7.300 F500.000
G1 X34.636 Y25.605 Z7.300 F500.000
G1 X36.616 Y25.605 Z7.300 F500.000
G1 X36.506 Y25.494 Z7.300 F500.000
G3 X32.583 Y21.572 Z7.300 I0.159 J-4.082 K0.000 F500.000
G1 X27.618 Y16.607 Z7.300 F500.000
G1 X29.598 Y16.607 Z7.300 F500.000
G1 X32.746 Y19.755 Z7.300 F500.000
G3 X33.373 Y18.402 Z7.300 I3.616 J0.854 K0.000 F500.000
G1 X31.578 Y16.607 Z7.300 F500.000
G1 X33.558 Y16.607 Z7.300 F500.000
G1 X34.372 Y17.421 Z7.300 F500.000
G3 X35.751 Y16.820 Z7.300 I2.005 J2.721 K0.000 F500.000
G1 X35.538 Y16.607 Z7.300 F500.000
G1 X37.518 Y16.607 Z7.300 F500.000
G1 X37.778 Y16.867 Z7.300 F500.000
G3 X39.582 Y18.100 Z7.300 I-0.757 J3.044 K0.000 F500.000
G3 X40.385 Y17.495 Z7.300 I1.816 J1.574 K0.000 F500.000
G1 X39.498 Y16.607 Z7.300 F500.000
G1 X41.478 Y16.607 Z7.300 F500.000
G1 X42.065 Y17.194 Z7.300 F500.000
G0 Z27.241
G0 X36.616 Y25.605 Z27.241
G0 X36.616 Y25.605 Z25.241
G1 X36.616 Y25.605 Z7.300 F500.000
G1 X36.506 Y25.494 Z7.300 F500.000
G2 X38.204 Y25.212 Z7.300 I0.247 J-3.767 K0.000 F500.000
G1 X38.596 Y25.605 Z7.300 F500.000
G1 X40.576 Y25.605 Z7.300 F500.000
G1 X39.393 Y24.422 Z7.300 F500.000
G2 X39.597 Y24.171 Z7.300 I-1.464 J-1.395 K0.000 F500.000
G2 X41.995 Y25.044 Z7.300 I2.108 J-2.062 K0.000 F500.000
G1 X42.556 Y25.605 Z7.300 F500.000
G1 X44.535 Y25.605 Z7.300 F500.000
G1 X43.549 Y24.618 Z7.300 F500.000
G2 X44.604 Y23.693 Z7.300 I-1.624 J-2.917 K0.000 F500.000
G1 X52.118 Y31.207 Z7.300 F500.000
G1 X54.098 Y31.207 Z7.300 F500.000
G1 X45.256 Y22.366 Z7.300 F500.000
G2 X45.376 Y20.505 Z7.300 I-4.188 J-1.202 K0.000 F500.000
G1 X56.078 Y31.207 Z7.300 F500.000
G1 X58.058 Y31.207 Z7.300 F500.000
G1 X43.458 Y16.607 Z7.300 F500.000
G1 X45.438 Y16.607 Z7.300 F500.000
G1 X60.038 Y31.207 Z7.300 F500.000
G1 X62.017 Y31.207 Z7.300 F500.000
G1 X47.417 Y16.607 Z7.300 F500.000
G1 X49.397 Y16.607 Z7.300 F500.000
G1 X63.257 Y30.466 Z7.300 F500.000
G1 X63.257 Y28.487 Z7.300 F500.000
G1 X51.377 Y16.607 Z7.300 F500.000
G1 X53.357 Y16.607 Z7.300 F500.000
G1 X63.257 Y26.507 Z7.300 F500.000
G1 X63.257 Y24.527 Z7.300 F500.000
G1 X55.337 Y16.607 Z7.300 F500.000
G1 X57.317 Y16.607 Z7.300 F500.000
G1 X63.257 Y22.547 Z7.300 F500.000
G1 X63.257 Y20.567 Z7.300 F500.000
G1 X59.297 Y16.607 Z7.300 F500.000
G1 X61.277 Y16.607 Z7.300 F500.000
G1 X63.257 Y18.587 Z7.300 F500.000
G1 X63.257 Y16.607 Z7.300 F500.000
G0 Z27.241
G0 Z27.241
G0 X63.257 Y16.607
G0 X63.257 Y41.607
G0 X63.257 Y41.607 Z25.241
G1 X63.257 Y41.607 Z8.833 F500.000
G1 X12.657 Y41.607 Z8.833 F500.000
G1 X12.657 Y56.207 Z8.833 F500.000
G1 X63.257 Y56.207 Z8.833 F500.000
G1 X63.257 Y41.607 Z8.833 F500.000
G0 Z27.241
G0 X63.257 Y56.207 Z27.241
G0 X63.257 Y56.207 Z25.241
G1 X63.257 Y56.207 Z8.833 F500.000
G1 X61.277 Y56.207 Z8.833 F500.000
G1 X63.257 Y54.227 Z8.833 F500.000
G1 X63.257 Y52.247 Z8.833 F500.000
G1 X59.297 Y56.207 Z8.833 F500.000
G1 X57.317 Y56.207 Z8.833 F500.000
G1 X63.257 Y50.267 Z8.833 F500.000
G1 X63.257 Y48.288 Z8.833 F500.000
G1 X55.337 Y56.207 Z8.833 F500.000
G1 X53.357 Y56.207 Z8.833 F500.000
G1 X63.257 Y46.308 Z8.833 F500.000
G1 X63.257 Y44.328 Z8.833 F500.000
G1 X51.377 Y56.207 Z8.833 F500.000
G1 X49.397 Y56.207 Z8.833 F500.000
G1 X63.257 Y42.348 Z8.833 F500.000
G1 X63.257 Y41.607 Z8.833 F500.000
G1 X62.017 Y41.607 Z8.833 F500.000
G1 X47.417 Y56.207 Z8.833 F500.000
G1 X45.438 Y56.207 Z8.833 F500.000
G1 X60.038 Y41.607 Z8.833 F500.000
G1 X58.058 Y41.607 Z8.833 F500.000
G1 X43.458 Y56.207 Z8.833 F500.000
G1 X41.478 Y56.207 Z8.833 F500.000
G1 X41.540 Y56.145 Z8.833 F500.000
G1 X40.575 Y56.145 Z8.833 F500.000
G3 X39.955 Y55.750 Z8.833 I-0.012 J-0.666 K0.000 F500.000
G1 X39.498 Y56.207 Z8.833 F500.000
G1 X37.518 Y56.207 Z8.833 F500.000
G1 X40.343 Y53.382 Z8.833 F500.000
G1 X38.363 Y53.382 Z8.833 F500.000
G1 X35.538 Y56.207 Z8.833 F500.000
G1 X33.558 Y56.207 Z8.833 F500.000
G1 X36.383 Y53.382 Z8.833 F500.000
G1 X34.403 Y53.382 Z8.833 F500.000
G1 X31.578 Y56.207 Z8.833 F500.000
G1 X29.598 Y56.207 Z8.833 F500.000
G1 X32.830 Y52.975 Z8.833 F500.000
G3 X32.757 Y52.682 Z8.833 I0.415 J-0.260 K0.000 F500.000
G1 X32.757 Y51.305 Z8.833 F500.000
G3 X32.847 Y50.979 Z8.833 I0.546 J-0.024 K0.000 F500.000
G1 X27.618 Y56.207 Z8.833 F500.000
G0 Z27.241
G0 X32.857 Y53.044 Z27.241
G0 X32.857 Y53.044 Z25.241
G1 X32.857 Y53.044 Z8.833 F500.000
G3 X32.757 Y52.682 Z8.833 I0.599 J-0.362 K0.000 F500.000
G1 X32.757 Y51.305 Z8.833 F500.000
G3 X33.457 Y50.605 Z8.833 I0.700 J0.000 K0.000 F500.000
G1 X35.551 Y50.605 Z8.833 F500.000
G3 X35.434 Y50.227 Z8.833 I0.523 J-0.369 K0.000 F500.000
G1 X35.434 Y46.067 Z8.833 F500.000
G1 X33.457 Y46.067 Z8.833 F500.000
G3 X32.757 Y45.367 Z8.833 I0.000 J-0.700 K0.000 F500.000
G1 X32.757 Y43.989 Z8.833 F500.000
G3 X33.457 Y43.289 Z8.833 I0.700 J0.000 K0.000 F500.000
G1 X35.434 Y43.289 Z8.833 F500.000
G1 X35.434 Y42.474 Z8.833 F500.000
G3 X36.134 Y41.774 Z8.833 I0.700 J0.000 K0.000 F500.000
G1 X37.408 Y41.774 Z8.833 F500.000
G3 X38.108 Y42.474 Z8.833 I-0.000 J0.700 K0.000 F500.000
G1 X38.108 Y43.289 Z8.833 F500.000
G1 X44.689 Y43.289 Z8.833 F500.000
G3 X45.389 Y43.989 Z8.833 I-0.000 J0.700 K0.000 F500.000
G1 X45.389 Y45.122 Z8.833 F500.000
G3 X45.091 Y45.695 Z8.833 I-0.700 J-0.000 K0.000 F500.000
G1 X38.088 Y50.605 Z8.833 F500.000
G1 X44.722 Y50.605 Z8.833 F500.000
G3 X45.422 Y51.305 Z8.833 I-0.000 J0.700 K0.000 F500.000
G1 X45.422 Y52.200 Z8.833 F500.000
G3 X45.081 Y52.801 Z8.833 I-0.700 J-0.000 K0.000 F500.000
G2 X44.353 Y53.277 Z8.833 I1.948 J3.773 K0.000 F500.000
G2 X42.538 Y55.762 Z8.833 I4.659 J5.309 K0.000 F500.000
G3 X41.914 Y56.145 Z8.833 I-0.624 J-0.317 K0.000 F500.000
G1 X40.575 Y56.145 Z8.833 F500.000
G3 X39.877 Y55.386 Z8.833 I0.000 J-0.700 K0.000 F500.000
G3 X40.825 Y53.382 Z8.833 I8.544 J2.817 K0.000 F500.000
G1 X33.457 Y53.382 Z8.833 F500.000
G3 X32.857 Y53.044 Z8.833 I0.000 J-0.700 K0.000 F500.000
G0 Z27.241
G0 X35.454 Y50.352 Z27.241
G0 X35.454 Y50.352 Z25.241
G1 X35.454 Y50.352 Z8.833 F500.000
G2 X35.551 Y50.605 Z8.833 I0.438 J-0.023 K0.000 F500.000
G1 X35.201 Y50.605 Z8.833 F500.000
G1 X35.454 Y50.352 Z8.833 F500.000
G1 X35.434 Y50.227 Z8.833 F500.000
G1 X35.434 Y48.391 Z8.833 F500.000
G1 X33.131 Y50.695 Z8.833 F500.000
G2 X32.847 Y50.979 Z8.833 I0.185 J0.470 K0.000 F500.000
G1 X27.618 Y56.207 Z8.833 F500.000
G1 X25.639 Y56.207 Z8.833 F500.000
G1 X35.434 Y46.412 Z8.833 F500.000
G1 X35.434 Y46.067 Z8.833 F500.000
G1 X33.799 Y46.067 Z8.833 F500.000
G1 X23.659 Y56.207 Z8.833 F500.000
G1 X21.679 Y56.207 Z8.833 F500.000
G1 X32.757 Y45.129 Z8.833 F500.000
G1 X32.757 Y43.989 Z8.833 F500.000
G3 X33.457 Y43.289 Z8.833 I0.700 J-0.000 K0.000 F500.000
G1 X34.597 Y43.289 Z8.833 F500.000
G1 X35.438 Y42.448 Z8.833 F500.000
G3 X36.108 Y41.778 Z8.833 I0.686 J0.016 K0.000 F500.000
G1 X36.279 Y41.607 Z8.833 F500.000
G1 X34.299 Y41.607 Z8.833 F500.000
G1 X19.699 Y56.207 Z8.833 F500.000
G1 X17.719 Y56.207 Z8.833 F500.000
G1 X32.319 Y41.607 Z8.833 F500.000
G1 X30.339 Y41.607 Z8.833 F500.000
G1 X15.739 Y56.207 Z8.833 F500.000
G1 X13.759 Y56.207 Z8.833 F500.000
G1 X28.359 Y41.607 Z8.833 F500.000
G1 X26.379 Y41.607 Z8.833 F500.000
G1 X12.657 Y55.330 Z8.833 F500.000
G1 X12.657 Y53.350 Z8.833 F500.000
G1 X24.399 Y41.607 Z8.833 F500.000
G1 X22.419 Y41.607 Z8.833 F500.000
G1 X12.657 Y51.370 Z8.833 F500.000
G1 X12.657 Y49.390 Z8.833 F500.000
G1 X20.440 Y41.607 Z8.833 F500.000
G1 X18.460 Y41.607 Z8.833 F500.000
G1 X12.657 Y47.410 Z8.833 F500.000
G1 X12.657 Y45.430 Z8.833 F500.000
G1 X16.480 Y41.607 Z8.833 F500.000
G1 X14.500 Y41.607 Z8.833 F500.000
G1 X12.657 Y41.607 Z8.833 F500.000
G1 X12.657 Y43.450 Z8.833 F500.000
G1 X14.500 Y41.607 Z8.833 F500.000
G0 Z27.241
G0 X34.597 Y43.289 Z27.241
G0 X34.597 Y43.289 Z25.241
G1 X34.597 Y43.289 Z8.833 F500.000
G1 X35.434 Y43.289 Z8.833 F500.000
G1 X35.434 Y42.474 Z8.833 F500.000
G1 X35.438 Y42.448 Z8.833 F500.000
G1 X34.597 Y43.289 Z8.833 F500.000
G0 Z27.241
G0 X36.279 Y41.607 Z27.241
G0 X36.279 Y41.607 Z25.241
G1 X36.279 Y41.607 Z8.833 F500.000
G1 X36.108 Y41.778 Z8.833 F500.000
G1 X36.134 Y41.774 Z8.833 F500.000
G1 X37.408 Y41.774 Z8.833 F500.000
G3 X37.889 Y41.977 Z8.833 I0.007 J0.653 K0.000 F500.000
G1 X38.259 Y41.607 Z8.833 F500.000
G1 X40.239 Y41.607 Z8.833 F500.000
G1 X38.556 Y43.289 Z8.833 F500.000
G1 X40.536 Y43.289 Z8.833 F500.000
G1 X42.218 Y41.607 Z8.833 F500.000
G1 X44.198 Y41.607 Z8.833 F500.000
G1 X42.516 Y43.289 Z8.833 F500.000
G1 X44.496 Y43.289 Z8.833 F500.000
G1 X46.178 Y41.607 Z8.833 F500.000
G1 X48.158 Y41.607 Z8.833 F500.000
G1 X45.389 Y44.376 Z8.833 F500.000
G0 Z27.241
G0 X45.413 Y52.272 Z27.241
G0 X45.413 Y52.272 Z25.241
G1 X45.413 Y52.272 Z8.833 F500.000
G1 X56.078 Y41.607 Z8.833 F500.000
G1 X54.098 Y41.607 Z8.833 F500.000
G1 X45.023 Y50.682 Z8.833 F500.000
G2 X44.722 Y50.605 Z8.833 I-0.270 J0.425 K0.000 F500.000
G1 X43.120 Y50.605 Z8.833 F500.000
G1 X52.118 Y41.607 Z8.833 F500.000
G1 X50.138 Y41.607 Z8.833 F500.000
G1 X41.141 Y50.605 Z8.833 F500.000
G1 X39.161 Y50.605 Z8.833 F500.000
G1 X38.088 Y50.605 Z8.833 F500.000
G1 X41.676 Y48.089 Z8.833 F500.000
G1 X39.161 Y50.605 Z8.833 F500.000
G0 Z27.241
G0 X43.580 Y54.065 Z27.241
G0 X43.580 Y54.065 Z25.241
G1 X43.580 Y54.065 Z8.833 F500.000
G3 X44.570 Y53.114 Z8.833 I3.817 J2.988 K0.000 F500.000
G1 X43.458 Y54.227 Z8.833 F500.000
G3 X43.580 Y54.065 Z8.833 I3.938 J2.826 K0.000 F500.000
G1 X43.580 Y54.065 Z8.367 F500.000
G3 X44.570 Y53.114 Z8.367 I3.817 J2.988 K0.000 F500.000
G1 X43.458 Y54.227 Z8.367 F500.000
G3 X43.580 Y54.065 Z8.367 I3.938 J2.826 K0.000 F500.000
G0 Z27.241
G0 X43.583 Y54.067 Z27.241
G0 X43.583 Y54.067 Z25.241
G1 X43.583 Y54.067 Z8.367 F500.000
G2 X42.538 Y55.762 Z8.367 I5.429 J4.518 K0.000 F500.000
G3 X41.914 Y56.145 Z8.367 I-0.624 J-0.317 K0.000 F500.000
G1 X40.575 Y56.145 Z8.367 F500.000
G3 X39.877 Y55.386 Z8.367 I0.000 J-0.700 K0.000 F500.000
G3 X40.825 Y53.382 Z8.367 I8.544 J2.817 K0.000 F500.000
G1 X33.457 Y53.382 Z8.367 F500.000
G3 X32.757 Y52.682 Z8.367 I0.000 J-0.700 K0.000 F500.000
G1 X32.757 Y51.305 Z8.367 F500.000
G3 X33.457 Y50.605 Z8.367 I0.700 J0.000 K0.000 F500.000
G1 X35.551 Y50.605 Z8.367 F500.000
G3 X35.434 Y50.227 Z8.367 I0.523 J-0.369 K0.000 F500.000
G1 X35.434 Y46.067 Z8.367 F500.000
G1 X33.457 Y46.067 Z8.367 F500.000
G3 X32.757 Y45.367 Z8.367 I0.000 J-0.700 K0.000 F500.000
G1 X32.757 Y43.989 Z8.367 F500.000
G3 X33.457 Y43.289 Z8.367 I0.700 J0.000 K0.000 F500.000
G1 X35.434 Y43.289 Z8.367 F500.000
G1 X35.434 Y42.474 Z8.367 F500.000
G3 X36.134 Y41.774 Z8.367 I0.700 J0.000 K0.000 F500.000
G1 X37.408 Y41.774 Z8.367 F500.000
G3 X38.108 Y42.474 Z8.367 I-0.000 J0.700 K0.000 F500.000
G1 X38.108 Y43.289 Z8.367 F500.000
G1 X44.689 Y43.289 Z8.367 F500.000
G3 X45.389 Y43.989 Z8.367 I-0.000 J0.700 K0.000 F500.000
G1 X45.389 Y45.122 Z8.367 F500.000
G3 X45.091 Y45.695 Z8.367 I-0.700 J-0.000 K0.000 F500.000
G1 X38.088 Y50.605 Z8.367 F500.000
G1 X44.722 Y50.605 Z8.367 F500.000
G3 X45.422 Y51.305 Z8.367 I-0.000 J0.700 K0.000 F500.000
G1 X45.422 Y52.200 Z8.367 F500.000
G3 X45.081 Y52.801 Z8.367 I-0.700 J-0.000 K0.000 F500.000
G2 X44.353 Y53.277 Z8.367 I1.948 J3.773 K0.000 F500.000
G2 X43.583 Y54.067 Z8.367 I4.659 J5.309 K0.000 F500.000
G0 Z27.241
G0 Y56.207 Z27.241
G0 Y56.207 Z25.241
G1 X43.583 Y56.207 Z8.367 F500.000
G1 X63.257 Y56.207 Z8.367 F500.000
G1 X63.257 Y41.607 Z8.367 F500.000
G1 X12.657 Y41.607 Z8.367 F500.000
G1 X12.657 Y56.207 Z8.367 F500.000
G1 X43.583 Y56.207 Z8.367 F500.000
G0 Z27.241
G0 X45.413 Y52.272 Z27.241
G0 X45.413 Y52.272 Z25.241
G1 X45.413 Y52.272 Z8.367 F500.000
G1 X56.078 Y41.607 Z8.367 F500.000
G1 X54.098 Y41.607 Z8.367 F500.000
G1 X45.023 Y50.682 Z8.367 F500.000
G2 X44.722 Y50.605 Z8.367 I-0.270 J0.425 K0.000 F500.000
G1 X43.120 Y50.605 Z8.367 F500.000
G1 X52.118 Y41.607 Z8.367 F500.000
G1 X50.138 Y41.607 Z8.367 F500.000
G1 X41.141 Y50.605 Z8.367 F500.000
G1 X39.161 Y50.605 Z8.367 F500.000
G1 X38.088 Y50.605 Z8.367 F500.000
G1 X41.676 Y48.089 Z8.367 F500.000
G1 X39.161 Y50.605 Z8.367 F500.000
G0 Z27.241
G0 X35.454 Y50.352 Z27.241
G0 X35.454 Y50.352 Z25.241
G1 X35.454 Y50.352 Z8.367 F500.000
G2 X35.551 Y50.605 Z8.367 I0.438 J-0.023 K0.000 F500.000
G1 X35.201 Y50.605 Z8.367 F500.000
G1 X35.454 Y50.352 Z8.367 F500.000
G1 X35.434 Y50.227 Z8.367 F500.000
G1 X35.434 Y48.391 Z8.367 F500.000
G1 X33.131 Y50.695 Z8.367 F500.000
G2 X32.847 Y50.979 Z8.367 I0.185 J0.470 K0.000 F500.000
G1 X27.618 Y56.207 Z8.367 F500.000
G1 X25.639 Y56.207 Z8.367 F500.000
G1 X35.434 Y46.412 Z8.367 F500.000
G1 X35.434 Y46.067 Z8.367 F500.000
G1 X33.799 Y46.067 Z8.367 F500.000
G1 X23.659 Y56.207 Z8.367 F500.000
G1 X21.679 Y56.207 Z8.367 F500.000
G1 X32.757 Y45.129 Z8.367 F500.000
G1 X32.757 Y43.989 Z8.367 F500.000
G3 X33.457 Y43.289 Z8.367 I0.700 J-0.000 K0.000 F500.000
G1 X34.597 Y43.289 Z8.367 F500.000
G1 X35.438 Y42.448 Z8.367 F500.000
G3 X36.108 Y41.778 Z8.367 I0.686 J0.016 K0.000 F500.000
G1 X36.279 Y41.607 Z8.367 F500.000
G1 X34.299 Y41.607 Z8.367 F500.000
G1 X19.699 Y56.207 Z8.367 F500.000
G1 X17.719 Y56.207 Z8.367 F500.000
G1 X32.319 Y41.607 Z8.367 F500.000
G1 X30.339 Y41.607 Z8.367 F500.000
G1 X15.739 Y56.207 Z8.367 F500.000
G1 X13.759 Y56.207 Z8.367 F500.000
G1 X28.359 Y41.607 Z8.367 F500.000
G1 X26.379 Y41.607 Z8.367 F500.000
G1 X12.657 Y55.330 Z8.367 F500.000
G1 X12.657 Y53.350 Z8.367 F500.000
G1 X24.399 Y41.607 Z8.367 F500.000
G1 X22.419 Y41.607 Z8.367 F500.000
G1 X12.657 Y51.370 Z8.367 F500.000
G1 X12.657 Y49.390 Z8.367 F500.000
G1 X20.440 Y41.607 Z8.367 F500.000
G1 X18.460 Y41.607 Z8.367 F500.000
G1 X12.657 Y47.410 Z8.367 F500.000
G1 X12.657 Y45.430 Z8.367 F500.000
G1 X16.480 Y41.607 Z8.367 F500.000
G1 X14.500 Y41.607 Z8.367 F500.000
G1 X12.657 Y41.607 Z8.367 F500.000
G1 X12.657 Y43.450 Z8.367 F500.000
G1 X14.500 Y41.607 Z8.367 F500.000
G0 Z27.241
G0 X27.618 Y56.207 Z27.241
G0 X27.618 Y56.207 Z25.241
G1 X27.618 Y56.207 Z8.367 F500.000
G1 X32.847 Y50.979 Z8.367 F500.000
G2 X32.757 Y51.305 Z8.367 I0.456 J0.301 K0.000 F500.000
G1 X32.757 Y52.682 Z8.367 F500.000
G2 X32.830 Y52.975 Z8.367 I0.488 J0.034 K0.000 F500.000
G1 X29.598 Y56.207 Z8.367 F500.000
G1 X31.578 Y56.207 Z8.367 F500.000
G1 X34.403 Y53.382 Z8.367 F500.000
G1 X36.383 Y53.382 Z8.367 F500.000
G1 X33.558 Y56.207 Z8.367 F500.000
G1 X35.538 Y56.207 Z8.367 F500.000
G1 X38.363 Y53.382 Z8.367 F500.000
G1 X40.343 Y53.382 Z8.367 F500.000
G1 X37.518 Y56.207 Z8.367 F500.000
G1 X39.498 Y56.207 Z8.367 F500.000
G1 X39.955 Y55.750 Z8.367 F500.000
G2 X40.575 Y56.145 Z8.367 I0.608 J-0.271 K0.000 F500.000
G1 X41.540 Y56.145 Z8.367 F500.000
G1 X41.478 Y56.207 Z8.367 F500.000
G1 X43.458 Y56.207 Z8.367 F500.000
G1 X58.058 Y41.607 Z8.367 F500.000
G1 X60.038 Y41.607 Z8.367 F500.000
G1 X45.438 Y56.207 Z8.367 F500.000
G1 X47.417 Y56.207 Z8.367 F500.000
G1 X62.017 Y41.607 Z8.367 F500.000
G1 X63.257 Y41.607 Z8.367 F500.000
G1 X63.257 Y42.348 Z8.367 F500.000
G1 X49.397 Y56.207 Z8.367 F500.000
G1 X51.377 Y56.207 Z8.367 F500.000
G1 X63.257 Y44.328 Z8.367 F500.000
G1 X63.257 Y46.308 Z8.367 F500.000
G1 X53.357 Y56.207 Z8.367 F500.000
G1 X55.337 Y56.207 Z8.367 F500.000
G1 X63.257 Y48.288 Z8.367 F500.000
G1 X63.257 Y50.267 Z8.367 F500.000
G1 X57.317 Y56.207 Z8.367 F500.000
G1 X59.297 Y56.207 Z8.367 F500.000
G1 X63.257 Y52.247 Z8.367 F500.000
G1 X63.257 Y54.227 Z8.367 F500.000
G1 X61.277 Y56.207 Z8.367 F500.000
G1 X63.257 Y56.207 Z8.367 F500.000
G0 Z27.241
G0 X45.389 Y44.376 Z27.241
G0 X45.389 Y44.376 Z25.241
G1 X45.389 Y44.376 Z8.367 F500.000
G1 X48.158 Y41.607 Z8.367 F500.000
G1 X46.178 Y41.607 Z8.367 F500.000
G1 X44.496 Y43.289 Z8.367 F500.000
G1 X42.516 Y43.289 Z8.367 F500.000
G1 X44.198 Y41.607 Z8.367 F500.000
G1 X42.218 Y41.607 Z8.367 F500.000
G1 X40.536 Y43.289 Z8.367 F500.000
G1 X38.556 Y43.289 Z8.367 F500.000
G1 X40.239 Y41.607 Z8.367 F500.000
G1 X38.259 Y41.607 Z8.367 F500.000
G1 X37.889 Y41.977 Z8.367 F500.000
G2 X37.408 Y41.774 Z8.367 I-0.474 J0.450 K0.000 F500.000
G1 X36.134 Y41.774 Z8.367 F500.000
G1 X36.108 Y41.778 Z8.367 F500.000
G1 X36.279 Y41.607 Z8.367 F500.000
G0 Z27.241
G0 X35.438 Y42.448 Z27.241
G0 X35.438 Y42.448 Z25.241
G1 X35.438 Y42.448 Z8.367 F500.000
G1 X34.597 Y43.289 Z8.367 F500.000
G1 X35.434 Y43.289 Z8.367 F500.000
G1 X35.434 Y42.474 Z8.367 F500.000
G1 X35.438 Y42.448 Z8.367 F500.000
G1 X35.438 Y42.448 Z7.900 F500.000
G1 X34.597 Y43.289 Z7.900 F500.000
G1 X35.434 Y43.289 Z7.900 F500.000
G1 X35.434 Y42.474 Z7.900 F500.000
G1 X35.438 Y42.448 Z7.900 F500.000
G0 Z27.241
G0 X35.435 Y42.447 Z27.241
G0 X35.435 Y42.447 Z25.241
G1 X35.435 Y42.447 Z7.900 F500.000
G3 X36.134 Y41.774 Z7.900 I0.699 J0.027 K0.000 F500.000
G1 X37.408 Y41.774 Z7.900 F500.000
G3 X38.108 Y42.474 Z7.900 I-0.000 J0.700 K0.000 F500.000
G1 X38.108 Y43.289 Z7.900 F500.000
G1 X44.689 Y43.289 Z7.900 F500.000
G3 X45.389 Y43.989 Z7.900 I-0.000 J0.700 K0.000 F500.000
G1 X45.389 Y45.122 Z7.900 F500.000
G3 X45.091 Y45.695 Z7.900 I-0.700 J-0.000 K0.000 F500.000
G1 X38.088 Y50.605 Z7.900 F500.000
G1 X44.722 Y50.605 Z7.900 F500.000
G3 X45.422 Y51.305 Z7.900 I-0.000 J0.700 K0.000 F500.000
G1 X45.422 Y52.200 Z7.900 F500.000
G3 X45.081 Y52.801 Z7.900 I-0.700 J-0.000 K0.000 F500.000
G2 X44.353 Y53.277 Z7.900 I1.948 J3.773 K0.000 F500.000
G2 X42.538 Y55.762 Z7.900 I4.659 J5.309 K0.000 F500.000
G3 X41.914 Y56.145 Z7.900 I-0.624 J-0.317 K0.000 F500.000
G1 X40.575 Y56.145 Z7.900 F500.000
G3 X39.877 Y55.386 Z7.900 I0.000 J-0.700 K0.000 F500.000
G3 X40.825 Y53.382 Z7.900 I8.544 J2.817 K0.000 F500.000
G1 X33.457 Y53.382 Z7.900 F500.000
G3 X32.757 Y52.682 Z7.900 I0.000 J-0.700 K0.000 F500.000
G1 X32.757 Y51.305 Z7.900 F500.000
G3 X33.457 Y50.605 Z7.900 I0.700 J0.000 K0.000 F500.000
G1 X35.551 Y50.605 Z7.900 F500.000
G3 X35.434 Y50.227 Z7.900 I0.523 J-0.369 K0.000 F500.000
G1 X35.434 Y46.067 Z7.900 F500.000
G1 X33.457 Y46.067 Z7.900 F500.000
G3 X32.757 Y45.367 Z7.900 I0.000 J-0.700 K0.000 F500.000
G1 X32.757 Y43.989 Z7.900 F500.000
G3 X33.457 Y43.289 Z7.900 I0.700 J0.000 K0.000 F500.000
G1 X35.434 Y43.289 Z7.900 F500.000
G1 X35.434 Y42.474 Z7.900 F500.000
G3 X35.435 Y42.447 Z7.900 I0.700 J0.000 K0.000 F500.000
G0 Z27.241
G0 Y41.607 Z27.241
G0 Y41.607 Z25.241
G1 X35.435 Y41.607 Z7.900 F500.000
G1 X12.657 Y41.607 Z7.900 F500.000
G1 X12.657 Y56.207 Z7.900 F500.000
G1 X63.257 Y56.207 Z7.900 F500.000
G1 X63.257 Y41.607 Z7.900 F500.000
G1 X35.435 Y41.607 Z7.900 F500.000
G0 Z27.241
G0 X36.279 Z27.241
G0 X36.279 Z25.241
G1 X36.279 Y41.607 Z7.900 F500.000
G1 X36.108 Y41.778 Z7.900 F500.000
G1 X36.134 Y41.774 Z7.900 F500.000
G1 X37.408 Y41.774 Z7.900 F500.000
G3 X37.889 Y41.977 Z7.900 I0.007 J0.653 K0.000 F500.000
G1 X38.259 Y41.607 Z7.900 F500.000
G1 X40.239 Y41.607 Z7.900 F500.000
G1 X38.556 Y43.289 Z7.900 F500.000
G1 X40.536 Y43.289 Z7.900 F500.000
G1 X42.218 Y41.607 Z7.900 F500.000
G1 X44.198 Y41.607 Z7.900 F500.000
G1 X42.516 Y43.289 Z7.900 F500.000
G1 X44.496 Y43.289 Z7.900 F500.000
G1 X46.178 Y41.607 Z7.900 F500.000
G1 X48.158 Y41.607 Z7.900 F500.000
G1 X45.389 Y44.376 Z7.900 F500.000
G0 Z27.241
G0 X45.413 Y52.272 Z27.241
G0 X45.413 Y52.272 Z25.241
G1 X45.413 Y52.272 Z7.900 F500.000
G1 X56.078 Y41.607 Z7.900 F500.000
G1 X54.098 Y41.607 Z7.900 F500.000
G1 X45.023 Y50.682 Z7.900 F500.000
G2 X44.722 Y50.605 Z7.900 I-0.270 J0.425 K0.000 F500.000
G1 X43.120 Y50.605 Z7.900 F500.000
G1 X52.118 Y41.607 Z7.900 F500.000
G1 X50.138 Y41.607 Z7.900 F500.000
G1 X41.141 Y50.605 Z7.900 F500.000
G1 X39.161 Y50.605 Z7.900 F500.000
G1 X38.088 Y50.605 Z7.900 F500.000
G1 X41.676 Y48.089 Z7.900 F500.000
G1 X39.161 Y50.605 Z7.900 F500.000
G0 Z27.241
G0 X35.454 Y50.352 Z27.241
G0 X35.454 Y50.352 Z25.241
G1 X35.454 Y50.352 Z7.900 F500.000
G2 X35.551 Y50.605 Z7.900 I0.438 J-0.023 K0.000 F500.000
G1 X35.201 Y50.605 Z7.900 F500.000
G1 X35.454 Y50.352 Z7.900 F500.000
G1 X35.434 Y50.227 Z7.900 F500.000
G1 X35.434 Y48.391 Z7.900 F500.000
G1 X33.131 Y50.695 Z7.900 F500.000
G2 X32.847 Y50.979 Z7.900 I0.185 J0.470 K0.000 F500.000
G1 X27.618 Y56.207 Z7.900 F500.000
G1 X25.639 Y56.207 Z7.900 F500.000
G1 X35.434 Y46.412 Z7.900 F500.000
G1 X35.434 Y46.067 Z7.900 F500.000
G1 X33.799 Y46.067 Z7.900 F500.000
G1 X23.659 Y56.207 Z7.900 F500.000
G1 X21.679 Y56.207 Z7.900 F500.000
G1 X32.757 Y45.129 Z7.900 F500.000
G1 X32.757 Y43.989 Z7.900 F500.000
G3 X33.457 Y43.289 Z7.900 I0.700 J-0.000 K0.000 F500.000
G1 X34.597 Y43.289 Z7.900 F500.000
G1 X35.438 Y42.448 Z7.900 F500.000
G3 X36.108 Y41.778 Z7.900 I0.686 J0.016 K0.000 F500.000
G1 X36.279 Y41.607 Z7.900 F500.000
G1 X34.299 Y41.607 Z7.900 F500.000
G1 X19.699 Y56.207 Z7.900 F500.000
G1 X17.719 Y56.207 Z7.900 F500.000
G1 X32.319 Y41.607 Z7.900 F500.000
G1 X30.339 Y41.607 Z7.900 F500.000
G1 X15.739 Y56.207 Z7.900 F500.000
G1 X13.759 Y56.207 Z7.900 F500.000
G1 X28.359 Y41.607 Z7.900 F500.000
G1 X26.379 Y41.607 Z7.900 F500.000
G1 X12.657 Y55.330 Z7.900 F500.000
G1 X12.657 Y53.350 Z7.900 F500.000
G1 X24.399 Y41.607 Z7.900 F500.000
G1 X22.419 Y41.607 Z7.900 F500.000
G1 X12.657 Y51.370 Z7.900 F500.000
G1 X12.657 Y49.390 Z7.900 F500.000
G1 X20.440 Y41.607 Z7.900 F500.000
G1 X18.460 Y41.607 Z7.900 F500.000
G1 X12.657 Y47.410 Z7.900 F500.000
G1 X12.657 Y45.430 Z7.900 F500.000
G1 X16.480 Y41.607 Z7.900 F500.000
G1 X14.500 Y41.607 Z7.900 F500.000
G1 X12.657 Y41.607 Z7.900 F500.000
G1 X12.657 Y43.450 Z7.900 F500.000
G1 X14.500 Y41.607 Z7.900 F500.000
G0 Z27.241
G0 X27.618 Y56.207 Z27.241
G0 X27.618 Y56.207 Z25.241
G1 X27.618 Y56.207 Z7.900 F500.000
G1 X32.847 Y50.979 Z7.900 F500.000
G2 X32.757 Y51.305 Z7.900 I0.456 J0.301 K0.000 F500.000
G1 X32.757 Y52.682 Z7.900 F500.000
G2 X32.830 Y52.975 Z7.900 I0.488 J0.034 K0.000 F500.000
G1 X29.598 Y56.207 Z7.900 F500.000
G1 X31.578 Y56.207 Z7.900 F500.000
G1 X34.403 Y53.382 Z7.900 F500.000
G1 X36.383 Y53.382 Z7.900 F500.000
G1 X33.558 Y56.207 Z7.900 F500.000
G1 X35.538 Y56.207 Z7.900 F500.000
G1 X38.363 Y53.382 Z7.900 F500.000
G1 X40.343 Y53.382 Z7.900 F500.000
G1 X37.518 Y56.207 Z7.900 F500.000
G1 X39.498 Y56.207 Z7.900 F500.000
G1 X39.955 Y55.750 Z7.900 F500.000
G2 X40.575 Y56.145 Z7.900 I0.608 J-0.271 K0.000 F500.000
G1 X41.540 Y56.145 Z7.900 F500.000
G1 X41.478 Y56.207 Z7.900 F500.000
G1 X43.458 Y56.207 Z7.900 F500.000
G1 X58.058 Y41.607 Z7.900 F500.000
G1 X60.038 Y41.607 Z7.900 F500.000
G1 X45.438 Y56.207 Z7.900 F500.000
G1 X47.417 Y56.207 Z7.900 F500.000
G1 X62.017 Y41.607 Z7.900 F500.000
G1 X63.257 Y41.607 Z7.900 F500.000
G1 X63.257 Y42.348 Z7.900 F500.000
G1 X49.397 Y56.207 Z7.900 F500.000
G1 X51.377 Y56.207 Z7.900 F500.000
G1 X63.257 Y44.328 Z7.900 F500.000
G1 X63.257 Y46.308 Z7.900 F500.000
G1 X53.357 Y56.207 Z7.900 F500.000
G1 X55.337 Y56.207 Z7.900 F500.000
G1 X63.257 Y48.288 Z7.900 F500.000
G1 X63.257 Y50.267 Z7.900 F500.000
G1 X57.317 Y56.207 Z7.900 F500.000
G1 X59.297 Y56.207 Z7.900 F500.000
G1 X63.257 Y52.247 Z7.900 F500.000
G1 X63.257 Y54.227 Z7.900 F500.000
G1 X61.277 Y56.207 Z7.900 F500.000
G1 X63.257 Y56.207 Z7.900 F500.000
G0 Z27.241
G0 X44.570 Y53.114 Z27.241
G0 X44.570 Y53.114 Z25.241
G1 X44.570 Y53.114 Z7.900 F500.000
G1 X43.458 Y54.227 Z7.900 F500.000
G3 X44.570 Y53.114 Z7.900 I3.938 J2.826 K0.000 F500.000
G1 X44.570 Y53.114 Z7.433 F500.000
G1 X43.458 Y54.227 Z7.433 F500.000
G3 X44.570 Y53.114 Z7.433 I3.938 J2.826 K0.000 F500.000
G0 Z27.241
G0 X44.569 Y53.113 Z27.241
G0 X44.569 Y53.113 Z25.241
G1 X44.569 Y53.113 Z7.433 F500.000
G2 X44.353 Y53.277 Z7.433 I2.460 J3.461 K0.000 F500.000
G2 X42.538 Y55.762 Z7.433 I4.659 J5.309 K0.000 F500.000
G3 X41.914 Y56.145 Z7.433 I-0.624 J-0.317 K0.000 F500.000
G1 X40.575 Y56.145 Z7.433 F500.000
G3 X39.877 Y55.386 Z7.433 I0.000 J-0.700 K0.000 F500.000
G3 X40.825 Y53.382 Z7.433 I8.544 J2.817 K0.000 F500.000
G1 X33.457 Y53.382 Z7.433 F500.000
G3 X32.757 Y52.682 Z7.433 I0.000 J-0.700 K0.000 F500.000
G1 X32.757 Y51.305 Z7.433 F500.000
G3 X33.457 Y50.605 Z7.433 I0.700 J0.000 K0.000 F500.000
G1 X35.551 Y50.605 Z7.433 F500.000
G3 X35.434 Y50.227 Z7.433 I0.523 J-0.369 K0.000 F500.000
G1 X35.434 Y46.067 Z7.433 F500.000
G1 X33.457 Y46.067 Z7.433 F500.000
G3 X32.757 Y45.367 Z7.433 I0.000 J-0.700 K0.000 F500.000
G1 X32.757 Y43.989 Z7.433 F500.000
G3 X33.457 Y43.289 Z7.433 I0.700 J0.000 K0.000 F500.000
G1 X35.434 Y43.289 Z7.433 F500.000
G1 X35.434 Y42.474 Z7.433 F500.000
G3 X36.134 Y41.774 Z7.433 I0.700 J0.000 K0.000 F500.000
G1 X37.408 Y41.774 Z7.433 F500.000
G3 X38.108 Y42.474 Z7.433 I-0.000 J0.700 K0.000 F500.000
G1 X38.108 Y43.289 Z7.433 F500.000
G1 X44.689 Y43.289 Z7.433 F500.000
G3 X45.389 Y43.989 Z7.433 I-0.000 J0.700 K0.000 F500.000
G1 X45.389 Y45.122 Z7.433 F500.000
G3 X45.091 Y45.695 Z7.433 I-0.700 J-0.000 K0.000 F500.000
G1 X38.088 Y50.605 Z7.433 F500.000
G1 X44.722 Y50.605 Z7.433 F500.000
G3 X45.422 Y51.305 Z7.433 I-0.000 J0.700 K0.000 F500.000
G1 X45.422 Y52.200 Z7.433 F500.000
G3 X45.081 Y52.801 Z7.433 I-0.700 J-0.000 K0.000 F500.000
G2 X44.569 Y53.113 Z7.433 I1.948 J3.773 K0.000 F500.000
G0 Z27.241
G0 X45.413 Y52.272 Z27.241
G0 X45.413 Y52.272 Z25.241
G1 X45.413 Y52.272 Z7.433 F500.000
G1 X56.078 Y41.607 Z7.433 F500.000
G1 X54.098 Y41.607 Z7.433 F500.000
G1 X45.023 Y50.682 Z7.433 F500.000
G2 X44.722 Y50.605 Z7.433 I-0.270 J0.425 K0.000 F500.000
G1 X43.120 Y50.605 Z7.433 F500.000
G1 X52.118 Y41.607 Z7.433 F500.000
G1 X50.138 Y41.607 Z7.433 F500.000
G1 X41.141 Y50.605 Z7.433 F500.000
G1 X39.161 Y50.605 Z7.433 F500.000
G1 X38.088 Y50.605 Z7.433 F500.000
G1 X41.676 Y48.089 Z7.433 F500.000
G1 X39.161 Y50.605 Z7.433 F500.000
G0 Z27.241
G0 X35.454 Y50.352 Z27.241
G0 X35.454 Y50.352 Z25.241
G1 X35.454 Y50.352 Z7.433 F500.000
G2 X35.551 Y50.605 Z7.433 I0.438 J-0.023 K0.000 F500.000
G1 X35.201 Y50.605 Z7.433 F500.000
G1 X35.454 Y50.352 Z7.433 F500.000
G1 X35.434 Y50.227 Z7.433 F500.000
G1 X35.434 Y48.391 Z7.433 F500.000
G1 X33.131 Y50.695 Z7.433 F500.000
G2 X32.847 Y50.979 Z7.433 I0.185 J0.470 K0.000 F500.000
G1 X27.618 Y56.207 Z7.433 F500.000
G1 X25.639 Y56.207 Z7.433 F500.000
G1 X35.434 Y46.412 Z7.433 F500.000
G1 X35.434 Y46.067 Z7.433 F500.000
G1 X33.799 Y46.067 Z7.433 F500.000
G1 X23.659 Y56.207 Z7.433 F500.000
G1 X21.679 Y56.207 Z7.433 F500.000
G1 X32.757 Y45.129 Z7.433 F500.000
G1 X32.757 Y43.989 Z7.433 F500.000
G3 X33.457 Y43.289 Z7.433 I0.700 J-0.000 K0.000 F500.000
G1 X34.597 Y43.289 Z7.433 F500.000
G1 X35.438 Y42.448 Z7.433 F500.000
G3 X36.108 Y41.778 Z7.433 I0.686 J0.016 K0.000 F500.000
G1 X36.279 Y41.607 Z7.433 F500.000
G1 X34.299 Y41.607 Z7.433 F500.000
G1 X19.699 Y56.207 Z7.433 F500.000
G1 X17.719 Y56.207 Z7.433 F500.000
G1 X32.319 Y41.607 Z7.433 F500.000
G1 X30.339 Y41.607 Z7.433 F500.000
G1 X15.739 Y56.207 Z7.433 F500.000
G1 X13.759 Y56.207 Z7.433 F500.000
G1 X28.359 Y41.607 Z7.433 F500.000
G1 X26.379 Y41.607 Z7.433 F500.000
G1 X12.657 Y55.330 Z7.433 F500.000
G1 X12.657 Y53.350 Z7.433 F500.000
G1 X24.399 Y41.607 Z7.433 F500.000
G1 X22.419 Y41.607 Z7.433 F500.000
G1 X12.657 Y51.370 Z7.433 F500.000
G1 X12.657 Y49.390 Z7.433 F500.000
G1 X20.440 Y41.607 Z7.433 F500.000
G1 X18.460 Y41.607 Z7.433 F500.000
G1 X12.657 Y47.410 Z7.433 F500.000
G1 X12.657 Y45.430 Z7.433 F500.000
G1 X16.480 Y41.607 Z7.433 F500.000
G1 X14.500 Y41.607 Z7.433 F500.000
G1 X12.657 Y41.607 Z7.433 F500.000
G1 X12.657 Y43.450 Z7.433 F500.000
G1 X14.500 Y41.607 Z7.433 F500.000
G1 X14.500 Y41.607 Z7.433 F500.000
G1 X12.657 Y41.607 Z7.433 F500.000
G1 X12.657 Y56.207 Z7.433 F500.000
G1 X63.257 Y56.207 Z7.433 F500.000
G1 X63.257 Y41.607 Z7.433 F500.000
G1 X14.500 Y41.607 Z7.433 F500.000
G0 Z27.241
G0 X27.618 Y56.207 Z27.241
G0 X27.618 Y56.207 Z25.241
G1 X27.618 Y56.207 Z7.433 F500.000
G1 X32.847 Y50.979 Z7.433 F500.000
G2 X32.757 Y51.305 Z7.433 I0.456 J0.301 K0.000 F500.000
G1 X32.757 Y52.682 Z7.433 F500.000
G2 X32.830 Y52.975 Z7.433 I0.488 J0.034 K0.000 F500.000
G1 X29.598 Y56.207 Z7.433 F500.000
G1 X31.578 Y56.207 Z7.433 F500.000
G1 X34.403 Y53.382 Z7.433 F500.000
G1 X36.383 Y53.382 Z7.433 F500.000
G1 X33.558 Y56.207 Z7.433 F500.000
G1 X35.538 Y56.207 Z7.433 F500.000
G1 X38.363 Y53.382 Z7.433 F500.000
G1 X40.343 Y53.382 Z7.433 F500.000
G1 X37.518 Y56.207 Z7.433 F500.000
G1 X39.498 Y56.207 Z7.433 F500.000
G1 X39.955 Y55.750 Z7.433 F500.000
G2 X40.575 Y56.145 Z7.433 I0.608 J-0.271 K0.000 F500.000
G1 X41.540 Y56.145 Z7.433 F500.000
G1 X41.478 Y56.207 Z7.433 F500.000
G1 X43.458 Y56.207 Z7.433 F500.000
G1 X58.058 Y41.607 Z7.433 F500.000
G1 X60.038 Y41.607 Z7.433 F500.000
G1 X45.438 Y56.207 Z7.433 F500.000
G1 X47.417 Y56.207 Z7.433 F500.000
G1 X62.017 Y41.607 Z7.433 F500.000
G1 X63.257 Y41.607 Z7.433 F500.000
G1 X63.257 Y42.348 Z7.433 F500.000
G1 X49.397 Y56.207 Z7.433 F500.000
G1 X51.377 Y56.207 Z7.433 F500.000
G1 X63.257 Y44.328 Z7.433 F500.000
G1 X63.257 Y46.308 Z7.433 F500.000
G1 X53.357 Y56.207 Z7.433 F500.000
G1 X55.337 Y56.207 Z7.433 F500.000
G1 X63.257 Y48.288 Z7.433 F500.000
G1 X63.257 Y50.267 Z7.433 F500.000
G1 X57.317 Y56.207 Z7.433 F500.000
G1 X59.297 Y56.207 Z7.433 F500.000
G1 X63.257 Y52.247 Z7.433 F500.000
G1 X63.257 Y54.227 Z7.433 F500.000
G1 X61.277 Y56.207 Z7.433 F500.000
G1 X63.257 Y56.207 Z7.433 F500.000
G0 Z27.241
G0 X45.389 Y44.376 Z27.241
G0 X45.389 Y44.376 Z25.241
G1 X45.389 Y44.376 Z7.433 F500.000
G1 X48.158 Y41.607 Z7.433 F500.000
G1 X46.178 Y41.607 Z7.433 F500.000
G1 X44.496 Y43.289 Z7.433 F500.000
G1 X42.516 Y43.289 Z7.433 F500.000
G1 X44.198 Y41.607 Z7.433 F500.000
G1 X42.218 Y41.607 Z7.433 F500.000
G1 X40.536 Y43.289 Z7.433 F500.000
G1 X38.556 Y43.289 Z7.433 F500.000
G1 X40.239 Y41.607 Z7.433 F500.000
G1 X38.259 Y41.607 Z7.433 F500.000
G1 X37.889 Y41.977 Z7.433 F500.000
G2 X37.408 Y41.774 Z7.433 I-0.474 J0.450 K0.000 F500.000
G1 X36.134 Y41.774 Z7.433 F500.000
G1 X36.108 Y41.778 Z7.433 F500.000
G1 X36.279 Y41.607 Z7.433 F500.000
G0 Z27.241
G0 X35.438 Y42.448 Z27.241
G0 X35.438 Y42.448 Z25.241
G1 X35.438 Y42.448 Z7.433 F500.000
G1 X34.597 Y43.289 Z7.433 F500.000
G1 X35.434 Y43.289 Z7.433 F500.000
G1 X35.434 Y42.474 Z7.433 F500.000
G1 X35.438 Y42.448 Z7.433 F500.000
G1 X35.438 Y42.448 Z7.300 F500.000
G1 X34.597 Y43.289 Z7.300 F500.000
G1 X35.434 Y43.289 Z7.300 F500.000
G1 X35.434 Y42.474 Z7.300 F500.000
G1 X35.438 Y42.448 Z7.300 F500.000
G0 Z27.241
G0 X35.435 Y42.447 Z27.241
G0 X35.435 Y42.447 Z25.241
G1 X35.435 Y42.447 Z7.300 F500.000
G3 X36.134 Y41.774 Z7.300 I0.699 J0.027 K0.000 F500.000
G1 X37.408 Y41.774 Z7.300 F500.000
G3 X38.108 Y42.474 Z7.300 I-0.000 J0.700 K0.000 F500.000
G1 X38.108 Y43.289 Z7.300 F500.000
G1 X44.689 Y43.289 Z7.300 F500.000
G3 X45.389 Y43.989 Z7.300 I-0.000 J0.700 K0.000 F500.000
G1 X45.389 Y45.122 Z7.300 F500.000
G3 X45.091 Y45.695 Z7.300 I-0.700 J-0.000 K0.000 F500.000
G1 X38.088 Y50.605 Z7.300 F500.000
G1 X44.722 Y50.605 Z7.300 F500.000
G3 X45.422 Y51.305 Z7.300 I-0.000 J0.700 K0.000 F500.000
G1 X45.422 Y52.200 Z7.300 F500.000
G3 X45.081 Y52.801 Z7.300 I-0.700 J-0.000 K0.000 F500.000
G2 X44.353 Y53.277 Z7.300 I1.948 J3.773 K0.000 F500.000
G2 X42.538 Y55.762 Z7.300 I4.659 J5.309 K0.000 F500.000
G3 X41.914 Y56.145 Z7.300 I-0.624 J-0.317 K0.000 F500.000
G1 X40.575 Y56.145 Z7.300 F500.000
G3 X39.877 Y55.386 Z7.300 I0.000 J-0.700 K0.000 F500.000
G3 X40.825 Y53.382 Z7.300 I8.544 J2.817 K0.000 F500.000
G1 X33.457 Y53.382 Z7.300 F500.000
G3 X32.757 Y52.682 Z7.300 I0.000 J-0.700 K0.000 F500.000
G1 X32.757 Y51.305 Z7.300 F500.000
G3 X33.457 Y50.605 Z7.300 I0.700 J0.000 K0.000 F500.000
G1 X35.551 Y50.605 Z7.300 F500.000
G3 X35.434 Y50.227 Z7.300 I0.523 J-0.369 K0.000 F500.000
G1 X35.434 Y46.067 Z7.300 F500.000
G1 X33.457 Y46.067 Z7.300 F500.000
G3 X32.757 Y45.367 Z7.300 I0.000 J-0.700 K0.000 F500.000
G1 X32.757 Y43.989 Z7.300 F500.000
G3 X33.457 Y43.289 Z7.300 I0.700 J0.000 K0.000 F500.000
G1 X35.434 Y43.289 Z7.300 F500.000
G1 X35.434 Y42.474 Z7.300 F500.000
G3 X35.435 Y42.447 Z7.300 I0.700 J0.000 K0.000 F500.000
G0 Z27.241
G0 Y41.607 Z27.241
G0 Y41.607 Z25.241
G1 X35.435 Y41.607 Z7.300 F500.000
G1 X12.657 Y41.607 Z7.300 F500.000
G1 X12.657 Y56.207 Z7.300 F500.000
G1 X63.257 Y56.207 Z7.300 F500.000
G1 X63.257 Y41.607 Z7.300 F500.000
G1 X35.435 Y41.607 Z7.300 F500.000
G0 Z27.241
G0 X36.279 Z27.241
G0 X36.279 Z25.241
G1 X36.279 Y41.607 Z7.300 F500.000
G1 X36.108 Y41.778 Z7.300 F500.000
G1 X36.134 Y41.774 Z7.300 F500.000
G1 X37.408 Y41.774 Z7.300 F500.000
G3 X37.889 Y41.977 Z7.300 I0.007 J0.653 K0.000 F500.000
G1 X38.259 Y41.607 Z7.300 F500.000
G1 X40.239 Y41.607 Z7.300 F500.000
G1 X38.556 Y43.289 Z7.300 F500.000
G1 X40.536 Y43.289 Z7.300 F500.000
G1 X42.218 Y41.607 Z7.300 F500.000
G1 X44.198 Y41.607 Z7.300 F500.000
G1 X42.516 Y43.289 Z7.300 F500.000
G1 X44.496 Y43.289 Z7.300 F500.000
G1 X46.178 Y41.607 Z7.300 F500.000
G1 X48.158 Y41.607 Z7.300 F500.000
G1 X45.389 Y44.376 Z7.300 F500.000
G0 Z27.241
G0 X45.413 Y52.272 Z27.241
G0 X45.413 Y52.272 Z25.241
G1 X45.413 Y52.272 Z7.300 F500.000
G1 X56.078 Y41.607 Z7.300 F500.000
G1 X54.098 Y41.607 Z7.300 F500.000
G1 X45.023 Y50.682 Z7.300 F500.000
G2 X44.722 Y50.605 Z7.300 I-0.270 J0.425 K0.000 F500.000
G1 X43.120 Y50.605 Z7.300 F500.000
G1 X52.118 Y41.607 Z7.300 F500.000
G1 X50.138 Y41.607 Z7.300 F500.000
G1 X41.141 Y50.605 Z7.300 F500.000
G1 X39.161 Y50.605 Z7.300 F500.000
G1 X38.088 Y50.605 Z7.300 F500.000
G1 X41.676 Y48.089 Z7.300 F500.000
G1 X39.161 Y50.605 Z7.300 F500.000
G0 Z27.241
G0 X35.454 Y50.352 Z27.241
G0 X35.454 Y50.352 Z25.241
G1 X35.454 Y50.352 Z7.300 F500.000
G2 X35.551 Y50.605 Z7.300 I0.438 J-0.023 K0.000 F500.000
G1 X35.201 Y50.605 Z7.300 F500.000
G1 X35.454 Y50.352 Z7.300 F500.000
G1 X35.434 Y50.227 Z7.300 F500.000
G1 X35.434 Y48.391 Z7.300 F500.000
G1 X33.131 Y50.695 Z7.300 F500.000
G2 X32.847 Y50.979 Z7.300 I0.185 J0.470 K0.000 F500.000
G1 X27.618 Y56.207 Z7.300 F500.000
G1 X25.639 Y56.207 Z7.300 F500.000
G1 X35.434 Y46.412 Z7.300 F500.000
G1 X35.434 Y46.067 Z7.300 F500.000
G1 X33.799 Y46.067 Z7.300 F500.000
G1 X23.659 Y56.207 Z7.300 F500.000
G1 X21.679 Y56.207 Z7.300 F500.000
G1 X32.757 Y45.129 Z7.300 F500.000
G1 X32.757 Y43.989 Z7.300 F500.000
G3 X33.457 Y43.289 Z7.300 I0.700 J-0.000 K0.000 F500.000
G1 X34.597 Y43.289 Z7.300 F500.000
G1 X35.438 Y42.448 Z7.300 F500.000
G3 X36.108 Y41.778 Z7.300 I0.686 J0.016 K0.000 F500.000
G1 X36.279 Y41.607 Z7.300 F500.000
G1 X34.299 Y41.607 Z7.300 F500.000
G1 X19.699 Y56.207 Z7.300 F500.000
G1 X17.719 Y56.207 Z7.300 F500.000
G1 X32.319 Y41.607 Z7.300 F500.000
G1 X30.339 Y41.607 Z7.300 F500.000
G1 X15.739 Y56.207 Z7.300 F500.000
G1 X13.759 Y56.207 Z7.300 F500.000
G1 X28.359 Y41.607 Z7.300 F500.000
G1 X26.379 Y41.607 Z7.300 F500.000
G1 X12.657 Y55.330 Z7.300 F500.000
G1 X12.657 Y53.350 Z7.300 F500.000
G1 X24.399 Y41.607 Z7.300 F500.000
G1 X22.419 Y41.607 Z7.300 F500.000
G1 X12.657 Y51.370 Z7.300 F500.000
G1 X12.657 Y49.390 Z7.300 F500.000
G1 X20.440 Y41.607 Z7.300 F500.000
G1 X18.460 Y41.607 Z7.300 F500.000
G1 X12.657 Y47.410 Z7.300 F500.000
G1 X12.657 Y45.430 Z7.300 F500.000
G1 X16.480 Y41.607 Z7.300 F500.000
G1 X14.500 Y41.607 Z7.300 F500.000
G1 X12.657 Y41.607 Z7.300 F500.000
G1 X12.657 Y43.450 Z7.300 F500.000
G1 X14.500 Y41.607 Z7.300 F500.000
G0 Z27.241
G0 X27.618 Y56.207 Z27.241
G0 X27.618 Y56.207 Z25.241
G1 X27.618 Y56.207 Z7.300 F500.000
G1 X32.847 Y50.979 Z7.300 F500.000
G2 X32.757 Y51.305 Z7.300 I0.456 J0.301 K0.000 F500.000
G1 X32.757 Y52.682 Z7.300 F500.000
G2 X32.830 Y52.975 Z7.300 I0.488 J0.034 K0.000 F500.000
G1 X29.598 Y56.207 Z7.300 F500.000
G1 X31.578 Y56.207 Z7.300 F500.000
G1 X34.403 Y53.382 Z7.300 F500.000
G1 X36.383 Y53.382 Z7.300 F500.000
G1 X33.558 Y56.207 Z7.300 F500.000
G1 X35.538 Y56.207 Z7.300 F500.000
G1 X38.363 Y53.382 Z7.300 F500.000
G1 X40.343 Y53.382 Z7.300 F500.000
G1 X37.518 Y56.207 Z7.300 F500.000
G1 X39.498 Y56.207 Z7.300 F500.000
G1 X39.955 Y55.750 Z7.300 F500.000
G2 X40.575 Y56.145 Z7.300 I0.608 J-0.271 K0.000 F500.000
G1 X41.540 Y56.145 Z7.300 F500.000
G1 X41.478 Y56.207 Z7.300 F500.000
G1 X43.458 Y56.207 Z7.300 F500.000
G1 X58.058 Y41.607 Z7.300 F500.000
G1 X60.038 Y41.607 Z7.300 F500.000
G1 X45.438 Y56.207 Z7.300 F500.000
G1 X47.417 Y56.207 Z7.300 F500.000
G1 X62.017 Y41.607 Z7.300 F500.000
G1 X63.257 Y41.607 Z7.300 F500.000
G1 X63.257 Y42.348 Z7.300 F500.000
G1 X49.397 Y56.207 Z7.300 F500.000
G1 X51.377 Y56.207 Z7.300 F500.000
G1 X63.257 Y44.328 Z7.300 F500.000
G1 X63.257 Y46.308 Z7.300 F500.000
G1 X53.357 Y56.207 Z7.300 F500.000
G1 X55.337 Y56.207 Z7.300 F500.000
G1 X63.257 Y48.288 Z7.300 F500.000
G1 X63.257 Y50.267 Z7.300 F500.000
G1 X57.317 Y56.207 Z7.300 F500.000
G1 X59.297 Y56.207 Z7.300 F500.000
G1 X63.257 Y52.247 Z7.300 F500.000
G1 X63.257 Y54.227 Z7.300 F500.000
G1 X61.277 Y56.207 Z7.300 F500.000
G1 X63.257 Y56.207 Z7.300 F500.000
G0 Z27.241
G0 X44.570 Y53.114 Z27.241
G0 X44.570 Y53.114 Z25.241
G1 X44.570 Y53.114 Z7.300 F500.000
G1 X43.458 Y54.227 Z7.300 F500.000
G3 X44.570 Y53.114 Z7.300 I3.938 J2.826 K0.000 F500.000
G0 Z27.241
G0 Z27.241
G0 X44.570 Y53.114
G0 X39.900 Y46.318
G0 X39.900 Y46.318 Z25.241
G1 X39.900 Y46.318 Z8.833 F500.000
G1 X40.265 Y46.067 Z8.833 F500.000
G1 X38.108 Y46.067 Z8.833 F500.000
G1 X38.108 Y47.549 Z8.833 F500.000
G1 X39.900 Y46.318 Z8.833 F500.000
G0 Z27.241
G0 X40.265 Y46.067 Z27.241
G0 X40.265 Y46.067 Z25.241
G1 X40.265 Y46.067 Z8.833 F500.000
G1 X39.092 Y46.873 Z8.833 F500.000
G1 X38.285 Y46.067 Z8.833 F500.000
G1 X38.108 Y46.067 Z8.833 F500.000
G1 X38.108 Y47.549 Z8.833 F500.000
G1 X39.092 Y46.873 Z8.833 F500.000
G1 X39.092 Y46.873 Z8.367 F500.000
G1 X38.108 Y47.549 Z8.367 F500.000
G1 X38.108 Y46.067 Z8.367 F500.000
G1 X38.285 Y46.067 Z8.367 F500.000
G1 X39.092 Y46.873 Z8.367 F500.000
G1 X40.265 Y46.067 Z8.367 F500.000
G0 Z27.241
G0 Y46.067 Z27.241
G0 Y46.067 Z25.241
G1 X40.265 Y46.067 Z8.367 F500.000
G1 X38.108 Y46.067 Z8.367 F500.000
G1 X38.108 Y47.549 Z8.367 F500.000
G1 X40.265 Y46.067 Z8.367 F500.000
G1 X40.265 Y46.067 Z7.900 F500.000
G1 X38.108 Y46.067 Z7.900 F500.000
G1 X38.108 Y47.549 Z7.900 F500.000
G1 X40.265 Y46.067 Z7.900 F500.000
G0 Z27.241
G0 Y46.067 Z27.241
G0 Y46.067 Z25.241
G1 X40.265 Y46.067 Z7.900 F500.000
G1 X39.092 Y46.873 Z7.900 F500.000
G1 X38.285 Y46.067 Z7.900 F500.000
G1 X38.108 Y46.067 Z7.900 F500.000
G1 X38.108 Y47.549 Z7.900 F500.000
G1 X39.092 Y46.873 Z7.900 F500.000
G1 X39.092 Y46.873 Z7.433 F500.000
G1 X40.265 Y46.067 Z7.433 F500.000
G1 X38.108 Y46.067 Z7.433 F500.000
G1 X38.108 Y47.549 Z7.433 F500.000
G1 X39.092 Y46.873 Z7.433 F500.000
G1 X39.092 Y46.873 Z7.433 F500.000
G1 X38.108 Y47.549 Z7.433 F500.000
G1 X38.108 Y46.067 Z7.433 F500.000
G1 X38.285 Y46.067 Z7.433 F500.000
G1 X39.092 Y46.873 Z7.433 F500.000
G1 X40.265 Y46.067 Z7.433 F500.000
G1 X40.265 Y46.067 Z7.300 F500.000
G1 X39.092 Y46.873 Z7.300 F500.000
G1 X38.285 Y46.067 Z7.300 F500.000
G1 X38.108 Y46.067 Z7.300 F500.000
G1 X38.108 Y47.549 Z7.300 F500.000
G1 X39.092 Y46.873 Z7.300 F500.000
G1 X39.092 Y46.873 Z7.300 F500.000
G1 X40.265 Y46.067 Z7.300 F500.000
G1 X38.108 Y46.067 Z7.300 F500.000
G1 X38.108 Y47.549 Z7.300 F500.000
G1 X39.092 Y46.873 Z7.300 F500.000
G0 Z27.241
G0 Z27.241
G0 X39.092 Y46.873
G0 X39.092 Y71.107
G0 X39.092 Y71.107 Z25.241
G1 X39.092 Y71.107 Z8.833 F500.000
G1 X12.657 Y71.107 Z8.833 F500.000
G1 X12.657 Y85.707 Z8.833 F500.000
G1 X63.257 Y85.707 Z8.833 F500.000
G1 X63.257 Y71.107 Z8.833 F500.000
G1 X39.092 Y71.107 Z8.833 F500.000
G0 Z27.241
G0 X38.690 Y71.758 Z27.241
G0 X38.690 Y71.758 Z25.241
G1 X38.690 Y71.758 Z8.833 F500.000
G3 X39.651 Y72.622 Z8.833 I-1.896 J3.074 K0.000 F500.000
G3 X42.245 Y71.814 Z8.833 I2.108 J2.196 K0.000 F500.000
G3 X45.366 Y75.020 Z8.833 I-0.588 J3.694 K0.000 F500.000
G3 X44.444 Y78.501 Z8.833 I-4.168 J0.759 K0.000 F500.000
G3 X41.967 Y79.811 Z8.833 I-3.101 J-2.868 K0.000 F500.000
G3 X41.119 Y79.256 Z8.833 I-0.160 J-0.681 K0.000 F500.000
G1 X40.866 Y77.878 Z8.833 F500.000
G3 X41.411 Y77.067 Z8.833 I0.689 J-0.126 K0.000 F500.000
G2 X42.228 Y76.837 Z8.833 I-0.305 J-2.651 K0.000 F500.000
G2 X42.909 Y75.736 Z8.833 I-0.433 J-1.029 K0.000 F500.000
G2 X42.134 Y74.626 Z8.833 I-1.089 J-0.066 K0.000 F500.000
G2 X40.991 Y74.986 Z8.833 I-0.301 J1.038 K0.000 F500.000
G2 X40.654 Y76.415 Z8.833 I1.782 J1.173 K0.000 F500.000
G3 X40.047 Y77.099 Z8.833 I-0.700 J-0.009 K0.000 F500.000
G1 X38.839 Y77.260 Z8.833 F500.000
G3 X38.053 Y76.664 Z8.833 I-0.092 J-0.694 K0.000 F500.000
G3 X38.161 Y75.845 Z8.833 I2.651 J-0.067 K0.000 F500.000
G2 X37.879 Y74.632 Z8.833 I-1.649 J-0.257 K0.000 F500.000
G2 X35.073 Y75.692 Z8.833 I-1.200 J1.068 K0.000 F500.000
G2 X35.812 Y76.921 Z8.833 I1.238 J0.092 K0.000 F500.000
G2 X36.766 Y77.220 Z8.833 I1.500 J-3.121 K0.000 F500.000
G3 X37.285 Y77.993 Z8.833 I-0.174 J0.678 K0.000 F500.000
G1 X37.094 Y79.371 Z8.833 F500.000
G3 X36.495 Y79.969 Z8.833 I-0.693 J-0.096 K0.000 F500.000
G3 X33.200 Y78.080 Z8.833 I0.126 J-4.041 K0.000 F500.000
G3 X33.236 Y73.220 Z8.833 I4.147 J-2.399 K0.000 F500.000
G3 X36.747 Y71.220 Z8.833 I3.451 J1.976 K0.000 F500.000
G3 X38.690 Y71.758 Z8.833 I0.047 J3.612 K0.000 F500.000
G0 Z27.241
G0 X37.412 Y74.249 Z27.241
G0 X37.412 Y74.249 Z25.241
G1 X37.412 Y74.249 Z8.833 F500.000
G2 X36.559 Y74.108 Z8.833 I-0.648 J1.262 K0.000 F500.000
G1 X38.169 Y75.718 Z8.833 F500.000
G2 X37.412 Y74.249 Z8.833 I-1.404 J-0.206 K0.000 F500.000
G0 Z27.241
G0 X39.608 Y77.157 Z27.241
G0 X39.608 Y77.157 Z25.241
G1 X39.608 Y77.157 Z8.833 F500.000
G1 X40.987 Y78.536 Z8.833 F500.000
G1 X40.866 Y77.878 Z8.833 F500.000
G3 X41.483 Y77.052 Z8.833 I0.696 J-0.124 K0.000 F500.000
G1 X40.657 Y76.226 Z8.833 F500.000
G3 X41.201 Y74.790 Z8.833 I1.697 J-0.179 K0.000 F500.000
G1 X42.764 Y76.353 Z8.833 F500.000
G2 X42.622 Y74.918 Z8.833 I-1.195 J-0.606 K0.000 F500.000
G2 X41.201 Y74.790 Z8.833 I-0.790 J0.814 K0.000 F500.000
G0 Z27.241
G0 X42.179 Y71.808 Z27.241
G0 X42.179 Y71.808 Z25.241
G1 X42.179 Y71.808 Z8.833 F500.000
G1 X41.478 Y71.107 Z8.833 F500.000
G1 X39.498 Y71.107 Z8.833 F500.000
G1 X40.461 Y72.070 Z8.833 F500.000
G2 X39.651 Y72.622 Z8.833 I0.972 J2.292 K0.000 F500.000
G2 X37.770 Y71.359 Z8.833 I-2.707 J1.999 K0.000 F500.000
G1 X37.518 Y71.107 Z8.833 F500.000
G1 X35.538 Y71.107 Z8.833 F500.000
G1 X35.768 Y71.338 Z8.833 F500.000
G2 X34.404 Y71.953 Z8.833 I0.662 J3.287 K0.000 F500.000
G1 X33.558 Y71.107 Z8.833 F500.000
G1 X31.578 Y71.107 Z8.833 F500.000
G1 X33.425 Y72.954 Z8.833 F500.000
G2 X32.767 Y74.276 Z8.833 I3.233 J2.437 K0.000 F500.000
G1 X29.598 Y71.107 Z8.833 F500.000
G1 X27.618 Y71.107 Z8.833 F500.000
G1 X32.575 Y76.063 Z8.833 F500.000
G2 X36.479 Y79.968 Z8.833 I4.054 J-0.150 K0.000 F500.000
G1 X36.616 Y80.105 Z8.833 F500.000
G1 X34.636 Y80.105 Z8.833 F500.000
G1 X25.639 Y71.107 Z8.833 F500.000
G1 X23.659 Y71.107 Z8.833 F500.000
G1 X32.917 Y80.366 Z8.833 F500.000
G2 X32.757 Y80.805 Z8.833 I0.501 J0.433 K0.000 F500.000
G1 X32.757 Y82.182 Z8.833 F500.000
G1 X32.757 Y82.186 Z8.833 F500.000
G1 X21.679 Y71.107 Z8.833 F500.000
G0 Z27.241
G0 X32.916 Y80.360 Z27.241
G0 X32.916 Y80.360 Z25.241
G1 X32.916 Y80.360 Z8.833 F500.000
G3 X33.457 Y80.105 Z8.833 I0.540 J0.445 K0.000 F500.000
G1 X44.722 Y80.105 Z8.833 F500.000
G3 X45.422 Y80.805 Z8.833 I-0.000 J0.700 K0.000 F500.000
G1 X45.422 Y81.700 Z8.833 F500.000
G3 X45.081 Y82.301 Z8.833 I-0.700 J-0.000 K0.000 F500.000
G2 X44.353 Y82.777 Z8.833 I1.948 J3.773 K0.000 F500.000
G2 X42.538 Y85.262 Z8.833 I4.659 J5.309 K0.000 F500.000
G3 X41.914 Y85.645 Z8.833 I-0.624 J-0.317 K0.000 F500.000
G1 X40.575 Y85.645 Z8.833 F500.000
G3 X39.877 Y84.886 Z8.833 I-0.000 J-0.700 K0.000 F500.000
G3 X40.825 Y82.882 Z8.833 I8.544 J2.817 K0.000 F500.000
G1 X33.457 Y82.882 Z8.833 F500.000
G3 X32.757 Y82.182 Z8.833 I0.000 J-0.700 K0.000 F500.000
G1 X32.757 Y80.805 Z8.833 F500.000
G3 X32.916 Y80.360 Z8.833 I0.700 J0.000 K0.000 F500.000
G0 Z27.241
G0 X36.616 Y80.105 Z27.241
G0 X36.616 Y80.105 Z25.241
G1 X36.616 Y80.105 Z8.833 F500.000
G1 X36.479 Y79.968 Z8.833 F500.000
G2 X37.028 Y79.587 Z8.833 I-0.068 J-0.683 K0.000 F500.000
G2 X37.188 Y78.696 Z8.833 I-2.640 J-0.934 K0.000 F500.000
G1 X38.596 Y80.105 Z8.833 F500.000
G1 X40.576 Y80.105 Z8.833 F500.000
G1 X35.318 Y74.847 Z8.833 F500.000
G3 X36.559 Y74.108 Z8.833 I1.331 J0.825 K0.000 F500.000
G1 X38.169 Y75.718 Z8.833 F500.000
G3 X38.057 Y76.446 Z8.833 I-3.232 J-0.124 K0.000 F500.000
G2 X38.839 Y77.260 Z8.833 I0.690 J0.120 K0.000 F500.000
G1 X39.608 Y77.157 Z8.833 F500.000
G1 X40.987 Y78.536 Z8.833 F500.000
G1 X41.119 Y79.256 Z8.833 F500.000
G2 X41.334 Y79.646 Z8.833 I0.689 J-0.126 K0.000 F500.000
G2 X42.206 Y79.755 Z8.833 I0.521 J-0.625 K0.000 F500.000
G1 X42.556 Y80.105 Z8.833 F500.000
G1 X44.535 Y80.105 Z8.833 F500.000
G1 X43.620 Y79.189 Z8.833 F500.000
G2 X44.648 Y78.237 Z8.833 I-1.701 J-2.867 K0.000 F500.000
G1 X52.118 Y85.707 Z8.833 F500.000
G1 X54.098 Y85.707 Z8.833 F500.000
G1 X45.278 Y76.888 Z8.833 F500.000
G2 X45.362 Y74.991 Z8.833 I-4.582 J-1.152 K0.000 F500.000
G1 X56.078 Y85.707 Z8.833 F500.000
G1 X58.058 Y85.707 Z8.833 F500.000
G1 X43.458 Y71.107 Z8.833 F500.000
G1 X45.438 Y71.107 Z8.833 F500.000
G1 X60.038 Y85.707 Z8.833 F500.000
G1 X62.017 Y85.707 Z8.833 F500.000
G1 X47.417 Y71.107 Z8.833 F500.000
G1 X49.397 Y71.107 Z8.833 F500.000
G1 X63.257 Y84.966 Z8.833 F500.000
G1 X63.257 Y82.987 Z8.833 F500.000
G1 X51.377 Y71.107 Z8.833 F500.000
G1 X53.357 Y71.107 Z8.833 F500.000
G1 X63.257 Y81.007 Z8.833 F500.000
G1 X63.257 Y79.027 Z8.833 F500.000
G1 X55.337 Y71.107 Z8.833 F500.000
G1 X57.317 Y71.107 Z8.833 F500.000
G1 X63.257 Y77.047 Z8.833 F500.000
G1 X63.257 Y75.067 Z8.833 F500.000
G1 X59.297 Y71.107 Z8.833 F500.000
G1 X61.277 Y71.107 Z8.833 F500.000
G1 X63.257 Y73.087 Z8.833 F500.000
G1 X63.257 Y71.107 Z8.833 F500.000
G0 Z27.241
G0 X45.422 Y80.991 Z27.241
G0 X45.422 Y80.991 Z25.241
G1 X45.422 Y80.991 Z8.833 F500.000
G1 X50.138 Y85.707 Z8.833 F500.000
G1 X48.158 Y85.707 Z8.833 F500.000
G1 X44.875 Y82.424 Z8.833 F500.000
G2 X43.789 Y83.318 Z8.833 I2.061 J3.612 K0.000 F500.000
G1 X46.178 Y85.707 Z8.833 F500.000
G1 X44.198 Y85.707 Z8.833 F500.000
G1 X42.961 Y84.470 Z8.833 F500.000
G2 X42.538 Y85.262 Z8.833 I6.681 J4.079 K0.000 F500.000
G3 X42.122 Y85.611 Z8.833 I-0.606 J-0.301 K0.000 F500.000
G1 X42.218 Y85.707 Z8.833 F500.000
G0 Z27.241
G0 X40.314 Y83.803 Z27.241
G0 X40.314 Y83.803 Z25.241
G1 X40.314 Y83.803 Z8.833 F500.000
G3 X40.825 Y82.882 Z8.833 I7.128 J3.354 K0.000 F500.000
G1 X39.393 Y82.882 Z8.833 F500.000
G1 X40.314 Y83.803 Z8.833 F500.000
G1 X39.935 Y84.662 Z8.833 F500.000
G2 X40.575 Y85.645 Z8.833 I0.640 J0.283 K0.000 F500.000
G1 X41.914 Y85.645 Z8.833 F500.000
G2 X42.122 Y85.611 Z8.833 I0.043 J-0.386 K0.000 F500.000
G1 X42.218 Y85.707 Z8.833 F500.000
G1 X40.239 Y85.707 Z8.833 F500.000
G1 X37.414 Y82.882 Z8.833 F500.000
G1 X35.434 Y82.882 Z8.833 F500.000
G1 X38.259 Y85.707 Z8.833 F500.000
G1 X36.279 Y85.707 Z8.833 F500.000
G1 X33.453 Y82.882 Z8.833 F500.000
G3 X32.757 Y82.186 Z8.833 I0.002 J-0.698 K0.000 F500.000
G1 X21.679 Y71.107 Z8.833 F500.000
G1 X19.699 Y71.107 Z8.833 F500.000
G1 X34.299 Y85.707 Z8.833 F500.000
G1 X32.319 Y85.707 Z8.833 F500.000
G1 X17.719 Y71.107 Z8.833 F500.000
G1 X15.739 Y71.107 Z8.833 F500.000
G1 X30.339 Y85.707 Z8.833 F500.000
G1 X28.359 Y85.707 Z8.833 F500.000
G1 X13.759 Y71.107 Z8.833 F500.000
G1 X12.657 Y71.107 Z8.833 F500.000
G1 X12.657 Y71.985 Z8.833 F500.000
G1 X26.379 Y85.707 Z8.833 F500.000
G1 X24.399 Y85.707 Z8.833 F500.000
G1 X12.657 Y73.964 Z8.833 F500.000
G1 X12.657 Y75.944 Z8.833 F500.000
G1 X22.419 Y85.707 Z8.833 F500.000
G1 X20.440 Y85.707 Z8.833 F500.000
G1 X12.657 Y77.924 Z8.833 F500.000
G1 X12.657 Y79.904 Z8.833 F500.000
G1 X18.460 Y85.707 Z8.833 F500.000
G1 X16.480 Y85.707 Z8.833 F500.000
G1 X12.657 Y81.884 Z8.833 F500.000
G1 X12.657 Y83.864 Z8.833 F500.000
G1 X12.657 Y85.707 Z8.833 F500.000
G1 X14.500 Y85.707 Z8.833 F500.000
G1 X12.657 Y83.864 Z8.833 F500.000
G1 X12.657 Y83.864 Z8.367 F500.000
G1 X14.500 Y85.707 Z8.367 F500.000
G1 X12.657 Y85.707 Z8.367 F500.000
G1 X12.657 Y83.864 Z8.367 F500.000
G1 X12.657 Y81.884 Z8.367 F500.000
G1 X16.480 Y85.707 Z8.367 F500.000
G1 X18.460 Y85.707 Z8.367 F500.000
G1 X12.657 Y79.904 Z8.367 F500.000
G1 X12.657 Y77.924 Z8.367 F500.000
G1 X20.440 Y85.707 Z8.367 F500.000
G1 X22.419 Y85.707 Z8.367 F500.000
G1 X12.657 Y75.944 Z8.367 F500.000
G1 X12.657 Y73.964 Z8.367 F500.000
G1 X24.399 Y85.707 Z8.367 F500.000
G1 X26.379 Y85.707 Z8.367 F500.000
G1 X12.657 Y71.985 Z8.367 F500.000
G1 X12.657 Y71.107 Z8.367 F500.000
G1 X13.759 Y71.107 Z8.367 F500.000
G1 X28.359 Y85.707 Z8.367 F500.000
G1 X30.339 Y85.707 Z8.367 F500.000
G1 X15.739 Y71.107 Z8.367 F500.000
G1 X17.719 Y71.107 Z8.367 F500.000
G1 X32.319 Y85.707 Z8.367 F500.000
G1 X34.299 Y85.707 Z8.367 F500.000
G1 X19.699 Y71.107 Z8.367 F500.000
G1 X21.679 Y71.107 Z8.367 F500.000
G1 X32.757 Y82.186 Z8.367 F500.000
G2 X33.453 Y82.882 Z8.367 I0.698 J-0.002 K0.000 F500.000
G1 X36.279 Y85.707 Z8.367 F500.000
G1 X38.259 Y85.707 Z8.367 F500.000
G1 X35.434 Y82.882 Z8.367 F500.000
G1 X37.414 Y82.882 Z8.367 F500.000
G1 X40.239 Y85.707 Z8.367 F500.000
G1 X42.218 Y85.707 Z8.367 F500.000
G1 X42.122 Y85.611 Z8.367 F500.000
G3 X41.914 Y85.645 Z8.367 I-0.165 J-0.352 K0.000 F500.000
G1 X40.575 Y85.645 Z8.367 F500.000
G3 X39.935 Y84.662 Z8.367 I0.000 J-0.700 K0.000 F500.000
G1 X40.314 Y83.803 Z8.367 F500.000
G1 X39.393 Y82.882 Z8.367 F500.000
G1 X40.825 Y82.882 Z8.367 F500.000
G2 X40.314 Y83.803 Z8.367 I6.617 J4.275 K0.000 F500.000
G0 Z27.241
G0 X40.314 Y83.803 Z27.241
G0 X40.314 Y83.803 Z25.241
G1 X40.314 Y83.803 Z8.367 F500.000
G3 X40.825 Y82.882 Z8.367 I8.108 J3.899 K0.000 F500.000
G1 X33.457 Y82.882 Z8.367 F500.000
G3 X32.757 Y82.182 Z8.367 I0.000 J-0.700 K0.000 F500.000
G1 X32.757 Y80.805 Z8.367 F500.000
G3 X33.457 Y80.105 Z8.367 I0.700 J0.000 K0.000 F500.000
G1 X44.722 Y80.105 Z8.367 F500.000
G3 X45.422 Y80.805 Z8.367 I-0.000 J0.700 K0.000 F500.000
G1 X45.422 Y81.700 Z8.367 F500.000
G3 X45.081 Y82.301 Z8.367 I-0.700 J-0.000 K0.000 F500.000
G2 X44.353 Y82.777 Z8.367 I1.948 J3.773 K0.000 F500.000
G2 X42.538 Y85.262 Z8.367 I4.659 J5.309 K0.000 F500.000
G3 X41.914 Y85.645 Z8.367 I-0.624 J-0.317 K0.000 F500.000
G1 X40.575 Y85.645 Z8.367 F500.000
G3 X39.877 Y84.886 Z8.367 I-0.000 J-0.700 K0.000 F500.000
G3 X40.314 Y83.803 Z8.367 I8.544 J2.817 K0.000 F500.000
G0 Z27.241
G0 Y85.707 Z27.241
G0 Y85.707 Z25.241
G1 X40.314 Y85.707 Z8.367 F500.000
G1 X63.257 Y85.707 Z8.367 F500.000
G1 X63.257 Y71.107 Z8.367 F500.000
G1 X12.657 Y71.107 Z8.367 F500.000
G1 X12.657 Y85.707 Z8.367 F500.000
G1 X40.314 Y85.707 Z8.367 F500.000
G0 Z27.241
G0 X42.218 Z27.241
G0 X42.218 Z25.241
G1 X42.218 Y85.707 Z8.367 F500.000
G1 X42.122 Y85.611 Z8.367 F500.000
G2 X42.538 Y85.262 Z8.367 I-0.190 J-0.649 K0.000 F500.000
G3 X42.961 Y84.470 Z8.367 I7.104 J3.287 K0.000 F500.000
G1 X44.198 Y85.707 Z8.367 F500.000
G1 X46.178 Y85.707 Z8.367 F500.000
G1 X43.789 Y83.318 Z8.367 F500.000
G3 X44.875 Y82.424 Z8.367 I3.147 J2.718 K0.000 F500.000
G1 X48.158 Y85.707 Z8.367 F500.000
G1 X50.138 Y85.707 Z8.367 F500.000
G1 X45.422 Y80.991 Z8.367 F500.000
G0 Z27.241
G0 X43.902 Y78.994 Z27.241
G0 X43.902 Y78.994 Z25.241
G1 X43.902 Y78.994 Z8.367 F500.000
G3 X41.967 Y79.811 Z8.367 I-2.559 J-3.361 K0.000 F500.000
G3 X41.119 Y79.256 Z8.367 I-0.160 J-0.681 K0.000 F500.000
G1 X40.866 Y77.878 Z8.367 F500.000
G3 X41.411 Y77.067 Z8.367 I0.689 J-0.126 K0.000 F500.000
G2 X42.228 Y76.837 Z8.367 I-0.305 J-2.651 K0.000 F500.000
G2 X42.909 Y75.736 Z8.367 I-0.433 J-1.029 K0.000 F500.000
G2 X42.134 Y74.626 Z8.367 I-1.089 J-0.066 K0.000 F500.000
G2 X40.991 Y74.986 Z8.367 I-0.301 J1.038 K0.000 F500.000
G2 X40.654 Y76.415 Z8.367 I1.782 J1.173 K0.000 F500.000
G3 X40.047 Y77.099 Z8.367 I-0.700 J-0.009 K0.000 F500.000
G1 X38.839 Y77.260 Z8.367 F500.000
G3 X38.053 Y76.664 Z8.367 I-0.092 J-0.694 K0.000 F500.000
G3 X38.161 Y75.845 Z8.367 I2.651 J-0.067 K0.000 F500.000
G2 X37.879 Y74.632 Z8.367 I-1.649 J-0.257 K0.000 F500.000
G2 X35.073 Y75.692 Z8.367 I-1.200 J1.068 K0.000 F500.000
G2 X35.812 Y76.921 Z8.367 I1.238 J0.092 K0.000 F500.000
G2 X36.766 Y77.220 Z8.367 I1.500 J-3.121 K0.000 F500.000
G3 X37.285 Y77.993 Z8.367 I-0.174 J0.678 K0.000 F500.000
G1 X37.094 Y79.371 Z8.367 F500.000
G3 X36.495 Y79.969 Z8.367 I-0.693 J-0.096 K0.000 F500.000
G3 X33.200 Y78.080 Z8.367 I0.126 J-4.041 K0.000 F500.000
G3 X33.236 Y73.220 Z8.367 I4.147 J-2.399 K0.000 F500.000
G3 X36.747 Y71.220 Z8.367 I3.451 J1.976 K0.000 F500.000
G3 X39.651 Y72.622 Z8.367 I0.047 J3.612 K0.000 F500.000
G3 X42.245 Y71.814 Z8.367 I2.108 J2.196 K0.000 F500.000
G3 X45.366 Y75.020 Z8.367 I-0.588 J3.694 K0.000 F500.000
G3 X44.444 Y78.501 Z8.367 I-4.168 J0.759 K0.000 F500.000
G3 X43.902 Y78.994 Z8.367 I-3.101 J-2.868 K0.000 F500.000
G0 Z27.241
G0 X39.608 Y77.157 Z27.241
G0 X39.608 Y77.157 Z25.241
G1 X39.608 Y77.157 Z8.367 F500.000
G1 X40.987 Y78.536 Z8.367 F500.000
G1 X40.866 Y77.878 Z8.367 F500.000
G3 X41.483 Y77.052 Z8.367 I0.696 J-0.124 K0.000 F500.000
G1 X40.657 Y76.226 Z8.367 F500.000
G3 X41.201 Y74.790 Z8.367 I1.697 J-0.179 K0.000 F500.000
G1 X42.764 Y76.353 Z8.367 F500.000
G2 X42.622 Y74.918 Z8.367 I-1.195 J-0.606 K0.000 F500.000
G2 X41.201 Y74.790 Z8.367 I-0.790 J0.814 K0.000 F500.000
G0 Z27.241
G0 X38.165 Y75.284 Z27.241
G0 X38.165 Y75.284 Z25.241
G1 X38.165 Y75.284 Z8.367 F500.000
G2 X36.559 Y74.108 Z8.367 I-1.400 J0.228 K0.000 F500.000
G1 X38.169 Y75.718 Z8.367 F500.000
G2 X38.165 Y75.284 Z8.367 I-1.404 J-0.206 K0.000 F500.000
G0 Z27.241
G0 X36.616 Y80.105 Z27.241
G0 X36.616 Y80.105 Z25.241
G1 X36.616 Y80.105 Z8.367 F500.000
G1 X36.479 Y79.968 Z8.367 F500.000
G2 X37.028 Y79.587 Z8.367 I-0.068 J-0.683 K0.000 F500.000
G2 X37.188 Y78.696 Z8.367 I-2.640 J-0.934 K0.000 F500.000
G1 X38.596 Y80.105 Z8.367 F500.000
G1 X40.576 Y80.105 Z8.367 F500.000
G1 X35.318 Y74.847 Z8.367 F500.000
G3 X36.559 Y74.108 Z8.367 I1.331 J0.825 K0.000 F500.000
G1 X38.169 Y75.718 Z8.367 F500.000
G3 X38.057 Y76.446 Z8.367 I-3.232 J-0.124 K0.000 F500.000
G2 X38.839 Y77.260 Z8.367 I0.690 J0.120 K0.000 F500.000
G1 X39.608 Y77.157 Z8.367 F500.000
G1 X40.987 Y78.536 Z8.367 F500.000
G1 X41.119 Y79.256 Z8.367 F500.000
G2 X41.334 Y79.646 Z8.367 I0.689 J-0.126 K0.000 F500.000
G2 X42.206 Y79.755 Z8.367 I0.521 J-0.625 K0.000 F500.000
G1 X42.556 Y80.105 Z8.367 F500.000
G1 X44.535 Y80.105 Z8.367 F500.000
G1 X43.620 Y79.189 Z8.367 F500.000
G2 X44.648 Y78.237 Z8.367 I-1.701 J-2.867 K0.000 F500.000
G1 X52.118 Y85.707 Z8.367 F500.000
G1 X54.098 Y85.707 Z8.367 F500.000
G1 X45.278 Y76.888 Z8.367 F500.000
G2 X45.362 Y74.991 Z8.367 I-4.582 J-1.152 K0.000 F500.000
G1 X56.078 Y85.707 Z8.367 F500.000
G1 X58.058 Y85.707 Z8.367 F500.000
G1 X43.458 Y71.107 Z8.367 F500.000
G1 X45.438 Y71.107 Z8.367 F500.000
G1 X60.038 Y85.707 Z8.367 F500.000
G1 X62.017 Y85.707 Z8.367 F500.000
G1 X47.417 Y71.107 Z8.367 F500.000
G1 X49.397 Y71.107 Z8.367 F500.000
G1 X63.257 Y84.966 Z8.367 F500.000
G1 X63.257 Y82.987 Z8.367 F500.000
G1 X51.377 Y71.107 Z8.367 F500.000
G1 X53.357 Y71.107 Z8.367 F500.000
G1 X63.257 Y81.007 Z8.367 F500.000
G1 X63.257 Y79.027 Z8.367 F500.000
G1 X55.337 Y71.107 Z8.367 F500.000
G1 X57.317 Y71.107 Z8.367 F500.000
G1 X63.257 Y77.047 Z8.367 F500.000
G1 X63.257 Y75.067 Z8.367 F500.000
G1 X59.297 Y71.107 Z8.367 F500.000
G1 X61.277 Y71.107 Z8.367 F500.000
G1 X63.257 Y73.087 Z8.367 F500.000
G1 X63.257 Y71.107 Z8.367 F500.000
G0 Z27.241
G0 X42.179 Y71.808 Z27.241
G0 X42.179 Y71.808 Z25.241
G1 X42.179 Y71.808 Z8.367 F500.000
G1 X41.478 Y71.107 Z8.367 F500.000
G1 X39.498 Y71.107 Z8.367 F500.000
G1 X40.461 Y72.070 Z8.367 F500.000
G2 X39.651 Y72.622 Z8.367 I0.972 J2.292 K0.000 F500.000
G2 X37.770 Y71.359 Z8.367 I-2.707 J1.999 K0.000 F500.000
G1 X37.518 Y71.107 Z8.367 F500.000
G1 X35.538 Y71.107 Z8.367 F500.000
G1 X35.768 Y71.338 Z8.367 F500.000
G2 X34.404 Y71.953 Z8.367 I0.662 J3.287 K0.000 F500.000
G1 X33.558 Y71.107 Z8.367 F500.000
G1 X31.578 Y71.107 Z8.367 F500.000
G1 X33.425 Y72.954 Z8.367 F500.000
G2 X32.767 Y74.276 Z8.367 I3.233 J2.437 K0.000 F500.000
G1 X29.598 Y71.107 Z8.367 F500.000
G1 X27.618 Y71.107 Z8.367 F500.000
G1 X32.575 Y76.063 Z8.367 F500.000
G2 X36.479 Y79.968 Z8.367 I4.054 J-0.150 K0.000 F500.000
G1 X36.616 Y80.105 Z8.367 F500.000
G1 X34.636 Y80.105 Z8.367 F500.000
G1 X25.639 Y71.107 Z8.367 F500.000
G1 X23.659 Y71.107 Z8.367 F500.000
G1 X32.917 Y80.366 Z8.367 F500.000
G2 X32.757 Y80.805 Z8.367 I0.501 J0.433 K0.000 F500.000
G1 X32.757 Y82.182 Z8.367 F500.000
G1 X32.757 Y82.186 Z8.367 F500.000
G1 X21.679 Y71.107 Z8.367 F500.000
G1 X21.679 Y71.107 Z7.900 F500.000
G1 X32.757 Y82.186 Z7.900 F500.000
G1 X32.757 Y82.182 Z7.900 F500.000
G1 X32.757 Y80.805 Z7.900 F500.000
G3 X32.917 Y80.366 Z7.900 I0.662 J-0.006 K0.000 F500.000
G1 X23.659 Y71.107 Z7.900 F500.000
G1 X25.639 Y71.107 Z7.900 F500.000
G1 X34.636 Y80.105 Z7.900 F500.000
G1 X36.616 Y80.105 Z7.900 F500.000
G1 X36.479 Y79.968 Z7.900 F500.000
G3 X32.575 Y76.063 Z7.900 I0.150 J-4.054 K0.000 F500.000
G1 X27.618 Y71.107 Z7.900 F500.000
G1 X29.598 Y71.107 Z7.900 F500.000
G1 X32.767 Y74.276 Z7.900 F500.000
G3 X33.425 Y72.954 Z7.900 I3.892 J1.115 K0.000 F500.000
G1 X31.578 Y71.107 Z7.900 F500.000
G1 X33.558 Y71.107 Z7.900 F500.000
G1 X34.404 Y71.953 Z7.900 F500.000
G3 X35.768 Y71.338 Z7.900 I2.026 J2.671 K0.000 F500.000
G1 X35.538 Y71.107 Z7.900 F500.000
G1 X37.518 Y71.107 Z7.900 F500.000
G1 X37.770 Y71.359 Z7.900 F500.000
G3 X39.651 Y72.622 Z7.900 I-0.826 J3.262 K0.000 F500.000
G3 X40.461 Y72.070 Z7.900 I1.781 J1.739 K0.000 F500.000
G1 X39.498 Y71.107 Z7.900 F500.000
G1 X41.478 Y71.107 Z7.900 F500.000
G1 X42.179 Y71.808 Z7.900 F500.000
G0 Z27.241
G0 X42.179 Y71.804 Z27.241
G0 X42.179 Y71.804 Z25.241
G1 X42.179 Y71.804 Z7.900 F500.000
G3 X42.245 Y71.814 Z7.900 I-0.420 J3.014 K0.000 F500.000
G3 X45.366 Y75.020 Z7.900 I-0.588 J3.694 K0.000 F500.000
G3 X44.444 Y78.501 Z7.900 I-4.168 J0.759 K0.000 F500.000
G3 X41.967 Y79.811 Z7.900 I-3.101 J-2.868 K0.000 F500.000
G3 X41.119 Y79.256 Z7.900 I-0.160 J-0.681 K0.000 F500.000
G1 X40.866 Y77.878 Z7.900 F500.000
G3 X41.411 Y77.067 Z7.900 I0.689 J-0.126 K0.000 F500.000
G2 X42.228 Y76.837 Z7.900 I-0.305 J-2.651 K0.000 F500.000
G2 X42.909 Y75.736 Z7.900 I-0.433 J-1.029 K0.000 F500.000
G2 X42.134 Y74.626 Z7.900 I-1.089 J-0.066 K0.000 F500.000
G2 X40.991 Y74.986 Z7.900 I-0.301 J1.038 K0.000 F500.000
G2 X40.654 Y76.415 Z7.900 I1.782 J1.173 K0.000 F500.000
G3 X40.047 Y77.099 Z7.900 I-0.700 J-0.009 K0.000 F500.000
G1 X38.839 Y77.260 Z7.900 F500.000
G3 X38.053 Y76.664 Z7.900 I-0.092 J-0.694 K0.000 F500.000
G3 X38.161 Y75.845 Z7.900 I2.651 J-0.067 K0.000 F500.000
G2 X37.879 Y74.632 Z7.900 I-1.649 J-0.257 K0.000 F500.000
G2 X35.073 Y75.692 Z7.900 I-1.200 J1.068 K0.000 F500.000
G2 X35.812 Y76.921 Z7.900 I1.238 J0.092 K0.000 F500.000
G2 X36.766 Y77.220 Z7.900 I1.500 J-3.121 K0.000 F500.000
G3 X37.285 Y77.993 Z7.900 I-0.174 J0.678 K0.000 F500.000
G1 X37.094 Y79.371 Z7.900 F500.000
G3 X36.495 Y79.969 Z7.900 I-0.693 J-0.096 K0.000 F500.000
G3 X33.200 Y78.080 Z7.900 I0.126 J-4.041 K0.000 F500.000
G3 X33.236 Y73.220 Z7.900 I4.147 J-2.399 K0.000 F500.000
G3 X36.747 Y71.220 Z7.900 I3.451 J1.976 K0.000 F500.000
G3 X39.651 Y72.622 Z7.900 I0.047 J3.612 K0.000 F500.000
G3 X42.179 Y71.804 Z7.900 I2.108 J2.196 K0.000 F500.000
G0 Z27.241
G0 Y71.107 Z27.241
G0 Y71.107 Z25.241
G1 X42.179 Y71.107 Z7.900 F500.000
G1 X12.657 Y71.107 Z7.900 F500.000
G1 X12.657 Y85.707 Z7.900 F500.000
G1 X63.257 Y85.707 Z7.900 F500.000
G1 X63.257 Y71.107 Z7.900 F500.000
G1 X42.179 Y71.107 Z7.900 F500.000
G0 Z27.241
G0 X41.201 Y74.790 Z27.241
G0 X41.201 Y74.790 Z25.241
G1 X41.201 Y74.790 Z7.900 F500.000
G3 X42.622 Y74.918 Z7.900 I0.631 J0.942 K0.000 F500.000
G3 X42.764 Y76.353 Z7.900 I-1.053 J0.829 K0.000 F500.000
G1 X41.201 Y74.790 Z7.900 F500.000
G2 X40.657 Y76.226 Z7.900 I1.153 J1.257 K0.000 F500.000
G1 X41.483 Y77.052 Z7.900 F500.000
G2 X40.866 Y77.878 Z7.900 I0.079 J0.702 K0.000 F500.000
G1 X40.987 Y78.536 Z7.900 F500.000
G1 X39.608 Y77.157 Z7.900 F500.000
G0 Z27.241
G0 X38.169 Y75.718 Z27.241
G0 X38.169 Y75.718 Z25.241
G1 X38.169 Y75.718 Z7.900 F500.000
G2 X36.559 Y74.108 Z7.900 I-1.404 J-0.206 K0.000 F500.000
G1 X38.169 Y75.718 Z7.900 F500.000
G0 Z27.241
G0 Y80.105 Z27.241
G0 Y80.105 Z25.241
G1 X38.169 Y80.105 Z7.900 F500.000
G1 X44.722 Y80.105 Z7.900 F500.000
G3 X45.422 Y80.805 Z7.900 I-0.000 J0.700 K0.000 F500.000
G1 X45.422 Y81.700 Z7.900 F500.000
G3 X45.081 Y82.301 Z7.900 I-0.700 J-0.000 K0.000 F500.000
G2 X44.353 Y82.777 Z7.900 I1.948 J3.773 K0.000 F500.000
G2 X42.538 Y85.262 Z7.900 I4.659 J5.309 K0.000 F500.000
G3 X41.914 Y85.645 Z7.900 I-0.624 J-0.317 K0.000 F500.000
G1 X40.575 Y85.645 Z7.900 F500.000
G3 X39.877 Y84.886 Z7.900 I-0.000 J-0.700 K0.000 F500.000
G3 X40.825 Y82.882 Z7.900 I8.544 J2.817 K0.000 F500.000
G1 X33.457 Y82.882 Z7.900 F500.000
G3 X32.757 Y82.182 Z7.900 I0.000 J-0.700 K0.000 F500.000
G1 X32.757 Y80.805 Z7.900 F500.000
G3 X33.457 Y80.105 Z7.900 I0.700 J0.000 K0.000 F500.000
G1 X38.169 Y80.105 Z7.900 F500.000
G0 Z27.241
G0 X36.616 Z27.241
G0 X36.616 Z25.241
G1 X36.616 Y80.105 Z7.900 F500.000
G1 X36.479 Y79.968 Z7.900 F500.000
G2 X37.028 Y79.587 Z7.900 I-0.068 J-0.683 K0.000 F500.000
G2 X37.188 Y78.696 Z7.900 I-2.640 J-0.934 K0.000 F500.000
G1 X38.596 Y80.105 Z7.900 F500.000
G1 X40.576 Y80.105 Z7.900 F500.000
G1 X35.318 Y74.847 Z7.900 F500.000
G3 X36.559 Y74.108 Z7.900 I1.331 J0.825 K0.000 F500.000
G1 X38.169 Y75.718 Z7.900 F500.000
G3 X38.057 Y76.446 Z7.900 I-3.232 J-0.124 K0.000 F500.000
G2 X38.839 Y77.260 Z7.900 I0.690 J0.120 K0.000 F500.000
G1 X39.608 Y77.157 Z7.900 F500.000
G1 X40.987 Y78.536 Z7.900 F500.000
G1 X41.119 Y79.256 Z7.900 F500.000
G2 X41.334 Y79.646 Z7.900 I0.689 J-0.126 K0.000 F500.000
G2 X42.206 Y79.755 Z7.900 I0.521 J-0.625 K0.000 F500.000
G1 X42.556 Y80.105 Z7.900 F500.000
G1 X44.535 Y80.105 Z7.900 F500.000
G1 X43.620 Y79.189 Z7.900 F500.000
G2 X44.648 Y78.237 Z7.900 I-1.701 J-2.867 K0.000 F500.000
G1 X52.118 Y85.707 Z7.900 F500.000
G1 X54.098 Y85.707 Z7.900 F500.000
G1 X45.278 Y76.888 Z7.900 F500.000
G2 X45.362 Y74.991 Z7.900 I-4.582 J-1.152 K0.000 F500.000
G1 X56.078 Y85.707 Z7.900 F500.000
G1 X58.058 Y85.707 Z7.900 F500.000
G1 X43.458 Y71.107 Z7.900 F500.000
G1 X45.438 Y71.107 Z7.900 F500.000
G1 X60.038 Y85.707 Z7.900 F500.000
G1 X62.017 Y85.707 Z7.900 F500.000
G1 X47.417 Y71.107 Z7.900 F500.000
G1 X49.397 Y71.107 Z7.900 F500.000
G1 X63.257 Y84.966 Z7.900 F500.000
G1 X63.257 Y82.987 Z7.900 F500.000
G1 X51.377 Y71.107 Z7.900 F500.000
G1 X53.357 Y71.107 Z7.900 F500.000
G1 X63.257 Y81.007 Z7.900 F500.000
G1 X63.257 Y79.027 Z7.900 F500.000
G1 X55.337 Y71.107 Z7.900 F500.000
G1 X57.317 Y71.107 Z7.900 F500.000
G1 X63.257 Y77.047 Z7.900 F500.000
G1 X63.257 Y75.067 Z7.900 F500.000
G1 X59.297 Y71.107 Z7.900 F500.000
G1 X61.277 Y71.107 Z7.900 F500.000
G1 X63.257 Y73.087 Z7.900 F500.000
G1 X63.257 Y71.107 Z7.900 F500.000
G0 Z27.241
G0 X45.422 Y80.991 Z27.241
G0 X45.422 Y80.991 Z25.241
G1 X45.422 Y80.991 Z7.900 F500.000
G1 X50.138 Y85.707 Z7.900 F500.000
G1 X48.158 Y85.707 Z7.900 F500.000
G1 X44.875 Y82.424 Z7.900 F500.000
G2 X43.789 Y83.318 Z7.900 I2.061 J3.612 K0.000 F500.000
G1 X46.178 Y85.707 Z7.900 F500.000
G1 X44.198 Y85.707 Z7.900 F500.000
G1 X42.961 Y84.470 Z7.900 F500.000
G2 X42.538 Y85.262 Z7.900 I6.681 J4.079 K0.000 F500.000
G3 X42.122 Y85.611 Z7.900 I-0.606 J-0.301 K0.000 F500.000
G1 X42.218 Y85.707 Z7.900 F500.000
G0 Z27.241
G0 X40.314 Y83.803 Z27.241
G0 X40.314 Y83.803 Z25.241
G1 X40.314 Y83.803 Z7.900 F500.000
G3 X40.825 Y82.882 Z7.900 I7.128 J3.354 K0.000 F500.000
G1 X39.393 Y82.882 Z7.900 F500.000
G1 X40.314 Y83.803 Z7.900 F500.000
G1 X39.935 Y84.662 Z7.900 F500.000
G2 X40.575 Y85.645 Z7.900 I0.640 J0.283 K0.000 F500.000
G1 X41.914 Y85.645 Z7.900 F500.000
G2 X42.122 Y85.611 Z7.900 I0.043 J-0.386 K0.000 F500.000
G1 X42.218 Y85.707 Z7.900 F500.000
G1 X40.239 Y85.707 Z7.900 F500.000
G1 X37.414 Y82.882 Z7.900 F500.000
G1 X35.434 Y82.882 Z7.900 F500.000
G1 X38.259 Y85.707 Z7.900 F500.000
G1 X36.279 Y85.707 Z7.900 F500.000
G1 X33.453 Y82.882 Z7.900 F500.000
G3 X32.757 Y82.186 Z7.900 I0.002 J-0.698 K0.000 F500.000
G1 X21.679 Y71.107 Z7.900 F500.000
G1 X19.699 Y71.107 Z7.900 F500.000
G1 X34.299 Y85.707 Z7.900 F500.000
G1 X32.319 Y85.707 Z7.900 F500.000
