(Exported by FreeCAD)
(Post Processor: grbl_post)
(Output Time:2024-03-16 07:36:09.689346)
(Begin preamble)
G17 G90
G21
(Begin operation: Fixture)
(Path: Fixture)
G54
(Finish operation: Fixture)
(Begin operation: 1.0mm-endmill004)
(Path: 1.0mm-endmill004)
(1.0mm-endmill004)
(Begin toolchange)
( M6 T5 )
M3 S500
(Finish operation: 1.0mm-endmill004)
(Begin operation: Pocket_Shape001)
(Path: Pocket_Shape001)
(Pocket_Shape001)
G0 Z14.300
G0 X0.000 Y0.000
G0 X86.542 Y102.708
G0 X86.542 Y102.708 Z12.300
G1 X86.542 Y102.708 Z8.750 F200.000
G1 X86.542 Y149.708 Z8.750 F200.000
G1 X109.292 Y149.708 Z8.750 F200.000
G1 X109.292 Y102.708 Z8.750 F200.000
G1 X86.542 Y102.708 Z8.750 F200.000
G1 X86.542 Y102.708 Z8.500 F200.000
G1 X86.542 Y149.708 Z8.500 F200.000
G1 X109.292 Y149.708 Z8.500 F200.000
G1 X109.292 Y102.708 Z8.500 F200.000
G1 X86.542 Y102.708 Z8.500 F200.000
G1 X86.542 Y102.708 Z8.250 F200.000
G1 X86.542 Y149.708 Z8.250 F200.000
G1 X109.292 Y149.708 Z8.250 F200.000
G1 X109.292 Y102.708 Z8.250 F200.000
G1 X86.542 Y102.708 Z8.250 F200.000
G1 X86.542 Y102.708 Z8.000 F200.000
G1 X86.542 Y149.708 Z8.000 F200.000
G1 X109.292 Y149.708 Z8.000 F200.000
G1 X109.292 Y102.708 Z8.000 F200.000
G1 X86.542 Y102.708 Z8.000 F200.000
G1 X86.542 Y102.708 Z7.750 F200.000
G1 X86.542 Y149.708 Z7.750 F200.000
G1 X109.292 Y149.708 Z7.750 F200.000
G1 X109.292 Y102.708 Z7.750 F200.000
G1 X86.542 Y102.708 Z7.750 F200.000
G1 X86.542 Y102.708 Z7.500 F200.000
G1 X86.542 Y149.708 Z7.500 F200.000
G1 X109.292 Y149.708 Z7.500 F200.000
G1 X109.292 Y102.708 Z7.500 F200.000
G1 X86.542 Y102.708 Z7.500 F200.000
G1 X86.542 Y102.708 Z7.250 F200.000
G1 X86.542 Y149.708 Z7.250 F200.000
G1 X109.292 Y149.708 Z7.250 F200.000
G1 X109.292 Y102.708 Z7.250 F200.000
G1 X86.542 Y102.708 Z7.250 F200.000
G1 X86.542 Y102.708 Z7.000 F200.000
G1 X86.542 Y149.708 Z7.000 F200.000
G1 X109.292 Y149.708 Z7.000 F200.000
G1 X109.292 Y102.708 Z7.000 F200.000
G1 X86.542 Y102.708 Z7.000 F200.000
G0 Z14.300
G0 X94.109 Y121.930 Z14.300
G0 X94.109 Y121.930 Z12.300
G1 X94.109 Y121.930 Z8.750 F200.000
G3 X96.085 Y121.583 Z8.750 I1.839 J4.671 K0.000 F200.000
G3 X100.536 Y127.312 Z8.750 I0.172 J4.460 K0.000 F200.000
G1 X101.676 Y127.082 Z8.750 F200.000
G1 X101.676 Y122.907 Z8.750 F200.000
G3 X102.426 Y122.157 Z8.750 I0.750 J-0.000 K0.000 F200.000
G1 X103.860 Y122.157 Z8.750 F200.000
G3 X104.610 Y122.907 Z8.750 I-0.000 J0.750 K0.000 F200.000
G1 X104.610 Y128.868 Z8.750 F200.000
G3 X103.999 Y129.605 Z8.750 I-0.750 J-0.000 K0.000 F200.000
G1 X97.760 Y130.778 Z8.750 F200.000
G3 X96.877 Y130.129 Z8.750 I-0.139 J-0.737 K0.000 F200.000
G1 X96.711 Y128.735 Z8.750 F200.000
G3 X96.999 Y128.052 Z8.750 I0.745 J-0.089 K0.000 F200.000
G2 X97.860 Y126.465 Z8.750 I-0.862 J-1.495 K0.000 F200.000
G2 X96.882 Y124.848 Z8.750 I-1.650 J-0.107 K0.000 F200.000
G2 X94.635 Y124.967 Z8.750 I-0.988 J2.618 K0.000 F200.000
G2 X94.095 Y127.435 Z8.750 I0.705 J1.447 K0.000 F200.000
G2 X95.422 Y128.022 Z8.750 I1.503 J-1.604 K0.000 F200.000
G3 X96.002 Y128.809 Z8.750 I-0.168 J0.731 K0.000 F200.000
G1 X95.887 Y130.350 Z8.750 F200.000
G3 X95.240 Y131.038 Z8.750 I-0.748 J-0.055 K0.000 F200.000
G3 X92.452 Y129.944 Z8.750 I0.077 J-4.294 K0.000 F200.000
G3 X91.608 Y124.079 Z8.750 I3.645 J-3.518 K0.000 F200.000
G3 X94.109 Y121.930 Z8.750 I4.340 J2.522 K0.000 F200.000
G1 X94.109 Y121.930 Z8.500 F200.000
G3 X96.085 Y121.583 Z8.500 I1.839 J4.671 K0.000 F200.000
G3 X100.536 Y127.312 Z8.500 I0.172 J4.460 K0.000 F200.000
G1 X101.676 Y127.082 Z8.500 F200.000
G1 X101.676 Y122.907 Z8.500 F200.000
G3 X102.426 Y122.157 Z8.500 I0.750 J-0.000 K0.000 F200.000
G1 X103.860 Y122.157 Z8.500 F200.000
G3 X104.610 Y122.907 Z8.500 I-0.000 J0.750 K0.000 F200.000
G1 X104.610 Y128.868 Z8.500 F200.000
G3 X103.999 Y129.605 Z8.500 I-0.750 J-0.000 K0.000 F200.000
G1 X97.760 Y130.778 Z8.500 F200.000
G3 X96.877 Y130.129 Z8.500 I-0.139 J-0.737 K0.000 F200.000
G1 X96.711 Y128.735 Z8.500 F200.000
G3 X96.999 Y128.052 Z8.500 I0.745 J-0.089 K0.000 F200.000
G2 X97.860 Y126.465 Z8.500 I-0.862 J-1.495 K0.000 F200.000
G2 X96.882 Y124.848 Z8.500 I-1.650 J-0.107 K0.000 F200.000
G2 X94.635 Y124.967 Z8.500 I-0.988 J2.618 K0.000 F200.000
G2 X94.095 Y127.435 Z8.500 I0.705 J1.447 K0.000 F200.000
G2 X95.422 Y128.022 Z8.500 I1.503 J-1.604 K0.000 F200.000
G3 X96.002 Y128.809 Z8.500 I-0.168 J0.731 K0.000 F200.000
G1 X95.887 Y130.350 Z8.500 F200.000
G3 X95.240 Y131.038 Z8.500 I-0.748 J-0.055 K0.000 F200.000
G3 X92.452 Y129.944 Z8.500 I0.077 J-4.294 K0.000 F200.000
G3 X91.608 Y124.079 Z8.500 I3.645 J-3.518 K0.000 F200.000
G3 X94.109 Y121.930 Z8.500 I4.340 J2.522 K0.000 F200.000
G1 X94.109 Y121.930 Z8.250 F200.000
G3 X96.085 Y121.583 Z8.250 I1.839 J4.671 K0.000 F200.000
G3 X100.536 Y127.312 Z8.250 I0.172 J4.460 K0.000 F200.000
G1 X101.676 Y127.082 Z8.250 F200.000
G1 X101.676 Y122.907 Z8.250 F200.000
G3 X102.426 Y122.157 Z8.250 I0.750 J-0.000 K0.000 F200.000
G1 X103.860 Y122.157 Z8.250 F200.000
G3 X104.610 Y122.907 Z8.250 I-0.000 J0.750 K0.000 F200.000
G1 X104.610 Y128.868 Z8.250 F200.000
G3 X103.999 Y129.605 Z8.250 I-0.750 J-0.000 K0.000 F200.000
G1 X97.760 Y130.778 Z8.250 F200.000
G3 X96.877 Y130.129 Z8.250 I-0.139 J-0.737 K0.000 F200.000
G1 X96.711 Y128.735 Z8.250 F200.000
G3 X96.999 Y128.052 Z8.250 I0.745 J-0.089 K0.000 F200.000
G2 X97.860 Y126.465 Z8.250 I-0.862 J-1.495 K0.000 F200.000
G2 X96.882 Y124.848 Z8.250 I-1.650 J-0.107 K0.000 F200.000
G2 X94.635 Y124.967 Z8.250 I-0.988 J2.618 K0.000 F200.000
G2 X94.095 Y127.435 Z8.250 I0.705 J1.447 K0.000 F200.000
G2 X95.422 Y128.022 Z8.250 I1.503 J-1.604 K0.000 F200.000
G3 X96.002 Y128.809 Z8.250 I-0.168 J0.731 K0.000 F200.000
G1 X95.887 Y130.350 Z8.250 F200.000
G3 X95.240 Y131.038 Z8.250 I-0.748 J-0.055 K0.000 F200.000
G3 X92.452 Y129.944 Z8.250 I0.077 J-4.294 K0.000 F200.000
G3 X91.608 Y124.079 Z8.250 I3.645 J-3.518 K0.000 F200.000
G3 X94.109 Y121.930 Z8.250 I4.340 J2.522 K0.000 F200.000
G1 X94.109 Y121.930 Z8.000 F200.000
G3 X96.085 Y121.583 Z8.000 I1.839 J4.671 K0.000 F200.000
G3 X100.536 Y127.312 Z8.000 I0.172 J4.460 K0.000 F200.000
G1 X101.676 Y127.082 Z8.000 F200.000
G1 X101.676 Y122.907 Z8.000 F200.000
G3 X102.426 Y122.157 Z8.000 I0.750 J-0.000 K0.000 F200.000
G1 X103.860 Y122.157 Z8.000 F200.000
G3 X104.610 Y122.907 Z8.000 I-0.000 J0.750 K0.000 F200.000
G1 X104.610 Y128.868 Z8.000 F200.000
G3 X103.999 Y129.605 Z8.000 I-0.750 J-0.000 K0.000 F200.000
G1 X97.760 Y130.778 Z8.000 F200.000
G3 X96.877 Y130.129 Z8.000 I-0.139 J-0.737 K0.000 F200.000
G1 X96.711 Y128.735 Z8.000 F200.000
G3 X96.999 Y128.052 Z8.000 I0.745 J-0.089 K0.000 F200.000
G2 X97.860 Y126.465 Z8.000 I-0.862 J-1.495 K0.000 F200.000
G2 X96.882 Y124.848 Z8.000 I-1.650 J-0.107 K0.000 F200.000
G2 X94.635 Y124.967 Z8.000 I-0.988 J2.618 K0.000 F200.000
G2 X94.095 Y127.435 Z8.000 I0.705 J1.447 K0.000 F200.000
G2 X95.422 Y128.022 Z8.000 I1.503 J-1.604 K0.000 F200.000
G3 X96.002 Y128.809 Z8.000 I-0.168 J0.731 K0.000 F200.000
G1 X95.887 Y130.350 Z8.000 F200.000
G3 X95.240 Y131.038 Z8.000 I-0.748 J-0.055 K0.000 F200.000
G3 X92.452 Y129.944 Z8.000 I0.077 J-4.294 K0.000 F200.000
G3 X91.608 Y124.079 Z8.000 I3.645 J-3.518 K0.000 F200.000
G3 X94.109 Y121.930 Z8.000 I4.340 J2.522 K0.000 F200.000
G1 X94.109 Y121.930 Z7.750 F200.000
G3 X96.085 Y121.583 Z7.750 I1.839 J4.671 K0.000 F200.000
G3 X100.536 Y127.312 Z7.750 I0.172 J4.460 K0.000 F200.000
G1 X101.676 Y127.082 Z7.750 F200.000
G1 X101.676 Y122.907 Z7.750 F200.000
G3 X102.426 Y122.157 Z7.750 I0.750 J-0.000 K0.000 F200.000
G1 X103.860 Y122.157 Z7.750 F200.000
G3 X104.610 Y122.907 Z7.750 I-0.000 J0.750 K0.000 F200.000
G1 X104.610 Y128.868 Z7.750 F200.000
G3 X103.999 Y129.605 Z7.750 I-0.750 J-0.000 K0.000 F200.000
G1 X97.760 Y130.778 Z7.750 F200.000
G3 X96.877 Y130.129 Z7.750 I-0.139 J-0.737 K0.000 F200.000
G1 X96.711 Y128.735 Z7.750 F200.000
G3 X96.999 Y128.052 Z7.750 I0.745 J-0.089 K0.000 F200.000
G2 X97.860 Y126.465 Z7.750 I-0.862 J-1.495 K0.000 F200.000
G2 X96.882 Y124.848 Z7.750 I-1.650 J-0.107 K0.000 F200.000
G2 X94.635 Y124.967 Z7.750 I-0.988 J2.618 K0.000 F200.000
G2 X94.095 Y127.435 Z7.750 I0.705 J1.447 K0.000 F200.000
G2 X95.422 Y128.022 Z7.750 I1.503 J-1.604 K0.000 F200.000
G3 X96.002 Y128.809 Z7.750 I-0.168 J0.731 K0.000 F200.000
G1 X95.887 Y130.350 Z7.750 F200.000
G3 X95.240 Y131.038 Z7.750 I-0.748 J-0.055 K0.000 F200.000
G3 X92.452 Y129.944 Z7.750 I0.077 J-4.294 K0.000 F200.000
G3 X91.608 Y124.079 Z7.750 I3.645 J-3.518 K0.000 F200.000
G3 X94.109 Y121.930 Z7.750 I4.340 J2.522 K0.000 F200.000
G1 X94.109 Y121.930 Z7.500 F200.000
G3 X96.085 Y121.583 Z7.500 I1.839 J4.671 K0.000 F200.000
G3 X100.536 Y127.312 Z7.500 I0.172 J4.460 K0.000 F200.000
G1 X101.676 Y127.082 Z7.500 F200.000
G1 X101.676 Y122.907 Z7.500 F200.000
G3 X102.426 Y122.157 Z7.500 I0.750 J-0.000 K0.000 F200.000
G1 X103.860 Y122.157 Z7.500 F200.000
G3 X104.610 Y122.907 Z7.500 I-0.000 J0.750 K0.000 F200.000
G1 X104.610 Y128.868 Z7.500 F200.000
G3 X103.999 Y129.605 Z7.500 I-0.750 J-0.000 K0.000 F200.000
G1 X97.760 Y130.778 Z7.500 F200.000
G3 X96.877 Y130.129 Z7.500 I-0.139 J-0.737 K0.000 F200.000
G1 X96.711 Y128.735 Z7.500 F200.000
G3 X96.999 Y128.052 Z7.500 I0.745 J-0.089 K0.000 F200.000
G2 X97.860 Y126.465 Z7.500 I-0.862 J-1.495 K0.000 F200.000
G2 X96.882 Y124.848 Z7.500 I-1.650 J-0.107 K0.000 F200.000
G2 X94.635 Y124.967 Z7.500 I-0.988 J2.618 K0.000 F200.000
G2 X94.095 Y127.435 Z7.500 I0.705 J1.447 K0.000 F200.000
G2 X95.422 Y128.022 Z7.500 I1.503 J-1.604 K0.000 F200.000
G3 X96.002 Y128.809 Z7.500 I-0.168 J0.731 K0.000 F200.000
G1 X95.887 Y130.350 Z7.500 F200.000
G3 X95.240 Y131.038 Z7.500 I-0.748 J-0.055 K0.000 F200.000
G3 X92.452 Y129.944 Z7.500 I0.077 J-4.294 K0.000 F200.000
G3 X91.608 Y124.079 Z7.500 I3.645 J-3.518 K0.000 F200.000
G3 X94.109 Y121.930 Z7.500 I4.340 J2.522 K0.000 F200.000
G1 X94.109 Y121.930 Z7.250 F200.000
G3 X96.085 Y121.583 Z7.250 I1.839 J4.671 K0.000 F200.000
G3 X100.536 Y127.312 Z7.250 I0.172 J4.460 K0.000 F200.000
G1 X101.676 Y127.082 Z7.250 F200.000
G1 X101.676 Y122.907 Z7.250 F200.000
G3 X102.426 Y122.157 Z7.250 I0.750 J-0.000 K0.000 F200.000
G1 X103.860 Y122.157 Z7.250 F200.000
G3 X104.610 Y122.907 Z7.250 I-0.000 J0.750 K0.000 F200.000
G1 X104.610 Y128.868 Z7.250 F200.000
G3 X103.999 Y129.605 Z7.250 I-0.750 J-0.000 K0.000 F200.000
G1 X97.760 Y130.778 Z7.250 F200.000
G3 X96.877 Y130.129 Z7.250 I-0.139 J-0.737 K0.000 F200.000
G1 X96.711 Y128.735 Z7.250 F200.000
G3 X96.999 Y128.052 Z7.250 I0.745 J-0.089 K0.000 F200.000
G2 X97.860 Y126.465 Z7.250 I-0.862 J-1.495 K0.000 F200.000
G2 X96.882 Y124.848 Z7.250 I-1.650 J-0.107 K0.000 F200.000
G2 X94.635 Y124.967 Z7.250 I-0.988 J2.618 K0.000 F200.000
G2 X94.095 Y127.435 Z7.250 I0.705 J1.447 K0.000 F200.000
G2 X95.422 Y128.022 Z7.250 I1.503 J-1.604 K0.000 F200.000
G3 X96.002 Y128.809 Z7.250 I-0.168 J0.731 K0.000 F200.000
G1 X95.887 Y130.350 Z7.250 F200.000
G3 X95.240 Y131.038 Z7.250 I-0.748 J-0.055 K0.000 F200.000
G3 X92.452 Y129.944 Z7.250 I0.077 J-4.294 K0.000 F200.000
G3 X91.608 Y124.079 Z7.250 I3.645 J-3.518 K0.000 F200.000
G3 X94.109 Y121.930 Z7.250 I4.340 J2.522 K0.000 F200.000
G1 X94.109 Y121.930 Z7.000 F200.000
G3 X96.085 Y121.583 Z7.000 I1.839 J4.671 K0.000 F200.000
G3 X100.536 Y127.312 Z7.000 I0.172 J4.460 K0.000 F200.000
G1 X101.676 Y127.082 Z7.000 F200.000
G1 X101.676 Y122.907 Z7.000 F200.000
G3 X102.426 Y122.157 Z7.000 I0.750 J-0.000 K0.000 F200.000
G1 X103.860 Y122.157 Z7.000 F200.000
G3 X104.610 Y122.907 Z7.000 I-0.000 J0.750 K0.000 F200.000
G1 X104.610 Y128.868 Z7.000 F200.000
G3 X103.999 Y129.605 Z7.000 I-0.750 J-0.000 K0.000 F200.000
G1 X97.760 Y130.778 Z7.000 F200.000
G3 X96.877 Y130.129 Z7.000 I-0.139 J-0.737 K0.000 F200.000
G1 X96.711 Y128.735 Z7.000 F200.000
G3 X96.999 Y128.052 Z7.000 I0.745 J-0.089 K0.000 F200.000
G2 X97.860 Y126.465 Z7.000 I-0.862 J-1.495 K0.000 F200.000
G2 X96.882 Y124.848 Z7.000 I-1.650 J-0.107 K0.000 F200.000
G2 X94.635 Y124.967 Z7.000 I-0.988 J2.618 K0.000 F200.000
G2 X94.095 Y127.435 Z7.000 I0.705 J1.447 K0.000 F200.000
G2 X95.422 Y128.022 Z7.000 I1.503 J-1.604 K0.000 F200.000
G3 X96.002 Y128.809 Z7.000 I-0.168 J0.731 K0.000 F200.000
G1 X95.887 Y130.350 Z7.000 F200.000
G3 X95.240 Y131.038 Z7.000 I-0.748 J-0.055 K0.000 F200.000
G3 X92.452 Y129.944 Z7.000 I0.077 J-4.294 K0.000 F200.000
G3 X91.608 Y124.079 Z7.000 I3.645 J-3.518 K0.000 F200.000
G3 X94.109 Y121.930 Z7.000 I4.340 J2.522 K0.000 F200.000
G0 Z14.300
G0 X96.736 Y124.800 Z14.300
G0 X96.736 Y124.800 Z12.300
G1 X96.736 Y124.800 Z8.750 F200.000
G3 X97.765 Y125.830 Z8.750 I-0.440 J1.470 K0.000 F200.000
G1 X96.736 Y124.800 Z8.750 F200.000
G2 X95.896 Y124.668 Z8.750 I-0.747 J2.013 K0.000 F200.000
G1 X97.848 Y126.620 Z8.750 F200.000
G3 X97.726 Y127.205 Z8.750 I-1.348 J0.024 K0.000 F200.000
G1 X95.261 Y124.741 Z8.750 F200.000
G2 X94.736 Y124.922 Z8.750 I0.255 J1.588 K0.000 F200.000
G1 X97.464 Y127.650 Z8.750 F200.000
G3 X97.089 Y127.982 Z8.750 I-1.295 J-1.085 K0.000 F200.000
G1 X94.301 Y125.195 Z8.750 F200.000
G2 X93.970 Y125.570 Z8.750 I0.816 J1.054 K0.000 F200.000
G1 X96.762 Y128.363 Z8.750 F200.000
G2 X96.749 Y129.057 Z8.750 I1.319 J0.372 K0.000 F200.000
G1 X93.769 Y126.077 Z8.750 F200.000
G2 X93.767 Y126.782 Z8.750 I1.676 J0.358 K0.000 F200.000
G1 X94.880 Y127.895 Z8.750 F200.000
G3 X93.793 Y126.900 Z8.750 I0.310 J-1.431 K0.000 F200.000
G1 X93.767 Y126.782 Z8.750 F200.000
G1 X93.767 Y126.782 Z8.500 F200.000
G1 X93.793 Y126.900 Z8.500 F200.000
G2 X94.880 Y127.895 Z8.500 I1.398 J-0.436 K0.000 F200.000
G1 X93.767 Y126.782 Z8.500 F200.000
G3 X93.769 Y126.077 Z8.500 I1.678 J-0.346 K0.000 F200.000
G1 X96.749 Y129.057 Z8.500 F200.000
G3 X96.762 Y128.363 Z8.500 I1.332 J-0.322 K0.000 F200.000
G1 X93.970 Y125.570 Z8.500 F200.000
G3 X94.301 Y125.195 Z8.500 I1.148 J0.679 K0.000 F200.000
G1 X97.089 Y127.982 Z8.500 F200.000
G2 X97.464 Y127.650 Z8.500 I-0.920 J-1.417 K0.000 F200.000
G1 X94.736 Y124.922 Z8.500 F200.000
G3 X95.261 Y124.741 Z8.500 I0.780 J1.406 K0.000 F200.000
G1 X97.726 Y127.205 Z8.500 F200.000
G2 X97.848 Y126.620 Z8.500 I-1.226 J-0.561 K0.000 F200.000
G1 X95.896 Y124.668 Z8.500 F200.000
G3 X96.736 Y124.800 Z8.500 I0.092 J2.146 K0.000 F200.000
G1 X97.765 Y125.830 Z8.500 F200.000
G2 X96.736 Y124.800 Z8.500 I-1.470 J0.440 K0.000 F200.000
G1 X96.736 Y124.800 Z8.250 F200.000
G3 X97.765 Y125.830 Z8.250 I-0.440 J1.470 K0.000 F200.000
G1 X96.736 Y124.800 Z8.250 F200.000
G2 X95.896 Y124.668 Z8.250 I-0.747 J2.013 K0.000 F200.000
G1 X97.848 Y126.620 Z8.250 F200.000
G3 X97.726 Y127.205 Z8.250 I-1.348 J0.024 K0.000 F200.000
G1 X95.261 Y124.741 Z8.250 F200.000
G2 X94.736 Y124.922 Z8.250 I0.255 J1.588 K0.000 F200.000
G1 X97.464 Y127.650 Z8.250 F200.000
G3 X97.089 Y127.982 Z8.250 I-1.295 J-1.085 K0.000 F200.000
G1 X94.301 Y125.195 Z8.250 F200.000
G2 X93.970 Y125.570 Z8.250 I0.816 J1.054 K0.000 F200.000
G1 X96.762 Y128.363 Z8.250 F200.000
G2 X96.749 Y129.057 Z8.250 I1.319 J0.372 K0.000 F200.000
G1 X93.769 Y126.077 Z8.250 F200.000
G2 X93.767 Y126.782 Z8.250 I1.676 J0.358 K0.000 F200.000
G1 X94.880 Y127.895 Z8.250 F200.000
G3 X93.793 Y126.900 Z8.250 I0.310 J-1.431 K0.000 F200.000
G1 X93.767 Y126.782 Z8.250 F200.000
G1 X93.767 Y126.782 Z8.000 F200.000
G1 X93.793 Y126.900 Z8.000 F200.000
G2 X94.880 Y127.895 Z8.000 I1.398 J-0.436 K0.000 F200.000
G1 X93.767 Y126.782 Z8.000 F200.000
G3 X93.769 Y126.077 Z8.000 I1.678 J-0.346 K0.000 F200.000
G1 X96.749 Y129.057 Z8.000 F200.000
G3 X96.762 Y128.363 Z8.000 I1.332 J-0.322 K0.000 F200.000
G1 X93.970 Y125.570 Z8.000 F200.000
G3 X94.301 Y125.195 Z8.000 I1.148 J0.679 K0.000 F200.000
G1 X97.089 Y127.982 Z8.000 F200.000
G2 X97.464 Y127.650 Z8.000 I-0.920 J-1.417 K0.000 F200.000
G1 X94.736 Y124.922 Z8.000 F200.000
G3 X95.261 Y124.741 Z8.000 I0.780 J1.406 K0.000 F200.000
G1 X97.726 Y127.205 Z8.000 F200.000
G2 X97.848 Y126.620 Z8.000 I-1.226 J-0.561 K0.000 F200.000
G1 X95.896 Y124.668 Z8.000 F200.000
G3 X96.736 Y124.800 Z8.000 I0.092 J2.146 K0.000 F200.000
G1 X97.765 Y125.830 Z8.000 F200.000
G2 X96.736 Y124.800 Z8.000 I-1.470 J0.440 K0.000 F200.000
G1 X96.736 Y124.800 Z7.750 F200.000
G3 X97.765 Y125.830 Z7.750 I-0.440 J1.470 K0.000 F200.000
G1 X96.736 Y124.800 Z7.750 F200.000
G2 X95.896 Y124.668 Z7.750 I-0.747 J2.013 K0.000 F200.000
G1 X97.848 Y126.620 Z7.750 F200.000
G3 X97.726 Y127.205 Z7.750 I-1.348 J0.024 K0.000 F200.000
G1 X95.261 Y124.741 Z7.750 F200.000
G2 X94.736 Y124.922 Z7.750 I0.255 J1.588 K0.000 F200.000
G1 X97.464 Y127.650 Z7.750 F200.000
G3 X97.089 Y127.982 Z7.750 I-1.295 J-1.085 K0.000 F200.000
G1 X94.301 Y125.195 Z7.750 F200.000
G2 X93.970 Y125.570 Z7.750 I0.816 J1.054 K0.000 F200.000
G1 X96.762 Y128.363 Z7.750 F200.000
G2 X96.749 Y129.057 Z7.750 I1.319 J0.372 K0.000 F200.000
G1 X93.769 Y126.077 Z7.750 F200.000
G2 X93.767 Y126.782 Z7.750 I1.676 J0.358 K0.000 F200.000
G1 X94.880 Y127.895 Z7.750 F200.000
G3 X93.793 Y126.900 Z7.750 I0.310 J-1.431 K0.000 F200.000
G1 X93.767 Y126.782 Z7.750 F200.000
G1 X93.767 Y126.782 Z7.500 F200.000
G1 X93.793 Y126.900 Z7.500 F200.000
G2 X94.880 Y127.895 Z7.500 I1.398 J-0.436 K0.000 F200.000
G1 X93.767 Y126.782 Z7.500 F200.000
G3 X93.769 Y126.077 Z7.500 I1.678 J-0.346 K0.000 F200.000
G1 X96.749 Y129.057 Z7.500 F200.000
G3 X96.762 Y128.363 Z7.500 I1.332 J-0.322 K0.000 F200.000
G1 X93.970 Y125.570 Z7.500 F200.000
G3 X94.301 Y125.195 Z7.500 I1.148 J0.679 K0.000 F200.000
G1 X97.089 Y127.982 Z7.500 F200.000
G2 X97.464 Y127.650 Z7.500 I-0.920 J-1.417 K0.000 F200.000
G1 X94.736 Y124.922 Z7.500 F200.000
G3 X95.261 Y124.741 Z7.500 I0.780 J1.406 K0.000 F200.000
G1 X97.726 Y127.205 Z7.500 F200.000
G2 X97.848 Y126.620 Z7.500 I-1.226 J-0.561 K0.000 F200.000
G1 X95.896 Y124.668 Z7.500 F200.000
G3 X96.736 Y124.800 Z7.500 I0.092 J2.146 K0.000 F200.000
G1 X97.765 Y125.830 Z7.500 F200.000
G2 X96.736 Y124.800 Z7.500 I-1.470 J0.440 K0.000 F200.000
G1 X96.736 Y124.800 Z7.250 F200.000
G3 X97.765 Y125.830 Z7.250 I-0.440 J1.470 K0.000 F200.000
G1 X96.736 Y124.800 Z7.250 F200.000
G2 X95.896 Y124.668 Z7.250 I-0.747 J2.013 K0.000 F200.000
G1 X97.848 Y126.620 Z7.250 F200.000
G3 X97.726 Y127.205 Z7.250 I-1.348 J0.024 K0.000 F200.000
G1 X95.261 Y124.741 Z7.250 F200.000
G2 X94.736 Y124.922 Z7.250 I0.255 J1.588 K0.000 F200.000
G1 X97.464 Y127.650 Z7.250 F200.000
G3 X97.089 Y127.982 Z7.250 I-1.295 J-1.085 K0.000 F200.000
G1 X94.301 Y125.195 Z7.250 F200.000
G2 X93.970 Y125.570 Z7.250 I0.816 J1.054 K0.000 F200.000
G1 X96.762 Y128.363 Z7.250 F200.000
G2 X96.749 Y129.057 Z7.250 I1.319 J0.372 K0.000 F200.000
G1 X93.769 Y126.077 Z7.250 F200.000
G2 X93.767 Y126.782 Z7.250 I1.676 J0.358 K0.000 F200.000
G1 X94.880 Y127.895 Z7.250 F200.000
G3 X93.793 Y126.900 Z7.250 I0.310 J-1.431 K0.000 F200.000
G1 X93.767 Y126.782 Z7.250 F200.000
G1 X93.767 Y126.782 Z7.000 F200.000
G1 X93.793 Y126.900 Z7.000 F200.000
G2 X94.880 Y127.895 Z7.000 I1.398 J-0.436 K0.000 F200.000
G1 X93.767 Y126.782 Z7.000 F200.000
G3 X93.769 Y126.077 Z7.000 I1.678 J-0.346 K0.000 F200.000
G1 X96.749 Y129.057 Z7.000 F200.000
G3 X96.762 Y128.363 Z7.000 I1.332 J-0.322 K0.000 F200.000
G1 X93.970 Y125.570 Z7.000 F200.000
G3 X94.301 Y125.195 Z7.000 I1.148 J0.679 K0.000 F200.000
G1 X97.089 Y127.982 Z7.000 F200.000
G2 X97.464 Y127.650 Z7.000 I-0.920 J-1.417 K0.000 F200.000
G1 X94.736 Y124.922 Z7.000 F200.000
G3 X95.261 Y124.741 Z7.000 I0.780 J1.406 K0.000 F200.000
G1 X97.726 Y127.205 Z7.000 F200.000
G2 X97.848 Y126.620 Z7.000 I-1.226 J-0.561 K0.000 F200.000
G1 X95.896 Y124.668 Z7.000 F200.000
G3 X96.736 Y124.800 Z7.000 I0.092 J2.146 K0.000 F200.000
G1 X97.765 Y125.830 Z7.000 F200.000
G2 X96.736 Y124.800 Z7.000 I-1.470 J0.440 K0.000 F200.000
G0 Z14.300
G0 X98.206 Y122.028 Z14.300
G0 X98.206 Y122.028 Z12.300
G1 X98.206 Y122.028 Z8.750 F200.000
G1 X86.542 Y110.364 Z8.750 F200.000
G1 X86.542 Y111.071 Z8.750 F200.000
G1 X97.154 Y121.684 Z8.750 F200.000
G2 X96.355 Y121.591 Z8.750 I-0.977 J4.950 K0.000 F200.000
G1 X86.542 Y111.778 Z8.750 F200.000
G1 X86.542 Y112.485 Z8.750 F200.000
G1 X95.666 Y121.609 Z8.750 F200.000
G2 X95.033 Y121.683 Z8.750 I-0.019 J2.581 K0.000 F200.000
G1 X86.542 Y113.192 Z8.750 F200.000
G1 X86.542 Y113.899 Z8.750 F200.000
G1 X94.462 Y121.820 Z8.750 F200.000
G1 X93.946 Y122.011 Z8.750 F200.000
G1 X86.542 Y114.607 Z8.750 F200.000
G1 X86.542 Y115.314 Z8.750 F200.000
G1 X93.472 Y122.244 Z8.750 F200.000
G2 X93.040 Y122.519 Z8.750 I0.828 J1.780 K0.000 F200.000
G1 X86.542 Y116.021 Z8.750 F200.000
G1 X86.542 Y116.728 Z8.750 F200.000
G1 X92.640 Y122.826 Z8.750 F200.000
G2 X92.280 Y123.173 Z8.750 I1.182 J1.589 K0.000 F200.000
G1 X86.542 Y117.435 Z8.750 F200.000
G1 X86.542 Y118.142 Z8.750 F200.000
G1 X91.957 Y123.557 Z8.750 F200.000
G2 X91.668 Y123.975 Z8.750 I10.157 J7.341 K0.000 F200.000
G1 X86.542 Y118.849 Z8.750 F200.000
G1 X86.542 Y119.556 Z8.750 F200.000
G1 X91.433 Y124.447 Z8.750 F200.000
G2 X91.242 Y124.964 Z8.750 I2.271 J1.132 K0.000 F200.000
G1 X86.542 Y120.263 Z8.750 F200.000
G1 X86.542 Y120.971 Z8.750 F200.000
G1 X91.110 Y125.539 Z8.750 F200.000
G2 X91.049 Y126.185 Z8.750 I4.068 J0.713 K0.000 F200.000
G1 X86.542 Y121.678 Z8.750 F200.000
G1 X86.542 Y122.385 Z8.750 F200.000
G1 X91.071 Y126.914 Z8.750 F200.000
G2 X91.204 Y127.754 Z8.750 I3.316 J-0.094 K0.000 F200.000
G1 X86.542 Y123.092 Z8.750 F200.000
G1 X86.542 Y123.799 Z8.750 F200.000
G1 X91.688 Y128.945 Z8.750 F200.000
G2 X93.268 Y130.526 Z8.750 I3.364 J-1.784 K0.000 F200.000
G1 X109.292 Y146.549 Z8.750 F200.000
G1 X109.292 Y147.256 Z8.750 F200.000
G1 X86.542 Y124.506 Z8.750 F200.000
G1 X86.542 Y125.213 Z8.750 F200.000
G1 X109.292 Y147.963 Z8.750 F200.000
G1 X109.292 Y148.670 Z8.750 F200.000
G1 X86.542 Y125.920 Z8.750 F200.000
G1 X86.542 Y126.627 Z8.750 F200.000
G1 X109.292 Y149.377 Z8.750 F200.000
G1 X109.292 Y149.708 Z8.750 F200.000
G1 X108.916 Y149.708 Z8.750 F200.000
G1 X86.542 Y127.334 Z8.750 F200.000
G1 X86.542 Y128.042 Z8.750 F200.000
G1 X108.208 Y149.708 Z8.750 F200.000
G1 X107.501 Y149.708 Z8.750 F200.000
G1 X86.542 Y128.749 Z8.750 F200.000
G1 X86.542 Y129.456 Z8.750 F200.000
G1 X106.794 Y149.708 Z8.750 F200.000
G1 X106.087 Y149.708 Z8.750 F200.000
G1 X86.542 Y130.163 Z8.750 F200.000
G1 X86.542 Y130.870 Z8.750 F200.000
G1 X105.380 Y149.708 Z8.750 F200.000
G1 X104.673 Y149.708 Z8.750 F200.000
G1 X86.542 Y131.577 Z8.750 F200.000
G1 X86.542 Y132.284 Z8.750 F200.000
G1 X103.966 Y149.708 Z8.750 F200.000
G1 X103.259 Y149.708 Z8.750 F200.000
G1 X86.542 Y132.991 Z8.750 F200.000
G1 X86.542 Y133.698 Z8.750 F200.000
G1 X102.552 Y149.708 Z8.750 F200.000
G1 X101.844 Y149.708 Z8.750 F200.000
G1 X86.542 Y134.406 Z8.750 F200.000
G1 X86.542 Y135.113 Z8.750 F200.000
G1 X101.137 Y149.708 Z8.750 F200.000
G1 X100.430 Y149.708 Z8.750 F200.000
G1 X86.542 Y135.820 Z8.750 F200.000
G1 X86.542 Y136.527 Z8.750 F200.000
G1 X99.723 Y149.708 Z8.750 F200.000
G1 X99.016 Y149.708 Z8.750 F200.000
G1 X86.542 Y137.234 Z8.750 F200.000
G1 X86.542 Y137.941 Z8.750 F200.000
G1 X98.309 Y149.708 Z8.750 F200.000
G1 X97.602 Y149.708 Z8.750 F200.000
G1 X86.542 Y138.648 Z8.750 F200.000
G1 X86.542 Y139.355 Z8.750 F200.000
G1 X96.895 Y149.708 Z8.750 F200.000
G1 X96.188 Y149.708 Z8.750 F200.000
G1 X86.542 Y140.062 Z8.750 F200.000
G1 X86.542 Y140.770 Z8.750 F200.000
G1 X95.480 Y149.708 Z8.750 F200.000
G1 X94.773 Y149.708 Z8.750 F200.000
G1 X86.542 Y141.477 Z8.750 F200.000
G1 X86.542 Y142.184 Z8.750 F200.000
G1 X94.066 Y149.708 Z8.750 F200.000
G1 X93.359 Y149.708 Z8.750 F200.000
G1 X86.542 Y142.891 Z8.750 F200.000
G1 X86.542 Y143.598 Z8.750 F200.000
G1 X92.652 Y149.708 Z8.750 F200.000
G1 X91.945 Y149.708 Z8.750 F200.000
G1 X86.542 Y144.305 Z8.750 F200.000
G1 X86.542 Y145.012 Z8.750 F200.000
G1 X91.238 Y149.708 Z8.750 F200.000
G1 X90.531 Y149.708 Z8.750 F200.000
G1 X86.542 Y145.719 Z8.750 F200.000
G1 X86.542 Y146.426 Z8.750 F200.000
G1 X89.824 Y149.708 Z8.750 F200.000
G1 X89.117 Y149.708 Z8.750 F200.000
G1 X86.542 Y147.133 Z8.750 F200.000
G1 X86.542 Y147.841 Z8.750 F200.000
G1 X88.409 Y149.708 Z8.750 F200.000
G1 X87.702 Y149.708 Z8.750 F200.000
G1 X86.542 Y148.548 Z8.750 F200.000
G1 X86.542 Y149.255 Z8.750 F200.000
G1 X86.995 Y149.708 Z8.750 F200.000
G1 X86.542 Y149.708 Z8.750 F200.000
G1 X86.542 Y149.255 Z8.750 F200.000
G1 X86.542 Y149.255 Z8.500 F200.000
G1 X86.542 Y149.708 Z8.500 F200.000
G1 X86.995 Y149.708 Z8.500 F200.000
G1 X86.542 Y149.255 Z8.500 F200.000
G1 X86.542 Y148.548 Z8.500 F200.000
G1 X87.702 Y149.708 Z8.500 F200.000
G1 X88.409 Y149.708 Z8.500 F200.000
G1 X86.542 Y147.841 Z8.500 F200.000
G1 X86.542 Y147.133 Z8.500 F200.000
G1 X89.117 Y149.708 Z8.500 F200.000
G1 X89.824 Y149.708 Z8.500 F200.000
G1 X86.542 Y146.426 Z8.500 F200.000
G1 X86.542 Y145.719 Z8.500 F200.000
G1 X90.531 Y149.708 Z8.500 F200.000
G1 X91.238 Y149.708 Z8.500 F200.000
G1 X86.542 Y145.012 Z8.500 F200.000
G1 X86.542 Y144.305 Z8.500 F200.000
G1 X91.945 Y149.708 Z8.500 F200.000
G1 X92.652 Y149.708 Z8.500 F200.000
G1 X86.542 Y143.598 Z8.500 F200.000
G1 X86.542 Y142.891 Z8.500 F200.000
G1 X93.359 Y149.708 Z8.500 F200.000
G1 X94.066 Y149.708 Z8.500 F200.000
G1 X86.542 Y142.184 Z8.500 F200.000
G1 X86.542 Y141.477 Z8.500 F200.000
G1 X94.773 Y149.708 Z8.500 F200.000
G1 X95.480 Y149.708 Z8.500 F200.000
G1 X86.542 Y140.770 Z8.500 F200.000
G1 X86.542 Y140.062 Z8.500 F200.000
G1 X96.188 Y149.708 Z8.500 F200.000
G1 X96.895 Y149.708 Z8.500 F200.000
G1 X86.542 Y139.355 Z8.500 F200.000
G1 X86.542 Y138.648 Z8.500 F200.000
G1 X97.602 Y149.708 Z8.500 F200.000
G1 X98.309 Y149.708 Z8.500 F200.000
G1 X86.542 Y137.941 Z8.500 F200.000
G1 X86.542 Y137.234 Z8.500 F200.000
G1 X99.016 Y149.708 Z8.500 F200.000
G1 X99.723 Y149.708 Z8.500 F200.000
G1 X86.542 Y136.527 Z8.500 F200.000
G1 X86.542 Y135.820 Z8.500 F200.000
G1 X100.430 Y149.708 Z8.500 F200.000
G1 X101.137 Y149.708 Z8.500 F200.000
G1 X86.542 Y135.113 Z8.500 F200.000
G1 X86.542 Y134.406 Z8.500 F200.000
G1 X101.844 Y149.708 Z8.500 F200.000
G1 X102.552 Y149.708 Z8.500 F200.000
G1 X86.542 Y133.698 Z8.500 F200.000
G1 X86.542 Y132.991 Z8.500 F200.000
G1 X103.259 Y149.708 Z8.500 F200.000
G1 X103.966 Y149.708 Z8.500 F200.000
G1 X86.542 Y132.284 Z8.500 F200.000
G1 X86.542 Y131.577 Z8.500 F200.000
G1 X104.673 Y149.708 Z8.500 F200.000
G1 X105.380 Y149.708 Z8.500 F200.000
G1 X86.542 Y130.870 Z8.500 F200.000
G1 X86.542 Y130.163 Z8.500 F200.000
G1 X106.087 Y149.708 Z8.500 F200.000
G1 X106.794 Y149.708 Z8.500 F200.000
G1 X86.542 Y129.456 Z8.500 F200.000
G1 X86.542 Y128.749 Z8.500 F200.000
G1 X107.501 Y149.708 Z8.500 F200.000
G1 X108.208 Y149.708 Z8.500 F200.000
G1 X86.542 Y128.042 Z8.500 F200.000
G1 X86.542 Y127.334 Z8.500 F200.000
G1 X108.916 Y149.708 Z8.500 F200.000
G1 X109.292 Y149.708 Z8.500 F200.000
G1 X109.292 Y149.377 Z8.500 F200.000
G1 X86.542 Y126.627 Z8.500 F200.000
G1 X86.542 Y125.920 Z8.500 F200.000
G1 X109.292 Y148.670 Z8.500 F200.000
G1 X109.292 Y147.963 Z8.500 F200.000
G1 X86.542 Y125.213 Z8.500 F200.000
G1 X86.542 Y124.506 Z8.500 F200.000
G1 X109.292 Y147.256 Z8.500 F200.000
G1 X109.292 Y146.549 Z8.500 F200.000
G1 X93.268 Y130.526 Z8.500 F200.000
G3 X91.688 Y128.945 Z8.500 I1.784 J-3.364 K0.000 F200.000
G1 X86.542 Y123.799 Z8.500 F200.000
G1 X86.542 Y123.092 Z8.500 F200.000
G1 X91.204 Y127.754 Z8.500 F200.000
G3 X91.071 Y126.914 Z8.500 I3.183 J-0.934 K0.000 F200.000
G1 X86.542 Y122.385 Z8.500 F200.000
G1 X86.542 Y121.678 Z8.500 F200.000
G1 X91.049 Y126.185 Z8.500 F200.000
G3 X91.110 Y125.539 Z8.500 I4.130 J0.067 K0.000 F200.000
G1 X86.542 Y120.971 Z8.500 F200.000
G1 X86.542 Y120.263 Z8.500 F200.000
G1 X91.242 Y124.964 Z8.500 F200.000
G3 X91.433 Y124.447 Z8.500 I2.462 J0.616 K0.000 F200.000
G1 X86.542 Y119.556 Z8.500 F200.000
G1 X86.542 Y118.849 Z8.500 F200.000
G1 X91.668 Y123.975 Z8.500 F200.000
G3 X91.957 Y123.557 Z8.500 I10.446 J6.923 K0.000 F200.000
G1 X86.542 Y118.142 Z8.500 F200.000
G1 X86.542 Y117.435 Z8.500 F200.000
G1 X92.280 Y123.173 Z8.500 F200.000
G3 X92.640 Y122.826 Z8.500 I1.543 J1.242 K0.000 F200.000
G1 X86.542 Y116.728 Z8.500 F200.000
G1 X86.542 Y116.021 Z8.500 F200.000
G1 X93.040 Y122.519 Z8.500 F200.000
G3 X93.472 Y122.244 Z8.500 I1.261 J1.505 K0.000 F200.000
G1 X86.542 Y115.314 Z8.500 F200.000
G1 X86.542 Y114.607 Z8.500 F200.000
G1 X93.946 Y122.011 Z8.500 F200.000
G1 X94.462 Y121.820 Z8.500 F200.000
G1 X86.542 Y113.899 Z8.500 F200.000
G1 X86.542 Y113.192 Z8.500 F200.000
G1 X95.033 Y121.683 Z8.500 F200.000
G3 X95.666 Y121.609 Z8.500 I0.614 J2.507 K0.000 F200.000
G1 X86.542 Y112.485 Z8.500 F200.000
G1 X86.542 Y111.778 Z8.500 F200.000
G1 X96.355 Y121.591 Z8.500 F200.000
G3 X97.154 Y121.684 Z8.500 I-0.177 J5.042 K0.000 F200.000
G1 X86.542 Y111.071 Z8.500 F200.000
G1 X86.542 Y110.364 Z8.500 F200.000
G1 X98.206 Y122.028 Z8.500 F200.000
G1 X98.206 Y122.028 Z8.250 F200.000
G1 X86.542 Y110.364 Z8.250 F200.000
G1 X86.542 Y111.071 Z8.250 F200.000
G1 X97.154 Y121.684 Z8.250 F200.000
G2 X96.355 Y121.591 Z8.250 I-0.977 J4.950 K0.000 F200.000
G1 X86.542 Y111.778 Z8.250 F200.000
G1 X86.542 Y112.485 Z8.250 F200.000
G1 X95.666 Y121.609 Z8.250 F200.000
G2 X95.033 Y121.683 Z8.250 I-0.019 J2.581 K0.000 F200.000
G1 X86.542 Y113.192 Z8.250 F200.000
G1 X86.542 Y113.899 Z8.250 F200.000
G1 X94.462 Y121.820 Z8.250 F200.000
G1 X93.946 Y122.011 Z8.250 F200.000
G1 X86.542 Y114.607 Z8.250 F200.000
G1 X86.542 Y115.314 Z8.250 F200.000
G1 X93.472 Y122.244 Z8.250 F200.000
G2 X93.040 Y122.519 Z8.250 I0.828 J1.780 K0.000 F200.000
G1 X86.542 Y116.021 Z8.250 F200.000
G1 X86.542 Y116.728 Z8.250 F200.000
G1 X92.640 Y122.826 Z8.250 F200.000
G2 X92.280 Y123.173 Z8.250 I1.182 J1.589 K0.000 F200.000
G1 X86.542 Y117.435 Z8.250 F200.000
G1 X86.542 Y118.142 Z8.250 F200.000
G1 X91.957 Y123.557 Z8.250 F200.000
G2 X91.668 Y123.975 Z8.250 I10.157 J7.341 K0.000 F200.000
G1 X86.542 Y118.849 Z8.250 F200.000
G1 X86.542 Y119.556 Z8.250 F200.000
G1 X91.433 Y124.447 Z8.250 F200.000
G2 X91.242 Y124.964 Z8.250 I2.271 J1.132 K0.000 F200.000
G1 X86.542 Y120.263 Z8.250 F200.000
G1 X86.542 Y120.971 Z8.250 F200.000
G1 X91.110 Y125.539 Z8.250 F200.000
G2 X91.049 Y126.185 Z8.250 I4.068 J0.713 K0.000 F200.000
G1 X86.542 Y121.678 Z8.250 F200.000
G1 X86.542 Y122.385 Z8.250 F200.000
G1 X91.071 Y126.914 Z8.250 F200.000
G2 X91.204 Y127.754 Z8.250 I3.316 J-0.094 K0.000 F200.000
G1 X86.542 Y123.092 Z8.250 F200.000
G1 X86.542 Y123.799 Z8.250 F200.000
G1 X91.688 Y128.945 Z8.250 F200.000
G2 X93.268 Y130.526 Z8.250 I3.364 J-1.784 K0.000 F200.000
G1 X109.292 Y146.549 Z8.250 F200.000
G1 X109.292 Y147.256 Z8.250 F200.000
G1 X86.542 Y124.506 Z8.250 F200.000
G1 X86.542 Y125.213 Z8.250 F200.000
G1 X109.292 Y147.963 Z8.250 F200.000
G1 X109.292 Y148.670 Z8.250 F200.000
G1 X86.542 Y125.920 Z8.250 F200.000
G1 X86.542 Y126.627 Z8.250 F200.000
G1 X109.292 Y149.377 Z8.250 F200.000
G1 X109.292 Y149.708 Z8.250 F200.000
G1 X108.916 Y149.708 Z8.250 F200.000
G1 X86.542 Y127.334 Z8.250 F200.000
G1 X86.542 Y128.042 Z8.250 F200.000
G1 X108.208 Y149.708 Z8.250 F200.000
G1 X107.501 Y149.708 Z8.250 F200.000
G1 X86.542 Y128.749 Z8.250 F200.000
G1 X86.542 Y129.456 Z8.250 F200.000
G1 X106.794 Y149.708 Z8.250 F200.000
G1 X106.087 Y149.708 Z8.250 F200.000
G1 X86.542 Y130.163 Z8.250 F200.000
G1 X86.542 Y130.870 Z8.250 F200.000
G1 X105.380 Y149.708 Z8.250 F200.000
G1 X104.673 Y149.708 Z8.250 F200.000
G1 X86.542 Y131.577 Z8.250 F200.000
G1 X86.542 Y132.284 Z8.250 F200.000
G1 X103.966 Y149.708 Z8.250 F200.000
G1 X103.259 Y149.708 Z8.250 F200.000
G1 X86.542 Y132.991 Z8.250 F200.000
G1 X86.542 Y133.698 Z8.250 F200.000
G1 X102.552 Y149.708 Z8.250 F200.000
G1 X101.844 Y149.708 Z8.250 F200.000
G1 X86.542 Y134.406 Z8.250 F200.000
G1 X86.542 Y135.113 Z8.250 F200.000
G1 X101.137 Y149.708 Z8.250 F200.000
G1 X100.430 Y149.708 Z8.250 F200.000
G1 X86.542 Y135.820 Z8.250 F200.000
G1 X86.542 Y136.527 Z8.250 F200.000
G1 X99.723 Y149.708 Z8.250 F200.000
G1 X99.016 Y149.708 Z8.250 F200.000
G1 X86.542 Y137.234 Z8.250 F200.000
G1 X86.542 Y137.941 Z8.250 F200.000
G1 X98.309 Y149.708 Z8.250 F200.000
G1 X97.602 Y149.708 Z8.250 F200.000
G1 X86.542 Y138.648 Z8.250 F200.000
G1 X86.542 Y139.355 Z8.250 F200.000
G1 X96.895 Y149.708 Z8.250 F200.000
G1 X96.188 Y149.708 Z8.250 F200.000
G1 X86.542 Y140.062 Z8.250 F200.000
G1 X86.542 Y140.770 Z8.250 F200.000
G1 X95.480 Y149.708 Z8.250 F200.000
G1 X94.773 Y149.708 Z8.250 F200.000
G1 X86.542 Y141.477 Z8.250 F200.000
G1 X86.542 Y142.184 Z8.250 F200.000
G1 X94.066 Y149.708 Z8.250 F200.000
G1 X93.359 Y149.708 Z8.250 F200.000
G1 X86.542 Y142.891 Z8.250 F200.000
G1 X86.542 Y143.598 Z8.250 F200.000
G1 X92.652 Y149.708 Z8.250 F200.000
G1 X91.945 Y149.708 Z8.250 F200.000
G1 X86.542 Y144.305 Z8.250 F200.000
G1 X86.542 Y145.012 Z8.250 F200.000
G1 X91.238 Y149.708 Z8.250 F200.000
G1 X90.531 Y149.708 Z8.250 F200.000
G1 X86.542 Y145.719 Z8.250 F200.000
G1 X86.542 Y146.426 Z8.250 F200.000
G1 X89.824 Y149.708 Z8.250 F200.000
G1 X89.117 Y149.708 Z8.250 F200.000
G1 X86.542 Y147.133 Z8.250 F200.000
G1 X86.542 Y147.841 Z8.250 F200.000
G1 X88.409 Y149.708 Z8.250 F200.000
G1 X87.702 Y149.708 Z8.250 F200.000
G1 X86.542 Y148.548 Z8.250 F200.000
G1 X86.542 Y149.255 Z8.250 F200.000
G1 X86.995 Y149.708 Z8.250 F200.000
G1 X86.542 Y149.708 Z8.250 F200.000
G1 X86.542 Y149.255 Z8.250 F200.000
G1 X86.542 Y149.255 Z8.000 F200.000
G1 X86.542 Y149.708 Z8.000 F200.000
G1 X86.995 Y149.708 Z8.000 F200.000
G1 X86.542 Y149.255 Z8.000 F200.000
G1 X86.542 Y148.548 Z8.000 F200.000
G1 X87.702 Y149.708 Z8.000 F200.000
G1 X88.409 Y149.708 Z8.000 F200.000
G1 X86.542 Y147.841 Z8.000 F200.000
G1 X86.542 Y147.133 Z8.000 F200.000
G1 X89.117 Y149.708 Z8.000 F200.000
G1 X89.824 Y149.708 Z8.000 F200.000
G1 X86.542 Y146.426 Z8.000 F200.000
G1 X86.542 Y145.719 Z8.000 F200.000
G1 X90.531 Y149.708 Z8.000 F200.000
G1 X91.238 Y149.708 Z8.000 F200.000
G1 X86.542 Y145.012 Z8.000 F200.000
G1 X86.542 Y144.305 Z8.000 F200.000
G1 X91.945 Y149.708 Z8.000 F200.000
G1 X92.652 Y149.708 Z8.000 F200.000
G1 X86.542 Y143.598 Z8.000 F200.000
G1 X86.542 Y142.891 Z8.000 F200.000
G1 X93.359 Y149.708 Z8.000 F200.000
G1 X94.066 Y149.708 Z8.000 F200.000
G1 X86.542 Y142.184 Z8.000 F200.000
G1 X86.542 Y141.477 Z8.000 F200.000
G1 X94.773 Y149.708 Z8.000 F200.000
G1 X95.480 Y149.708 Z8.000 F200.000
G1 X86.542 Y140.770 Z8.000 F200.000
G1 X86.542 Y140.062 Z8.000 F200.000
G1 X96.188 Y149.708 Z8.000 F200.000
G1 X96.895 Y149.708 Z8.000 F200.000
G1 X86.542 Y139.355 Z8.000 F200.000
G1 X86.542 Y138.648 Z8.000 F200.000
G1 X97.602 Y149.708 Z8.000 F200.000
G1 X98.309 Y149.708 Z8.000 F200.000
G1 X86.542 Y137.941 Z8.000 F200.000
G1 X86.542 Y137.234 Z8.000 F200.000
G1 X99.016 Y149.708 Z8.000 F200.000
G1 X99.723 Y149.708 Z8.000 F200.000
G1 X86.542 Y136.527 Z8.000 F200.000
G1 X86.542 Y135.820 Z8.000 F200.000
G1 X100.430 Y149.708 Z8.000 F200.000
G1 X101.137 Y149.708 Z8.000 F200.000
G1 X86.542 Y135.113 Z8.000 F200.000
G1 X86.542 Y134.406 Z8.000 F200.000
G1 X101.844 Y149.708 Z8.000 F200.000
G1 X102.552 Y149.708 Z8.000 F200.000
G1 X86.542 Y133.698 Z8.000 F200.000
G1 X86.542 Y132.991 Z8.000 F200.000
G1 X103.259 Y149.708 Z8.000 F200.000
G1 X103.966 Y149.708 Z8.000 F200.000
G1 X86.542 Y132.284 Z8.000 F200.000
G1 X86.542 Y131.577 Z8.000 F200.000
G1 X104.673 Y149.708 Z8.000 F200.000
G1 X105.380 Y149.708 Z8.000 F200.000
G1 X86.542 Y130.870 Z8.000 F200.000
G1 X86.542 Y130.163 Z8.000 F200.000
G1 X106.087 Y149.708 Z8.000 F200.000
G1 X106.794 Y149.708 Z8.000 F200.000
G1 X86.542 Y129.456 Z8.000 F200.000
G1 X86.542 Y128.749 Z8.000 F200.000
G1 X107.501 Y149.708 Z8.000 F200.000
G1 X108.208 Y149.708 Z8.000 F200.000
G1 X86.542 Y128.042 Z8.000 F200.000
G1 X86.542 Y127.334 Z8.000 F200.000
G1 X108.916 Y149.708 Z8.000 F200.000
G1 X109.292 Y149.708 Z8.000 F200.000
G1 X109.292 Y149.377 Z8.000 F200.000
G1 X86.542 Y126.627 Z8.000 F200.000
G1 X86.542 Y125.920 Z8.000 F200.000
G1 X109.292 Y148.670 Z8.000 F200.000
G1 X109.292 Y147.963 Z8.000 F200.000
G1 X86.542 Y125.213 Z8.000 F200.000
G1 X86.542 Y124.506 Z8.000 F200.000
G1 X109.292 Y147.256 Z8.000 F200.000
G1 X109.292 Y146.549 Z8.000 F200.000
G1 X93.268 Y130.526 Z8.000 F200.000
G3 X91.688 Y128.945 Z8.000 I1.784 J-3.364 K0.000 F200.000
G1 X86.542 Y123.799 Z8.000 F200.000
G1 X86.542 Y123.092 Z8.000 F200.000
G1 X91.204 Y127.754 Z8.000 F200.000
G3 X91.071 Y126.914 Z8.000 I3.183 J-0.934 K0.000 F200.000
G1 X86.542 Y122.385 Z8.000 F200.000
G1 X86.542 Y121.678 Z8.000 F200.000
G1 X91.049 Y126.185 Z8.000 F200.000
G3 X91.110 Y125.539 Z8.000 I4.130 J0.067 K0.000 F200.000
G1 X86.542 Y120.971 Z8.000 F200.000
G1 X86.542 Y120.263 Z8.000 F200.000
G1 X91.242 Y124.964 Z8.000 F200.000
G3 X91.433 Y124.447 Z8.000 I2.462 J0.616 K0.000 F200.000
G1 X86.542 Y119.556 Z8.000 F200.000
G1 X86.542 Y118.849 Z8.000 F200.000
G1 X91.668 Y123.975 Z8.000 F200.000
G3 X91.957 Y123.557 Z8.000 I10.446 J6.923 K0.000 F200.000
G1 X86.542 Y118.142 Z8.000 F200.000
G1 X86.542 Y117.435 Z8.000 F200.000
G1 X92.280 Y123.173 Z8.000 F200.000
G3 X92.640 Y122.826 Z8.000 I1.543 J1.242 K0.000 F200.000
G1 X86.542 Y116.728 Z8.000 F200.000
G1 X86.542 Y116.021 Z8.000 F200.000
G1 X93.040 Y122.519 Z8.000 F200.000
G3 X93.472 Y122.244 Z8.000 I1.261 J1.505 K0.000 F200.000
G1 X86.542 Y115.314 Z8.000 F200.000
G1 X86.542 Y114.607 Z8.000 F200.000
G1 X93.946 Y122.011 Z8.000 F200.000
G1 X94.462 Y121.820 Z8.000 F200.000
G1 X86.542 Y113.899 Z8.000 F200.000
G1 X86.542 Y113.192 Z8.000 F200.000
G1 X95.033 Y121.683 Z8.000 F200.000
G3 X95.666 Y121.609 Z8.000 I0.614 J2.507 K0.000 F200.000
G1 X86.542 Y112.485 Z8.000 F200.000
G1 X86.542 Y111.778 Z8.000 F200.000
G1 X96.355 Y121.591 Z8.000 F200.000
G3 X97.154 Y121.684 Z8.000 I-0.177 J5.042 K0.000 F200.000
G1 X86.542 Y111.071 Z8.000 F200.000
G1 X86.542 Y110.364 Z8.000 F200.000
G1 X98.206 Y122.028 Z8.000 F200.000
G1 X98.206 Y122.028 Z7.750 F200.000
G1 X86.542 Y110.364 Z7.750 F200.000
G1 X86.542 Y111.071 Z7.750 F200.000
G1 X97.154 Y121.684 Z7.750 F200.000
G2 X96.355 Y121.591 Z7.750 I-0.977 J4.950 K0.000 F200.000
G1 X86.542 Y111.778 Z7.750 F200.000
G1 X86.542 Y112.485 Z7.750 F200.000
G1 X95.666 Y121.609 Z7.750 F200.000
G2 X95.033 Y121.683 Z7.750 I-0.019 J2.581 K0.000 F200.000
G1 X86.542 Y113.192 Z7.750 F200.000
G1 X86.542 Y113.899 Z7.750 F200.000
G1 X94.462 Y121.820 Z7.750 F200.000
G1 X93.946 Y122.011 Z7.750 F200.000
G1 X86.542 Y114.607 Z7.750 F200.000
G1 X86.542 Y115.314 Z7.750 F200.000
G1 X93.472 Y122.244 Z7.750 F200.000
G2 X93.040 Y122.519 Z7.750 I0.828 J1.780 K0.000 F200.000
G1 X86.542 Y116.021 Z7.750 F200.000
G1 X86.542 Y116.728 Z7.750 F200.000
G1 X92.640 Y122.826 Z7.750 F200.000
G2 X92.280 Y123.173 Z7.750 I1.182 J1.589 K0.000 F200.000
G1 X86.542 Y117.435 Z7.750 F200.000
G1 X86.542 Y118.142 Z7.750 F200.000
G1 X91.957 Y123.557 Z7.750 F200.000
G2 X91.668 Y123.975 Z7.750 I10.157 J7.341 K0.000 F200.000
G1 X86.542 Y118.849 Z7.750 F200.000
G1 X86.542 Y119.556 Z7.750 F200.000
G1 X91.433 Y124.447 Z7.750 F200.000
G2 X91.242 Y124.964 Z7.750 I2.271 J1.132 K0.000 F200.000
G1 X86.542 Y120.263 Z7.750 F200.000
G1 X86.542 Y120.971 Z7.750 F200.000
G1 X91.110 Y125.539 Z7.750 F200.000
G2 X91.049 Y126.185 Z7.750 I4.068 J0.713 K0.000 F200.000
G1 X86.542 Y121.678 Z7.750 F200.000
G1 X86.542 Y122.385 Z7.750 F200.000
G1 X91.071 Y126.914 Z7.750 F200.000
G2 X91.204 Y127.754 Z7.750 I3.316 J-0.094 K0.000 F200.000
G1 X86.542 Y123.092 Z7.750 F200.000
G1 X86.542 Y123.799 Z7.750 F200.000
G1 X91.688 Y128.945 Z7.750 F200.000
G2 X93.268 Y130.526 Z7.750 I3.364 J-1.784 K0.000 F200.000
G1 X109.292 Y146.549 Z7.750 F200.000
G1 X109.292 Y147.256 Z7.750 F200.000
G1 X86.542 Y124.506 Z7.750 F200.000
G1 X86.542 Y125.213 Z7.750 F200.000
G1 X109.292 Y147.963 Z7.750 F200.000
G1 X109.292 Y148.670 Z7.750 F200.000
G1 X86.542 Y125.920 Z7.750 F200.000
G1 X86.542 Y126.627 Z7.750 F200.000
G1 X109.292 Y149.377 Z7.750 F200.000
G1 X109.292 Y149.708 Z7.750 F200.000
G1 X108.916 Y149.708 Z7.750 F200.000
G1 X86.542 Y127.334 Z7.750 F200.000
G1 X86.542 Y128.042 Z7.750 F200.000
G1 X108.208 Y149.708 Z7.750 F200.000
G1 X107.501 Y149.708 Z7.750 F200.000
G1 X86.542 Y128.749 Z7.750 F200.000
G1 X86.542 Y129.456 Z7.750 F200.000
G1 X106.794 Y149.708 Z7.750 F200.000
G1 X106.087 Y149.708 Z7.750 F200.000
G1 X86.542 Y130.163 Z7.750 F200.000
G1 X86.542 Y130.870 Z7.750 F200.000
G1 X105.380 Y149.708 Z7.750 F200.000
G1 X104.673 Y149.708 Z7.750 F200.000
G1 X86.542 Y131.577 Z7.750 F200.000
G1 X86.542 Y132.284 Z7.750 F200.000
G1 X103.966 Y149.708 Z7.750 F200.000
G1 X103.259 Y149.708 Z7.750 F200.000
G1 X86.542 Y132.991 Z7.750 F200.000
G1 X86.542 Y133.698 Z7.750 F200.000
G1 X102.552 Y149.708 Z7.750 F200.000
G1 X101.844 Y149.708 Z7.750 F200.000
G1 X86.542 Y134.406 Z7.750 F200.000
G1 X86.542 Y135.113 Z7.750 F200.000
G1 X101.137 Y149.708 Z7.750 F200.000
G1 X100.430 Y149.708 Z7.750 F200.000
G1 X86.542 Y135.820 Z7.750 F200.000
G1 X86.542 Y136.527 Z7.750 F200.000
G1 X99.723 Y149.708 Z7.750 F200.000
G1 X99.016 Y149.708 Z7.750 F200.000
G1 X86.542 Y137.234 Z7.750 F200.000
G1 X86.542 Y137.941 Z7.750 F200.000
G1 X98.309 Y149.708 Z7.750 F200.000
G1 X97.602 Y149.708 Z7.750 F200.000
G1 X86.542 Y138.648 Z7.750 F200.000
G1 X86.542 Y139.355 Z7.750 F200.000
G1 X96.895 Y149.708 Z7.750 F200.000
G1 X96.188 Y149.708 Z7.750 F200.000
G1 X86.542 Y140.062 Z7.750 F200.000
G1 X86.542 Y140.770 Z7.750 F200.000
G1 X95.480 Y149.708 Z7.750 F200.000
G1 X94.773 Y149.708 Z7.750 F200.000
G1 X86.542 Y141.477 Z7.750 F200.000
G1 X86.542 Y142.184 Z7.750 F200.000
G1 X94.066 Y149.708 Z7.750 F200.000
G1 X93.359 Y149.708 Z7.750 F200.000
G1 X86.542 Y142.891 Z7.750 F200.000
G1 X86.542 Y143.598 Z7.750 F200.000
G1 X92.652 Y149.708 Z7.750 F200.000
G1 X91.945 Y149.708 Z7.750 F200.000
G1 X86.542 Y144.305 Z7.750 F200.000
G1 X86.542 Y145.012 Z7.750 F200.000
G1 X91.238 Y149.708 Z7.750 F200.000
G1 X90.531 Y149.708 Z7.750 F200.000
G1 X86.542 Y145.719 Z7.750 F200.000
G1 X86.542 Y146.426 Z7.750 F200.000
G1 X89.824 Y149.708 Z7.750 F200.000
G1 X89.117 Y149.708 Z7.750 F200.000
G1 X86.542 Y147.133 Z7.750 F200.000
G1 X86.542 Y147.841 Z7.750 F200.000
G1 X88.409 Y149.708 Z7.750 F200.000
G1 X87.702 Y149.708 Z7.750 F200.000
G1 X86.542 Y148.548 Z7.750 F200.000
G1 X86.542 Y149.255 Z7.750 F200.000
G1 X86.995 Y149.708 Z7.750 F200.000
G1 X86.542 Y149.708 Z7.750 F200.000
G1 X86.542 Y149.255 Z7.750 F200.000
G1 X86.542 Y149.255 Z7.500 F200.000
G1 X86.542 Y149.708 Z7.500 F200.000
G1 X86.995 Y149.708 Z7.500 F200.000
G1 X86.542 Y149.255 Z7.500 F200.000
G1 X86.542 Y148.548 Z7.500 F200.000
G1 X87.702 Y149.708 Z7.500 F200.000
G1 X88.409 Y149.708 Z7.500 F200.000
G1 X86.542 Y147.841 Z7.500 F200.000
G1 X86.542 Y147.133 Z7.500 F200.000
G1 X89.117 Y149.708 Z7.500 F200.000
G1 X89.824 Y149.708 Z7.500 F200.000
G1 X86.542 Y146.426 Z7.500 F200.000
G1 X86.542 Y145.719 Z7.500 F200.000
G1 X90.531 Y149.708 Z7.500 F200.000
G1 X91.238 Y149.708 Z7.500 F200.000
G1 X86.542 Y145.012 Z7.500 F200.000
G1 X86.542 Y144.305 Z7.500 F200.000
G1 X91.945 Y149.708 Z7.500 F200.000
G1 X92.652 Y149.708 Z7.500 F200.000
G1 X86.542 Y143.598 Z7.500 F200.000
G1 X86.542 Y142.891 Z7.500 F200.000
G1 X93.359 Y149.708 Z7.500 F200.000
G1 X94.066 Y149.708 Z7.500 F200.000
G1 X86.542 Y142.184 Z7.500 F200.000
G1 X86.542 Y141.477 Z7.500 F200.000
G1 X94.773 Y149.708 Z7.500 F200.000
G1 X95.480 Y149.708 Z7.500 F200.000
G1 X86.542 Y140.770 Z7.500 F200.000
G1 X86.542 Y140.062 Z7.500 F200.000
G1 X96.188 Y149.708 Z7.500 F200.000
G1 X96.895 Y149.708 Z7.500 F200.000
G1 X86.542 Y139.355 Z7.500 F200.000
G1 X86.542 Y138.648 Z7.500 F200.000
G1 X97.602 Y149.708 Z7.500 F200.000
G1 X98.309 Y149.708 Z7.500 F200.000
G1 X86.542 Y137.941 Z7.500 F200.000
G1 X86.542 Y137.234 Z7.500 F200.000
G1 X99.016 Y149.708 Z7.500 F200.000
G1 X99.723 Y149.708 Z7.500 F200.000
G1 X86.542 Y136.527 Z7.500 F200.000
G1 X86.542 Y135.820 Z7.500 F200.000
G1 X100.430 Y149.708 Z7.500 F200.000
G1 X101.137 Y149.708 Z7.500 F200.000
G1 X86.542 Y135.113 Z7.500 F200.000
G1 X86.542 Y134.406 Z7.500 F200.000
G1 X101.844 Y149.708 Z7.500 F200.000
G1 X102.552 Y149.708 Z7.500 F200.000
G1 X86.542 Y133.698 Z7.500 F200.000
G1 X86.542 Y132.991 Z7.500 F200.000
G1 X103.259 Y149.708 Z7.500 F200.000
G1 X103.966 Y149.708 Z7.500 F200.000
G1 X86.542 Y132.284 Z7.500 F200.000
G1 X86.542 Y131.577 Z7.500 F200.000
G1 X104.673 Y149.708 Z7.500 F200.000
G1 X105.380 Y149.708 Z7.500 F200.000
G1 X86.542 Y130.870 Z7.500 F200.000
G1 X86.542 Y130.163 Z7.500 F200.000
G1 X106.087 Y149.708 Z7.500 F200.000
G1 X106.794 Y149.708 Z7.500 F200.000
G1 X86.542 Y129.456 Z7.500 F200.000
G1 X86.542 Y128.749 Z7.500 F200.000
G1 X107.501 Y149.708 Z7.500 F200.000
G1 X108.208 Y149.708 Z7.500 F200.000
G1 X86.542 Y128.042 Z7.500 F200.000
G1 X86.542 Y127.334 Z7.500 F200.000
G1 X108.916 Y149.708 Z7.500 F200.000
G1 X109.292 Y149.708 Z7.500 F200.000
G1 X109.292 Y149.377 Z7.500 F200.000
G1 X86.542 Y126.627 Z7.500 F200.000
G1 X86.542 Y125.920 Z7.500 F200.000
G1 X109.292 Y148.670 Z7.500 F200.000
G1 X109.292 Y147.963 Z7.500 F200.000
G1 X86.542 Y125.213 Z7.500 F200.000
G1 X86.542 Y124.506 Z7.500 F200.000
G1 X109.292 Y147.256 Z7.500 F200.000
G1 X109.292 Y146.549 Z7.500 F200.000
G1 X93.268 Y130.526 Z7.500 F200.000
G3 X91.688 Y128.945 Z7.500 I1.784 J-3.364 K0.000 F200.000
G1 X86.542 Y123.799 Z7.500 F200.000
G1 X86.542 Y123.092 Z7.500 F200.000
G1 X91.204 Y127.754 Z7.500 F200.000
G3 X91.071 Y126.914 Z7.500 I3.183 J-0.934 K0.000 F200.000
G1 X86.542 Y122.385 Z7.500 F200.000
G1 X86.542 Y121.678 Z7.500 F200.000
G1 X91.049 Y126.185 Z7.500 F200.000
G3 X91.110 Y125.539 Z7.500 I4.130 J0.067 K0.000 F200.000
G1 X86.542 Y120.971 Z7.500 F200.000
G1 X86.542 Y120.263 Z7.500 F200.000
G1 X91.242 Y124.964 Z7.500 F200.000
G3 X91.433 Y124.447 Z7.500 I2.462 J0.616 K0.000 F200.000
G1 X86.542 Y119.556 Z7.500 F200.000
G1 X86.542 Y118.849 Z7.500 F200.000
G1 X91.668 Y123.975 Z7.500 F200.000
G3 X91.957 Y123.557 Z7.500 I10.446 J6.923 K0.000 F200.000
G1 X86.542 Y118.142 Z7.500 F200.000
G1 X86.542 Y117.435 Z7.500 F200.000
G1 X92.280 Y123.173 Z7.500 F200.000
G3 X92.640 Y122.826 Z7.500 I1.543 J1.242 K0.000 F200.000
G1 X86.542 Y116.728 Z7.500 F200.000
G1 X86.542 Y116.021 Z7.500 F200.000
G1 X93.040 Y122.519 Z7.500 F200.000
G3 X93.472 Y122.244 Z7.500 I1.261 J1.505 K0.000 F200.000
G1 X86.542 Y115.314 Z7.500 F200.000
G1 X86.542 Y114.607 Z7.500 F200.000
G1 X93.946 Y122.011 Z7.500 F200.000
G1 X94.462 Y121.820 Z7.500 F200.000
G1 X86.542 Y113.899 Z7.500 F200.000
G1 X86.542 Y113.192 Z7.500 F200.000
G1 X95.033 Y121.683 Z7.500 F200.000
G3 X95.666 Y121.609 Z7.500 I0.614 J2.507 K0.000 F200.000
G1 X86.542 Y112.485 Z7.500 F200.000
G1 X86.542 Y111.778 Z7.500 F200.000
G1 X96.355 Y121.591 Z7.500 F200.000
G3 X97.154 Y121.684 Z7.500 I-0.177 J5.042 K0.000 F200.000
G1 X86.542 Y111.071 Z7.500 F200.000
G1 X86.542 Y110.364 Z7.500 F200.000
G1 X98.206 Y122.028 Z7.500 F200.000
G1 X98.206 Y122.028 Z7.250 F200.000
G1 X86.542 Y110.364 Z7.250 F200.000
G1 X86.542 Y111.071 Z7.250 F200.000
G1 X97.154 Y121.684 Z7.250 F200.000
G2 X96.355 Y121.591 Z7.250 I-0.977 J4.950 K0.000 F200.000
G1 X86.542 Y111.778 Z7.250 F200.000
G1 X86.542 Y112.485 Z7.250 F200.000
G1 X95.666 Y121.609 Z7.250 F200.000
G2 X95.033 Y121.683 Z7.250 I-0.019 J2.581 K0.000 F200.000
G1 X86.542 Y113.192 Z7.250 F200.000
G1 X86.542 Y113.899 Z7.250 F200.000
G1 X94.462 Y121.820 Z7.250 F200.000
G1 X93.946 Y122.011 Z7.250 F200.000
G1 X86.542 Y114.607 Z7.250 F200.000
G1 X86.542 Y115.314 Z7.250 F200.000
G1 X93.472 Y122.244 Z7.250 F200.000
G2 X93.040 Y122.519 Z7.250 I0.828 J1.780 K0.000 F200.000
G1 X86.542 Y116.021 Z7.250 F200.000
G1 X86.542 Y116.728 Z7.250 F200.000
G1 X92.640 Y122.826 Z7.250 F200.000
G2 X92.280 Y123.173 Z7.250 I1.182 J1.589 K0.000 F200.000
G1 X86.542 Y117.435 Z7.250 F200.000
G1 X86.542 Y118.142 Z7.250 F200.000
G1 X91.957 Y123.557 Z7.250 F200.000
G2 X91.668 Y123.975 Z7.250 I10.157 J7.341 K0.000 F200.000
G1 X86.542 Y118.849 Z7.250 F200.000
G1 X86.542 Y119.556 Z7.250 F200.000
G1 X91.433 Y124.447 Z7.250 F200.000
G2 X91.242 Y124.964 Z7.250 I2.271 J1.132 K0.000 F200.000
G1 X86.542 Y120.263 Z7.250 F200.000
G1 X86.542 Y120.971 Z7.250 F200.000
G1 X91.110 Y125.539 Z7.250 F200.000
G2 X91.049 Y126.185 Z7.250 I4.068 J0.713 K0.000 F200.000
G1 X86.542 Y121.678 Z7.250 F200.000
G1 X86.542 Y122.385 Z7.250 F200.000
G1 X91.071 Y126.914 Z7.250 F200.000
G2 X91.204 Y127.754 Z7.250 I3.316 J-0.094 K0.000 F200.000
G1 X86.542 Y123.092 Z7.250 F200.000
G1 X86.542 Y123.799 Z7.250 F200.000
G1 X91.688 Y128.945 Z7.250 F200.000
G2 X93.268 Y130.526 Z7.250 I3.364 J-1.784 K0.000 F200.000
G1 X109.292 Y146.549 Z7.250 F200.000
G1 X109.292 Y147.256 Z7.250 F200.000
G1 X86.542 Y124.506 Z7.250 F200.000
G1 X86.542 Y125.213 Z7.250 F200.000
G1 X109.292 Y147.963 Z7.250 F200.000
G1 X109.292 Y148.670 Z7.250 F200.000
G1 X86.542 Y125.920 Z7.250 F200.000
G1 X86.542 Y126.627 Z7.250 F200.000
G1 X109.292 Y149.377 Z7.250 F200.000
G1 X109.292 Y149.708 Z7.250 F200.000
G1 X108.916 Y149.708 Z7.250 F200.000
G1 X86.542 Y127.334 Z7.250 F200.000
G1 X86.542 Y128.042 Z7.250 F200.000
G1 X108.208 Y149.708 Z7.250 F200.000
G1 X107.501 Y149.708 Z7.250 F200.000
G1 X86.542 Y128.749 Z7.250 F200.000
G1 X86.542 Y129.456 Z7.250 F200.000
G1 X106.794 Y149.708 Z7.250 F200.000
G1 X106.087 Y149.708 Z7.250 F200.000
G1 X86.542 Y130.163 Z7.250 F200.000
G1 X86.542 Y130.870 Z7.250 F200.000
G1 X105.380 Y149.708 Z7.250 F200.000
G1 X104.673 Y149.708 Z7.250 F200.000
G1 X86.542 Y131.577 Z7.250 F200.000
G1 X86.542 Y132.284 Z7.250 F200.000
G1 X103.966 Y149.708 Z7.250 F200.000
G1 X103.259 Y149.708 Z7.250 F200.000
G1 X86.542 Y132.991 Z7.250 F200.000
G1 X86.542 Y133.698 Z7.250 F200.000
G1 X102.552 Y149.708 Z7.250 F200.000
G1 X101.844 Y149.708 Z7.250 F200.000
G1 X86.542 Y134.406 Z7.250 F200.000
G1 X86.542 Y135.113 Z7.250 F200.000
G1 X101.137 Y149.708 Z7.250 F200.000
G1 X100.430 Y149.708 Z7.250 F200.000
G1 X86.542 Y135.820 Z7.250 F200.000
G1 X86.542 Y136.527 Z7.250 F200.000
G1 X99.723 Y149.708 Z7.250 F200.000
G1 X99.016 Y149.708 Z7.250 F200.000
G1 X86.542 Y137.234 Z7.250 F200.000
G1 X86.542 Y137.941 Z7.250 F200.000
G1 X98.309 Y149.708 Z7.250 F200.000
G1 X97.602 Y149.708 Z7.250 F200.000
G1 X86.542 Y138.648 Z7.250 F200.000
G1 X86.542 Y139.355 Z7.250 F200.000
G1 X96.895 Y149.708 Z7.250 F200.000
G1 X96.188 Y149.708 Z7.250 F200.000
G1 X86.542 Y140.062 Z7.250 F200.000
G1 X86.542 Y140.770 Z7.250 F200.000
G1 X95.480 Y149.708 Z7.250 F200.000
G1 X94.773 Y149.708 Z7.250 F200.000
G1 X86.542 Y141.477 Z7.250 F200.000
G1 X86.542 Y142.184 Z7.250 F200.000
G1 X94.066 Y149.708 Z7.250 F200.000
G1 X93.359 Y149.708 Z7.250 F200.000
G1 X86.542 Y142.891 Z7.250 F200.000
G1 X86.542 Y143.598 Z7.250 F200.000
G1 X92.652 Y149.708 Z7.250 F200.000
G1 X91.945 Y149.708 Z7.250 F200.000
G1 X86.542 Y144.305 Z7.250 F200.000
G1 X86.542 Y145.012 Z7.250 F200.000
G1 X91.238 Y149.708 Z7.250 F200.000
G1 X90.531 Y149.708 Z7.250 F200.000
G1 X86.542 Y145.719 Z7.250 F200.000
G1 X86.542 Y146.426 Z7.250 F200.000
G1 X89.824 Y149.708 Z7.250 F200.000
G1 X89.117 Y149.708 Z7.250 F200.000
G1 X86.542 Y147.133 Z7.250 F200.000
G1 X86.542 Y147.841 Z7.250 F200.000
G1 X88.409 Y149.708 Z7.250 F200.000
G1 X87.702 Y149.708 Z7.250 F200.000
G1 X86.542 Y148.548 Z7.250 F200.000
G1 X86.542 Y149.255 Z7.250 F200.000
G1 X86.995 Y149.708 Z7.250 F200.000
G1 X86.542 Y149.708 Z7.250 F200.000
G1 X86.542 Y149.255 Z7.250 F200.000
G1 X86.542 Y149.255 Z7.000 F200.000
G1 X86.542 Y149.708 Z7.000 F200.000
G1 X86.995 Y149.708 Z7.000 F200.000
G1 X86.542 Y149.255 Z7.000 F200.000
G1 X86.542 Y148.548 Z7.000 F200.000
G1 X87.702 Y149.708 Z7.000 F200.000
G1 X88.409 Y149.708 Z7.000 F200.000
G1 X86.542 Y147.841 Z7.000 F200.000
G1 X86.542 Y147.133 Z7.000 F200.000
G1 X89.117 Y149.708 Z7.000 F200.000
G1 X89.824 Y149.708 Z7.000 F200.000
G1 X86.542 Y146.426 Z7.000 F200.000
G1 X86.542 Y145.719 Z7.000 F200.000
G1 X90.531 Y149.708 Z7.000 F200.000
G1 X91.238 Y149.708 Z7.000 F200.000
G1 X86.542 Y145.012 Z7.000 F200.000
G1 X86.542 Y144.305 Z7.000 F200.000
G1 X91.945 Y149.708 Z7.000 F200.000
G1 X92.652 Y149.708 Z7.000 F200.000
G1 X86.542 Y143.598 Z7.000 F200.000
G1 X86.542 Y142.891 Z7.000 F200.000
G1 X93.359 Y149.708 Z7.000 F200.000
G1 X94.066 Y149.708 Z7.000 F200.000
G1 X86.542 Y142.184 Z7.000 F200.000
G1 X86.542 Y141.477 Z7.000 F200.000
G1 X94.773 Y149.708 Z7.000 F200.000
G1 X95.480 Y149.708 Z7.000 F200.000
G1 X86.542 Y140.770 Z7.000 F200.000
G1 X86.542 Y140.062 Z7.000 F200.000
G1 X96.188 Y149.708 Z7.000 F200.000
G1 X96.895 Y149.708 Z7.000 F200.000
G1 X86.542 Y139.355 Z7.000 F200.000
G1 X86.542 Y138.648 Z7.000 F200.000
G1 X97.602 Y149.708 Z7.000 F200.000
G1 X98.309 Y149.708 Z7.000 F200.000
G1 X86.542 Y137.941 Z7.000 F200.000
G1 X86.542 Y137.234 Z7.000 F200.000
G1 X99.016 Y149.708 Z7.000 F200.000
G1 X99.723 Y149.708 Z7.000 F200.000
G1 X86.542 Y136.527 Z7.000 F200.000
G1 X86.542 Y135.820 Z7.000 F200.000
G1 X100.430 Y149.708 Z7.000 F200.000
G1 X101.137 Y149.708 Z7.000 F200.000
G1 X86.542 Y135.113 Z7.000 F200.000
G1 X86.542 Y134.406 Z7.000 F200.000
G1 X101.844 Y149.708 Z7.000 F200.000
G1 X102.552 Y149.708 Z7.000 F200.000
G1 X86.542 Y133.698 Z7.000 F200.000
G1 X86.542 Y132.991 Z7.000 F200.000
G1 X103.259 Y149.708 Z7.000 F200.000
G1 X103.966 Y149.708 Z7.000 F200.000
G1 X86.542 Y132.284 Z7.000 F200.000
G1 X86.542 Y131.577 Z7.000 F200.000
G1 X104.673 Y149.708 Z7.000 F200.000
G1 X105.380 Y149.708 Z7.000 F200.000
G1 X86.542 Y130.870 Z7.000 F200.000
G1 X86.542 Y130.163 Z7.000 F200.000
G1 X106.087 Y149.708 Z7.000 F200.000
G1 X106.794 Y149.708 Z7.000 F200.000
G1 X86.542 Y129.456 Z7.000 F200.000
G1 X86.542 Y128.749 Z7.000 F200.000
G1 X107.501 Y149.708 Z7.000 F200.000
G1 X108.208 Y149.708 Z7.000 F200.000
G1 X86.542 Y128.042 Z7.000 F200.000
G1 X86.542 Y127.334 Z7.000 F200.000
G1 X108.916 Y149.708 Z7.000 F200.000
G1 X109.292 Y149.708 Z7.000 F200.000
G1 X109.292 Y149.377 Z7.000 F200.000
G1 X86.542 Y126.627 Z7.000 F200.000
G1 X86.542 Y125.920 Z7.000 F200.000
G1 X109.292 Y148.670 Z7.000 F200.000
G1 X109.292 Y147.963 Z7.000 F200.000
G1 X86.542 Y125.213 Z7.000 F200.000
G1 X86.542 Y124.506 Z7.000 F200.000
G1 X109.292 Y147.256 Z7.000 F200.000
G1 X109.292 Y146.549 Z7.000 F200.000
G1 X93.268 Y130.526 Z7.000 F200.000
G3 X91.688 Y128.945 Z7.000 I1.784 J-3.364 K0.000 F200.000
G1 X86.542 Y123.799 Z7.000 F200.000
G1 X86.542 Y123.092 Z7.000 F200.000
G1 X91.204 Y127.754 Z7.000 F200.000
G3 X91.071 Y126.914 Z7.000 I3.183 J-0.934 K0.000 F200.000
G1 X86.542 Y122.385 Z7.000 F200.000
G1 X86.542 Y121.678 Z7.000 F200.000
G1 X91.049 Y126.185 Z7.000 F200.000
G3 X91.110 Y125.539 Z7.000 I4.130 J0.067 K0.000 F200.000
G1 X86.542 Y120.971 Z7.000 F200.000
G1 X86.542 Y120.263 Z7.000 F200.000
G1 X91.242 Y124.964 Z7.000 F200.000
G3 X91.433 Y124.447 Z7.000 I2.462 J0.616 K0.000 F200.000
G1 X86.542 Y119.556 Z7.000 F200.000
G1 X86.542 Y118.849 Z7.000 F200.000
G1 X91.668 Y123.975 Z7.000 F200.000
G3 X91.957 Y123.557 Z7.000 I10.446 J6.923 K0.000 F200.000
G1 X86.542 Y118.142 Z7.000 F200.000
G1 X86.542 Y117.435 Z7.000 F200.000
G1 X92.280 Y123.173 Z7.000 F200.000
G3 X92.640 Y122.826 Z7.000 I1.543 J1.242 K0.000 F200.000
G1 X86.542 Y116.728 Z7.000 F200.000
G1 X86.542 Y116.021 Z7.000 F200.000
G1 X93.040 Y122.519 Z7.000 F200.000
G3 X93.472 Y122.244 Z7.000 I1.261 J1.505 K0.000 F200.000
G1 X86.542 Y115.314 Z7.000 F200.000
G1 X86.542 Y114.607 Z7.000 F200.000
G1 X93.946 Y122.011 Z7.000 F200.000
G1 X94.462 Y121.820 Z7.000 F200.000
G1 X86.542 Y113.899 Z7.000 F200.000
G1 X86.542 Y113.192 Z7.000 F200.000
G1 X95.033 Y121.683 Z7.000 F200.000
G3 X95.666 Y121.609 Z7.000 I0.614 J2.507 K0.000 F200.000
G1 X86.542 Y112.485 Z7.000 F200.000
G1 X86.542 Y111.778 Z7.000 F200.000
G1 X96.355 Y121.591 Z7.000 F200.000
G3 X97.154 Y121.684 Z7.000 I-0.177 J5.042 K0.000 F200.000
G1 X86.542 Y111.071 Z7.000 F200.000
G1 X86.542 Y110.364 Z7.000 F200.000
G1 X98.206 Y122.028 Z7.000 F200.000
G0 Z14.300
G0 X100.640 Y127.291 Z14.300
G0 X100.640 Y127.291 Z12.300
G1 X100.640 Y127.291 Z8.750 F200.000
G1 X100.536 Y127.312 Z8.750 F200.000
G1 X100.567 Y127.217 Z8.750 F200.000
G1 X100.640 Y127.291 Z8.750 F200.000
G1 X101.228 Y127.172 Z8.750 F200.000
G1 X100.686 Y126.630 Z8.750 F200.000
G2 X100.720 Y125.957 Z8.750 I-3.156 J-0.498 K0.000 F200.000
G1 X101.676 Y126.912 Z8.750 F200.000
G1 X101.676 Y126.205 Z8.750 F200.000
G1 X100.634 Y125.163 Z8.750 F200.000
G2 X100.272 Y124.095 Z8.750 I-3.612 J0.626 K0.000 F200.000
G1 X101.676 Y125.498 Z8.750 F200.000
G1 X101.676 Y124.791 Z8.750 F200.000
G1 X86.542 Y109.657 Z8.750 F200.000
G1 X86.542 Y108.950 Z8.750 F200.000
G1 X101.676 Y124.084 Z8.750 F200.000
G1 X101.676 Y123.377 Z8.750 F200.000
G1 X86.542 Y108.243 Z8.750 F200.000
G1 X86.542 Y107.535 Z8.750 F200.000
G1 X101.708 Y122.702 Z8.750 F200.000
G3 X102.004 Y122.290 Z8.750 I0.675 J0.173 K0.000 F200.000
G1 X86.542 Y106.828 Z8.750 F200.000
G1 X86.542 Y106.121 Z8.750 F200.000
G1 X102.577 Y122.157 Z8.750 F200.000
G1 X103.284 Y122.157 Z8.750 F200.000
G1 X86.542 Y105.414 Z8.750 F200.000
G1 X86.542 Y104.707 Z8.750 F200.000
G1 X104.016 Y122.182 Z8.750 F200.000
G1 X104.016 Y122.182 Z8.500 F200.000
G1 X86.542 Y104.707 Z8.500 F200.000
G1 X86.542 Y105.414 Z8.500 F200.000
G1 X103.284 Y122.157 Z8.500 F200.000
G1 X102.577 Y122.157 Z8.500 F200.000
G1 X86.542 Y106.121 Z8.500 F200.000
G1 X86.542 Y106.828 Z8.500 F200.000
G1 X102.004 Y122.290 Z8.500 F200.000
G2 X101.708 Y122.702 Z8.500 I0.379 J0.584 K0.000 F200.000
G1 X86.542 Y107.535 Z8.500 F200.000
G1 X86.542 Y108.243 Z8.500 F200.000
G1 X101.676 Y123.377 Z8.500 F200.000
G1 X101.676 Y124.084 Z8.500 F200.000
G1 X86.542 Y108.950 Z8.500 F200.000
G1 X86.542 Y109.657 Z8.500 F200.000
G1 X101.676 Y124.791 Z8.500 F200.000
G1 X101.676 Y125.498 Z8.500 F200.000
G1 X100.272 Y124.095 Z8.500 F200.000
G3 X100.634 Y125.163 Z8.500 I-3.251 J1.695 K0.000 F200.000
G1 X101.676 Y126.205 Z8.500 F200.000
G1 X101.676 Y126.912 Z8.500 F200.000
G1 X100.720 Y125.957 Z8.500 F200.000
G3 X100.686 Y126.630 Z8.500 I-3.191 J0.175 K0.000 F200.000
G1 X101.228 Y127.172 Z8.500 F200.000
G1 X100.640 Y127.291 Z8.500 F200.000
G1 X100.567 Y127.217 Z8.500 F200.000
G1 X100.536 Y127.312 Z8.500 F200.000
G1 X100.640 Y127.291 Z8.500 F200.000
G1 X100.640 Y127.291 Z8.250 F200.000
G1 X100.536 Y127.312 Z8.250 F200.000
G1 X100.567 Y127.217 Z8.250 F200.000
G1 X100.640 Y127.291 Z8.250 F200.000
G1 X101.228 Y127.172 Z8.250 F200.000
G1 X100.686 Y126.630 Z8.250 F200.000
G2 X100.720 Y125.957 Z8.250 I-3.156 J-0.498 K0.000 F200.000
G1 X101.676 Y126.912 Z8.250 F200.000
G1 X101.676 Y126.205 Z8.250 F200.000
G1 X100.634 Y125.163 Z8.250 F200.000
G2 X100.272 Y124.095 Z8.250 I-3.612 J0.626 K0.000 F200.000
G1 X101.676 Y125.498 Z8.250 F200.000
G1 X101.676 Y124.791 Z8.250 F200.000
G1 X86.542 Y109.657 Z8.250 F200.000
G1 X86.542 Y108.950 Z8.250 F200.000
G1 X101.676 Y124.084 Z8.250 F200.000
G1 X101.676 Y123.377 Z8.250 F200.000
G1 X86.542 Y108.243 Z8.250 F200.000
G1 X86.542 Y107.535 Z8.250 F200.000
G1 X101.708 Y122.702 Z8.250 F200.000
G3 X102.004 Y122.290 Z8.250 I0.675 J0.173 K0.000 F200.000
G1 X86.542 Y106.828 Z8.250 F200.000
G1 X86.542 Y106.121 Z8.250 F200.000
G1 X102.577 Y122.157 Z8.250 F200.000
G1 X103.284 Y122.157 Z8.250 F200.000
G1 X86.542 Y105.414 Z8.250 F200.000
G1 X86.542 Y104.707 Z8.250 F200.000
G1 X104.016 Y122.182 Z8.250 F200.000
G1 X104.016 Y122.182 Z8.000 F200.000
G1 X86.542 Y104.707 Z8.000 F200.000
G1 X86.542 Y105.414 Z8.000 F200.000
G1 X103.284 Y122.157 Z8.000 F200.000
G1 X102.577 Y122.157 Z8.000 F200.000
G1 X86.542 Y106.121 Z8.000 F200.000
G1 X86.542 Y106.828 Z8.000 F200.000
G1 X102.004 Y122.290 Z8.000 F200.000
G2 X101.708 Y122.702 Z8.000 I0.379 J0.584 K0.000 F200.000
G1 X86.542 Y107.535 Z8.000 F200.000
G1 X86.542 Y108.243 Z8.000 F200.000
G1 X101.676 Y123.377 Z8.000 F200.000
G1 X101.676 Y124.084 Z8.000 F200.000
G1 X86.542 Y108.950 Z8.000 F200.000
G1 X86.542 Y109.657 Z8.000 F200.000
G1 X101.676 Y124.791 Z8.000 F200.000
G1 X101.676 Y125.498 Z8.000 F200.000
G1 X100.272 Y124.095 Z8.000 F200.000
G3 X100.634 Y125.163 Z8.000 I-3.251 J1.695 K0.000 F200.000
G1 X101.676 Y126.205 Z8.000 F200.000
G1 X101.676 Y126.912 Z8.000 F200.000
G1 X100.720 Y125.957 Z8.000 F200.000
G3 X100.686 Y126.630 Z8.000 I-3.191 J0.175 K0.000 F200.000
G1 X101.228 Y127.172 Z8.000 F200.000
G1 X100.640 Y127.291 Z8.000 F200.000
G1 X100.567 Y127.217 Z8.000 F200.000
G1 X100.536 Y127.312 Z8.000 F200.000
G1 X100.640 Y127.291 Z8.000 F200.000
G1 X100.640 Y127.291 Z7.750 F200.000
G1 X100.536 Y127.312 Z7.750 F200.000
G1 X100.567 Y127.217 Z7.750 F200.000
G1 X100.640 Y127.291 Z7.750 F200.000
G1 X101.228 Y127.172 Z7.750 F200.000
G1 X100.686 Y126.630 Z7.750 F200.000
G2 X100.720 Y125.957 Z7.750 I-3.156 J-0.498 K0.000 F200.000
G1 X101.676 Y126.912 Z7.750 F200.000
G1 X101.676 Y126.205 Z7.750 F200.000
G1 X100.634 Y125.163 Z7.750 F200.000
G2 X100.272 Y124.095 Z7.750 I-3.612 J0.626 K0.000 F200.000
G1 X101.676 Y125.498 Z7.750 F200.000
G1 X101.676 Y124.791 Z7.750 F200.000
G1 X86.542 Y109.657 Z7.750 F200.000
G1 X86.542 Y108.950 Z7.750 F200.000
G1 X101.676 Y124.084 Z7.750 F200.000
G1 X101.676 Y123.377 Z7.750 F200.000
G1 X86.542 Y108.243 Z7.750 F200.000
G1 X86.542 Y107.535 Z7.750 F200.000
G1 X101.708 Y122.702 Z7.750 F200.000
G3 X102.004 Y122.290 Z7.750 I0.675 J0.173 K0.000 F200.000
G1 X86.542 Y106.828 Z7.750 F200.000
G1 X86.542 Y106.121 Z7.750 F200.000
G1 X102.577 Y122.157 Z7.750 F200.000
G1 X103.284 Y122.157 Z7.750 F200.000
G1 X86.542 Y105.414 Z7.750 F200.000
G1 X86.542 Y104.707 Z7.750 F200.000
G1 X104.016 Y122.182 Z7.750 F200.000
G1 X104.016 Y122.182 Z7.500 F200.000
G1 X86.542 Y104.707 Z7.500 F200.000
G1 X86.542 Y105.414 Z7.500 F200.000
G1 X103.284 Y122.157 Z7.500 F200.000
G1 X102.577 Y122.157 Z7.500 F200.000
G1 X86.542 Y106.121 Z7.500 F200.000
G1 X86.542 Y106.828 Z7.500 F200.000
G1 X102.004 Y122.290 Z7.500 F200.000
G2 X101.708 Y122.702 Z7.500 I0.379 J0.584 K0.000 F200.000
G1 X86.542 Y107.535 Z7.500 F200.000
G1 X86.542 Y108.243 Z7.500 F200.000
G1 X101.676 Y123.377 Z7.500 F200.000
G1 X101.676 Y124.084 Z7.500 F200.000
G1 X86.542 Y108.950 Z7.500 F200.000
G1 X86.542 Y109.657 Z7.500 F200.000
G1 X101.676 Y124.791 Z7.500 F200.000
G1 X101.676 Y125.498 Z7.500 F200.000
G1 X100.272 Y124.095 Z7.500 F200.000
G3 X100.634 Y125.163 Z7.500 I-3.251 J1.695 K0.000 F200.000
G1 X101.676 Y126.205 Z7.500 F200.000
G1 X101.676 Y126.912 Z7.500 F200.000
G1 X100.720 Y125.957 Z7.500 F200.000
G3 X100.686 Y126.630 Z7.500 I-3.191 J0.175 K0.000 F200.000
G1 X101.228 Y127.172 Z7.500 F200.000
G1 X100.640 Y127.291 Z7.500 F200.000
G1 X100.567 Y127.217 Z7.500 F200.000
G1 X100.536 Y127.312 Z7.500 F200.000
G1 X100.640 Y127.291 Z7.500 F200.000
G1 X100.640 Y127.291 Z7.250 F200.000
G1 X100.536 Y127.312 Z7.250 F200.000
G1 X100.567 Y127.217 Z7.250 F200.000
G1 X100.640 Y127.291 Z7.250 F200.000
G1 X101.228 Y127.172 Z7.250 F200.000
G1 X100.686 Y126.630 Z7.250 F200.000
G2 X100.720 Y125.957 Z7.250 I-3.156 J-0.498 K0.000 F200.000
G1 X101.676 Y126.912 Z7.250 F200.000
G1 X101.676 Y126.205 Z7.250 F200.000
G1 X100.634 Y125.163 Z7.250 F200.000
G2 X100.272 Y124.095 Z7.250 I-3.612 J0.626 K0.000 F200.000
G1 X101.676 Y125.498 Z7.250 F200.000
G1 X101.676 Y124.791 Z7.250 F200.000
G1 X86.542 Y109.657 Z7.250 F200.000
G1 X86.542 Y108.950 Z7.250 F200.000
G1 X101.676 Y124.084 Z7.250 F200.000
G1 X101.676 Y123.377 Z7.250 F200.000
G1 X86.542 Y108.243 Z7.250 F200.000
G1 X86.542 Y107.535 Z7.250 F200.000
G1 X101.708 Y122.702 Z7.250 F200.000
G3 X102.004 Y122.290 Z7.250 I0.675 J0.173 K0.000 F200.000
G1 X86.542 Y106.828 Z7.250 F200.000
G1 X86.542 Y106.121 Z7.250 F200.000
G1 X102.577 Y122.157 Z7.250 F200.000
G1 X103.284 Y122.157 Z7.250 F200.000
G1 X86.542 Y105.414 Z7.250 F200.000
G1 X86.542 Y104.707 Z7.250 F200.000
G1 X104.016 Y122.182 Z7.250 F200.000
G1 X104.016 Y122.182 Z7.000 F200.000
G1 X86.542 Y104.707 Z7.000 F200.000
G1 X86.542 Y105.414 Z7.000 F200.000
G1 X103.284 Y122.157 Z7.000 F200.000
G1 X102.577 Y122.157 Z7.000 F200.000
G1 X86.542 Y106.121 Z7.000 F200.000
G1 X86.542 Y106.828 Z7.000 F200.000
G1 X102.004 Y122.290 Z7.000 F200.000
G2 X101.708 Y122.702 Z7.000 I0.379 J0.584 K0.000 F200.000
G1 X86.542 Y107.535 Z7.000 F200.000
G1 X86.542 Y108.243 Z7.000 F200.000
G1 X101.676 Y123.377 Z7.000 F200.000
G1 X101.676 Y124.084 Z7.000 F200.000
G1 X86.542 Y108.950 Z7.000 F200.000
G1 X86.542 Y109.657 Z7.000 F200.000
G1 X101.676 Y124.791 Z7.000 F200.000
G1 X101.676 Y125.498 Z7.000 F200.000
G1 X100.272 Y124.095 Z7.000 F200.000
G3 X100.634 Y125.163 Z7.000 I-3.251 J1.695 K0.000 F200.000
G1 X101.676 Y126.205 Z7.000 F200.000
G1 X101.676 Y126.912 Z7.000 F200.000
G1 X100.720 Y125.957 Z7.000 F200.000
G3 X100.686 Y126.630 Z7.000 I-3.191 J0.175 K0.000 F200.000
G1 X101.228 Y127.172 Z7.000 F200.000
G1 X100.640 Y127.291 Z7.000 F200.000
G1 X100.567 Y127.217 Z7.000 F200.000
G1 X100.536 Y127.312 Z7.000 F200.000
G1 X100.640 Y127.291 Z7.000 F200.000
G0 Z14.300
G0 X95.987 Y129.002 Z14.300
G0 X95.987 Y129.002 Z12.300
G1 X95.987 Y129.002 Z8.750 F200.000
G1 X96.845 Y129.859 Z8.750 F200.000
G2 X97.357 Y130.743 Z8.750 I0.830 J0.108 K0.000 F200.000
G2 X97.763 Y130.777 Z8.750 I0.265 J-0.706 K0.000 F200.000
G1 X109.292 Y142.306 Z8.750 F200.000
G1 X109.292 Y143.013 Z8.750 F200.000
G1 X95.938 Y129.660 Z8.750 F200.000
G1 X95.890 Y130.319 Z8.750 F200.000
G1 X109.292 Y143.721 Z8.750 F200.000
G1 X109.292 Y144.428 Z8.750 F200.000
G1 X95.674 Y130.810 Z8.750 F200.000
G3 X95.195 Y131.038 Z8.750 I-0.504 J-0.443 K0.000 F200.000
G1 X109.292 Y145.135 Z8.750 F200.000
G1 X109.292 Y145.842 Z8.750 F200.000
G1 X94.372 Y130.922 Z8.750 F200.000
G3 X93.268 Y130.526 Z8.750 I0.793 J-3.939 K0.000 F200.000
G1 X109.292 Y146.549 Z8.750 F200.000
G1 X109.292 Y146.549 Z8.500 F200.000
G1 X93.268 Y130.526 Z8.500 F200.000
G2 X94.372 Y130.922 Z8.500 I1.896 J-3.543 K0.000 F200.000
G1 X109.292 Y145.842 Z8.500 F200.000
G1 X109.292 Y145.135 Z8.500 F200.000
G1 X95.195 Y131.038 Z8.500 F200.000
G2 X95.674 Y130.810 Z8.500 I-0.024 J-0.671 K0.000 F200.000
G1 X109.292 Y144.428 Z8.500 F200.000
G1 X109.292 Y143.721 Z8.500 F200.000
G1 X95.890 Y130.319 Z8.500 F200.000
G1 X95.938 Y129.660 Z8.500 F200.000
G1 X109.292 Y143.013 Z8.500 F200.000
G1 X109.292 Y142.306 Z8.500 F200.000
G1 X97.763 Y130.777 Z8.500 F200.000
G3 X97.357 Y130.743 Z8.500 I-0.141 J-0.741 K0.000 F200.000
G3 X96.845 Y129.859 Z8.500 I0.318 J-0.775 K0.000 F200.000
G1 X95.987 Y129.002 Z8.500 F200.000
G1 X95.987 Y129.002 Z8.250 F200.000
G1 X96.845 Y129.859 Z8.250 F200.000
G2 X97.357 Y130.743 Z8.250 I0.830 J0.108 K0.000 F200.000
G2 X97.763 Y130.777 Z8.250 I0.265 J-0.706 K0.000 F200.000
G1 X109.292 Y142.306 Z8.250 F200.000
G1 X109.292 Y143.013 Z8.250 F200.000
G1 X95.938 Y129.660 Z8.250 F200.000
G1 X95.890 Y130.319 Z8.250 F200.000
G1 X109.292 Y143.721 Z8.250 F200.000
G1 X109.292 Y144.428 Z8.250 F200.000
G1 X95.674 Y130.810 Z8.250 F200.000
G3 X95.195 Y131.038 Z8.250 I-0.504 J-0.443 K0.000 F200.000
G1 X109.292 Y145.135 Z8.250 F200.000
G1 X109.292 Y145.842 Z8.250 F200.000
G1 X94.372 Y130.922 Z8.250 F200.000
G3 X93.268 Y130.526 Z8.250 I0.793 J-3.939 K0.000 F200.000
G1 X109.292 Y146.549 Z8.250 F200.000
G1 X109.292 Y146.549 Z8.000 F200.000
G1 X93.268 Y130.526 Z8.000 F200.000
G2 X94.372 Y130.922 Z8.000 I1.896 J-3.543 K0.000 F200.000
G1 X109.292 Y145.842 Z8.000 F200.000
G1 X109.292 Y145.135 Z8.000 F200.000
G1 X95.195 Y131.038 Z8.000 F200.000
G2 X95.674 Y130.810 Z8.000 I-0.024 J-0.671 K0.000 F200.000
G1 X109.292 Y144.428 Z8.000 F200.000
G1 X109.292 Y143.721 Z8.000 F200.000
G1 X95.890 Y130.319 Z8.000 F200.000
G1 X95.938 Y129.660 Z8.000 F200.000
G1 X109.292 Y143.013 Z8.000 F200.000
G1 X109.292 Y142.306 Z8.000 F200.000
G1 X97.763 Y130.777 Z8.000 F200.000
G3 X97.357 Y130.743 Z8.000 I-0.141 J-0.741 K0.000 F200.000
G3 X96.845 Y129.859 Z8.000 I0.318 J-0.775 K0.000 F200.000
G1 X95.987 Y129.002 Z8.000 F200.000
G1 X95.987 Y129.002 Z7.750 F200.000
G1 X96.845 Y129.859 Z7.750 F200.000
G2 X97.357 Y130.743 Z7.750 I0.830 J0.108 K0.000 F200.000
G2 X97.763 Y130.777 Z7.750 I0.265 J-0.706 K0.000 F200.000
G1 X109.292 Y142.306 Z7.750 F200.000
G1 X109.292 Y143.013 Z7.750 F200.000
G1 X95.938 Y129.660 Z7.750 F200.000
G1 X95.890 Y130.319 Z7.750 F200.000
G1 X109.292 Y143.721 Z7.750 F200.000
G1 X109.292 Y144.428 Z7.750 F200.000
G1 X95.674 Y130.810 Z7.750 F200.000
G3 X95.195 Y131.038 Z7.750 I-0.504 J-0.443 K0.000 F200.000
G1 X109.292 Y145.135 Z7.750 F200.000
G1 X109.292 Y145.842 Z7.750 F200.000
G1 X94.372 Y130.922 Z7.750 F200.000
G3 X93.268 Y130.526 Z7.750 I0.793 J-3.939 K0.000 F200.000
G1 X109.292 Y146.549 Z7.750 F200.000
G1 X109.292 Y146.549 Z7.500 F200.000
G1 X93.268 Y130.526 Z7.500 F200.000
G2 X94.372 Y130.922 Z7.500 I1.896 J-3.543 K0.000 F200.000
G1 X109.292 Y145.842 Z7.500 F200.000
G1 X109.292 Y145.135 Z7.500 F200.000
G1 X95.195 Y131.038 Z7.500 F200.000
G2 X95.674 Y130.810 Z7.500 I-0.024 J-0.671 K0.000 F200.000
G1 X109.292 Y144.428 Z7.500 F200.000
G1 X109.292 Y143.721 Z7.500 F200.000
G1 X95.890 Y130.319 Z7.500 F200.000
G1 X95.938 Y129.660 Z7.500 F200.000
G1 X109.292 Y143.013 Z7.500 F200.000
G1 X109.292 Y142.306 Z7.500 F200.000
G1 X97.763 Y130.777 Z7.500 F200.000
G3 X97.357 Y130.743 Z7.500 I-0.141 J-0.741 K0.000 F200.000
G3 X96.845 Y129.859 Z7.500 I0.318 J-0.775 K0.000 F200.000
G1 X95.987 Y129.002 Z7.500 F200.000
G1 X95.987 Y129.002 Z7.250 F200.000
G1 X96.845 Y129.859 Z7.250 F200.000
G2 X97.357 Y130.743 Z7.250 I0.830 J0.108 K0.000 F200.000
G2 X97.763 Y130.777 Z7.250 I0.265 J-0.706 K0.000 F200.000
G1 X109.292 Y142.306 Z7.250 F200.000
G1 X109.292 Y143.013 Z7.250 F200.000
G1 X95.938 Y129.660 Z7.250 F200.000
G1 X95.890 Y130.319 Z7.250 F200.000
G1 X109.292 Y143.721 Z7.250 F200.000
G1 X109.292 Y144.428 Z7.250 F200.000
G1 X95.674 Y130.810 Z7.250 F200.000
G3 X95.195 Y131.038 Z7.250 I-0.504 J-0.443 K0.000 F200.000
G1 X109.292 Y145.135 Z7.250 F200.000
G1 X109.292 Y145.842 Z7.250 F200.000
G1 X94.372 Y130.922 Z7.250 F200.000
G3 X93.268 Y130.526 Z7.250 I0.793 J-3.939 K0.000 F200.000
G1 X109.292 Y146.549 Z7.250 F200.000
G1 X109.292 Y146.549 Z7.000 F200.000
G1 X93.268 Y130.526 Z7.000 F200.000
G2 X94.372 Y130.922 Z7.000 I1.896 J-3.543 K0.000 F200.000
G1 X109.292 Y145.842 Z7.000 F200.000
G1 X109.292 Y145.135 Z7.000 F200.000
G1 X95.195 Y131.038 Z7.000 F200.000
G2 X95.674 Y130.810 Z7.000 I-0.024 J-0.671 K0.000 F200.000
G1 X109.292 Y144.428 Z7.000 F200.000
G1 X109.292 Y143.721 Z7.000 F200.000
G1 X95.890 Y130.319 Z7.000 F200.000
G1 X95.938 Y129.660 Z7.000 F200.000
G1 X109.292 Y143.013 Z7.000 F200.000
G1 X109.292 Y142.306 Z7.000 F200.000
G1 X97.763 Y130.777 Z7.000 F200.000
G3 X97.357 Y130.743 Z7.000 I-0.141 J-0.741 K0.000 F200.000
G3 X96.845 Y129.859 Z7.000 I0.318 J-0.775 K0.000 F200.000
G1 X95.987 Y129.002 Z7.000 F200.000
G0 Z14.300
G0 X109.292 Y142.306 Z14.300
G0 X109.292 Y142.306 Z12.300
G1 X109.292 Y142.306 Z8.750 F200.000
G1 X97.763 Y130.777 Z8.750 F200.000
G1 X98.358 Y130.665 Z8.750 F200.000
G1 X109.292 Y141.599 Z8.750 F200.000
G1 X109.292 Y140.892 Z8.750 F200.000
G1 X98.953 Y130.554 Z8.750 F200.000
G1 X99.548 Y130.442 Z8.750 F200.000
G1 X109.292 Y140.185 Z8.750 F200.000
G1 X109.292 Y139.478 Z8.750 F200.000
G1 X100.144 Y130.330 Z8.750 F200.000
G1 X100.739 Y130.218 Z8.750 F200.000
G1 X109.292 Y138.771 Z8.750 F200.000
G1 X109.292 Y138.064 Z8.750 F200.000
G1 X101.334 Y130.106 Z8.750 F200.000
G1 X101.929 Y129.994 Z8.750 F200.000
G1 X109.292 Y137.357 Z8.750 F200.000
G1 X109.292 Y136.649 Z8.750 F200.000
G1 X102.524 Y129.882 Z8.750 F200.000
G1 X103.120 Y129.770 Z8.750 F200.000
G1 X109.292 Y135.942 Z8.750 F200.000
G1 X109.292 Y135.235 Z8.750 F200.000
G1 X103.715 Y129.658 Z8.750 F200.000
G2 X104.259 Y129.495 Z8.750 I-0.104 J-1.335 K0.000 F200.000
G1 X109.292 Y134.528 Z8.750 F200.000
G1 X109.292 Y133.821 Z8.750 F200.000
G1 X104.570 Y129.099 Z8.750 F200.000
G1 X104.581 Y129.073 Z8.750 F200.000
G2 X104.610 Y128.432 Z8.750 I-2.284 J-0.423 K0.000 F200.000
G1 X109.292 Y133.114 Z8.750 F200.000
G1 X109.292 Y132.407 Z8.750 F200.000
G1 X104.610 Y127.725 Z8.750 F200.000
G1 X104.610 Y127.018 Z8.750 F200.000
G1 X109.292 Y131.700 Z8.750 F200.000
G1 X109.292 Y130.993 Z8.750 F200.000
G1 X104.610 Y126.311 Z8.750 F200.000
G1 X104.610 Y125.604 Z8.750 F200.000
G1 X109.292 Y130.285 Z8.750 F200.000
G1 X109.292 Y129.578 Z8.750 F200.000
G1 X104.610 Y124.897 Z8.750 F200.000
G1 X104.610 Y124.190 Z8.750 F200.000
G1 X109.292 Y128.871 Z8.750 F200.000
G1 X109.292 Y128.164 Z8.750 F200.000
G1 X104.610 Y123.483 Z8.750 F200.000
G2 X104.585 Y122.751 Z8.750 I-2.323 J-0.288 K0.000 F200.000
G1 X109.292 Y127.457 Z8.750 F200.000
G1 X109.292 Y126.750 Z8.750 F200.000
G1 X86.542 Y104.000 Z8.750 F200.000
G1 X86.542 Y103.293 Z8.750 F200.000
G1 X109.292 Y126.043 Z8.750 F200.000
G1 X109.292 Y125.336 Z8.750 F200.000
G1 X86.664 Y102.708 Z8.750 F200.000
G1 X87.371 Y102.708 Z8.750 F200.000
G1 X109.292 Y124.629 Z8.750 F200.000
G1 X109.292 Y123.922 Z8.750 F200.000
G1 X88.078 Y102.708 Z8.750 F200.000
G1 X88.786 Y102.708 Z8.750 F200.000
G1 X109.292 Y123.214 Z8.750 F200.000
G1 X109.292 Y122.507 Z8.750 F200.000
G1 X89.493 Y102.708 Z8.750 F200.000
G1 X90.200 Y102.708 Z8.750 F200.000
G1 X109.292 Y121.800 Z8.750 F200.000
G1 X109.292 Y121.093 Z8.750 F200.000
G1 X90.907 Y102.708 Z8.750 F200.000
G1 X91.614 Y102.708 Z8.750 F200.000
G1 X109.292 Y120.386 Z8.750 F200.000
G1 X109.292 Y119.679 Z8.750 F200.000
G1 X92.321 Y102.708 Z8.750 F200.000
G1 X93.028 Y102.708 Z8.750 F200.000
G1 X109.292 Y118.972 Z8.750 F200.000
G1 X109.292 Y118.265 Z8.750 F200.000
G1 X93.735 Y102.708 Z8.750 F200.000
G1 X94.442 Y102.708 Z8.750 F200.000
G1 X109.292 Y117.558 Z8.750 F200.000
G1 X109.292 Y116.850 Z8.750 F200.000
G1 X95.150 Y102.708 Z8.750 F200.000
G1 X95.857 Y102.708 Z8.750 F200.000
G1 X109.292 Y116.143 Z8.750 F200.000
G1 X109.292 Y115.436 Z8.750 F200.000
G1 X96.564 Y102.708 Z8.750 F200.000
G1 X97.271 Y102.708 Z8.750 F200.000
G1 X109.292 Y114.729 Z8.750 F200.000
G1 X109.292 Y114.022 Z8.750 F200.000
G1 X97.978 Y102.708 Z8.750 F200.000
G1 X98.685 Y102.708 Z8.750 F200.000
G1 X109.292 Y113.315 Z8.750 F200.000
G1 X109.292 Y112.608 Z8.750 F200.000
G1 X99.392 Y102.708 Z8.750 F200.000
G1 X100.099 Y102.708 Z8.750 F200.000
G1 X109.292 Y111.901 Z8.750 F200.000
G1 X109.292 Y111.194 Z8.750 F200.000
G1 X100.806 Y102.708 Z8.750 F200.000
G1 X101.513 Y102.708 Z8.750 F200.000
G1 X109.292 Y110.487 Z8.750 F200.000
G1 X109.292 Y109.779 Z8.750 F200.000
G1 X102.221 Y102.708 Z8.750 F200.000
G1 X102.928 Y102.708 Z8.750 F200.000
G1 X109.292 Y109.072 Z8.750 F200.000
G1 X109.292 Y108.365 Z8.750 F200.000
G1 X103.635 Y102.708 Z8.750 F200.000
G1 X104.342 Y102.708 Z8.750 F200.000
G1 X109.292 Y107.658 Z8.750 F200.000
G1 X109.292 Y106.951 Z8.750 F200.000
G1 X105.049 Y102.708 Z8.750 F200.000
G1 X105.756 Y102.708 Z8.750 F200.000
G1 X109.292 Y106.244 Z8.750 F200.000
G1 X109.292 Y105.537 Z8.750 F200.000
G1 X106.463 Y102.708 Z8.750 F200.000
G1 X107.170 Y102.708 Z8.750 F200.000
G1 X109.292 Y104.830 Z8.750 F200.000
G1 X109.292 Y104.123 Z8.750 F200.000
G1 X107.877 Y102.708 Z8.750 F200.000
G1 X108.585 Y102.708 Z8.750 F200.000
G1 X109.292 Y103.415 Z8.750 F200.000
G1 X109.292 Y102.708 Z8.750 F200.000
G1 X109.292 Y102.708 Z8.500 F200.000
G1 X109.292 Y103.415 Z8.500 F200.000
G1 X108.585 Y102.708 Z8.500 F200.000
G1 X107.877 Y102.708 Z8.500 F200.000
G1 X109.292 Y104.123 Z8.500 F200.000
G1 X109.292 Y104.830 Z8.500 F200.000
G1 X107.170 Y102.708 Z8.500 F200.000
G1 X106.463 Y102.708 Z8.500 F200.000
G1 X109.292 Y105.537 Z8.500 F200.000
G1 X109.292 Y106.244 Z8.500 F200.000
G1 X105.756 Y102.708 Z8.500 F200.000
G1 X105.049 Y102.708 Z8.500 F200.000
G1 X109.292 Y106.951 Z8.500 F200.000
G1 X109.292 Y107.658 Z8.500 F200.000
G1 X104.342 Y102.708 Z8.500 F200.000
G1 X103.635 Y102.708 Z8.500 F200.000
G1 X109.292 Y108.365 Z8.500 F200.000
G1 X109.292 Y109.072 Z8.500 F200.000
G1 X102.928 Y102.708 Z8.500 F200.000
G1 X102.221 Y102.708 Z8.500 F200.000
G1 X109.292 Y109.779 Z8.500 F200.000
G1 X109.292 Y110.487 Z8.500 F200.000
G1 X101.513 Y102.708 Z8.500 F200.000
G1 X100.806 Y102.708 Z8.500 F200.000
G1 X109.292 Y111.194 Z8.500 F200.000
G1 X109.292 Y111.901 Z8.500 F200.000
G1 X100.099 Y102.708 Z8.500 F200.000
G1 X99.392 Y102.708 Z8.500 F200.000
G1 X109.292 Y112.608 Z8.500 F200.000
G1 X109.292 Y113.315 Z8.500 F200.000
G1 X98.685 Y102.708 Z8.500 F200.000
G1 X97.978 Y102.708 Z8.500 F200.000
G1 X109.292 Y114.022 Z8.500 F200.000
G1 X109.292 Y114.729 Z8.500 F200.000
G1 X97.271 Y102.708 Z8.500 F200.000
G1 X96.564 Y102.708 Z8.500 F200.000
G1 X109.292 Y115.436 Z8.500 F200.000
G1 X109.292 Y116.143 Z8.500 F200.000
G1 X95.857 Y102.708 Z8.500 F200.000
G1 X95.150 Y102.708 Z8.500 F200.000
G1 X109.292 Y116.850 Z8.500 F200.000
G1 X109.292 Y117.558 Z8.500 F200.000
G1 X94.442 Y102.708 Z8.500 F200.000
G1 X93.735 Y102.708 Z8.500 F200.000
G1 X109.292 Y118.265 Z8.500 F200.000
G1 X109.292 Y118.972 Z8.500 F200.000
G1 X93.028 Y102.708 Z8.500 F200.000
G1 X92.321 Y102.708 Z8.500 F200.000
G1 X109.292 Y119.679 Z8.500 F200.000
G1 X109.292 Y120.386 Z8.500 F200.000
G1 X91.614 Y102.708 Z8.500 F200.000
G1 X90.907 Y102.708 Z8.500 F200.000
G1 X109.292 Y121.093 Z8.500 F200.000
G1 X109.292 Y121.800 Z8.500 F200.000
G1 X90.200 Y102.708 Z8.500 F200.000
G1 X89.493 Y102.708 Z8.500 F200.000
G1 X109.292 Y122.507 Z8.500 F200.000
G1 X109.292 Y123.214 Z8.500 F200.000
G1 X88.786 Y102.708 Z8.500 F200.000
G1 X88.078 Y102.708 Z8.500 F200.000
G1 X109.292 Y123.922 Z8.500 F200.000
G1 X109.292 Y124.629 Z8.500 F200.000
G1 X87.371 Y102.708 Z8.500 F200.000
G1 X86.664 Y102.708 Z8.500 F200.000
G1 X109.292 Y125.336 Z8.500 F200.000
G1 X109.292 Y126.043 Z8.500 F200.000
G1 X86.542 Y103.293 Z8.500 F200.000
G1 X86.542 Y104.000 Z8.500 F200.000
G1 X109.292 Y126.750 Z8.500 F200.000
G1 X109.292 Y127.457 Z8.500 F200.000
G1 X104.585 Y122.751 Z8.500 F200.000
G3 X104.610 Y123.483 Z8.500 I-2.298 J0.444 K0.000 F200.000
G1 X109.292 Y128.164 Z8.500 F200.000
G1 X109.292 Y128.871 Z8.500 F200.000
G1 X104.610 Y124.190 Z8.500 F200.000
G1 X104.610 Y124.897 Z8.500 F200.000
G1 X109.292 Y129.578 Z8.500 F200.000
G1 X109.292 Y130.285 Z8.500 F200.000
G1 X104.610 Y125.604 Z8.500 F200.000
G1 X104.610 Y126.311 Z8.500 F200.000
G1 X109.292 Y130.993 Z8.500 F200.000
G1 X109.292 Y131.700 Z8.500 F200.000
G1 X104.610 Y127.018 Z8.500 F200.000
G1 X104.610 Y127.725 Z8.500 F200.000
G1 X109.292 Y132.407 Z8.500 F200.000
G1 X109.292 Y133.114 Z8.500 F200.000
G1 X104.610 Y128.432 Z8.500 F200.000
G3 X104.581 Y129.073 Z8.500 I-2.313 J0.218 K0.000 F200.000
G1 X104.570 Y129.099 Z8.500 F200.000
G1 X109.292 Y133.821 Z8.500 F200.000
G1 X109.292 Y134.528 Z8.500 F200.000
G1 X104.259 Y129.495 Z8.500 F200.000
G3 X103.715 Y129.658 Z8.500 I-0.648 J-1.172 K0.000 F200.000
G1 X109.292 Y135.235 Z8.500 F200.000
G1 X109.292 Y135.942 Z8.500 F200.000
G1 X103.120 Y129.770 Z8.500 F200.000
G1 X102.524 Y129.882 Z8.500 F200.000
G1 X109.292 Y136.649 Z8.500 F200.000
G1 X109.292 Y137.357 Z8.500 F200.000
G1 X101.929 Y129.994 Z8.500 F200.000
G1 X101.334 Y130.106 Z8.500 F200.000
G1 X109.292 Y138.064 Z8.500 F200.000
G1 X109.292 Y138.771 Z8.500 F200.000
G1 X100.739 Y130.218 Z8.500 F200.000
G1 X100.144 Y130.330 Z8.500 F200.000
G1 X109.292 Y139.478 Z8.500 F200.000
G1 X109.292 Y140.185 Z8.500 F200.000
G1 X99.548 Y130.442 Z8.500 F200.000
G1 X98.953 Y130.554 Z8.500 F200.000
G1 X109.292 Y140.892 Z8.500 F200.000
G1 X109.292 Y141.599 Z8.500 F200.000
G1 X98.358 Y130.665 Z8.500 F200.000
G1 X97.763 Y130.777 Z8.500 F200.000
G1 X109.292 Y142.306 Z8.500 F200.000
G1 X109.292 Y142.306 Z8.250 F200.000
G1 X97.763 Y130.777 Z8.250 F200.000
G1 X98.358 Y130.665 Z8.250 F200.000
G1 X109.292 Y141.599 Z8.250 F200.000
G1 X109.292 Y140.892 Z8.250 F200.000
G1 X98.953 Y130.554 Z8.250 F200.000
G1 X99.548 Y130.442 Z8.250 F200.000
G1 X109.292 Y140.185 Z8.250 F200.000
G1 X109.292 Y139.478 Z8.250 F200.000
G1 X100.144 Y130.330 Z8.250 F200.000
G1 X100.739 Y130.218 Z8.250 F200.000
G1 X109.292 Y138.771 Z8.250 F200.000
G1 X109.292 Y138.064 Z8.250 F200.000
G1 X101.334 Y130.106 Z8.250 F200.000
G1 X101.929 Y129.994 Z8.250 F200.000
G1 X109.292 Y137.357 Z8.250 F200.000
G1 X109.292 Y136.649 Z8.250 F200.000
G1 X102.524 Y129.882 Z8.250 F200.000
G1 X103.120 Y129.770 Z8.250 F200.000
G1 X109.292 Y135.942 Z8.250 F200.000
G1 X109.292 Y135.235 Z8.250 F200.000
G1 X103.715 Y129.658 Z8.250 F200.000
G2 X104.259 Y129.495 Z8.250 I-0.104 J-1.335 K0.000 F200.000
G1 X109.292 Y134.528 Z8.250 F200.000
G1 X109.292 Y133.821 Z8.250 F200.000
G1 X104.570 Y129.099 Z8.250 F200.000
G1 X104.581 Y129.073 Z8.250 F200.000
G2 X104.610 Y128.432 Z8.250 I-2.284 J-0.423 K0.000 F200.000
G1 X109.292 Y133.114 Z8.250 F200.000
G1 X109.292 Y132.407 Z8.250 F200.000
G1 X104.610 Y127.725 Z8.250 F200.000
G1 X104.610 Y127.018 Z8.250 F200.000
G1 X109.292 Y131.700 Z8.250 F200.000
G1 X109.292 Y130.993 Z8.250 F200.000
G1 X104.610 Y126.311 Z8.250 F200.000
G1 X104.610 Y125.604 Z8.250 F200.000
G1 X109.292 Y130.285 Z8.250 F200.000
G1 X109.292 Y129.578 Z8.250 F200.000
G1 X104.610 Y124.897 Z8.250 F200.000
G1 X104.610 Y124.190 Z8.250 F200.000
G1 X109.292 Y128.871 Z8.250 F200.000
G1 X109.292 Y128.164 Z8.250 F200.000
G1 X104.610 Y123.483 Z8.250 F200.000
G2 X104.585 Y122.751 Z8.250 I-2.323 J-0.288 K0.000 F200.000
G1 X109.292 Y127.457 Z8.250 F200.000
G1 X109.292 Y126.750 Z8.250 F200.000
G1 X86.542 Y104.000 Z8.250 F200.000
G1 X86.542 Y103.293 Z8.250 F200.000
G1 X109.292 Y126.043 Z8.250 F200.000
G1 X109.292 Y125.336 Z8.250 F200.000
G1 X86.664 Y102.708 Z8.250 F200.000
G1 X87.371 Y102.708 Z8.250 F200.000
G1 X109.292 Y124.629 Z8.250 F200.000
G1 X109.292 Y123.922 Z8.250 F200.000
G1 X88.078 Y102.708 Z8.250 F200.000
G1 X88.786 Y102.708 Z8.250 F200.000
G1 X109.292 Y123.214 Z8.250 F200.000
G1 X109.292 Y122.507 Z8.250 F200.000
G1 X89.493 Y102.708 Z8.250 F200.000
G1 X90.200 Y102.708 Z8.250 F200.000
G1 X109.292 Y121.800 Z8.250 F200.000
G1 X109.292 Y121.093 Z8.250 F200.000
G1 X90.907 Y102.708 Z8.250 F200.000
G1 X91.614 Y102.708 Z8.250 F200.000
G1 X109.292 Y120.386 Z8.250 F200.000
G1 X109.292 Y119.679 Z8.250 F200.000
G1 X92.321 Y102.708 Z8.250 F200.000
G1 X93.028 Y102.708 Z8.250 F200.000
G1 X109.292 Y118.972 Z8.250 F200.000
G1 X109.292 Y118.265 Z8.250 F200.000
G1 X93.735 Y102.708 Z8.250 F200.000
G1 X94.442 Y102.708 Z8.250 F200.000
G1 X109.292 Y117.558 Z8.250 F200.000
G1 X109.292 Y116.850 Z8.250 F200.000
G1 X95.150 Y102.708 Z8.250 F200.000
G1 X95.857 Y102.708 Z8.250 F200.000
G1 X109.292 Y116.143 Z8.250 F200.000
G1 X109.292 Y115.436 Z8.250 F200.000
G1 X96.564 Y102.708 Z8.250 F200.000
G1 X97.271 Y102.708 Z8.250 F200.000
G1 X109.292 Y114.729 Z8.250 F200.000
G1 X109.292 Y114.022 Z8.250 F200.000
G1 X97.978 Y102.708 Z8.250 F200.000
G1 X98.685 Y102.708 Z8.250 F200.000
G1 X109.292 Y113.315 Z8.250 F200.000
G1 X109.292 Y112.608 Z8.250 F200.000
G1 X99.392 Y102.708 Z8.250 F200.000
G1 X100.099 Y102.708 Z8.250 F200.000
G1 X109.292 Y111.901 Z8.250 F200.000
G1 X109.292 Y111.194 Z8.250 F200.000
G1 X100.806 Y102.708 Z8.250 F200.000
G1 X101.513 Y102.708 Z8.250 F200.000
G1 X109.292 Y110.487 Z8.250 F200.000
G1 X109.292 Y109.779 Z8.250 F200.000
G1 X102.221 Y102.708 Z8.250 F200.000
G1 X102.928 Y102.708 Z8.250 F200.000
G1 X109.292 Y109.072 Z8.250 F200.000
G1 X109.292 Y108.365 Z8.250 F200.000
G1 X103.635 Y102.708 Z8.250 F200.000
G1 X104.342 Y102.708 Z8.250 F200.000
G1 X109.292 Y107.658 Z8.250 F200.000
G1 X109.292 Y106.951 Z8.250 F200.000
G1 X105.049 Y102.708 Z8.250 F200.000
G1 X105.756 Y102.708 Z8.250 F200.000
G1 X109.292 Y106.244 Z8.250 F200.000
G1 X109.292 Y105.537 Z8.250 F200.000
G1 X106.463 Y102.708 Z8.250 F200.000
G1 X107.170 Y102.708 Z8.250 F200.000
G1 X109.292 Y104.830 Z8.250 F200.000
G1 X109.292 Y104.123 Z8.250 F200.000
G1 X107.877 Y102.708 Z8.250 F200.000
G1 X108.585 Y102.708 Z8.250 F200.000
G1 X109.292 Y103.415 Z8.250 F200.000
G1 X109.292 Y102.708 Z8.250 F200.000
G1 X109.292 Y102.708 Z8.000 F200.000
G1 X109.292 Y103.415 Z8.000 F200.000
G1 X108.585 Y102.708 Z8.000 F200.000
G1 X107.877 Y102.708 Z8.000 F200.000
G1 X109.292 Y104.123 Z8.000 F200.000
G1 X109.292 Y104.830 Z8.000 F200.000
G1 X107.170 Y102.708 Z8.000 F200.000
G1 X106.463 Y102.708 Z8.000 F200.000
G1 X109.292 Y105.537 Z8.000 F200.000
G1 X109.292 Y106.244 Z8.000 F200.000
G1 X105.756 Y102.708 Z8.000 F200.000
G1 X105.049 Y102.708 Z8.000 F200.000
G1 X109.292 Y106.951 Z8.000 F200.000
G1 X109.292 Y107.658 Z8.000 F200.000
G1 X104.342 Y102.708 Z8.000 F200.000
G1 X103.635 Y102.708 Z8.000 F200.000
G1 X109.292 Y108.365 Z8.000 F200.000
G1 X109.292 Y109.072 Z8.000 F200.000
G1 X102.928 Y102.708 Z8.000 F200.000
G1 X102.221 Y102.708 Z8.000 F200.000
G1 X109.292 Y109.779 Z8.000 F200.000
G1 X109.292 Y110.487 Z8.000 F200.000
G1 X101.513 Y102.708 Z8.000 F200.000
G1 X100.806 Y102.708 Z8.000 F200.000
G1 X109.292 Y111.194 Z8.000 F200.000
G1 X109.292 Y111.901 Z8.000 F200.000
G1 X100.099 Y102.708 Z8.000 F200.000
G1 X99.392 Y102.708 Z8.000 F200.000
G1 X109.292 Y112.608 Z8.000 F200.000
G1 X109.292 Y113.315 Z8.000 F200.000
G1 X98.685 Y102.708 Z8.000 F200.000
G1 X97.978 Y102.708 Z8.000 F200.000
G1 X109.292 Y114.022 Z8.000 F200.000
G1 X109.292 Y114.729 Z8.000 F200.000
G1 X97.271 Y102.708 Z8.000 F200.000
G1 X96.564 Y102.708 Z8.000 F200.000
G1 X109.292 Y115.436 Z8.000 F200.000
G1 X109.292 Y116.143 Z8.000 F200.000
G1 X95.857 Y102.708 Z8.000 F200.000
G1 X95.150 Y102.708 Z8.000 F200.000
G1 X109.292 Y116.850 Z8.000 F200.000
G1 X109.292 Y117.558 Z8.000 F200.000
G1 X94.442 Y102.708 Z8.000 F200.000
G1 X93.735 Y102.708 Z8.000 F200.000
G1 X109.292 Y118.265 Z8.000 F200.000
G1 X109.292 Y118.972 Z8.000 F200.000
G1 X93.028 Y102.708 Z8.000 F200.000
G1 X92.321 Y102.708 Z8.000 F200.000
G1 X109.292 Y119.679 Z8.000 F200.000
G1 X109.292 Y120.386 Z8.000 F200.000
G1 X91.614 Y102.708 Z8.000 F200.000
G1 X90.907 Y102.708 Z8.000 F200.000
G1 X109.292 Y121.093 Z8.000 F200.000
G1 X109.292 Y121.800 Z8.000 F200.000
G1 X90.200 Y102.708 Z8.000 F200.000
G1 X89.493 Y102.708 Z8.000 F200.000
G1 X109.292 Y122.507 Z8.000 F200.000
G1 X109.292 Y123.214 Z8.000 F200.000
G1 X88.786 Y102.708 Z8.000 F200.000
G1 X88.078 Y102.708 Z8.000 F200.000
G1 X109.292 Y123.922 Z8.000 F200.000
G1 X109.292 Y124.629 Z8.000 F200.000
G1 X87.371 Y102.708 Z8.000 F200.000
G1 X86.664 Y102.708 Z8.000 F200.000
G1 X109.292 Y125.336 Z8.000 F200.000
G1 X109.292 Y126.043 Z8.000 F200.000
G1 X86.542 Y103.293 Z8.000 F200.000
G1 X86.542 Y104.000 Z8.000 F200.000
G1 X109.292 Y126.750 Z8.000 F200.000
G1 X109.292 Y127.457 Z8.000 F200.000
G1 X104.585 Y122.751 Z8.000 F200.000
G3 X104.610 Y123.483 Z8.000 I-2.298 J0.444 K0.000 F200.000
G1 X109.292 Y128.164 Z8.000 F200.000
G1 X109.292 Y128.871 Z8.000 F200.000
G1 X104.610 Y124.190 Z8.000 F200.000
G1 X104.610 Y124.897 Z8.000 F200.000
G1 X109.292 Y129.578 Z8.000 F200.000
G1 X109.292 Y130.285 Z8.000 F200.000
G1 X104.610 Y125.604 Z8.000 F200.000
G1 X104.610 Y126.311 Z8.000 F200.000
G1 X109.292 Y130.993 Z8.000 F200.000
G1 X109.292 Y131.700 Z8.000 F200.000
G1 X104.610 Y127.018 Z8.000 F200.000
G1 X104.610 Y127.725 Z8.000 F200.000
G1 X109.292 Y132.407 Z8.000 F200.000
G1 X109.292 Y133.114 Z8.000 F200.000
G1 X104.610 Y128.432 Z8.000 F200.000
G3 X104.581 Y129.073 Z8.000 I-2.313 J0.218 K0.000 F200.000
G1 X104.570 Y129.099 Z8.000 F200.000
G1 X109.292 Y133.821 Z8.000 F200.000
G1 X109.292 Y134.528 Z8.000 F200.000
G1 X104.259 Y129.495 Z8.000 F200.000
G3 X103.715 Y129.658 Z8.000 I-0.648 J-1.172 K0.000 F200.000
G1 X109.292 Y135.235 Z8.000 F200.000
G1 X109.292 Y135.942 Z8.000 F200.000
G1 X103.120 Y129.770 Z8.000 F200.000
G1 X102.524 Y129.882 Z8.000 F200.000
G1 X109.292 Y136.649 Z8.000 F200.000
G1 X109.292 Y137.357 Z8.000 F200.000
G1 X101.929 Y129.994 Z8.000 F200.000
G1 X101.334 Y130.106 Z8.000 F200.000
G1 X109.292 Y138.064 Z8.000 F200.000
G1 X109.292 Y138.771 Z8.000 F200.000
G1 X100.739 Y130.218 Z8.000 F200.000
G1 X100.144 Y130.330 Z8.000 F200.000
G1 X109.292 Y139.478 Z8.000 F200.000
G1 X109.292 Y140.185 Z8.000 F200.000
G1 X99.548 Y130.442 Z8.000 F200.000
G1 X98.953 Y130.554 Z8.000 F200.000
G1 X109.292 Y140.892 Z8.000 F200.000
G1 X109.292 Y141.599 Z8.000 F200.000
G1 X98.358 Y130.665 Z8.000 F200.000
G1 X97.763 Y130.777 Z8.000 F200.000
G1 X109.292 Y142.306 Z8.000 F200.000
G1 X109.292 Y142.306 Z7.750 F200.000
G1 X97.763 Y130.777 Z7.750 F200.000
G1 X98.358 Y130.665 Z7.750 F200.000
G1 X109.292 Y141.599 Z7.750 F200.000
G1 X109.292 Y140.892 Z7.750 F200.000
G1 X98.953 Y130.554 Z7.750 F200.000
G1 X99.548 Y130.442 Z7.750 F200.000
G1 X109.292 Y140.185 Z7.750 F200.000
G1 X109.292 Y139.478 Z7.750 F200.000
G1 X100.144 Y130.330 Z7.750 F200.000
G1 X100.739 Y130.218 Z7.750 F200.000
G1 X109.292 Y138.771 Z7.750 F200.000
G1 X109.292 Y138.064 Z7.750 F200.000
G1 X101.334 Y130.106 Z7.750 F200.000
G1 X101.929 Y129.994 Z7.750 F200.000
G1 X109.292 Y137.357 Z7.750 F200.000
G1 X109.292 Y136.649 Z7.750 F200.000
G1 X102.524 Y129.882 Z7.750 F200.000
G1 X103.120 Y129.770 Z7.750 F200.000
G1 X109.292 Y135.942 Z7.750 F200.000
G1 X109.292 Y135.235 Z7.750 F200.000
G1 X103.715 Y129.658 Z7.750 F200.000
G2 X104.259 Y129.495 Z7.750 I-0.104 J-1.335 K0.000 F200.000
G1 X109.292 Y134.528 Z7.750 F200.000
G1 X109.292 Y133.821 Z7.750 F200.000
G1 X104.570 Y129.099 Z7.750 F200.000
G1 X104.581 Y129.073 Z7.750 F200.000
G2 X104.610 Y128.432 Z7.750 I-2.284 J-0.423 K0.000 F200.000
G1 X109.292 Y133.114 Z7.750 F200.000
G1 X109.292 Y132.407 Z7.750 F200.000
G1 X104.610 Y127.725 Z7.750 F200.000
G1 X104.610 Y127.018 Z7.750 F200.000
G1 X109.292 Y131.700 Z7.750 F200.000
G1 X109.292 Y130.993 Z7.750 F200.000
G1 X104.610 Y126.311 Z7.750 F200.000
G1 X104.610 Y125.604 Z7.750 F200.000
G1 X109.292 Y130.285 Z7.750 F200.000
G1 X109.292 Y129.578 Z7.750 F200.000
G1 X104.610 Y124.897 Z7.750 F200.000
G1 X104.610 Y124.190 Z7.750 F200.000
G1 X109.292 Y128.871 Z7.750 F200.000
G1 X109.292 Y128.164 Z7.750 F200.000
G1 X104.610 Y123.483 Z7.750 F200.000
G2 X104.585 Y122.751 Z7.750 I-2.323 J-0.288 K0.000 F200.000
G1 X109.292 Y127.457 Z7.750 F200.000
G1 X109.292 Y126.750 Z7.750 F200.000
G1 X86.542 Y104.000 Z7.750 F200.000
G1 X86.542 Y103.293 Z7.750 F200.000
G1 X109.292 Y126.043 Z7.750 F200.000
G1 X109.292 Y125.336 Z7.750 F200.000
G1 X86.664 Y102.708 Z7.750 F200.000
G1 X87.371 Y102.708 Z7.750 F200.000
G1 X109.292 Y124.629 Z7.750 F200.000
G1 X109.292 Y123.922 Z7.750 F200.000
G1 X88.078 Y102.708 Z7.750 F200.000
G1 X88.786 Y102.708 Z7.750 F200.000
G1 X109.292 Y123.214 Z7.750 F200.000
G1 X109.292 Y122.507 Z7.750 F200.000
G1 X89.493 Y102.708 Z7.750 F200.000
G1 X90.200 Y102.708 Z7.750 F200.000
G1 X109.292 Y121.800 Z7.750 F200.000
G1 X109.292 Y121.093 Z7.750 F200.000
G1 X90.907 Y102.708 Z7.750 F200.000
G1 X91.614 Y102.708 Z7.750 F200.000
G1 X109.292 Y120.386 Z7.750 F200.000
G1 X109.292 Y119.679 Z7.750 F200.000
G1 X92.321 Y102.708 Z7.750 F200.000
G1 X93.028 Y102.708 Z7.750 F200.000
G1 X109.292 Y118.972 Z7.750 F200.000
G1 X109.292 Y118.265 Z7.750 F200.000
G1 X93.735 Y102.708 Z7.750 F200.000
G1 X94.442 Y102.708 Z7.750 F200.000
G1 X109.292 Y117.558 Z7.750 F200.000
G1 X109.292 Y116.850 Z7.750 F200.000
G1 X95.150 Y102.708 Z7.750 F200.000
G1 X95.857 Y102.708 Z7.750 F200.000
G1 X109.292 Y116.143 Z7.750 F200.000
G1 X109.292 Y115.436 Z7.750 F200.000
G1 X96.564 Y102.708 Z7.750 F200.000
G1 X97.271 Y102.708 Z7.750 F200.000
G1 X109.292 Y114.729 Z7.750 F200.000
G1 X109.292 Y114.022 Z7.750 F200.000
G1 X97.978 Y102.708 Z7.750 F200.000
G1 X98.685 Y102.708 Z7.750 F200.000
G1 X109.292 Y113.315 Z7.750 F200.000
G1 X109.292 Y112.608 Z7.750 F200.000
G1 X99.392 Y102.708 Z7.750 F200.000
G1 X100.099 Y102.708 Z7.750 F200.000
G1 X109.292 Y111.901 Z7.750 F200.000
G1 X109.292 Y111.194 Z7.750 F200.000
G1 X100.806 Y102.708 Z7.750 F200.000
G1 X101.513 Y102.708 Z7.750 F200.000
G1 X109.292 Y110.487 Z7.750 F200.000
G1 X109.292 Y109.779 Z7.750 F200.000
G1 X102.221 Y102.708 Z7.750 F200.000
G1 X102.928 Y102.708 Z7.750 F200.000
G1 X109.292 Y109.072 Z7.750 F200.000
G1 X109.292 Y108.365 Z7.750 F200.000
G1 X103.635 Y102.708 Z7.750 F200.000
G1 X104.342 Y102.708 Z7.750 F200.000
G1 X109.292 Y107.658 Z7.750 F200.000
G1 X109.292 Y106.951 Z7.750 F200.000
G1 X105.049 Y102.708 Z7.750 F200.000
G1 X105.756 Y102.708 Z7.750 F200.000
G1 X109.292 Y106.244 Z7.750 F200.000
G1 X109.292 Y105.537 Z7.750 F200.000
G1 X106.463 Y102.708 Z7.750 F200.000
G1 X107.170 Y102.708 Z7.750 F200.000
G1 X109.292 Y104.830 Z7.750 F200.000
G1 X109.292 Y104.123 Z7.750 F200.000
G1 X107.877 Y102.708 Z7.750 F200.000
G1 X108.585 Y102.708 Z7.750 F200.000
G1 X109.292 Y103.415 Z7.750 F200.000
G1 X109.292 Y102.708 Z7.750 F200.000
G1 X109.292 Y102.708 Z7.500 F200.000
G1 X109.292 Y103.415 Z7.500 F200.000
G1 X108.585 Y102.708 Z7.500 F200.000
G1 X107.877 Y102.708 Z7.500 F200.000
G1 X109.292 Y104.123 Z7.500 F200.000
G1 X109.292 Y104.830 Z7.500 F200.000
G1 X107.170 Y102.708 Z7.500 F200.000
G1 X106.463 Y102.708 Z7.500 F200.000
G1 X109.292 Y105.537 Z7.500 F200.000
G1 X109.292 Y106.244 Z7.500 F200.000
G1 X105.756 Y102.708 Z7.500 F200.000
G1 X105.049 Y102.708 Z7.500 F200.000
G1 X109.292 Y106.951 Z7.500 F200.000
G1 X109.292 Y107.658 Z7.500 F200.000
G1 X104.342 Y102.708 Z7.500 F200.000
G1 X103.635 Y102.708 Z7.500 F200.000
G1 X109.292 Y108.365 Z7.500 F200.000
G1 X109.292 Y109.072 Z7.500 F200.000
G1 X102.928 Y102.708 Z7.500 F200.000
G1 X102.221 Y102.708 Z7.500 F200.000
G1 X109.292 Y109.779 Z7.500 F200.000
G1 X109.292 Y110.487 Z7.500 F200.000
G1 X101.513 Y102.708 Z7.500 F200.000
G1 X100.806 Y102.708 Z7.500 F200.000
G1 X109.292 Y111.194 Z7.500 F200.000
G1 X109.292 Y111.901 Z7.500 F200.000
G1 X100.099 Y102.708 Z7.500 F200.000
G1 X99.392 Y102.708 Z7.500 F200.000
G1 X109.292 Y112.608 Z7.500 F200.000
G1 X109.292 Y113.315 Z7.500 F200.000
G1 X98.685 Y102.708 Z7.500 F200.000
G1 X97.978 Y102.708 Z7.500 F200.000
G1 X109.292 Y114.022 Z7.500 F200.000
G1 X109.292 Y114.729 Z7.500 F200.000
G1 X97.271 Y102.708 Z7.500 F200.000
G1 X96.564 Y102.708 Z7.500 F200.000
G1 X109.292 Y115.436 Z7.500 F200.000
G1 X109.292 Y116.143 Z7.500 F200.000
G1 X95.857 Y102.708 Z7.500 F200.000
G1 X95.150 Y102.708 Z7.500 F200.000
G1 X109.292 Y116.850 Z7.500 F200.000
G1 X109.292 Y117.558 Z7.500 F200.000
G1 X94.442 Y102.708 Z7.500 F200.000
G1 X93.735 Y102.708 Z7.500 F200.000
G1 X109.292 Y118.265 Z7.500 F200.000
G1 X109.292 Y118.972 Z7.500 F200.000
G1 X93.028 Y102.708 Z7.500 F200.000
G1 X92.321 Y102.708 Z7.500 F200.000
G1 X109.292 Y119.679 Z7.500 F200.000
G1 X109.292 Y120.386 Z7.500 F200.000
G1 X91.614 Y102.708 Z7.500 F200.000
G1 X90.907 Y102.708 Z7.500 F200.000
G1 X109.292 Y121.093 Z7.500 F200.000
G1 X109.292 Y121.800 Z7.500 F200.000
G1 X90.200 Y102.708 Z7.500 F200.000
G1 X89.493 Y102.708 Z7.500 F200.000
G1 X109.292 Y122.507 Z7.500 F200.000
G1 X109.292 Y123.214 Z7.500 F200.000
G1 X88.786 Y102.708 Z7.500 F200.000
G1 X88.078 Y102.708 Z7.500 F200.000
G1 X109.292 Y123.922 Z7.500 F200.000
G1 X109.292 Y124.629 Z7.500 F200.000
G1 X87.371 Y102.708 Z7.500 F200.000
G1 X86.664 Y102.708 Z7.500 F200.000
G1 X109.292 Y125.336 Z7.500 F200.000
G1 X109.292 Y126.043 Z7.500 F200.000
G1 X86.542 Y103.293 Z7.500 F200.000
G1 X86.542 Y104.000 Z7.500 F200.000
G1 X109.292 Y126.750 Z7.500 F200.000
G1 X109.292 Y127.457 Z7.500 F200.000
G1 X104.585 Y122.751 Z7.500 F200.000
G3 X104.610 Y123.483 Z7.500 I-2.298 J0.444 K0.000 F200.000
G1 X109.292 Y128.164 Z7.500 F200.000
G1 X109.292 Y128.871 Z7.500 F200.000
G1 X104.610 Y124.190 Z7.500 F200.000
G1 X104.610 Y124.897 Z7.500 F200.000
G1 X109.292 Y129.578 Z7.500 F200.000
G1 X109.292 Y130.285 Z7.500 F200.000
G1 X104.610 Y125.604 Z7.500 F200.000
G1 X104.610 Y126.311 Z7.500 F200.000
G1 X109.292 Y130.993 Z7.500 F200.000
G1 X109.292 Y131.700 Z7.500 F200.000
G1 X104.610 Y127.018 Z7.500 F200.000
G1 X104.610 Y127.725 Z7.500 F200.000
G1 X109.292 Y132.407 Z7.500 F200.000
G1 X109.292 Y133.114 Z7.500 F200.000
G1 X104.610 Y128.432 Z7.500 F200.000
G3 X104.581 Y129.073 Z7.500 I-2.313 J0.218 K0.000 F200.000
G1 X104.570 Y129.099 Z7.500 F200.000
G1 X109.292 Y133.821 Z7.500 F200.000
G1 X109.292 Y134.528 Z7.500 F200.000
G1 X104.259 Y129.495 Z7.500 F200.000
G3 X103.715 Y129.658 Z7.500 I-0.648 J-1.172 K0.000 F200.000
G1 X109.292 Y135.235 Z7.500 F200.000
G1 X109.292 Y135.942 Z7.500 F200.000
G1 X103.120 Y129.770 Z7.500 F200.000
G1 X102.524 Y129.882 Z7.500 F200.000
G1 X109.292 Y136.649 Z7.500 F200.000
G1 X109.292 Y137.357 Z7.500 F200.000
G1 X101.929 Y129.994 Z7.500 F200.000
G1 X101.334 Y130.106 Z7.500 F200.000
G1 X109.292 Y138.064 Z7.500 F200.000
G1 X109.292 Y138.771 Z7.500 F200.000
G1 X100.739 Y130.218 Z7.500 F200.000
G1 X100.144 Y130.330 Z7.500 F200.000
G1 X109.292 Y139.478 Z7.500 F200.000
G1 X109.292 Y140.185 Z7.500 F200.000
G1 X99.548 Y130.442 Z7.500 F200.000
G1 X98.953 Y130.554 Z7.500 F200.000
G1 X109.292 Y140.892 Z7.500 F200.000
G1 X109.292 Y141.599 Z7.500 F200.000
G1 X98.358 Y130.665 Z7.500 F200.000
G1 X97.763 Y130.777 Z7.500 F200.000
G1 X109.292 Y142.306 Z7.500 F200.000
G1 X109.292 Y142.306 Z7.250 F200.000
G1 X97.763 Y130.777 Z7.250 F200.000
G1 X98.358 Y130.665 Z7.250 F200.000
G1 X109.292 Y141.599 Z7.250 F200.000
G1 X109.292 Y140.892 Z7.250 F200.000
G1 X98.953 Y130.554 Z7.250 F200.000
G1 X99.548 Y130.442 Z7.250 F200.000
G1 X109.292 Y140.185 Z7.250 F200.000
G1 X109.292 Y139.478 Z7.250 F200.000
G1 X100.144 Y130.330 Z7.250 F200.000
G1 X100.739 Y130.218 Z7.250 F200.000
G1 X109.292 Y138.771 Z7.250 F200.000
G1 X109.292 Y138.064 Z7.250 F200.000
G1 X101.334 Y130.106 Z7.250 F200.000
G1 X101.929 Y129.994 Z7.250 F200.000
G1 X109.292 Y137.357 Z7.250 F200.000
G1 X109.292 Y136.649 Z7.250 F200.000
G1 X102.524 Y129.882 Z7.250 F200.000
G1 X103.120 Y129.770 Z7.250 F200.000
G1 X109.292 Y135.942 Z7.250 F200.000
G1 X109.292 Y135.235 Z7.250 F200.000
G1 X103.715 Y129.658 Z7.250 F200.000
G2 X104.259 Y129.495 Z7.250 I-0.104 J-1.335 K0.000 F200.000
G1 X109.292 Y134.528 Z7.250 F200.000
G1 X109.292 Y133.821 Z7.250 F200.000
G1 X104.570 Y129.099 Z7.250 F200.000
G1 X104.581 Y129.073 Z7.250 F200.000
G2 X104.610 Y128.432 Z7.250 I-2.284 J-0.423 K0.000 F200.000
G1 X109.292 Y133.114 Z7.250 F200.000
G1 X109.292 Y132.407 Z7.250 F200.000
G1 X104.610 Y127.725 Z7.250 F200.000
G1 X104.610 Y127.018 Z7.250 F200.000
G1 X109.292 Y131.700 Z7.250 F200.000
G1 X109.292 Y130.993 Z7.250 F200.000
G1 X104.610 Y126.311 Z7.250 F200.000
G1 X104.610 Y125.604 Z7.250 F200.000
G1 X109.292 Y130.285 Z7.250 F200.000
G1 X109.292 Y129.578 Z7.250 F200.000
G1 X104.610 Y124.897 Z7.250 F200.000
G1 X104.610 Y124.190 Z7.250 F200.000
G1 X109.292 Y128.871 Z7.250 F200.000
G1 X109.292 Y128.164 Z7.250 F200.000
G1 X104.610 Y123.483 Z7.250 F200.000
G2 X104.585 Y122.751 Z7.250 I-2.323 J-0.288 K0.000 F200.000
G1 X109.292 Y127.457 Z7.250 F200.000
G1 X109.292 Y126.750 Z7.250 F200.000
G1 X86.542 Y104.000 Z7.250 F200.000
G1 X86.542 Y103.293 Z7.250 F200.000
G1 X109.292 Y126.043 Z7.250 F200.000
G1 X109.292 Y125.336 Z7.250 F200.000
G1 X86.664 Y102.708 Z7.250 F200.000
G1 X87.371 Y102.708 Z7.250 F200.000
G1 X109.292 Y124.629 Z7.250 F200.000
G1 X109.292 Y123.922 Z7.250 F200.000
G1 X88.078 Y102.708 Z7.250 F200.000
G1 X88.786 Y102.708 Z7.250 F200.000
G1 X109.292 Y123.214 Z7.250 F200.000
G1 X109.292 Y122.507 Z7.250 F200.000
G1 X89.493 Y102.708 Z7.250 F200.000
G1 X90.200 Y102.708 Z7.250 F200.000
G1 X109.292 Y121.800 Z7.250 F200.000
G1 X109.292 Y121.093 Z7.250 F200.000
G1 X90.907 Y102.708 Z7.250 F200.000
G1 X91.614 Y102.708 Z7.250 F200.000
G1 X109.292 Y120.386 Z7.250 F200.000
G1 X109.292 Y119.679 Z7.250 F200.000
G1 X92.321 Y102.708 Z7.250 F200.000
G1 X93.028 Y102.708 Z7.250 F200.000
G1 X109.292 Y118.972 Z7.250 F200.000
G1 X109.292 Y118.265 Z7.250 F200.000
G1 X93.735 Y102.708 Z7.250 F200.000
G1 X94.442 Y102.708 Z7.250 F200.000
G1 X109.292 Y117.558 Z7.250 F200.000
G1 X109.292 Y116.850 Z7.250 F200.000
G1 X95.150 Y102.708 Z7.250 F200.000
G1 X95.857 Y102.708 Z7.250 F200.000
G1 X109.292 Y116.143 Z7.250 F200.000
G1 X109.292 Y115.436 Z7.250 F200.000
G1 X96.564 Y102.708 Z7.250 F200.000
G1 X97.271 Y102.708 Z7.250 F200.000
G1 X109.292 Y114.729 Z7.250 F200.000
G1 X109.292 Y114.022 Z7.250 F200.000
G1 X97.978 Y102.708 Z7.250 F200.000
G1 X98.685 Y102.708 Z7.250 F200.000
G1 X109.292 Y113.315 Z7.250 F200.000
G1 X109.292 Y112.608 Z7.250 F200.000
G1 X99.392 Y102.708 Z7.250 F200.000
G1 X100.099 Y102.708 Z7.250 F200.000
G1 X109.292 Y111.901 Z7.250 F200.000
G1 X109.292 Y111.194 Z7.250 F200.000
G1 X100.806 Y102.708 Z7.250 F200.000
G1 X101.513 Y102.708 Z7.250 F200.000
G1 X109.292 Y110.487 Z7.250 F200.000
G1 X109.292 Y109.779 Z7.250 F200.000
G1 X102.221 Y102.708 Z7.250 F200.000
G1 X102.928 Y102.708 Z7.250 F200.000
G1 X109.292 Y109.072 Z7.250 F200.000
G1 X109.292 Y108.365 Z7.250 F200.000
G1 X103.635 Y102.708 Z7.250 F200.000
G1 X104.342 Y102.708 Z7.250 F200.000
G1 X109.292 Y107.658 Z7.250 F200.000
G1 X109.292 Y106.951 Z7.250 F200.000
G1 X105.049 Y102.708 Z7.250 F200.000
G1 X105.756 Y102.708 Z7.250 F200.000
G1 X109.292 Y106.244 Z7.250 F200.000
G1 X109.292 Y105.537 Z7.250 F200.000
G1 X106.463 Y102.708 Z7.250 F200.000
G1 X107.170 Y102.708 Z7.250 F200.000
G1 X109.292 Y104.830 Z7.250 F200.000
G1 X109.292 Y104.123 Z7.250 F200.000
G1 X107.877 Y102.708 Z7.250 F200.000
G1 X108.585 Y102.708 Z7.250 F200.000
G1 X109.292 Y103.415 Z7.250 F200.000
G1 X109.292 Y102.708 Z7.250 F200.000
G1 X109.292 Y102.708 Z7.000 F200.000
G1 X109.292 Y103.415 Z7.000 F200.000
G1 X108.585 Y102.708 Z7.000 F200.000
G1 X107.877 Y102.708 Z7.000 F200.000
G1 X109.292 Y104.123 Z7.000 F200.000
G1 X109.292 Y104.830 Z7.000 F200.000
G1 X107.170 Y102.708 Z7.000 F200.000
G1 X106.463 Y102.708 Z7.000 F200.000
G1 X109.292 Y105.537 Z7.000 F200.000
G1 X109.292 Y106.244 Z7.000 F200.000
G1 X105.756 Y102.708 Z7.000 F200.000
G1 X105.049 Y102.708 Z7.000 F200.000
G1 X109.292 Y106.951 Z7.000 F200.000
G1 X109.292 Y107.658 Z7.000 F200.000
G1 X104.342 Y102.708 Z7.000 F200.000
G1 X103.635 Y102.708 Z7.000 F200.000
G1 X109.292 Y108.365 Z7.000 F200.000
G1 X109.292 Y109.072 Z7.000 F200.000
