(Exported by FreeCAD)
(Post Processor: grbl_post)
(Output Time:2024-03-13 12:12:11.110961)
(Begin preamble)
G17 G90
G21
(Begin operation: Fixture)
(Path: Fixture)
G54
(Finish operation: Fixture)
(Begin operation: 1.0mm-endmill002)
(Path: 1.0mm-endmill002)
(1.0mm-endmill002)
(Begin toolchange)
( M6 T5 )
M3 S500
(Finish operation: 1.0mm-endmill002)
(Begin operation: Profile)
(Path: Profile)
(Profile)
(Compensated Tool Path. Diameter: 1.0)
G0 Z20.500
G0 X37.475 Y15.395
G0 Z18.500
G1 X37.475 Y15.395 Z14.500 F100.000
G3 X35.714 Y15.913 Z14.500 I-1.353 J-1.347 K0.000 F100.000
G3 X34.161 Y13.610 Z14.500 I0.311 J-1.885 K0.000 F100.000
G3 X36.054 Y12.059 Z14.500 I1.806 J0.274 K0.000 F100.000
G3 X37.996 Y14.409 Z14.500 I0.045 J1.940 K0.000 F100.000
G3 X37.475 Y15.395 Z14.500 I-1.875 J-0.361 K0.000 F100.000
G0 Z20.500
G0 Z20.500
G0 X37.475 Y15.395
G0 X40.286 Y14.488
G0 X40.286 Y14.488 Z18.500
G1 X40.286 Y14.488 Z14.500 F100.000
G3 X40.823 Y12.769 Z14.500 I1.485 J-0.479 K0.000 F100.000
G3 X42.147 Y12.648 Z14.500 I0.782 J1.242 K0.000 F100.000
G3 X41.920 Y15.429 Z14.500 I-0.581 J1.352 K0.000 F100.000
G3 X40.436 Y14.818 Z14.500 I-0.309 J-1.357 K0.000 F100.000
G3 X40.286 Y14.488 Z14.500 I1.334 J-0.809 K0.000 F100.000
G0 Z20.500
G0 Z20.500
G0 X40.286 Y14.488
G0 Y41.948
G0 Y41.948 Z18.500
G1 X40.286 Y41.948 Z14.500 F100.000
G1 X41.100 Y41.948 Z14.500 F100.000
G1 X37.733 Y44.261 Z14.500 F100.000
G1 X37.733 Y41.948 Z14.500 F100.000
G1 X40.286 Y41.948 Z14.500 F100.000
G0 Z20.500
G0 Z20.500
G0 X40.286 Y41.948
G0 X36.895 Y139.882
G0 X36.895 Y139.882 Z18.500
G1 X36.895 Y139.882 Z14.500 F100.000
G3 X37.644 Y140.002 Z14.500 I-0.105 J3.045 K0.000 F100.000
G3 X38.726 Y142.629 Z14.500 I-0.413 J1.706 K0.000 F100.000
G3 X36.870 Y143.597 Z14.500 I-1.734 J-1.063 K0.000 F100.000
G3 X34.701 Y142.513 Z14.500 I-0.144 J-2.425 K0.000 F100.000
G3 X35.428 Y140.201 Z14.500 I1.386 J-0.834 K0.000 F100.000
G3 X36.895 Y139.882 Z14.500 I1.362 J2.726 K0.000 F100.000
G0 Z20.500
G0 Z20.500
G0 X36.895 Y139.882
G0 X153.233 Y111.352
G0 X153.233 Y111.352 Z18.500
G1 X153.233 Y111.352 Z14.500 F100.000
G1 X153.233 Y109.039 Z14.500 F100.000
G1 X156.600 Y109.039 Z14.500 F100.000
G1 X153.233 Y111.352 Z14.500 F100.000
G0 Z20.500
G0 Z20.500
G0 X153.233 Y111.352
G0 X166.978 Y60.593
G0 X166.978 Y60.593 Z18.500
G1 X166.978 Y60.593 Z14.500 F100.000
G3 X165.863 Y59.982 Z14.500 I0.708 J-2.613 K0.000 F100.000
G3 X166.359 Y57.646 Z14.500 I1.068 J-0.994 K0.000 F100.000
G3 X167.946 Y57.206 Z14.500 I2.172 J4.751 K0.000 F100.000
G3 X172.055 Y57.220 Z14.500 I1.995 J17.210 K0.000 F100.000
G3 X173.996 Y58.000 Z14.500 I-0.258 J3.449 K0.000 F100.000
G3 X173.485 Y60.346 Z14.500 I-1.060 J0.998 K0.000 F100.000
G3 X171.851 Y60.786 Z14.500 I-2.225 J-5.005 K0.000 F100.000
G3 X167.195 Y60.642 Z14.500 I-1.894 J-14.108 K0.000 F100.000
G3 X166.978 Y60.593 Z14.500 I0.491 J-2.662 K0.000 F100.000
G0 Z20.500
G0 Z20.500
G0 X166.978 Y60.593
G0 X169.569 Y20.755
G0 X169.569 Y20.755 Z18.500
G1 X169.569 Y20.755 Z14.500 F100.000
G3 X167.701 Y19.672 Z14.500 I0.158 J-2.424 K0.000 F100.000
G3 X168.428 Y17.360 Z14.500 I1.386 J-0.834 K0.000 F100.000
G3 X171.384 Y17.554 Z14.500 I1.322 J2.479 K0.000 F100.000
G3 X171.860 Y19.510 Z14.500 I-1.176 J1.322 K0.000 F100.000
G3 X169.870 Y20.756 Z14.500 I-1.850 J-0.743 K0.000 F100.000
G3 X169.569 Y20.755 Z14.500 I-0.144 J-2.425 K0.000 F100.000
G0 Z20.500
G0 Z20.500
G0 X169.569 Y20.755
G0 X224.547 Y45.136
G0 X224.547 Y45.136 Z18.500
G1 X224.547 Y45.136 Z14.500 F100.000
G3 X224.972 Y44.538 Z14.500 I1.687 J0.748 K0.000 F100.000
G3 X227.468 Y44.135 Z14.500 I1.653 J2.306 K0.000 F100.000
G3 X228.793 Y45.287 Z14.500 I-0.501 J1.914 K0.000 F100.000
G3 X228.213 Y47.178 Z14.500 I-1.599 J0.543 K0.000 F100.000
G3 X225.382 Y47.521 Z14.500 I-1.695 J-2.139 K0.000 F100.000
G3 X224.547 Y45.136 Z14.500 I0.852 J-1.637 K0.000 F100.000
G0 Z20.500
G0 Z20.500
G0 X224.547 Y45.136
G0 X227.304 Y71.893
G0 X227.304 Y71.893 Z18.500
G1 X227.304 Y71.893 Z14.500 F100.000
G3 X227.997 Y71.989 Z14.500 I0.150 J1.460 K0.000 F100.000
G3 X227.770 Y74.770 Z14.500 I-0.581 J1.352 K0.000 F100.000
G3 X226.286 Y74.159 Z14.500 I-0.309 J-1.357 K0.000 F100.000
G3 X226.673 Y72.111 Z14.500 I1.334 J-0.809 K0.000 F100.000
G3 X227.304 Y71.893 Z14.500 I0.782 J1.242 K0.000 F100.000
G0 Z20.500
G0 Z20.500
G0 X227.304 Y71.893
G0 X223.823 Y72.834
G0 X223.823 Y72.834 Z18.500
G1 X223.823 Y72.834 Z14.500 F100.000
G3 X223.846 Y73.750 Z14.500 I-1.873 J0.506 K0.000 F100.000
G3 X221.564 Y75.255 Z14.500 I-1.875 J-0.361 K0.000 F100.000
G3 X220.011 Y72.951 Z14.500 I0.311 J-1.885 K0.000 F100.000
G3 X221.904 Y71.400 Z14.500 I1.806 J0.274 K0.000 F100.000
G3 X223.823 Y72.834 Z14.500 I0.045 J1.940 K0.000 F100.000
G0 Z20.500
G0 Z20.500
G0 X223.823 Y72.834
G0 X225.048 Y70.539
G0 X225.048 Y70.539 Z18.500
G1 X225.048 Y70.539 Z14.500 F100.000
G2 X223.179 Y69.057 Z14.500 I-2.799 J1.609 K0.000 F100.000
G2 X221.963 Y68.884 Z14.500 I-1.189 J4.006 K0.000 F100.000
G2 X218.556 Y70.648 Z14.500 I-0.045 J4.087 K0.000 F100.000
G2 X217.942 Y74.594 Z14.500 I4.199 J2.674 K0.000 F100.000
G2 X223.208 Y77.597 Z14.500 I3.992 J-0.882 K0.000 F100.000
G2 X225.068 Y76.192 Z14.500 I-0.906 J-3.133 K0.000 F100.000
G2 X225.683 Y76.807 Z14.500 I2.032 J-1.416 K0.000 F100.000
G2 X230.864 Y74.792 Z14.500 I1.816 J-2.999 K0.000 F100.000
G2 X230.936 Y72.224 Z14.500 I-4.625 J-1.415 K0.000 F100.000
G2 X227.263 Y69.372 Z14.500 I-3.538 J0.765 K0.000 F100.000
G2 X225.048 Y70.539 Z14.500 I0.026 J2.735 K0.000 F100.000
G0 Z20.500
G0 X226.228 Y50.274 Z20.500
G0 X226.228 Y50.274 Z18.500
G1 X226.228 Y50.274 Z14.500 F100.000
G2 X227.803 Y50.120 Z14.500 I0.296 J-5.090 K0.000 F100.000
G2 X230.956 Y47.084 Z14.500 I-0.873 J-4.062 K0.000 F100.000
G2 X228.592 Y42.049 Z14.500 I-4.355 J-1.027 K0.000 F100.000
G2 X226.102 Y41.445 Z14.500 I-3.035 J7.069 K0.000 F100.000
G2 X220.986 Y41.907 Z14.500 I-1.421 J12.809 K0.000 F100.000
G2 X218.740 Y43.394 Z14.500 I1.398 J4.551 K0.000 F100.000
G2 X217.937 Y47.290 Z14.500 I3.456 J2.742 K0.000 F100.000
G2 X219.954 Y49.729 Z14.500 I3.322 J-0.692 K0.000 F100.000
G2 X221.191 Y50.047 Z14.500 I1.901 J-4.825 K0.000 F100.000
G2 X221.787 Y49.598 Z14.500 I0.098 J-0.490 K0.000 F100.000
G1 X221.902 Y48.187 Z14.500 F100.000
G2 X221.499 Y47.656 Z14.500 I-0.498 J-0.041 K0.000 F100.000
G3 X220.266 Y47.063 Z14.500 I0.163 J-1.918 K0.000 F100.000
G3 X220.700 Y44.677 Z14.500 I1.481 J-0.963 K0.000 F100.000
G3 X222.881 Y43.925 Z14.500 I2.680 J4.233 K0.000 F100.000
G2 X223.745 Y49.459 Z14.500 I3.119 J2.347 K0.000 F100.000
G2 X226.228 Y50.274 Z14.500 I2.780 J-4.274 K0.000 F100.000
G0 Z20.500
G0 X237.045 Y29.582 Z20.500
G0 X237.045 Y29.582 Z18.500
G1 X237.045 Y29.582 Z14.500 F100.000
G2 X237.277 Y29.639 Z14.500 I0.232 J-0.443 K0.000 F100.000
G1 X238.711 Y29.639 Z14.500 F100.000
G2 X239.158 Y29.364 Z14.500 I-0.000 J-0.500 K0.000 F100.000
G3 X240.382 Y27.411 Z14.500 I7.491 J3.336 K0.000 F100.000
G3 X241.966 Y26.097 Z14.500 I3.869 J3.055 K0.000 F100.000
G2 X242.220 Y25.662 Z14.500 I-0.246 J-0.435 K0.000 F100.000
G1 X242.220 Y24.703 Z14.500 F100.000
G2 X241.720 Y24.203 Z14.500 I-0.500 J-0.000 K0.000 F100.000
G1 X229.650 Y24.203 Z14.500 F100.000
G2 X229.150 Y24.703 Z14.500 I-0.000 J0.500 K0.000 F100.000
G1 X229.150 Y26.179 Z14.500 F100.000
G2 X229.650 Y26.679 Z14.500 I0.500 J0.000 K0.000 F100.000
G1 X238.034 Y26.679 Z14.500 F100.000
G2 X236.817 Y28.941 Z14.500 I7.632 J5.562 K0.000 F100.000
G2 X237.045 Y29.582 Z14.500 I0.459 J0.197 K0.000 F100.000
G0 Z20.500
G0 X235.828 Y23.104 Z20.500
G0 X235.828 Y23.104 Z18.500
G1 X235.828 Y23.104 Z14.500 F100.000
G1 X241.602 Y22.018 Z14.500 F100.000
G2 X242.010 Y21.527 Z14.500 I-0.092 J-0.491 K0.000 F100.000
G1 X242.010 Y15.566 Z14.500 F100.000
G2 X241.510 Y15.066 Z14.500 I-0.500 J-0.000 K0.000 F100.000
G1 X240.076 Y15.066 Z14.500 F100.000
G2 X239.576 Y15.566 Z14.500 I-0.000 J0.500 K0.000 F100.000
G1 X239.576 Y19.945 Z14.500 F100.000
G1 X237.825 Y20.299 Z14.500 F100.000
G2 X233.740 Y14.492 Z14.500 I-3.934 J-1.573 K0.000 F100.000
G2 X229.640 Y16.609 Z14.500 I-0.160 J4.719 K0.000 F100.000
G2 X230.216 Y22.360 Z14.500 I4.073 J2.497 K0.000 F100.000
G2 X232.723 Y23.449 Z14.500 I2.806 J-3.029 K0.000 F100.000
G2 X233.288 Y22.991 Z14.500 I0.066 J-0.496 K0.000 F100.000
G1 X233.402 Y21.449 Z14.500 F100.000
G2 X232.988 Y20.919 Z14.500 I-0.499 J-0.037 K0.000 F100.000
G3 X232.339 Y20.765 Z14.500 I0.247 J-2.473 K0.000 F100.000
G3 X231.584 Y17.856 Z14.500 I0.578 J-1.703 K0.000 F100.000
G3 X234.004 Y17.112 Z14.500 I1.925 J1.951 K0.000 F100.000
G3 X235.749 Y18.794 Z14.500 I-0.159 J1.910 K0.000 F100.000
G3 X234.804 Y20.906 Z14.500 I-2.048 J0.352 K0.000 F100.000
G2 X234.609 Y21.365 Z14.500 I0.301 J0.399 K0.000 F100.000
G1 X234.775 Y22.759 Z14.500 F100.000
G2 X235.364 Y23.191 Z14.500 I0.496 J-0.059 K0.000 F100.000
G1 X235.828 Y23.104 Z14.500 F100.000
G0 Z20.500
G0 X178.570 Y24.689 Z20.500
G0 X178.570 Y24.689 Z18.500
G1 X178.570 Y24.689 Z14.500 F100.000
G2 X178.070 Y24.203 Z14.500 I-0.500 J0.014 K0.000 F100.000
G1 X166.000 Y24.203 Z14.500 F100.000
G2 X165.500 Y24.703 Z14.500 I-0.000 J0.500 K0.000 F100.000
G1 X165.500 Y26.179 Z14.500 F100.000
G2 X166.000 Y26.679 Z14.500 I0.500 J0.000 K0.000 F100.000
G1 X174.384 Y26.679 Z14.500 F100.000
G2 X173.167 Y28.941 Z14.500 I7.632 J5.562 K0.000 F100.000
G2 X173.627 Y29.639 Z14.500 I0.459 J0.197 K0.000 F100.000
G1 X175.061 Y29.639 Z14.500 F100.000
G2 X175.508 Y29.364 Z14.500 I-0.000 J-0.500 K0.000 F100.000
G3 X176.732 Y27.411 Z14.500 I7.491 J3.336 K0.000 F100.000
G3 X178.316 Y26.097 Z14.500 I3.869 J3.055 K0.000 F100.000
G2 X178.570 Y25.662 Z14.500 I-0.246 J-0.435 K0.000 F100.000
G1 X178.570 Y24.703 Z14.500 F100.000
G2 X178.570 Y24.689 Z14.500 I-0.500 J-0.000 K0.000 F100.000
G0 Z20.500
G0 X176.816 Y22.222 Z20.500
G0 X176.816 Y22.222 Z18.500
G1 X176.816 Y22.222 Z14.500 F100.000
G2 X178.461 Y19.778 Z14.500 I-2.422 J-3.405 K0.000 F100.000
G2 X178.297 Y17.081 Z14.500 I-4.996 J-1.051 K0.000 F100.000
G2 X175.166 Y14.736 Z14.500 I-3.445 J1.337 K0.000 F100.000
G2 X174.589 Y15.186 Z14.500 I-0.079 J0.494 K0.000 F100.000
G1 X174.458 Y16.661 Z14.500 F100.000
G2 X174.844 Y17.193 Z14.500 I0.498 J0.044 K0.000 F100.000
G3 X175.566 Y17.423 Z14.500 I-0.282 J2.127 K0.000 F100.000
G3 X176.272 Y19.315 Z14.500 I-0.631 J1.313 K0.000 F100.000
G3 X175.323 Y20.365 Z14.500 I-2.104 J-0.947 K0.000 F100.000
G3 X173.511 Y20.910 Z14.500 I-1.991 J-3.334 K0.000 F100.000
G1 X173.638 Y20.747 Z14.500 F100.000
G2 X171.517 Y14.776 Z14.500 I-3.408 J-2.152 K0.000 F100.000
G2 X166.271 Y16.060 Z14.500 I-1.612 J4.770 K0.000 F100.000
G2 X168.184 Y22.965 Z14.500 I3.415 J2.771 K0.000 F100.000
G2 X171.845 Y23.466 Z14.500 I3.456 J-11.626 K0.000 F100.000
G2 X176.042 Y22.657 Z14.500 I0.155 J-10.492 K0.000 F100.000
G2 X176.816 Y22.222 Z14.500 I-1.647 J-3.840 K0.000 F100.000
G0 Z20.500
G0 X172.030 Y54.709 Z20.500
G0 X172.030 Y54.709 Z18.500
G1 X172.030 Y54.709 Z14.500 F100.000
G2 X170.949 Y54.603 Z14.500 I-1.653 J11.219 K0.000 F100.000
G2 X166.203 Y55.094 Z14.500 I-1.093 J12.604 K0.000 F100.000
G2 X164.247 Y56.351 Z14.500 I1.181 J3.988 K0.000 F100.000
G2 X163.877 Y61.185 Z14.500 I3.203 J2.677 K0.000 F100.000
G2 X166.301 Y62.926 Z14.500 I3.649 J-2.523 K0.000 F100.000
G2 X172.061 Y63.263 Z14.500 I3.681 J-13.525 K0.000 F100.000
G2 X174.549 Y62.478 Z14.500 I-0.796 J-6.858 K0.000 F100.000
G2 X176.570 Y59.009 Z14.500 I-1.778 J-3.359 K0.000 F100.000
G2 X175.250 Y55.963 Z14.500 I-3.770 J-0.176 K0.000 F100.000
G2 X173.341 Y54.983 Z14.500 I-3.824 J5.099 K0.000 F100.000
G2 X172.030 Y54.709 Z14.500 I-2.964 J10.946 K0.000 F100.000
G0 Z20.500
G0 Y64.203 Z20.500
G0 Y64.203 Z18.500
G1 X172.030 Y64.203 Z14.500 F100.000
G1 X164.000 Y64.203 Z14.500 F100.000
G2 X163.500 Y64.703 Z14.500 I-0.000 J0.500 K0.000 F100.000
G1 X163.500 Y66.179 Z14.500 F100.000
G2 X164.000 Y66.679 Z14.500 I0.500 J0.000 K0.000 F100.000
G1 X172.384 Y66.679 Z14.500 F100.000
G2 X171.167 Y68.941 Z14.500 I7.632 J5.562 K0.000 F100.000
G2 X171.627 Y69.639 Z14.500 I0.459 J0.197 K0.000 F100.000
G1 X173.061 Y69.639 Z14.500 F100.000
G2 X173.508 Y69.364 Z14.500 I-0.000 J-0.500 K0.000 F100.000
G3 X174.732 Y67.411 Z14.500 I7.491 J3.336 K0.000 F100.000
G3 X176.316 Y66.097 Z14.500 I3.869 J3.055 K0.000 F100.000
G2 X176.570 Y65.662 Z14.500 I-0.246 J-0.435 K0.000 F100.000
G1 X176.570 Y64.703 Z14.500 F100.000
G2 X176.070 Y64.203 Z14.500 I-0.500 J-0.000 K0.000 F100.000
G1 X172.030 Y64.203 Z14.500 F100.000
G0 Z20.500
G0 X140.570 Y64.703 Z20.500
G0 X140.570 Y64.703 Z18.500
G1 X140.570 Y64.703 Z14.500 F100.000
G2 X140.070 Y64.203 Z14.500 I-0.500 J-0.000 K0.000 F100.000
G1 X128.000 Y64.203 Z14.500 F100.000
G2 X127.500 Y64.703 Z14.500 I-0.000 J0.500 K0.000 F100.000
G1 X127.500 Y66.179 Z14.500 F100.000
G2 X128.000 Y66.679 Z14.500 I0.500 J0.000 K0.000 F100.000
G1 X136.384 Y66.679 Z14.500 F100.000
G2 X135.167 Y68.941 Z14.500 I7.632 J5.562 K0.000 F100.000
G2 X135.627 Y69.639 Z14.500 I0.459 J0.197 K0.000 F100.000
G1 X137.061 Y69.639 Z14.500 F100.000
G2 X137.508 Y69.364 Z14.500 I-0.000 J-0.500 K0.000 F100.000
G3 X138.732 Y67.411 Z14.500 I7.491 J3.336 K0.000 F100.000
G3 X140.316 Y66.097 Z14.500 I3.869 J3.055 K0.000 F100.000
G2 X140.570 Y65.662 Z14.500 I-0.246 J-0.435 K0.000 F100.000
G1 X140.570 Y64.703 Z14.500 F100.000
G0 Z20.500
G0 X137.446 Y62.116 Z20.500
G0 X137.446 Y62.116 Z18.500
G1 X137.446 Y62.116 Z14.500 F100.000
G2 X137.508 Y62.023 Z14.500 I-0.385 J-0.319 K0.000 F100.000
G3 X138.732 Y60.069 Z14.500 I7.491 J3.336 K0.000 F100.000
G3 X140.316 Y58.756 Z14.500 I3.869 J3.055 K0.000 F100.000
G2 X140.570 Y58.321 Z14.500 I-0.246 J-0.435 K0.000 F100.000
G1 X140.570 Y57.362 Z14.500 F100.000
G2 X140.070 Y56.862 Z14.500 I-0.500 J-0.000 K0.000 F100.000
G1 X128.000 Y56.862 Z14.500 F100.000
G2 X127.500 Y57.362 Z14.500 I-0.000 J0.500 K0.000 F100.000
G1 X127.500 Y58.837 Z14.500 F100.000
G2 X128.000 Y59.337 Z14.500 I0.500 J0.000 K0.000 F100.000
G1 X136.384 Y59.337 Z14.500 F100.000
G2 X135.167 Y61.600 Z14.500 I7.632 J5.562 K0.000 F100.000
G2 X135.627 Y62.298 Z14.500 I0.459 J0.197 K0.000 F100.000
G1 X137.061 Y62.298 Z14.500 F100.000
G2 X137.446 Y62.116 Z14.500 I-0.000 J-0.500 K0.000 F100.000
G0 Z20.500
G0 X100.570 Y63.681 Z20.500
G0 X100.570 Y63.681 Z18.500
G1 X100.570 Y63.681 Z14.500 F100.000
G2 X100.070 Y63.203 Z14.500 I-0.500 J0.021 K0.000 F100.000
G1 X88.000 Y63.203 Z14.500 F100.000
G2 X87.500 Y63.703 Z14.500 I-0.000 J0.500 K0.000 F100.000
G1 X87.500 Y65.179 Z14.500 F100.000
G2 X88.000 Y65.679 Z14.500 I0.500 J0.000 K0.000 F100.000
G1 X96.384 Y65.679 Z14.500 F100.000
G2 X95.167 Y67.941 Z14.500 I7.632 J5.562 K0.000 F100.000
G2 X95.627 Y68.639 Z14.500 I0.459 J0.197 K0.000 F100.000
G1 X97.061 Y68.639 Z14.500 F100.000
G2 X97.508 Y68.364 Z14.500 I-0.000 J-0.500 K0.000 F100.000
G3 X98.732 Y66.411 Z14.500 I7.491 J3.336 K0.000 F100.000
G3 X100.316 Y65.097 Z14.500 I3.869 J3.055 K0.000 F100.000
G2 X100.570 Y64.662 Z14.500 I-0.246 J-0.435 K0.000 F100.000
G1 X100.570 Y63.703 Z14.500 F100.000
G2 X100.570 Y63.681 Z14.500 I-0.500 J-0.000 K0.000 F100.000
G0 Z20.500
G0 X98.954 Y61.539 Z20.500
G0 X98.954 Y61.539 Z18.500
G1 X98.954 Y61.539 Z14.500 F100.000
G2 X100.504 Y58.842 Z14.500 I-2.387 J-3.166 K0.000 F100.000
G2 X100.410 Y56.620 Z14.500 I-5.405 J-0.883 K0.000 F100.000
G2 X97.318 Y53.755 Z14.500 I-3.656 J0.844 K0.000 F100.000
G2 X94.022 Y54.691 Z14.500 I-0.479 J4.584 K0.000 F100.000
G2 X91.465 Y57.265 Z14.500 I12.458 J14.932 K0.000 F100.000
G3 X89.934 Y59.054 Z14.500 I-13.194 J-9.739 K0.000 F100.000
G1 X89.934 Y54.180 Z14.500 F100.000
G2 X89.434 Y53.680 Z14.500 I-0.500 J-0.000 K0.000 F100.000
G1 X88.000 Y53.680 Z14.500 F100.000
G2 X87.500 Y54.180 Z14.500 I-0.000 J0.500 K0.000 F100.000
G1 X87.500 Y62.142 Z14.500 F100.000
G2 X87.867 Y62.624 Z14.500 I0.500 J-0.000 K0.000 F100.000
G2 X90.373 Y61.840 Z14.500 I0.079 J-4.143 K0.000 F100.000
G2 X93.054 Y59.097 Z14.500 I-9.933 J-12.395 K0.000 F100.000
G3 X95.438 Y56.684 Z14.500 I10.164 J7.657 K0.000 F100.000
G3 X96.408 Y56.257 Z14.500 I1.339 J1.723 K0.000 F100.000
G3 X98.046 Y56.868 Z14.500 I0.347 J1.568 K0.000 F100.000
G3 X97.893 Y59.309 Z14.500 I-1.703 J1.119 K0.000 F100.000
G3 X96.411 Y59.839 Z14.500 I-1.345 J-1.423 K0.000 F100.000
G2 X95.935 Y60.395 Z14.500 I0.021 J0.500 K0.000 F100.000
G1 X96.106 Y61.912 Z14.500 F100.000
G2 X96.468 Y62.337 Z14.500 I0.497 J-0.056 K0.000 F100.000
G2 X97.204 Y62.287 Z14.500 I0.243 J-1.875 K0.000 F100.000
G2 X98.954 Y61.539 Z14.500 I-0.637 J-3.914 K0.000 F100.000
G0 Z20.500
G0 X107.498 Y29.622 Z20.500
G0 X107.498 Y29.622 Z18.500
G1 X107.498 Y29.622 Z14.500 F100.000
G2 X107.627 Y29.639 Z14.500 I0.129 J-0.483 K0.000 F100.000
G1 X109.061 Y29.639 Z14.500 F100.000
G2 X109.508 Y29.364 Z14.500 I-0.000 J-0.500 K0.000 F100.000
G3 X110.732 Y27.411 Z14.500 I7.491 J3.336 K0.000 F100.000
G3 X112.316 Y26.097 Z14.500 I3.869 J3.055 K0.000 F100.000
G2 X112.570 Y25.662 Z14.500 I-0.246 J-0.435 K0.000 F100.000
G1 X112.570 Y24.703 Z14.500 F100.000
G2 X112.070 Y24.203 Z14.500 I-0.500 J-0.000 K0.000 F100.000
G1 X100.000 Y24.203 Z14.500 F100.000
G2 X99.500 Y24.703 Z14.500 I-0.000 J0.500 K0.000 F100.000
G1 X99.500 Y26.179 Z14.500 F100.000
G2 X100.000 Y26.679 Z14.500 I0.500 J0.000 K0.000 F100.000
G1 X108.384 Y26.679 Z14.500 F100.000
G2 X107.167 Y28.941 Z14.500 I7.632 J5.562 K0.000 F100.000
G2 X107.498 Y29.622 Z14.500 I0.459 J0.197 K0.000 F100.000
G0 Z20.500
G0 X110.227 Y23.314 Z20.500
G0 X110.227 Y23.314 Z18.500
G1 X110.227 Y23.314 Z14.500 F100.000
G2 X110.426 Y23.355 Z14.500 I0.199 J-0.459 K0.000 F100.000
G1 X111.860 Y23.355 Z14.500 F100.000
G2 X112.360 Y22.855 Z14.500 I0.000 J-0.500 K0.000 F100.000
G1 X112.360 Y15.074 Z14.500 F100.000
G2 X111.860 Y14.574 Z14.500 I-0.500 J-0.000 K0.000 F100.000
G1 X110.714 Y14.574 Z14.500 F100.000
G2 X110.396 Y14.688 Z14.500 I0.000 J0.500 K0.000 F100.000
G3 X99.940 Y19.169 Z14.500 I-12.073 J-13.729 K0.000 F100.000
G2 X99.500 Y19.666 Z14.500 I0.060 J0.496 K0.000 F100.000
G1 X99.500 Y21.174 Z14.500 F100.000
G2 X100.042 Y21.673 Z14.500 I0.500 J-0.000 K0.000 F100.000
G1 X101.147 Y21.580 Z14.500 F100.000
G2 X109.926 Y18.019 Z14.500 I-2.561 J-18.917 K0.000 F100.000
G1 X109.926 Y22.855 Z14.500 F100.000
G2 X110.227 Y23.314 Z14.500 I0.500 J0.000 K0.000 F100.000
G0 Z20.500
G0 X45.220 Y20.682 Z20.500
G0 X45.220 Y20.682 Z18.500
G1 X45.220 Y20.682 Z14.500 F100.000
G2 X45.220 Y20.662 Z14.500 I-0.500 J-0.020 K0.000 F100.000
G1 X45.220 Y19.703 Z14.500 F100.000
G2 X44.720 Y19.203 Z14.500 I-0.500 J-0.000 K0.000 F100.000
G1 X32.650 Y19.203 Z14.500 F100.000
G2 X32.150 Y19.703 Z14.500 I-0.000 J0.500 K0.000 F100.000
G1 X32.150 Y21.179 Z14.500 F100.000
G2 X32.650 Y21.679 Z14.500 I0.500 J0.000 K0.000 F100.000
G1 X41.034 Y21.679 Z14.500 F100.000
G2 X39.817 Y23.941 Z14.500 I7.632 J5.562 K0.000 F100.000
G2 X40.277 Y24.639 Z14.500 I0.459 J0.197 K0.000 F100.000
G1 X41.711 Y24.639 Z14.500 F100.000
G2 X42.158 Y24.364 Z14.500 I-0.000 J-0.500 K0.000 F100.000
G3 X43.382 Y22.411 Z14.500 I7.491 J3.336 K0.000 F100.000
G3 X44.966 Y21.097 Z14.500 I3.869 J3.055 K0.000 F100.000
G2 X45.220 Y20.682 Z14.500 I-0.246 J-0.435 K0.000 F100.000
G0 Z20.500
G0 X43.395 Y17.507 Z20.500
G0 X43.395 Y17.507 Z18.500
G1 X43.395 Y17.507 Z14.500 F100.000
G2 X45.014 Y15.451 Z14.500 I-1.746 J-3.040 K0.000 F100.000
G2 X45.086 Y12.883 Z14.500 I-4.625 J-1.415 K0.000 F100.000
G2 X41.413 Y10.031 Z14.500 I-3.538 J0.765 K0.000 F100.000
G2 X39.198 Y11.198 Z14.500 I0.026 J2.735 K0.000 F100.000
G2 X37.329 Y9.715 Z14.500 I-2.799 J1.609 K0.000 F100.000
G2 X36.113 Y9.543 Z14.500 I-1.189 J4.006 K0.000 F100.000
G2 X32.706 Y11.307 Z14.500 I-0.045 J4.087 K0.000 F100.000
G2 X32.092 Y15.253 Z14.500 I4.199 J2.674 K0.000 F100.000
G2 X37.358 Y18.256 Z14.500 I3.992 J-0.882 K0.000 F100.000
G2 X39.218 Y16.851 Z14.500 I-0.906 J-3.133 K0.000 F100.000
G2 X39.833 Y17.466 Z14.500 I2.032 J-1.416 K0.000 F100.000
G2 X43.395 Y17.507 Z14.500 I1.816 J-2.999 K0.000 F100.000
G0 Z20.500
G0 X37.375 Y37.869 Z20.500
G0 X37.375 Y37.869 Z18.500
G1 X37.375 Y37.869 Z14.500 F100.000
G2 X37.233 Y37.848 Z14.500 I-0.142 J0.479 K0.000 F100.000
G1 X35.869 Y37.848 Z14.500 F100.000
G2 X35.369 Y38.348 Z14.500 I-0.000 J0.500 K0.000 F100.000
G1 X35.369 Y39.472 Z14.500 F100.000
G1 X33.000 Y39.472 Z14.500 F100.000
G2 X32.500 Y39.972 Z14.500 I-0.000 J0.500 K0.000 F100.000
G1 X32.500 Y41.448 Z14.500 F100.000
G2 X33.000 Y41.948 Z14.500 I0.500 J0.000 K0.000 F100.000
G1 X35.369 Y41.948 Z14.500 F100.000
G1 X35.369 Y46.655 Z14.500 F100.000
G2 X35.869 Y47.155 Z14.500 I0.500 J0.000 K0.000 F100.000
G1 X37.233 Y47.155 Z14.500 F100.000
G2 X37.520 Y47.064 Z14.500 I-0.000 J-0.500 K0.000 F100.000
G1 X45.322 Y41.595 Z14.500 F100.000
G2 X45.535 Y41.185 Z14.500 I-0.287 J-0.409 K0.000 F100.000
G1 X45.535 Y39.972 Z14.500 F100.000
G2 X45.035 Y39.472 Z14.500 I-0.500 J-0.000 K0.000 F100.000
G1 X37.733 Y39.472 Z14.500 F100.000
G1 X37.733 Y38.348 Z14.500 F100.000
G2 X37.375 Y37.869 Z14.500 I-0.500 J-0.000 K0.000 F100.000
G0 Z20.500
G0 Y47.453 Z20.500
G0 Y47.453 Z18.500
G1 X37.375 Y47.453 Z14.500 F100.000
G1 X33.000 Y47.453 Z14.500 F100.000
G2 X32.500 Y47.953 Z14.500 I-0.000 J0.500 K0.000 F100.000
G1 X32.500 Y49.429 Z14.500 F100.000
G2 X33.000 Y49.929 Z14.500 I0.500 J0.000 K0.000 F100.000
G1 X41.384 Y49.929 Z14.500 F100.000
G2 X40.167 Y52.191 Z14.500 I7.632 J5.562 K0.000 F100.000
G2 X40.627 Y52.889 Z14.500 I0.459 J0.197 K0.000 F100.000
G1 X42.061 Y52.889 Z14.500 F100.000
G2 X42.508 Y52.614 Z14.500 I-0.000 J-0.500 K0.000 F100.000
G3 X43.732 Y50.661 Z14.500 I7.491 J3.336 K0.000 F100.000
G3 X45.316 Y49.347 Z14.500 I3.869 J3.055 K0.000 F100.000
G2 X45.570 Y48.912 Z14.500 I-0.246 J-0.435 K0.000 F100.000
G1 X45.570 Y47.953 Z14.500 F100.000
G2 X45.070 Y47.453 Z14.500 I-0.500 J-0.000 K0.000 F100.000
G1 X37.375 Y47.453 Z14.500 F100.000
G0 Z20.500
G0 X36.621 Y70.043 Z20.500
G0 X36.621 Y70.043 Z18.500
G1 X36.621 Y70.043 Z14.500 F100.000
G2 X33.846 Y71.022 Z14.500 I-0.135 J4.043 K0.000 F100.000
G2 X32.452 Y75.823 Z14.500 I3.225 J3.539 K0.000 F100.000
G2 X33.902 Y78.070 Z14.500 I3.789 J-0.855 K0.000 F100.000
G2 X36.060 Y78.912 Z14.500 I2.569 J-3.398 K0.000 F100.000
G2 X36.650 Y78.489 Z14.500 I0.095 J-0.491 K0.000 F100.000
G1 X36.854 Y77.013 Z14.500 F100.000
G2 X36.637 Y76.530 Z14.500 I-0.495 J-0.068 K0.000 F100.000
G2 X36.007 Y76.364 Z14.500 I-0.731 J1.502 K0.000 F100.000
G3 X34.748 Y75.535 Z14.500 I0.503 J-2.133 K0.000 F100.000
G3 X36.863 Y72.666 Z14.500 I1.680 J-0.976 K0.000 F100.000
G3 X38.306 Y74.236 Z14.500 I-0.276 J1.702 K0.000 F100.000
G3 X38.176 Y75.427 Z14.500 I-3.020 J0.273 K0.000 F100.000
G2 X38.734 Y76.014 Z14.500 I0.492 J0.091 K0.000 F100.000
G1 X40.028 Y75.842 Z14.500 F100.000
G2 X40.462 Y75.336 Z14.500 I-0.066 J-0.496 K0.000 F100.000
G3 X40.597 Y74.211 Z14.500 I2.628 J-0.254 K0.000 F100.000
G3 X42.532 Y73.255 Z14.500 I1.375 J0.348 K0.000 F100.000
G3 X43.133 Y75.503 Z14.500 I-0.662 J1.381 K0.000 F100.000
G3 X41.591 Y76.297 Z14.500 I-1.677 J-1.363 K0.000 F100.000
G2 X41.185 Y76.879 Z14.500 I0.086 J0.493 K0.000 F100.000
G1 X41.455 Y78.355 Z14.500 F100.000
G2 X41.858 Y78.757 Z14.500 I0.492 J-0.090 K0.000 F100.000
G2 X43.731 Y78.136 Z14.500 I-0.274 J-3.956 K0.000 F100.000
G2 X45.439 Y75.767 Z14.500 I-2.079 J-3.301 K0.000 F100.000
G2 X45.531 Y74.031 Z14.500 I-4.098 J-1.089 K0.000 F100.000
G2 X43.279 Y70.930 Z14.500 I-3.782 J0.379 K0.000 F100.000
G2 X39.600 Y71.698 Z14.500 I-1.333 J2.809 K0.000 F100.000
G2 X38.631 Y70.657 Z14.500 I-2.481 J1.338 K0.000 F100.000
G2 X36.621 Y70.043 Z14.500 I-2.145 J3.429 K0.000 F100.000
G0 Z20.500
G0 Y79.703 Z20.500
G0 Y79.703 Z18.500
G1 X36.621 Y79.703 Z14.500 F100.000
G1 X33.000 Y79.703 Z14.500 F100.000
G2 X32.500 Y80.203 Z14.500 I-0.000 J0.500 K0.000 F100.000
G1 X32.500 Y81.679 Z14.500 F100.000
G2 X33.000 Y82.179 Z14.500 I0.500 J0.000 K0.000 F100.000
G1 X41.384 Y82.179 Z14.500 F100.000
G2 X40.167 Y84.441 Z14.500 I7.632 J5.562 K0.000 F100.000
G2 X40.627 Y85.139 Z14.500 I0.459 J0.197 K0.000 F100.000
G1 X42.061 Y85.139 Z14.500 F100.000
G2 X42.508 Y84.864 Z14.500 I-0.000 J-0.500 K0.000 F100.000
G3 X43.732 Y82.911 Z14.500 I7.491 J3.336 K0.000 F100.000
G3 X45.316 Y81.597 Z14.500 I3.869 J3.055 K0.000 F100.000
G2 X45.570 Y81.162 Z14.500 I-0.246 J-0.435 K0.000 F100.000
G1 X45.570 Y80.203 Z14.500 F100.000
G2 X45.070 Y79.703 Z14.500 I-0.500 J-0.000 K0.000 F100.000
G1 X36.621 Y79.703 Z14.500 F100.000
G0 Z20.500
G0 X43.586 Y105.932 Z20.500
G0 X43.586 Y105.932 Z18.500
G1 X43.586 Y105.932 Z14.500 F100.000
G2 X43.396 Y106.029 Z14.500 I0.128 J0.483 K0.000 F100.000
G3 X32.940 Y110.510 Z14.500 I-12.073 J-13.729 K0.000 F100.000
G2 X32.500 Y111.007 Z14.500 I0.060 J0.496 K0.000 F100.000
G1 X32.500 Y112.515 Z14.500 F100.000
G2 X33.042 Y113.014 Z14.500 I0.500 J0.000 K0.000 F100.000
G1 X34.147 Y112.921 Z14.500 F100.000
G2 X42.926 Y109.361 Z14.500 I-2.561 J-18.917 K0.000 F100.000
G1 X42.926 Y114.196 Z14.500 F100.000
G2 X43.426 Y114.696 Z14.500 I0.500 J0.000 K0.000 F100.000
G1 X44.860 Y114.696 Z14.500 F100.000
G2 X45.360 Y114.196 Z14.500 I0.000 J-0.500 K0.000 F100.000
G1 X45.360 Y106.415 Z14.500 F100.000
G2 X44.860 Y105.915 Z14.500 I-0.500 J-0.000 K0.000 F100.000
G1 X43.714 Y105.915 Z14.500 F100.000
G2 X43.586 Y105.932 Z14.500 I0.000 J0.500 K0.000 F100.000
G0 Z20.500
G0 X42.110 Y137.571 Z20.500
G0 X42.110 Y137.571 Z18.500
G1 X42.110 Y137.571 Z14.500 F100.000
G2 X41.589 Y138.027 Z14.500 I-0.023 J0.499 K0.000 F100.000
G1 X41.458 Y139.503 Z14.500 F100.000
G2 X41.844 Y140.034 Z14.500 I0.498 J0.044 K0.000 F100.000
G3 X42.566 Y140.264 Z14.500 I-0.282 J2.127 K0.000 F100.000
G3 X43.272 Y142.156 Z14.500 I-0.631 J1.313 K0.000 F100.000
G3 X42.323 Y143.206 Z14.500 I-2.104 J-0.947 K0.000 F100.000
G3 X40.511 Y143.751 Z14.500 I-1.991 J-3.334 K0.000 F100.000
G1 X40.638 Y143.588 Z14.500 F100.000
G2 X38.517 Y137.617 Z14.500 I-3.408 J-2.152 K0.000 F100.000
G2 X33.271 Y138.902 Z14.500 I-1.612 J4.770 K0.000 F100.000
G2 X35.184 Y145.806 Z14.500 I3.415 J2.771 K0.000 F100.000
G2 X38.845 Y146.307 Z14.500 I3.456 J-11.626 K0.000 F100.000
G2 X43.042 Y145.498 Z14.500 I0.155 J-10.492 K0.000 F100.000
G2 X45.461 Y142.619 Z14.500 I-1.647 J-3.840 K0.000 F100.000
G2 X45.297 Y139.922 Z14.500 I-4.996 J-1.051 K0.000 F100.000
G2 X42.166 Y137.577 Z14.500 I-3.445 J1.337 K0.000 F100.000
G2 X42.110 Y137.571 Z14.500 I-0.079 J0.494 K0.000 F100.000
G0 Z20.500
G0 X91.384 Y127.411 Z20.500
G0 X91.384 Y127.411 Z18.500
G1 X91.384 Y127.411 Z14.500 F100.000
G2 X92.566 Y129.702 Z14.500 I4.679 J-0.965 K0.000 F100.000
G2 X95.073 Y130.790 Z14.500 I2.806 J-3.029 K0.000 F100.000
G2 X95.638 Y130.332 Z14.500 I0.066 J-0.496 K0.000 F100.000
G1 X95.752 Y128.790 Z14.500 F100.000
G2 X95.338 Y128.260 Z14.500 I-0.499 J-0.037 K0.000 F100.000
G3 X94.689 Y128.106 Z14.500 I0.247 J-2.473 K0.000 F100.000
G3 X93.934 Y125.197 Z14.500 I0.578 J-1.703 K0.000 F100.000
G3 X96.354 Y124.453 Z14.500 I1.925 J1.951 K0.000 F100.000
G3 X98.099 Y126.135 Z14.500 I-0.159 J1.910 K0.000 F100.000
G3 X97.154 Y128.248 Z14.500 I-2.048 J0.352 K0.000 F100.000
G2 X96.959 Y128.706 Z14.500 I0.301 J0.399 K0.000 F100.000
G1 X97.125 Y130.100 Z14.500 F100.000
G2 X97.714 Y130.532 Z14.500 I0.496 J-0.059 K0.000 F100.000
G1 X103.952 Y129.359 Z14.500 F100.000
G2 X104.360 Y128.868 Z14.500 I-0.092 J-0.491 K0.000 F100.000
G1 X104.360 Y122.907 Z14.500 F100.000
G2 X103.860 Y122.407 Z14.500 I-0.500 J-0.000 K0.000 F100.000
G1 X102.426 Y122.407 Z14.500 F100.000
G2 X101.926 Y122.907 Z14.500 I-0.000 J0.500 K0.000 F100.000
G1 X101.926 Y127.286 Z14.500 F100.000
G1 X100.175 Y127.640 Z14.500 F100.000
G2 X96.090 Y121.833 Z14.500 I-3.934 J-1.573 K0.000 F100.000
G2 X91.990 Y123.950 Z14.500 I-0.160 J4.719 K0.000 F100.000
G2 X91.384 Y127.411 Z14.500 I4.073 J2.497 K0.000 F100.000
G0 Z20.500
G0 X146.427 Y141.236 Z20.500
G0 X146.427 Y141.236 Z18.500
G1 X146.427 Y141.236 Z14.500 F100.000
G2 X146.452 Y143.664 Z14.500 I4.644 J1.166 K0.000 F100.000
G2 X147.902 Y145.911 Z14.500 I3.789 J-0.855 K0.000 F100.000
G2 X150.060 Y146.753 Z14.500 I2.569 J-3.398 K0.000 F100.000
G2 X150.650 Y146.330 Z14.500 I0.095 J-0.491 K0.000 F100.000
G1 X150.854 Y144.855 Z14.500 F100.000
G2 X150.637 Y144.371 Z14.500 I-0.495 J-0.068 K0.000 F100.000
G2 X150.007 Y144.205 Z14.500 I-0.731 J1.502 K0.000 F100.000
G3 X148.748 Y143.376 Z14.500 I0.503 J-2.133 K0.000 F100.000
G3 X150.863 Y140.508 Z14.500 I1.680 J-0.976 K0.000 F100.000
G3 X152.306 Y142.077 Z14.500 I-0.276 J1.702 K0.000 F100.000
G3 X152.176 Y143.268 Z14.500 I-3.020 J0.273 K0.000 F100.000
G2 X152.734 Y143.855 Z14.500 I0.492 J0.091 K0.000 F100.000
G1 X154.028 Y143.683 Z14.500 F100.000
G2 X154.462 Y143.177 Z14.500 I-0.066 J-0.496 K0.000 F100.000
G3 X154.597 Y142.053 Z14.500 I2.628 J-0.254 K0.000 F100.000
G3 X156.532 Y141.096 Z14.500 I1.375 J0.348 K0.000 F100.000
G3 X157.133 Y143.344 Z14.500 I-0.662 J1.381 K0.000 F100.000
G3 X155.591 Y144.138 Z14.500 I-1.677 J-1.363 K0.000 F100.000
G2 X155.185 Y144.720 Z14.500 I0.086 J0.493 K0.000 F100.000
G1 X155.455 Y146.196 Z14.500 F100.000
G2 X155.858 Y146.598 Z14.500 I0.492 J-0.090 K0.000 F100.000
G2 X157.731 Y145.977 Z14.500 I-0.274 J-3.956 K0.000 F100.000
G2 X159.439 Y143.609 Z14.500 I-2.079 J-3.301 K0.000 F100.000
G2 X159.531 Y141.872 Z14.500 I-4.098 J-1.089 K0.000 F100.000
G2 X157.279 Y138.771 Z14.500 I-3.782 J0.379 K0.000 F100.000
G2 X153.600 Y139.539 Z14.500 I-1.333 J2.809 K0.000 F100.000
G2 X152.631 Y138.498 Z14.500 I-2.481 J1.338 K0.000 F100.000
G2 X147.846 Y138.863 Z14.500 I-2.145 J3.429 K0.000 F100.000
G2 X146.427 Y141.236 Z14.500 I3.225 J3.539 K0.000 F100.000
G0 Z20.500
G0 X151.280 Y114.238 Z20.500
G0 X151.280 Y114.238 Z18.500
G1 X151.280 Y114.238 Z14.500 F100.000
G2 X151.369 Y114.246 Z14.500 I0.088 J-0.492 K0.000 F100.000
G1 X152.733 Y114.246 Z14.500 F100.000
G2 X153.020 Y114.155 Z14.500 I-0.000 J-0.500 K0.000 F100.000
G1 X160.822 Y108.686 Z14.500 F100.000
G2 X161.035 Y108.277 Z14.500 I-0.287 J-0.409 K0.000 F100.000
G1 X161.035 Y107.063 Z14.500 F100.000
G2 X160.535 Y106.563 Z14.500 I-0.500 J-0.000 K0.000 F100.000
G1 X153.233 Y106.563 Z14.500 F100.000
G1 X153.233 Y105.440 Z14.500 F100.000
G2 X152.733 Y104.940 Z14.500 I-0.500 J-0.000 K0.000 F100.000
G1 X151.369 Y104.940 Z14.500 F100.000
G2 X150.869 Y105.440 Z14.500 I-0.000 J0.500 K0.000 F100.000
G1 X150.869 Y106.563 Z14.500 F100.000
G1 X148.500 Y106.563 Z14.500 F100.000
G2 X148.000 Y107.063 Z14.500 I-0.000 J0.500 K0.000 F100.000
G1 X148.000 Y108.539 Z14.500 F100.000
G2 X148.500 Y109.039 Z14.500 I0.500 J0.000 K0.000 F100.000
G1 X150.869 Y109.039 Z14.500 F100.000
G1 X150.869 Y113.746 Z14.500 F100.000
G2 X151.280 Y114.238 Z14.500 I0.500 J0.000 K0.000 F100.000
G0 Z20.500
G0 X200.505 Y121.449 Z20.500
G0 X200.505 Y121.449 Z18.500
G1 X200.505 Y121.449 Z14.500 F100.000
G2 X200.500 Y121.522 Z14.500 I0.495 J0.072 K0.000 F100.000
G1 X200.500 Y129.483 Z14.500 F100.000
G2 X200.867 Y129.965 Z14.500 I0.500 J-0.000 K0.000 F100.000
G2 X203.373 Y129.181 Z14.500 I0.079 J-4.143 K0.000 F100.000
G2 X206.054 Y126.438 Z14.500 I-9.933 J-12.395 K0.000 F100.000
G3 X208.438 Y124.025 Z14.500 I10.164 J7.657 K0.000 F100.000
G3 X209.408 Y123.598 Z14.500 I1.339 J1.723 K0.000 F100.000
G3 X211.046 Y124.209 Z14.500 I0.347 J1.568 K0.000 F100.000
G3 X210.893 Y126.650 Z14.500 I-1.703 J1.119 K0.000 F100.000
G3 X209.411 Y127.180 Z14.500 I-1.345 J-1.423 K0.000 F100.000
G2 X208.935 Y127.736 Z14.500 I0.021 J0.500 K0.000 F100.000
G1 X209.106 Y129.253 Z14.500 F100.000
G2 X209.468 Y129.678 Z14.500 I0.497 J-0.056 K0.000 F100.000
G2 X210.204 Y129.628 Z14.500 I0.243 J-1.875 K0.000 F100.000
G2 X213.504 Y126.183 Z14.500 I-0.637 J-3.914 K0.000 F100.000
G2 X213.410 Y123.961 Z14.500 I-5.405 J-0.883 K0.000 F100.000
G2 X210.318 Y121.096 Z14.500 I-3.656 J0.844 K0.000 F100.000
G2 X207.022 Y122.032 Z14.500 I-0.479 J4.584 K0.000 F100.000
G2 X204.465 Y124.606 Z14.500 I12.458 J14.932 K0.000 F100.000
G3 X202.934 Y126.395 Z14.500 I-13.194 J-9.739 K0.000 F100.000
G1 X202.934 Y121.522 Z14.500 F100.000
G2 X202.434 Y121.022 Z14.500 I-0.500 J-0.000 K0.000 F100.000
G1 X201.000 Y121.022 Z14.500 F100.000
G2 X200.505 Y121.449 Z14.500 I-0.000 J0.500 K0.000 F100.000
G0 Z20.500
G0 X236.502 Y124.658 Z20.500
G0 X236.502 Y124.658 Z18.500
G1 X236.502 Y124.658 Z14.500 F100.000
G2 X236.500 Y124.703 Z14.500 I0.498 J0.044 K0.000 F100.000
G1 X236.500 Y126.179 Z14.500 F100.000
G2 X237.000 Y126.679 Z14.500 I0.500 J0.000 K0.000 F100.000
G1 X245.384 Y126.679 Z14.500 F100.000
G2 X244.167 Y128.941 Z14.500 I7.632 J5.562 K0.000 F100.000
G2 X244.627 Y129.639 Z14.500 I0.459 J0.197 K0.000 F100.000
G1 X246.061 Y129.639 Z14.500 F100.000
G2 X246.508 Y129.364 Z14.500 I-0.000 J-0.500 K0.000 F100.000
G3 X247.732 Y127.411 Z14.500 I7.491 J3.336 K0.000 F100.000
G3 X249.316 Y126.097 Z14.500 I3.869 J3.055 K0.000 F100.000
G2 X249.570 Y125.662 Z14.500 I-0.246 J-0.435 K0.000 F100.000
G1 X249.570 Y124.703 Z14.500 F100.000
G2 X249.070 Y124.203 Z14.500 I-0.500 J-0.000 K0.000 F100.000
G1 X237.000 Y124.203 Z14.500 F100.000
G2 X236.502 Y124.658 Z14.500 I-0.000 J0.500 K0.000 F100.000
G0 Z20.500
G0 Z20.500
(Finish operation: Profile)
(Begin postamble)
M5
G17 G90
M2
