(Exported by FreeCAD)
(Post Processor: grbl_post)
(Output Time:2024-03-16 07:37:22.449595)
(Begin preamble)
G17 G90
G21
(Begin operation: Fixture)
(Path: Fixture)
G54
(Finish operation: Fixture)
(Begin operation: 1.0mm-endmill004)
(Path: 1.0mm-endmill004)
(1.0mm-endmill004)
(Begin toolchange)
( M6 T5 )
M3 S500
(Finish operation: 1.0mm-endmill004)
(Begin operation: Pocket_Shape001)
(Path: Pocket_Shape001)
(Pocket_Shape001)
G0 Z14.300
G0 X0.000 Y0.000
G0 X9.750 Y135.042
G0 X9.750 Y135.042 Z12.300
G1 X9.750 Y135.042 Z8.750 F200.000
G1 X9.750 Y149.708 Z8.750 F200.000
G1 X68.875 Y149.708 Z8.750 F200.000
G1 X68.875 Y135.042 Z8.750 F200.000
G1 X9.750 Y135.042 Z8.750 F200.000
G1 X9.750 Y135.042 Z8.500 F200.000
G1 X9.750 Y149.708 Z8.500 F200.000
G1 X68.875 Y149.708 Z8.500 F200.000
G1 X68.875 Y135.042 Z8.500 F200.000
G1 X9.750 Y135.042 Z8.500 F200.000
G1 X9.750 Y135.042 Z8.250 F200.000
G1 X9.750 Y149.708 Z8.250 F200.000
G1 X68.875 Y149.708 Z8.250 F200.000
G1 X68.875 Y135.042 Z8.250 F200.000
G1 X9.750 Y135.042 Z8.250 F200.000
G1 X9.750 Y135.042 Z8.000 F200.000
G1 X9.750 Y149.708 Z8.000 F200.000
G1 X68.875 Y149.708 Z8.000 F200.000
G1 X68.875 Y135.042 Z8.000 F200.000
G1 X9.750 Y135.042 Z8.000 F200.000
G1 X9.750 Y135.042 Z7.750 F200.000
G1 X9.750 Y149.708 Z7.750 F200.000
G1 X68.875 Y149.708 Z7.750 F200.000
G1 X68.875 Y135.042 Z7.750 F200.000
G1 X9.750 Y135.042 Z7.750 F200.000
G1 X9.750 Y135.042 Z7.500 F200.000
G1 X9.750 Y149.708 Z7.500 F200.000
G1 X68.875 Y149.708 Z7.500 F200.000
G1 X68.875 Y135.042 Z7.500 F200.000
G1 X9.750 Y135.042 Z7.500 F200.000
G1 X9.750 Y135.042 Z7.250 F200.000
G1 X9.750 Y149.708 Z7.250 F200.000
G1 X68.875 Y149.708 Z7.250 F200.000
G1 X68.875 Y135.042 Z7.250 F200.000
G1 X9.750 Y135.042 Z7.250 F200.000
G1 X9.750 Y135.042 Z7.000 F200.000
G1 X9.750 Y149.708 Z7.000 F200.000
G1 X68.875 Y149.708 Z7.000 F200.000
G1 X68.875 Y135.042 Z7.000 F200.000
G1 X9.750 Y135.042 Z7.000 F200.000
G0 Z14.300
G0 Y149.456 Z14.300
G0 Y149.456 Z12.300
G1 X9.750 Y149.456 Z8.750 F200.000
G1 X10.003 Y149.708 Z8.750 F200.000
G1 X9.750 Y149.708 Z8.750 F200.000
G1 X9.750 Y149.456 Z8.750 F200.000
G1 X9.750 Y148.749 Z8.750 F200.000
G1 X10.710 Y149.708 Z8.750 F200.000
G1 X11.417 Y149.708 Z8.750 F200.000
G1 X9.750 Y148.042 Z8.750 F200.000
G1 X9.750 Y147.334 Z8.750 F200.000
G1 X12.124 Y149.708 Z8.750 F200.000
G1 X12.831 Y149.708 Z8.750 F200.000
G1 X9.750 Y146.627 Z8.750 F200.000
G1 X9.750 Y145.920 Z8.750 F200.000
G1 X13.538 Y149.708 Z8.750 F200.000
G1 X14.245 Y149.708 Z8.750 F200.000
G1 X9.750 Y145.213 Z8.750 F200.000
G1 X9.750 Y144.506 Z8.750 F200.000
G1 X14.952 Y149.708 Z8.750 F200.000
G1 X15.659 Y149.708 Z8.750 F200.000
G1 X9.750 Y143.799 Z8.750 F200.000
G1 X9.750 Y143.092 Z8.750 F200.000
G1 X16.367 Y149.708 Z8.750 F200.000
G1 X17.074 Y149.708 Z8.750 F200.000
G1 X9.750 Y142.385 Z8.750 F200.000
G1 X9.750 Y141.678 Z8.750 F200.000
G1 X17.781 Y149.708 Z8.750 F200.000
G1 X18.488 Y149.708 Z8.750 F200.000
G1 X9.750 Y140.970 Z8.750 F200.000
G1 X9.750 Y140.263 Z8.750 F200.000
G1 X19.195 Y149.708 Z8.750 F200.000
G1 X19.902 Y149.708 Z8.750 F200.000
G1 X9.750 Y139.556 Z8.750 F200.000
G1 X9.750 Y138.849 Z8.750 F200.000
G1 X20.609 Y149.708 Z8.750 F200.000
G1 X21.316 Y149.708 Z8.750 F200.000
G1 X9.750 Y138.142 Z8.750 F200.000
G1 X9.750 Y137.435 Z8.750 F200.000
G1 X22.023 Y149.708 Z8.750 F200.000
G1 X22.730 Y149.708 Z8.750 F200.000
G1 X9.750 Y136.728 Z8.750 F200.000
G1 X9.750 Y136.021 Z8.750 F200.000
G1 X23.438 Y149.708 Z8.750 F200.000
G1 X24.145 Y149.708 Z8.750 F200.000
G1 X9.750 Y135.314 Z8.750 F200.000
G1 X9.750 Y135.042 Z8.750 F200.000
G1 X10.185 Y135.042 Z8.750 F200.000
G1 X24.852 Y149.708 Z8.750 F200.000
G1 X25.559 Y149.708 Z8.750 F200.000
G1 X10.892 Y135.042 Z8.750 F200.000
G1 X11.599 Y135.042 Z8.750 F200.000
G1 X26.266 Y149.708 Z8.750 F200.000
G1 X26.973 Y149.708 Z8.750 F200.000
G1 X12.306 Y135.042 Z8.750 F200.000
G1 X13.014 Y135.042 Z8.750 F200.000
G1 X27.680 Y149.708 Z8.750 F200.000
G1 X28.387 Y149.708 Z8.750 F200.000
G1 X13.721 Y135.042 Z8.750 F200.000
G1 X14.428 Y135.042 Z8.750 F200.000
G1 X29.094 Y149.708 Z8.750 F200.000
G1 X29.802 Y149.708 Z8.750 F200.000
G1 X15.135 Y135.042 Z8.750 F200.000
G1 X15.842 Y135.042 Z8.750 F200.000
G1 X30.509 Y149.708 Z8.750 F200.000
G1 X31.216 Y149.708 Z8.750 F200.000
G1 X16.549 Y135.042 Z8.750 F200.000
G1 X17.256 Y135.042 Z8.750 F200.000
G1 X31.923 Y149.708 Z8.750 F200.000
G1 X32.630 Y149.708 Z8.750 F200.000
G1 X17.963 Y135.042 Z8.750 F200.000
G1 X18.670 Y135.042 Z8.750 F200.000
G1 X33.337 Y149.708 Z8.750 F200.000
G1 X34.044 Y149.708 Z8.750 F200.000
G1 X19.378 Y135.042 Z8.750 F200.000
G1 X20.085 Y135.042 Z8.750 F200.000
G1 X34.751 Y149.708 Z8.750 F200.000
G1 X35.458 Y149.708 Z8.750 F200.000
G1 X20.792 Y135.042 Z8.750 F200.000
G1 X21.499 Y135.042 Z8.750 F200.000
G1 X36.166 Y149.708 Z8.750 F200.000
G1 X36.873 Y149.708 Z8.750 F200.000
G1 X22.206 Y135.042 Z8.750 F200.000
G1 X22.913 Y135.042 Z8.750 F200.000
G1 X37.580 Y149.708 Z8.750 F200.000
G1 X38.287 Y149.708 Z8.750 F200.000
G1 X34.159 Y145.581 Z8.750 F200.000
G3 X32.830 Y144.252 Z8.750 I2.173 J-3.502 K0.000 F200.000
G1 X23.620 Y135.042 Z8.750 F200.000
G1 X24.327 Y135.042 Z8.750 F200.000
G1 X32.211 Y142.925 Z8.750 F200.000
G3 X32.064 Y142.072 Z8.750 I4.308 J-1.178 K0.000 F200.000
G1 X25.034 Y135.042 Z8.750 F200.000
G1 X25.741 Y135.042 Z8.750 F200.000
G1 X32.050 Y141.350 Z8.750 F200.000
G3 X32.123 Y140.717 Z8.750 I3.822 J0.121 K0.000 F200.000
G1 X26.449 Y135.042 Z8.750 F200.000
G1 X27.156 Y135.042 Z8.750 F200.000
G1 X32.268 Y140.154 Z8.750 F200.000
G3 X32.476 Y139.655 Z8.750 I2.367 J0.690 K0.000 F200.000
G1 X27.863 Y135.042 Z8.750 F200.000
G1 X28.570 Y135.042 Z8.750 F200.000
G1 X32.736 Y139.208 Z8.750 F200.000
G3 X33.031 Y138.795 Z8.750 I5.747 J3.780 K0.000 F200.000
G1 X29.277 Y135.042 Z8.750 F200.000
G1 X29.984 Y135.042 Z8.750 F200.000
G1 X33.382 Y138.440 Z8.750 F200.000
G3 X33.769 Y138.119 Z8.750 I1.581 J1.512 K0.000 F200.000
G1 X30.691 Y135.042 Z8.750 F200.000
G1 X31.398 Y135.042 Z8.750 F200.000
G1 X34.193 Y137.836 Z8.750 F200.000
G3 X34.655 Y137.591 Z8.750 I1.134 J1.580 K0.000 F200.000
G1 X32.105 Y135.042 Z8.750 F200.000
G1 X32.813 Y135.042 Z8.750 F200.000
G1 X35.165 Y137.394 Z8.750 F200.000
G3 X35.721 Y137.243 Z8.750 I0.815 J1.895 K0.000 F200.000
G1 X33.520 Y135.042 Z8.750 F200.000
G1 X34.227 Y135.042 Z8.750 F200.000
G1 X36.339 Y137.153 Z8.750 F200.000
G3 X37.011 Y137.118 Z8.750 I0.534 J3.784 K0.000 F200.000
G1 X34.934 Y135.042 Z8.750 F200.000
G1 X35.641 Y135.042 Z8.750 F200.000
G1 X37.785 Y137.186 Z8.750 F200.000
G3 X38.750 Y137.444 Z8.750 I-0.494 J3.786 K0.000 F200.000
G1 X36.348 Y135.042 Z8.750 F200.000
G1 X37.055 Y135.042 Z8.750 F200.000
G1 X41.232 Y139.219 Z8.750 F200.000
G1 X41.209 Y139.481 Z8.750 F200.000
G2 X41.761 Y140.271 Z8.750 I0.747 J0.066 K0.000 F200.000
G3 X42.575 Y140.562 Z8.750 I-0.477 J2.620 K0.000 F200.000
G1 X42.994 Y140.981 Z8.750 F200.000
G2 X42.575 Y140.562 Z8.750 I-0.810 J0.390 K0.000 F200.000
G1 X42.575 Y140.561 Z8.750 F200.000
G2 X41.761 Y140.271 Z8.750 I-1.022 J1.580 K0.000 F200.000
G3 X41.209 Y139.481 Z8.750 I0.195 J-0.724 K0.000 F200.000
G1 X41.340 Y138.005 Z8.750 F200.000
G3 X42.015 Y137.324 Z8.750 I0.747 J0.066 K0.000 F200.000
G3 X42.664 Y137.414 Z8.750 I0.001 J2.369 K0.000 F200.000
G3 X45.599 Y140.036 Z8.750 I-0.706 J3.743 K0.000 F200.000
G3 X44.841 Y144.435 Z8.750 I-4.568 J1.478 K0.000 F200.000
G3 X42.155 Y146.104 Z8.750 I-4.011 J-3.460 K0.000 F200.000
G3 X38.639 Y146.545 Z8.750 I-3.272 J-11.875 K0.000 F200.000
G3 X34.924 Y145.974 Z8.750 I-0.379 J-9.915 K0.000 F200.000
G3 X32.209 Y142.921 Z8.750 I1.677 J-4.225 K0.000 F200.000
G3 X33.000 Y138.835 Z8.750 I4.376 J-1.272 K0.000 F200.000
G3 X36.898 Y137.116 Z8.750 I3.758 J3.242 K0.000 F200.000
G3 X40.193 Y138.354 Z8.750 I0.117 J4.694 K0.000 F200.000
G3 X41.035 Y143.418 Z8.750 I-2.920 J3.087 K0.000 F200.000
G2 X42.512 Y142.757 Z8.750 I-0.582 J-3.279 K0.000 F200.000
G2 X42.899 Y140.826 Z8.750 I-0.793 J-1.164 K0.000 F200.000
G2 X42.575 Y140.561 Z8.750 I-1.345 J1.315 K0.000 F200.000
G1 X42.575 Y140.561 Z8.500 F200.000
G2 X41.761 Y140.271 Z8.500 I-1.022 J1.580 K0.000 F200.000
G3 X41.209 Y139.481 Z8.500 I0.195 J-0.724 K0.000 F200.000
G1 X41.340 Y138.005 Z8.500 F200.000
G3 X42.015 Y137.324 Z8.500 I0.747 J0.066 K0.000 F200.000
G3 X42.664 Y137.414 Z8.500 I0.001 J2.369 K0.000 F200.000
G3 X45.599 Y140.036 Z8.500 I-0.706 J3.743 K0.000 F200.000
G3 X44.841 Y144.435 Z8.500 I-4.568 J1.478 K0.000 F200.000
G3 X42.155 Y146.104 Z8.500 I-4.011 J-3.460 K0.000 F200.000
G3 X38.639 Y146.545 Z8.500 I-3.272 J-11.875 K0.000 F200.000
G3 X34.924 Y145.974 Z8.500 I-0.379 J-9.915 K0.000 F200.000
G3 X32.209 Y142.921 Z8.500 I1.677 J-4.225 K0.000 F200.000
G3 X33.000 Y138.835 Z8.500 I4.376 J-1.272 K0.000 F200.000
G3 X36.898 Y137.116 Z8.500 I3.758 J3.242 K0.000 F200.000
G3 X40.193 Y138.354 Z8.500 I0.117 J4.694 K0.000 F200.000
G3 X41.035 Y143.418 Z8.500 I-2.920 J3.087 K0.000 F200.000
G2 X42.512 Y142.757 Z8.500 I-0.582 J-3.279 K0.000 F200.000
G2 X42.899 Y140.826 Z8.500 I-0.793 J-1.164 K0.000 F200.000
G2 X42.575 Y140.561 Z8.500 I-1.345 J1.315 K0.000 F200.000
G1 X42.575 Y140.562 Z8.500 F200.000
G3 X42.994 Y140.981 Z8.500 I-0.390 J0.810 K0.000 F200.000
G1 X42.575 Y140.562 Z8.500 F200.000
G2 X41.761 Y140.271 Z8.500 I-1.291 J2.329 K0.000 F200.000
G3 X41.209 Y139.481 Z8.500 I0.195 J-0.724 K0.000 F200.000
G1 X41.232 Y139.219 Z8.500 F200.000
G1 X37.055 Y135.042 Z8.500 F200.000
G1 X36.348 Y135.042 Z8.500 F200.000
G1 X38.750 Y137.444 Z8.500 F200.000
G2 X37.785 Y137.186 Z8.500 I-1.459 J3.529 K0.000 F200.000
G1 X35.641 Y135.042 Z8.500 F200.000
G1 X34.934 Y135.042 Z8.500 F200.000
G1 X37.011 Y137.118 Z8.500 F200.000
G2 X36.339 Y137.153 Z8.500 I-0.138 J3.819 K0.000 F200.000
G1 X34.227 Y135.042 Z8.500 F200.000
G1 X33.520 Y135.042 Z8.500 F200.000
G1 X35.721 Y137.243 Z8.500 F200.000
G2 X35.165 Y137.394 Z8.500 I0.260 J2.047 K0.000 F200.000
G1 X32.813 Y135.042 Z8.500 F200.000
G1 X32.105 Y135.042 Z8.500 F200.000
G1 X34.655 Y137.591 Z8.500 F200.000
G2 X34.193 Y137.836 Z8.500 I0.672 J1.825 K0.000 F200.000
G1 X31.398 Y135.042 Z8.500 F200.000
G1 X30.691 Y135.042 Z8.500 F200.000
G1 X33.769 Y138.119 Z8.500 F200.000
G2 X33.382 Y138.440 Z8.500 I1.194 J1.833 K0.000 F200.000
G1 X29.984 Y135.042 Z8.500 F200.000
G1 X29.277 Y135.042 Z8.500 F200.000
G1 X33.031 Y138.795 Z8.500 F200.000
G2 X32.736 Y139.208 Z8.500 I5.453 J4.193 K0.000 F200.000
G1 X28.570 Y135.042 Z8.500 F200.000
G1 X27.863 Y135.042 Z8.500 F200.000
G1 X32.476 Y139.655 Z8.500 F200.000
G2 X32.268 Y140.154 Z8.500 I2.159 J1.190 K0.000 F200.000
G1 X27.156 Y135.042 Z8.500 F200.000
G1 X26.449 Y135.042 Z8.500 F200.000
G1 X32.123 Y140.717 Z8.500 F200.000
G2 X32.050 Y141.350 Z8.500 I3.749 J0.755 K0.000 F200.000
G1 X25.741 Y135.042 Z8.500 F200.000
G1 X25.034 Y135.042 Z8.500 F200.000
G1 X32.064 Y142.072 Z8.500 F200.000
G2 X32.211 Y142.925 Z8.500 I4.455 J-0.324 K0.000 F200.000
G1 X24.327 Y135.042 Z8.500 F200.000
G1 X23.620 Y135.042 Z8.500 F200.000
G1 X32.830 Y144.252 Z8.500 F200.000
G2 X34.159 Y145.581 Z8.500 I3.502 J-2.173 K0.000 F200.000
G1 X38.287 Y149.708 Z8.500 F200.000
G1 X37.580 Y149.708 Z8.500 F200.000
G1 X22.913 Y135.042 Z8.500 F200.000
G1 X22.206 Y135.042 Z8.500 F200.000
G1 X36.873 Y149.708 Z8.500 F200.000
G1 X36.166 Y149.708 Z8.500 F200.000
G1 X21.499 Y135.042 Z8.500 F200.000
G1 X20.792 Y135.042 Z8.500 F200.000
G1 X35.458 Y149.708 Z8.500 F200.000
G1 X34.751 Y149.708 Z8.500 F200.000
G1 X20.085 Y135.042 Z8.500 F200.000
G1 X19.378 Y135.042 Z8.500 F200.000
G1 X34.044 Y149.708 Z8.500 F200.000
G1 X33.337 Y149.708 Z8.500 F200.000
G1 X18.670 Y135.042 Z8.500 F200.000
G1 X17.963 Y135.042 Z8.500 F200.000
G1 X32.630 Y149.708 Z8.500 F200.000
G1 X31.923 Y149.708 Z8.500 F200.000
G1 X17.256 Y135.042 Z8.500 F200.000
G1 X16.549 Y135.042 Z8.500 F200.000
G1 X31.216 Y149.708 Z8.500 F200.000
G1 X30.509 Y149.708 Z8.500 F200.000
G1 X15.842 Y135.042 Z8.500 F200.000
G1 X15.135 Y135.042 Z8.500 F200.000
G1 X29.802 Y149.708 Z8.500 F200.000
G1 X29.094 Y149.708 Z8.500 F200.000
G1 X14.428 Y135.042 Z8.500 F200.000
G1 X13.721 Y135.042 Z8.500 F200.000
G1 X28.387 Y149.708 Z8.500 F200.000
G1 X27.680 Y149.708 Z8.500 F200.000
G1 X13.014 Y135.042 Z8.500 F200.000
G1 X12.306 Y135.042 Z8.500 F200.000
G1 X26.973 Y149.708 Z8.500 F200.000
G1 X26.266 Y149.708 Z8.500 F200.000
G1 X11.599 Y135.042 Z8.500 F200.000
G1 X10.892 Y135.042 Z8.500 F200.000
G1 X25.559 Y149.708 Z8.500 F200.000
G1 X24.852 Y149.708 Z8.500 F200.000
G1 X10.185 Y135.042 Z8.500 F200.000
G1 X9.750 Y135.042 Z8.500 F200.000
G1 X9.750 Y135.314 Z8.500 F200.000
G1 X24.145 Y149.708 Z8.500 F200.000
G1 X23.438 Y149.708 Z8.500 F200.000
G1 X9.750 Y136.021 Z8.500 F200.000
G1 X9.750 Y136.728 Z8.500 F200.000
G1 X22.730 Y149.708 Z8.500 F200.000
G1 X22.023 Y149.708 Z8.500 F200.000
G1 X9.750 Y137.435 Z8.500 F200.000
G1 X9.750 Y138.142 Z8.500 F200.000
G1 X21.316 Y149.708 Z8.500 F200.000
G1 X20.609 Y149.708 Z8.500 F200.000
G1 X9.750 Y138.849 Z8.500 F200.000
G1 X9.750 Y139.556 Z8.500 F200.000
G1 X19.902 Y149.708 Z8.500 F200.000
G1 X19.195 Y149.708 Z8.500 F200.000
G1 X9.750 Y140.263 Z8.500 F200.000
G1 X9.750 Y140.970 Z8.500 F200.000
G1 X18.488 Y149.708 Z8.500 F200.000
G1 X17.781 Y149.708 Z8.500 F200.000
G1 X9.750 Y141.678 Z8.500 F200.000
G1 X9.750 Y142.385 Z8.500 F200.000
G1 X17.074 Y149.708 Z8.500 F200.000
G1 X16.367 Y149.708 Z8.500 F200.000
G1 X9.750 Y143.092 Z8.500 F200.000
G1 X9.750 Y143.799 Z8.500 F200.000
G1 X15.659 Y149.708 Z8.500 F200.000
G1 X14.952 Y149.708 Z8.500 F200.000
G1 X9.750 Y144.506 Z8.500 F200.000
G1 X9.750 Y145.213 Z8.500 F200.000
G1 X14.245 Y149.708 Z8.500 F200.000
G1 X13.538 Y149.708 Z8.500 F200.000
G1 X9.750 Y145.920 Z8.500 F200.000
G1 X9.750 Y146.627 Z8.500 F200.000
G1 X12.831 Y149.708 Z8.500 F200.000
G1 X12.124 Y149.708 Z8.500 F200.000
G1 X9.750 Y147.334 Z8.500 F200.000
G1 X9.750 Y148.042 Z8.500 F200.000
G1 X11.417 Y149.708 Z8.500 F200.000
G1 X10.710 Y149.708 Z8.500 F200.000
G1 X9.750 Y148.749 Z8.500 F200.000
G1 X9.750 Y149.456 Z8.500 F200.000
G1 X9.750 Y149.708 Z8.500 F200.000
G1 X10.003 Y149.708 Z8.500 F200.000
G1 X9.750 Y149.456 Z8.500 F200.000
G1 X9.750 Y149.456 Z8.250 F200.000
G1 X10.003 Y149.708 Z8.250 F200.000
G1 X9.750 Y149.708 Z8.250 F200.000
G1 X9.750 Y149.456 Z8.250 F200.000
G1 X9.750 Y148.749 Z8.250 F200.000
G1 X10.710 Y149.708 Z8.250 F200.000
G1 X11.417 Y149.708 Z8.250 F200.000
G1 X9.750 Y148.042 Z8.250 F200.000
G1 X9.750 Y147.334 Z8.250 F200.000
G1 X12.124 Y149.708 Z8.250 F200.000
G1 X12.831 Y149.708 Z8.250 F200.000
G1 X9.750 Y146.627 Z8.250 F200.000
G1 X9.750 Y145.920 Z8.250 F200.000
G1 X13.538 Y149.708 Z8.250 F200.000
G1 X14.245 Y149.708 Z8.250 F200.000
G1 X9.750 Y145.213 Z8.250 F200.000
G1 X9.750 Y144.506 Z8.250 F200.000
G1 X14.952 Y149.708 Z8.250 F200.000
G1 X15.659 Y149.708 Z8.250 F200.000
G1 X9.750 Y143.799 Z8.250 F200.000
G1 X9.750 Y143.092 Z8.250 F200.000
G1 X16.367 Y149.708 Z8.250 F200.000
G1 X17.074 Y149.708 Z8.250 F200.000
G1 X9.750 Y142.385 Z8.250 F200.000
G1 X9.750 Y141.678 Z8.250 F200.000
G1 X17.781 Y149.708 Z8.250 F200.000
G1 X18.488 Y149.708 Z8.250 F200.000
G1 X9.750 Y140.970 Z8.250 F200.000
G1 X9.750 Y140.263 Z8.250 F200.000
G1 X19.195 Y149.708 Z8.250 F200.000
G1 X19.902 Y149.708 Z8.250 F200.000
G1 X9.750 Y139.556 Z8.250 F200.000
G1 X9.750 Y138.849 Z8.250 F200.000
G1 X20.609 Y149.708 Z8.250 F200.000
G1 X21.316 Y149.708 Z8.250 F200.000
G1 X9.750 Y138.142 Z8.250 F200.000
G1 X9.750 Y137.435 Z8.250 F200.000
G1 X22.023 Y149.708 Z8.250 F200.000
G1 X22.730 Y149.708 Z8.250 F200.000
G1 X9.750 Y136.728 Z8.250 F200.000
G1 X9.750 Y136.021 Z8.250 F200.000
G1 X23.438 Y149.708 Z8.250 F200.000
G1 X24.145 Y149.708 Z8.250 F200.000
G1 X9.750 Y135.314 Z8.250 F200.000
G1 X9.750 Y135.042 Z8.250 F200.000
G1 X10.185 Y135.042 Z8.250 F200.000
G1 X24.852 Y149.708 Z8.250 F200.000
G1 X25.559 Y149.708 Z8.250 F200.000
G1 X10.892 Y135.042 Z8.250 F200.000
G1 X11.599 Y135.042 Z8.250 F200.000
G1 X26.266 Y149.708 Z8.250 F200.000
G1 X26.973 Y149.708 Z8.250 F200.000
G1 X12.306 Y135.042 Z8.250 F200.000
G1 X13.014 Y135.042 Z8.250 F200.000
G1 X27.680 Y149.708 Z8.250 F200.000
G1 X28.387 Y149.708 Z8.250 F200.000
G1 X13.721 Y135.042 Z8.250 F200.000
G1 X14.428 Y135.042 Z8.250 F200.000
G1 X29.094 Y149.708 Z8.250 F200.000
G1 X29.802 Y149.708 Z8.250 F200.000
G1 X15.135 Y135.042 Z8.250 F200.000
G1 X15.842 Y135.042 Z8.250 F200.000
G1 X30.509 Y149.708 Z8.250 F200.000
G1 X31.216 Y149.708 Z8.250 F200.000
G1 X16.549 Y135.042 Z8.250 F200.000
G1 X17.256 Y135.042 Z8.250 F200.000
G1 X31.923 Y149.708 Z8.250 F200.000
G1 X32.630 Y149.708 Z8.250 F200.000
G1 X17.963 Y135.042 Z8.250 F200.000
G1 X18.670 Y135.042 Z8.250 F200.000
G1 X33.337 Y149.708 Z8.250 F200.000
G1 X34.044 Y149.708 Z8.250 F200.000
G1 X19.378 Y135.042 Z8.250 F200.000
G1 X20.085 Y135.042 Z8.250 F200.000
G1 X34.751 Y149.708 Z8.250 F200.000
G1 X35.458 Y149.708 Z8.250 F200.000
G1 X20.792 Y135.042 Z8.250 F200.000
G1 X21.499 Y135.042 Z8.250 F200.000
G1 X36.166 Y149.708 Z8.250 F200.000
G1 X36.873 Y149.708 Z8.250 F200.000
G1 X22.206 Y135.042 Z8.250 F200.000
G1 X22.913 Y135.042 Z8.250 F200.000
G1 X37.580 Y149.708 Z8.250 F200.000
G1 X38.287 Y149.708 Z8.250 F200.000
G1 X34.159 Y145.581 Z8.250 F200.000
G3 X32.830 Y144.252 Z8.250 I2.173 J-3.502 K0.000 F200.000
G1 X23.620 Y135.042 Z8.250 F200.000
G1 X24.327 Y135.042 Z8.250 F200.000
G1 X32.211 Y142.925 Z8.250 F200.000
G3 X32.064 Y142.072 Z8.250 I4.308 J-1.178 K0.000 F200.000
G1 X25.034 Y135.042 Z8.250 F200.000
G1 X25.741 Y135.042 Z8.250 F200.000
G1 X32.050 Y141.350 Z8.250 F200.000
G3 X32.123 Y140.717 Z8.250 I3.822 J0.121 K0.000 F200.000
G1 X26.449 Y135.042 Z8.250 F200.000
G1 X27.156 Y135.042 Z8.250 F200.000
G1 X32.268 Y140.154 Z8.250 F200.000
G3 X32.476 Y139.655 Z8.250 I2.367 J0.690 K0.000 F200.000
G1 X27.863 Y135.042 Z8.250 F200.000
G1 X28.570 Y135.042 Z8.250 F200.000
G1 X32.736 Y139.208 Z8.250 F200.000
G3 X33.031 Y138.795 Z8.250 I5.747 J3.780 K0.000 F200.000
G1 X29.277 Y135.042 Z8.250 F200.000
G1 X29.984 Y135.042 Z8.250 F200.000
G1 X33.382 Y138.440 Z8.250 F200.000
G3 X33.769 Y138.119 Z8.250 I1.581 J1.512 K0.000 F200.000
G1 X30.691 Y135.042 Z8.250 F200.000
G1 X31.398 Y135.042 Z8.250 F200.000
G1 X34.193 Y137.836 Z8.250 F200.000
G3 X34.655 Y137.591 Z8.250 I1.134 J1.580 K0.000 F200.000
G1 X32.105 Y135.042 Z8.250 F200.000
G1 X32.813 Y135.042 Z8.250 F200.000
G1 X35.165 Y137.394 Z8.250 F200.000
G3 X35.721 Y137.243 Z8.250 I0.815 J1.895 K0.000 F200.000
G1 X33.520 Y135.042 Z8.250 F200.000
G1 X34.227 Y135.042 Z8.250 F200.000
G1 X36.339 Y137.153 Z8.250 F200.000
G3 X37.011 Y137.118 Z8.250 I0.534 J3.784 K0.000 F200.000
G1 X34.934 Y135.042 Z8.250 F200.000
G1 X35.641 Y135.042 Z8.250 F200.000
G1 X37.785 Y137.186 Z8.250 F200.000
G3 X38.750 Y137.444 Z8.250 I-0.494 J3.786 K0.000 F200.000
G1 X36.348 Y135.042 Z8.250 F200.000
G1 X37.055 Y135.042 Z8.250 F200.000
G1 X41.232 Y139.219 Z8.250 F200.000
G1 X41.209 Y139.481 Z8.250 F200.000
G2 X41.761 Y140.271 Z8.250 I0.747 J0.066 K0.000 F200.000
G3 X42.575 Y140.562 Z8.250 I-0.477 J2.620 K0.000 F200.000
G1 X42.994 Y140.981 Z8.250 F200.000
G2 X42.575 Y140.562 Z8.250 I-0.810 J0.390 K0.000 F200.000
G1 X42.575 Y140.561 Z8.250 F200.000
G2 X41.761 Y140.271 Z8.250 I-1.022 J1.580 K0.000 F200.000
G3 X41.209 Y139.481 Z8.250 I0.195 J-0.724 K0.000 F200.000
G1 X41.340 Y138.005 Z8.250 F200.000
G3 X42.015 Y137.324 Z8.250 I0.747 J0.066 K0.000 F200.000
G3 X42.664 Y137.414 Z8.250 I0.001 J2.369 K0.000 F200.000
G3 X45.599 Y140.036 Z8.250 I-0.706 J3.743 K0.000 F200.000
G3 X44.841 Y144.435 Z8.250 I-4.568 J1.478 K0.000 F200.000
G3 X42.155 Y146.104 Z8.250 I-4.011 J-3.460 K0.000 F200.000
G3 X38.639 Y146.545 Z8.250 I-3.272 J-11.875 K0.000 F200.000
G3 X34.924 Y145.974 Z8.250 I-0.379 J-9.915 K0.000 F200.000
G3 X32.209 Y142.921 Z8.250 I1.677 J-4.225 K0.000 F200.000
G3 X33.000 Y138.835 Z8.250 I4.376 J-1.272 K0.000 F200.000
G3 X36.898 Y137.116 Z8.250 I3.758 J3.242 K0.000 F200.000
G3 X40.193 Y138.354 Z8.250 I0.117 J4.694 K0.000 F200.000
G3 X41.035 Y143.418 Z8.250 I-2.920 J3.087 K0.000 F200.000
G2 X42.512 Y142.757 Z8.250 I-0.582 J-3.279 K0.000 F200.000
G2 X42.899 Y140.826 Z8.250 I-0.793 J-1.164 K0.000 F200.000
G2 X42.575 Y140.561 Z8.250 I-1.345 J1.315 K0.000 F200.000
G1 X42.575 Y140.561 Z8.000 F200.000
G2 X41.761 Y140.271 Z8.000 I-1.022 J1.580 K0.000 F200.000
G3 X41.209 Y139.481 Z8.000 I0.195 J-0.724 K0.000 F200.000
G1 X41.340 Y138.005 Z8.000 F200.000
G3 X42.015 Y137.324 Z8.000 I0.747 J0.066 K0.000 F200.000
G3 X42.664 Y137.414 Z8.000 I0.001 J2.369 K0.000 F200.000
G3 X45.599 Y140.036 Z8.000 I-0.706 J3.743 K0.000 F200.000
G3 X44.841 Y144.435 Z8.000 I-4.568 J1.478 K0.000 F200.000
G3 X42.155 Y146.104 Z8.000 I-4.011 J-3.460 K0.000 F200.000
G3 X38.639 Y146.545 Z8.000 I-3.272 J-11.875 K0.000 F200.000
G3 X34.924 Y145.974 Z8.000 I-0.379 J-9.915 K0.000 F200.000
G3 X32.209 Y142.921 Z8.000 I1.677 J-4.225 K0.000 F200.000
G3 X33.000 Y138.835 Z8.000 I4.376 J-1.272 K0.000 F200.000
G3 X36.898 Y137.116 Z8.000 I3.758 J3.242 K0.000 F200.000
G3 X40.193 Y138.354 Z8.000 I0.117 J4.694 K0.000 F200.000
G3 X41.035 Y143.418 Z8.000 I-2.920 J3.087 K0.000 F200.000
G2 X42.512 Y142.757 Z8.000 I-0.582 J-3.279 K0.000 F200.000
G2 X42.899 Y140.826 Z8.000 I-0.793 J-1.164 K0.000 F200.000
G2 X42.575 Y140.561 Z8.000 I-1.345 J1.315 K0.000 F200.000
G1 X42.575 Y140.562 Z8.000 F200.000
G3 X42.994 Y140.981 Z8.000 I-0.390 J0.810 K0.000 F200.000
G1 X42.575 Y140.562 Z8.000 F200.000
G2 X41.761 Y140.271 Z8.000 I-1.291 J2.329 K0.000 F200.000
G3 X41.209 Y139.481 Z8.000 I0.195 J-0.724 K0.000 F200.000
G1 X41.232 Y139.219 Z8.000 F200.000
G1 X37.055 Y135.042 Z8.000 F200.000
G1 X36.348 Y135.042 Z8.000 F200.000
G1 X38.750 Y137.444 Z8.000 F200.000
G2 X37.785 Y137.186 Z8.000 I-1.459 J3.529 K0.000 F200.000
G1 X35.641 Y135.042 Z8.000 F200.000
G1 X34.934 Y135.042 Z8.000 F200.000
G1 X37.011 Y137.118 Z8.000 F200.000
G2 X36.339 Y137.153 Z8.000 I-0.138 J3.819 K0.000 F200.000
G1 X34.227 Y135.042 Z8.000 F200.000
G1 X33.520 Y135.042 Z8.000 F200.000
G1 X35.721 Y137.243 Z8.000 F200.000
G2 X35.165 Y137.394 Z8.000 I0.260 J2.047 K0.000 F200.000
G1 X32.813 Y135.042 Z8.000 F200.000
G1 X32.105 Y135.042 Z8.000 F200.000
G1 X34.655 Y137.591 Z8.000 F200.000
G2 X34.193 Y137.836 Z8.000 I0.672 J1.825 K0.000 F200.000
G1 X31.398 Y135.042 Z8.000 F200.000
G1 X30.691 Y135.042 Z8.000 F200.000
G1 X33.769 Y138.119 Z8.000 F200.000
G2 X33.382 Y138.440 Z8.000 I1.194 J1.833 K0.000 F200.000
G1 X29.984 Y135.042 Z8.000 F200.000
G1 X29.277 Y135.042 Z8.000 F200.000
G1 X33.031 Y138.795 Z8.000 F200.000
G2 X32.736 Y139.208 Z8.000 I5.453 J4.193 K0.000 F200.000
G1 X28.570 Y135.042 Z8.000 F200.000
G1 X27.863 Y135.042 Z8.000 F200.000
G1 X32.476 Y139.655 Z8.000 F200.000
G2 X32.268 Y140.154 Z8.000 I2.159 J1.190 K0.000 F200.000
G1 X27.156 Y135.042 Z8.000 F200.000
G1 X26.449 Y135.042 Z8.000 F200.000
G1 X32.123 Y140.717 Z8.000 F200.000
G2 X32.050 Y141.350 Z8.000 I3.749 J0.755 K0.000 F200.000
G1 X25.741 Y135.042 Z8.000 F200.000
G1 X25.034 Y135.042 Z8.000 F200.000
G1 X32.064 Y142.072 Z8.000 F200.000
G2 X32.211 Y142.925 Z8.000 I4.455 J-0.324 K0.000 F200.000
G1 X24.327 Y135.042 Z8.000 F200.000
G1 X23.620 Y135.042 Z8.000 F200.000
G1 X32.830 Y144.252 Z8.000 F200.000
G2 X34.159 Y145.581 Z8.000 I3.502 J-2.173 K0.000 F200.000
G1 X38.287 Y149.708 Z8.000 F200.000
G1 X37.580 Y149.708 Z8.000 F200.000
G1 X22.913 Y135.042 Z8.000 F200.000
G1 X22.206 Y135.042 Z8.000 F200.000
G1 X36.873 Y149.708 Z8.000 F200.000
G1 X36.166 Y149.708 Z8.000 F200.000
G1 X21.499 Y135.042 Z8.000 F200.000
G1 X20.792 Y135.042 Z8.000 F200.000
G1 X35.458 Y149.708 Z8.000 F200.000
G1 X34.751 Y149.708 Z8.000 F200.000
G1 X20.085 Y135.042 Z8.000 F200.000
G1 X19.378 Y135.042 Z8.000 F200.000
G1 X34.044 Y149.708 Z8.000 F200.000
G1 X33.337 Y149.708 Z8.000 F200.000
G1 X18.670 Y135.042 Z8.000 F200.000
G1 X17.963 Y135.042 Z8.000 F200.000
G1 X32.630 Y149.708 Z8.000 F200.000
G1 X31.923 Y149.708 Z8.000 F200.000
G1 X17.256 Y135.042 Z8.000 F200.000
G1 X16.549 Y135.042 Z8.000 F200.000
G1 X31.216 Y149.708 Z8.000 F200.000
G1 X30.509 Y149.708 Z8.000 F200.000
G1 X15.842 Y135.042 Z8.000 F200.000
G1 X15.135 Y135.042 Z8.000 F200.000
G1 X29.802 Y149.708 Z8.000 F200.000
G1 X29.094 Y149.708 Z8.000 F200.000
G1 X14.428 Y135.042 Z8.000 F200.000
G1 X13.721 Y135.042 Z8.000 F200.000
G1 X28.387 Y149.708 Z8.000 F200.000
G1 X27.680 Y149.708 Z8.000 F200.000
G1 X13.014 Y135.042 Z8.000 F200.000
G1 X12.306 Y135.042 Z8.000 F200.000
G1 X26.973 Y149.708 Z8.000 F200.000
G1 X26.266 Y149.708 Z8.000 F200.000
G1 X11.599 Y135.042 Z8.000 F200.000
G1 X10.892 Y135.042 Z8.000 F200.000
G1 X25.559 Y149.708 Z8.000 F200.000
G1 X24.852 Y149.708 Z8.000 F200.000
G1 X10.185 Y135.042 Z8.000 F200.000
G1 X9.750 Y135.042 Z8.000 F200.000
G1 X9.750 Y135.314 Z8.000 F200.000
G1 X24.145 Y149.708 Z8.000 F200.000
G1 X23.438 Y149.708 Z8.000 F200.000
G1 X9.750 Y136.021 Z8.000 F200.000
G1 X9.750 Y136.728 Z8.000 F200.000
G1 X22.730 Y149.708 Z8.000 F200.000
G1 X22.023 Y149.708 Z8.000 F200.000
G1 X9.750 Y137.435 Z8.000 F200.000
G1 X9.750 Y138.142 Z8.000 F200.000
G1 X21.316 Y149.708 Z8.000 F200.000
G1 X20.609 Y149.708 Z8.000 F200.000
G1 X9.750 Y138.849 Z8.000 F200.000
G1 X9.750 Y139.556 Z8.000 F200.000
G1 X19.902 Y149.708 Z8.000 F200.000
G1 X19.195 Y149.708 Z8.000 F200.000
G1 X9.750 Y140.263 Z8.000 F200.000
G1 X9.750 Y140.970 Z8.000 F200.000
G1 X18.488 Y149.708 Z8.000 F200.000
G1 X17.781 Y149.708 Z8.000 F200.000
G1 X9.750 Y141.678 Z8.000 F200.000
G1 X9.750 Y142.385 Z8.000 F200.000
G1 X17.074 Y149.708 Z8.000 F200.000
G1 X16.367 Y149.708 Z8.000 F200.000
G1 X9.750 Y143.092 Z8.000 F200.000
G1 X9.750 Y143.799 Z8.000 F200.000
G1 X15.659 Y149.708 Z8.000 F200.000
G1 X14.952 Y149.708 Z8.000 F200.000
G1 X9.750 Y144.506 Z8.000 F200.000
G1 X9.750 Y145.213 Z8.000 F200.000
G1 X14.245 Y149.708 Z8.000 F200.000
G1 X13.538 Y149.708 Z8.000 F200.000
G1 X9.750 Y145.920 Z8.000 F200.000
G1 X9.750 Y146.627 Z8.000 F200.000
G1 X12.831 Y149.708 Z8.000 F200.000
G1 X12.124 Y149.708 Z8.000 F200.000
G1 X9.750 Y147.334 Z8.000 F200.000
G1 X9.750 Y148.042 Z8.000 F200.000
G1 X11.417 Y149.708 Z8.000 F200.000
G1 X10.710 Y149.708 Z8.000 F200.000
G1 X9.750 Y148.749 Z8.000 F200.000
G1 X9.750 Y149.456 Z8.000 F200.000
G1 X9.750 Y149.708 Z8.000 F200.000
G1 X10.003 Y149.708 Z8.000 F200.000
G1 X9.750 Y149.456 Z8.000 F200.000
G1 X9.750 Y149.456 Z7.750 F200.000
G1 X10.003 Y149.708 Z7.750 F200.000
G1 X9.750 Y149.708 Z7.750 F200.000
G1 X9.750 Y149.456 Z7.750 F200.000
G1 X9.750 Y148.749 Z7.750 F200.000
G1 X10.710 Y149.708 Z7.750 F200.000
G1 X11.417 Y149.708 Z7.750 F200.000
G1 X9.750 Y148.042 Z7.750 F200.000
G1 X9.750 Y147.334 Z7.750 F200.000
G1 X12.124 Y149.708 Z7.750 F200.000
G1 X12.831 Y149.708 Z7.750 F200.000
G1 X9.750 Y146.627 Z7.750 F200.000
G1 X9.750 Y145.920 Z7.750 F200.000
G1 X13.538 Y149.708 Z7.750 F200.000
G1 X14.245 Y149.708 Z7.750 F200.000
G1 X9.750 Y145.213 Z7.750 F200.000
G1 X9.750 Y144.506 Z7.750 F200.000
G1 X14.952 Y149.708 Z7.750 F200.000
G1 X15.659 Y149.708 Z7.750 F200.000
G1 X9.750 Y143.799 Z7.750 F200.000
G1 X9.750 Y143.092 Z7.750 F200.000
G1 X16.367 Y149.708 Z7.750 F200.000
G1 X17.074 Y149.708 Z7.750 F200.000
G1 X9.750 Y142.385 Z7.750 F200.000
G1 X9.750 Y141.678 Z7.750 F200.000
G1 X17.781 Y149.708 Z7.750 F200.000
G1 X18.488 Y149.708 Z7.750 F200.000
G1 X9.750 Y140.970 Z7.750 F200.000
G1 X9.750 Y140.263 Z7.750 F200.000
G1 X19.195 Y149.708 Z7.750 F200.000
G1 X19.902 Y149.708 Z7.750 F200.000
G1 X9.750 Y139.556 Z7.750 F200.000
G1 X9.750 Y138.849 Z7.750 F200.000
G1 X20.609 Y149.708 Z7.750 F200.000
G1 X21.316 Y149.708 Z7.750 F200.000
G1 X9.750 Y138.142 Z7.750 F200.000
G1 X9.750 Y137.435 Z7.750 F200.000
G1 X22.023 Y149.708 Z7.750 F200.000
G1 X22.730 Y149.708 Z7.750 F200.000
G1 X9.750 Y136.728 Z7.750 F200.000
G1 X9.750 Y136.021 Z7.750 F200.000
G1 X23.438 Y149.708 Z7.750 F200.000
G1 X24.145 Y149.708 Z7.750 F200.000
G1 X9.750 Y135.314 Z7.750 F200.000
G1 X9.750 Y135.042 Z7.750 F200.000
G1 X10.185 Y135.042 Z7.750 F200.000
G1 X24.852 Y149.708 Z7.750 F200.000
G1 X25.559 Y149.708 Z7.750 F200.000
G1 X10.892 Y135.042 Z7.750 F200.000
G1 X11.599 Y135.042 Z7.750 F200.000
G1 X26.266 Y149.708 Z7.750 F200.000
G1 X26.973 Y149.708 Z7.750 F200.000
G1 X12.306 Y135.042 Z7.750 F200.000
G1 X13.014 Y135.042 Z7.750 F200.000
G1 X27.680 Y149.708 Z7.750 F200.000
G1 X28.387 Y149.708 Z7.750 F200.000
G1 X13.721 Y135.042 Z7.750 F200.000
G1 X14.428 Y135.042 Z7.750 F200.000
G1 X29.094 Y149.708 Z7.750 F200.000
G1 X29.802 Y149.708 Z7.750 F200.000
G1 X15.135 Y135.042 Z7.750 F200.000
G1 X15.842 Y135.042 Z7.750 F200.000
G1 X30.509 Y149.708 Z7.750 F200.000
G1 X31.216 Y149.708 Z7.750 F200.000
G1 X16.549 Y135.042 Z7.750 F200.000
G1 X17.256 Y135.042 Z7.750 F200.000
G1 X31.923 Y149.708 Z7.750 F200.000
G1 X32.630 Y149.708 Z7.750 F200.000
G1 X17.963 Y135.042 Z7.750 F200.000
G1 X18.670 Y135.042 Z7.750 F200.000
G1 X33.337 Y149.708 Z7.750 F200.000
G1 X34.044 Y149.708 Z7.750 F200.000
G1 X19.378 Y135.042 Z7.750 F200.000
G1 X20.085 Y135.042 Z7.750 F200.000
G1 X34.751 Y149.708 Z7.750 F200.000
G1 X35.458 Y149.708 Z7.750 F200.000
G1 X20.792 Y135.042 Z7.750 F200.000
G1 X21.499 Y135.042 Z7.750 F200.000
G1 X36.166 Y149.708 Z7.750 F200.000
G1 X36.873 Y149.708 Z7.750 F200.000
G1 X22.206 Y135.042 Z7.750 F200.000
G1 X22.913 Y135.042 Z7.750 F200.000
G1 X37.580 Y149.708 Z7.750 F200.000
G1 X38.287 Y149.708 Z7.750 F200.000
G1 X34.159 Y145.581 Z7.750 F200.000
G3 X32.830 Y144.252 Z7.750 I2.173 J-3.502 K0.000 F200.000
G1 X23.620 Y135.042 Z7.750 F200.000
G1 X24.327 Y135.042 Z7.750 F200.000
G1 X32.211 Y142.925 Z7.750 F200.000
G3 X32.064 Y142.072 Z7.750 I4.308 J-1.178 K0.000 F200.000
G1 X25.034 Y135.042 Z7.750 F200.000
G1 X25.741 Y135.042 Z7.750 F200.000
G1 X32.050 Y141.350 Z7.750 F200.000
G3 X32.123 Y140.717 Z7.750 I3.822 J0.121 K0.000 F200.000
G1 X26.449 Y135.042 Z7.750 F200.000
G1 X27.156 Y135.042 Z7.750 F200.000
G1 X32.268 Y140.154 Z7.750 F200.000
G3 X32.476 Y139.655 Z7.750 I2.367 J0.690 K0.000 F200.000
G1 X27.863 Y135.042 Z7.750 F200.000
G1 X28.570 Y135.042 Z7.750 F200.000
G1 X32.736 Y139.208 Z7.750 F200.000
G3 X33.031 Y138.795 Z7.750 I5.747 J3.780 K0.000 F200.000
G1 X29.277 Y135.042 Z7.750 F200.000
G1 X29.984 Y135.042 Z7.750 F200.000
G1 X33.382 Y138.440 Z7.750 F200.000
G3 X33.769 Y138.119 Z7.750 I1.581 J1.512 K0.000 F200.000
G1 X30.691 Y135.042 Z7.750 F200.000
G1 X31.398 Y135.042 Z7.750 F200.000
G1 X34.193 Y137.836 Z7.750 F200.000
G3 X34.655 Y137.591 Z7.750 I1.134 J1.580 K0.000 F200.000
G1 X32.105 Y135.042 Z7.750 F200.000
G1 X32.813 Y135.042 Z7.750 F200.000
G1 X35.165 Y137.394 Z7.750 F200.000
G3 X35.721 Y137.243 Z7.750 I0.815 J1.895 K0.000 F200.000
G1 X33.520 Y135.042 Z7.750 F200.000
G1 X34.227 Y135.042 Z7.750 F200.000
G1 X36.339 Y137.153 Z7.750 F200.000
G3 X37.011 Y137.118 Z7.750 I0.534 J3.784 K0.000 F200.000
G1 X34.934 Y135.042 Z7.750 F200.000
G1 X35.641 Y135.042 Z7.750 F200.000
G1 X37.785 Y137.186 Z7.750 F200.000
G3 X38.750 Y137.444 Z7.750 I-0.494 J3.786 K0.000 F200.000
G1 X36.348 Y135.042 Z7.750 F200.000
G1 X37.055 Y135.042 Z7.750 F200.000
G1 X41.232 Y139.219 Z7.750 F200.000
G1 X41.209 Y139.481 Z7.750 F200.000
G2 X41.761 Y140.271 Z7.750 I0.747 J0.066 K0.000 F200.000
G3 X42.575 Y140.562 Z7.750 I-0.477 J2.620 K0.000 F200.000
G1 X42.994 Y140.981 Z7.750 F200.000
G2 X42.575 Y140.562 Z7.750 I-0.810 J0.390 K0.000 F200.000
G1 X42.575 Y140.561 Z7.750 F200.000
G2 X41.761 Y140.271 Z7.750 I-1.022 J1.580 K0.000 F200.000
G3 X41.209 Y139.481 Z7.750 I0.195 J-0.724 K0.000 F200.000
G1 X41.340 Y138.005 Z7.750 F200.000
G3 X42.015 Y137.324 Z7.750 I0.747 J0.066 K0.000 F200.000
G3 X42.664 Y137.414 Z7.750 I0.001 J2.369 K0.000 F200.000
G3 X45.599 Y140.036 Z7.750 I-0.706 J3.743 K0.000 F200.000
G3 X44.841 Y144.435 Z7.750 I-4.568 J1.478 K0.000 F200.000
G3 X42.155 Y146.104 Z7.750 I-4.011 J-3.460 K0.000 F200.000
G3 X38.639 Y146.545 Z7.750 I-3.272 J-11.875 K0.000 F200.000
G3 X34.924 Y145.974 Z7.750 I-0.379 J-9.915 K0.000 F200.000
G3 X32.209 Y142.921 Z7.750 I1.677 J-4.225 K0.000 F200.000
G3 X33.000 Y138.835 Z7.750 I4.376 J-1.272 K0.000 F200.000
G3 X36.898 Y137.116 Z7.750 I3.758 J3.242 K0.000 F200.000
G3 X40.193 Y138.354 Z7.750 I0.117 J4.694 K0.000 F200.000
G3 X41.035 Y143.418 Z7.750 I-2.920 J3.087 K0.000 F200.000
G2 X42.512 Y142.757 Z7.750 I-0.582 J-3.279 K0.000 F200.000
G2 X42.899 Y140.826 Z7.750 I-0.793 J-1.164 K0.000 F200.000
G2 X42.575 Y140.561 Z7.750 I-1.345 J1.315 K0.000 F200.000
G1 X42.575 Y140.561 Z7.500 F200.000
G2 X41.761 Y140.271 Z7.500 I-1.022 J1.580 K0.000 F200.000
G3 X41.209 Y139.481 Z7.500 I0.195 J-0.724 K0.000 F200.000
G1 X41.340 Y138.005 Z7.500 F200.000
G3 X42.015 Y137.324 Z7.500 I0.747 J0.066 K0.000 F200.000
G3 X42.664 Y137.414 Z7.500 I0.001 J2.369 K0.000 F200.000
G3 X45.599 Y140.036 Z7.500 I-0.706 J3.743 K0.000 F200.000
G3 X44.841 Y144.435 Z7.500 I-4.568 J1.478 K0.000 F200.000
G3 X42.155 Y146.104 Z7.500 I-4.011 J-3.460 K0.000 F200.000
G3 X38.639 Y146.545 Z7.500 I-3.272 J-11.875 K0.000 F200.000
G3 X34.924 Y145.974 Z7.500 I-0.379 J-9.915 K0.000 F200.000
G3 X32.209 Y142.921 Z7.500 I1.677 J-4.225 K0.000 F200.000
G3 X33.000 Y138.835 Z7.500 I4.376 J-1.272 K0.000 F200.000
G3 X36.898 Y137.116 Z7.500 I3.758 J3.242 K0.000 F200.000
G3 X40.193 Y138.354 Z7.500 I0.117 J4.694 K0.000 F200.000
G3 X41.035 Y143.418 Z7.500 I-2.920 J3.087 K0.000 F200.000
G2 X42.512 Y142.757 Z7.500 I-0.582 J-3.279 K0.000 F200.000
G2 X42.899 Y140.826 Z7.500 I-0.793 J-1.164 K0.000 F200.000
G2 X42.575 Y140.561 Z7.500 I-1.345 J1.315 K0.000 F200.000
G1 X42.575 Y140.562 Z7.500 F200.000
G3 X42.994 Y140.981 Z7.500 I-0.390 J0.810 K0.000 F200.000
G1 X42.575 Y140.562 Z7.500 F200.000
G2 X41.761 Y140.271 Z7.500 I-1.291 J2.329 K0.000 F200.000
G3 X41.209 Y139.481 Z7.500 I0.195 J-0.724 K0.000 F200.000
G1 X41.232 Y139.219 Z7.500 F200.000
G1 X37.055 Y135.042 Z7.500 F200.000
G1 X36.348 Y135.042 Z7.500 F200.000
G1 X38.750 Y137.444 Z7.500 F200.000
G2 X37.785 Y137.186 Z7.500 I-1.459 J3.529 K0.000 F200.000
G1 X35.641 Y135.042 Z7.500 F200.000
G1 X34.934 Y135.042 Z7.500 F200.000
G1 X37.011 Y137.118 Z7.500 F200.000
G2 X36.339 Y137.153 Z7.500 I-0.138 J3.819 K0.000 F200.000
G1 X34.227 Y135.042 Z7.500 F200.000
G1 X33.520 Y135.042 Z7.500 F200.000
G1 X35.721 Y137.243 Z7.500 F200.000
G2 X35.165 Y137.394 Z7.500 I0.260 J2.047 K0.000 F200.000
G1 X32.813 Y135.042 Z7.500 F200.000
G1 X32.105 Y135.042 Z7.500 F200.000
G1 X34.655 Y137.591 Z7.500 F200.000
G2 X34.193 Y137.836 Z7.500 I0.672 J1.825 K0.000 F200.000
G1 X31.398 Y135.042 Z7.500 F200.000
G1 X30.691 Y135.042 Z7.500 F200.000
G1 X33.769 Y138.119 Z7.500 F200.000
G2 X33.382 Y138.440 Z7.500 I1.194 J1.833 K0.000 F200.000
G1 X29.984 Y135.042 Z7.500 F200.000
G1 X29.277 Y135.042 Z7.500 F200.000
G1 X33.031 Y138.795 Z7.500 F200.000
G2 X32.736 Y139.208 Z7.500 I5.453 J4.193 K0.000 F200.000
G1 X28.570 Y135.042 Z7.500 F200.000
G1 X27.863 Y135.042 Z7.500 F200.000
G1 X32.476 Y139.655 Z7.500 F200.000
G2 X32.268 Y140.154 Z7.500 I2.159 J1.190 K0.000 F200.000
G1 X27.156 Y135.042 Z7.500 F200.000
G1 X26.449 Y135.042 Z7.500 F200.000
G1 X32.123 Y140.717 Z7.500 F200.000
G2 X32.050 Y141.350 Z7.500 I3.749 J0.755 K0.000 F200.000
G1 X25.741 Y135.042 Z7.500 F200.000
G1 X25.034 Y135.042 Z7.500 F200.000
G1 X32.064 Y142.072 Z7.500 F200.000
G2 X32.211 Y142.925 Z7.500 I4.455 J-0.324 K0.000 F200.000
G1 X24.327 Y135.042 Z7.500 F200.000
G1 X23.620 Y135.042 Z7.500 F200.000
G1 X32.830 Y144.252 Z7.500 F200.000
G2 X34.159 Y145.581 Z7.500 I3.502 J-2.173 K0.000 F200.000
G1 X38.287 Y149.708 Z7.500 F200.000
G1 X37.580 Y149.708 Z7.500 F200.000
G1 X22.913 Y135.042 Z7.500 F200.000
G1 X22.206 Y135.042 Z7.500 F200.000
G1 X36.873 Y149.708 Z7.500 F200.000
G1 X36.166 Y149.708 Z7.500 F200.000
G1 X21.499 Y135.042 Z7.500 F200.000
G1 X20.792 Y135.042 Z7.500 F200.000
G1 X35.458 Y149.708 Z7.500 F200.000
G1 X34.751 Y149.708 Z7.500 F200.000
G1 X20.085 Y135.042 Z7.500 F200.000
G1 X19.378 Y135.042 Z7.500 F200.000
G1 X34.044 Y149.708 Z7.500 F200.000
G1 X33.337 Y149.708 Z7.500 F200.000
G1 X18.670 Y135.042 Z7.500 F200.000
G1 X17.963 Y135.042 Z7.500 F200.000
G1 X32.630 Y149.708 Z7.500 F200.000
G1 X31.923 Y149.708 Z7.500 F200.000
G1 X17.256 Y135.042 Z7.500 F200.000
G1 X16.549 Y135.042 Z7.500 F200.000
G1 X31.216 Y149.708 Z7.500 F200.000
G1 X30.509 Y149.708 Z7.500 F200.000
G1 X15.842 Y135.042 Z7.500 F200.000
G1 X15.135 Y135.042 Z7.500 F200.000
G1 X29.802 Y149.708 Z7.500 F200.000
G1 X29.094 Y149.708 Z7.500 F200.000
G1 X14.428 Y135.042 Z7.500 F200.000
G1 X13.721 Y135.042 Z7.500 F200.000
G1 X28.387 Y149.708 Z7.500 F200.000
G1 X27.680 Y149.708 Z7.500 F200.000
G1 X13.014 Y135.042 Z7.500 F200.000
G1 X12.306 Y135.042 Z7.500 F200.000
G1 X26.973 Y149.708 Z7.500 F200.000
G1 X26.266 Y149.708 Z7.500 F200.000
G1 X11.599 Y135.042 Z7.500 F200.000
G1 X10.892 Y135.042 Z7.500 F200.000
G1 X25.559 Y149.708 Z7.500 F200.000
G1 X24.852 Y149.708 Z7.500 F200.000
G1 X10.185 Y135.042 Z7.500 F200.000
G1 X9.750 Y135.042 Z7.500 F200.000
G1 X9.750 Y135.314 Z7.500 F200.000
G1 X24.145 Y149.708 Z7.500 F200.000
G1 X23.438 Y149.708 Z7.500 F200.000
G1 X9.750 Y136.021 Z7.500 F200.000
G1 X9.750 Y136.728 Z7.500 F200.000
G1 X22.730 Y149.708 Z7.500 F200.000
G1 X22.023 Y149.708 Z7.500 F200.000
G1 X9.750 Y137.435 Z7.500 F200.000
G1 X9.750 Y138.142 Z7.500 F200.000
G1 X21.316 Y149.708 Z7.500 F200.000
G1 X20.609 Y149.708 Z7.500 F200.000
G1 X9.750 Y138.849 Z7.500 F200.000
G1 X9.750 Y139.556 Z7.500 F200.000
G1 X19.902 Y149.708 Z7.500 F200.000
G1 X19.195 Y149.708 Z7.500 F200.000
G1 X9.750 Y140.263 Z7.500 F200.000
G1 X9.750 Y140.970 Z7.500 F200.000
G1 X18.488 Y149.708 Z7.500 F200.000
G1 X17.781 Y149.708 Z7.500 F200.000
G1 X9.750 Y141.678 Z7.500 F200.000
G1 X9.750 Y142.385 Z7.500 F200.000
G1 X17.074 Y149.708 Z7.500 F200.000
G1 X16.367 Y149.708 Z7.500 F200.000
G1 X9.750 Y143.092 Z7.500 F200.000
G1 X9.750 Y143.799 Z7.500 F200.000
G1 X15.659 Y149.708 Z7.500 F200.000
G1 X14.952 Y149.708 Z7.500 F200.000
G1 X9.750 Y144.506 Z7.500 F200.000
G1 X9.750 Y145.213 Z7.500 F200.000
G1 X14.245 Y149.708 Z7.500 F200.000
G1 X13.538 Y149.708 Z7.500 F200.000
G1 X9.750 Y145.920 Z7.500 F200.000
G1 X9.750 Y146.627 Z7.500 F200.000
G1 X12.831 Y149.708 Z7.500 F200.000
G1 X12.124 Y149.708 Z7.500 F200.000
G1 X9.750 Y147.334 Z7.500 F200.000
G1 X9.750 Y148.042 Z7.500 F200.000
G1 X11.417 Y149.708 Z7.500 F200.000
G1 X10.710 Y149.708 Z7.500 F200.000
G1 X9.750 Y148.749 Z7.500 F200.000
G1 X9.750 Y149.456 Z7.500 F200.000
G1 X9.750 Y149.708 Z7.500 F200.000
G1 X10.003 Y149.708 Z7.500 F200.000
G1 X9.750 Y149.456 Z7.500 F200.000
G1 X9.750 Y149.456 Z7.250 F200.000
G1 X10.003 Y149.708 Z7.250 F200.000
G1 X9.750 Y149.708 Z7.250 F200.000
G1 X9.750 Y149.456 Z7.250 F200.000
G1 X9.750 Y148.749 Z7.250 F200.000
G1 X10.710 Y149.708 Z7.250 F200.000
G1 X11.417 Y149.708 Z7.250 F200.000
G1 X9.750 Y148.042 Z7.250 F200.000
G1 X9.750 Y147.334 Z7.250 F200.000
G1 X12.124 Y149.708 Z7.250 F200.000
G1 X12.831 Y149.708 Z7.250 F200.000
G1 X9.750 Y146.627 Z7.250 F200.000
G1 X9.750 Y145.920 Z7.250 F200.000
G1 X13.538 Y149.708 Z7.250 F200.000
G1 X14.245 Y149.708 Z7.250 F200.000
G1 X9.750 Y145.213 Z7.250 F200.000
G1 X9.750 Y144.506 Z7.250 F200.000
G1 X14.952 Y149.708 Z7.250 F200.000
G1 X15.659 Y149.708 Z7.250 F200.000
G1 X9.750 Y143.799 Z7.250 F200.000
G1 X9.750 Y143.092 Z7.250 F200.000
G1 X16.367 Y149.708 Z7.250 F200.000
G1 X17.074 Y149.708 Z7.250 F200.000
G1 X9.750 Y142.385 Z7.250 F200.000
G1 X9.750 Y141.678 Z7.250 F200.000
G1 X17.781 Y149.708 Z7.250 F200.000
G1 X18.488 Y149.708 Z7.250 F200.000
G1 X9.750 Y140.970 Z7.250 F200.000
G1 X9.750 Y140.263 Z7.250 F200.000
G1 X19.195 Y149.708 Z7.250 F200.000
G1 X19.902 Y149.708 Z7.250 F200.000
G1 X9.750 Y139.556 Z7.250 F200.000
G1 X9.750 Y138.849 Z7.250 F200.000
G1 X20.609 Y149.708 Z7.250 F200.000
G1 X21.316 Y149.708 Z7.250 F200.000
G1 X9.750 Y138.142 Z7.250 F200.000
G1 X9.750 Y137.435 Z7.250 F200.000
G1 X22.023 Y149.708 Z7.250 F200.000
G1 X22.730 Y149.708 Z7.250 F200.000
G1 X9.750 Y136.728 Z7.250 F200.000
G1 X9.750 Y136.021 Z7.250 F200.000
G1 X23.438 Y149.708 Z7.250 F200.000
G1 X24.145 Y149.708 Z7.250 F200.000
G1 X9.750 Y135.314 Z7.250 F200.000
G1 X9.750 Y135.042 Z7.250 F200.000
G1 X10.185 Y135.042 Z7.250 F200.000
G1 X24.852 Y149.708 Z7.250 F200.000
G1 X25.559 Y149.708 Z7.250 F200.000
G1 X10.892 Y135.042 Z7.250 F200.000
G1 X11.599 Y135.042 Z7.250 F200.000
G1 X26.266 Y149.708 Z7.250 F200.000
G1 X26.973 Y149.708 Z7.250 F200.000
G1 X12.306 Y135.042 Z7.250 F200.000
G1 X13.014 Y135.042 Z7.250 F200.000
G1 X27.680 Y149.708 Z7.250 F200.000
G1 X28.387 Y149.708 Z7.250 F200.000
G1 X13.721 Y135.042 Z7.250 F200.000
G1 X14.428 Y135.042 Z7.250 F200.000
G1 X29.094 Y149.708 Z7.250 F200.000
G1 X29.802 Y149.708 Z7.250 F200.000
G1 X15.135 Y135.042 Z7.250 F200.000
G1 X15.842 Y135.042 Z7.250 F200.000
G1 X30.509 Y149.708 Z7.250 F200.000
G1 X31.216 Y149.708 Z7.250 F200.000
G1 X16.549 Y135.042 Z7.250 F200.000
G1 X17.256 Y135.042 Z7.250 F200.000
G1 X31.923 Y149.708 Z7.250 F200.000
G1 X32.630 Y149.708 Z7.250 F200.000
G1 X17.963 Y135.042 Z7.250 F200.000
G1 X18.670 Y135.042 Z7.250 F200.000
G1 X33.337 Y149.708 Z7.250 F200.000
G1 X34.044 Y149.708 Z7.250 F200.000
G1 X19.378 Y135.042 Z7.250 F200.000
G1 X20.085 Y135.042 Z7.250 F200.000
G1 X34.751 Y149.708 Z7.250 F200.000
G1 X35.458 Y149.708 Z7.250 F200.000
G1 X20.792 Y135.042 Z7.250 F200.000
G1 X21.499 Y135.042 Z7.250 F200.000
G1 X36.166 Y149.708 Z7.250 F200.000
G1 X36.873 Y149.708 Z7.250 F200.000
G1 X22.206 Y135.042 Z7.250 F200.000
G1 X22.913 Y135.042 Z7.250 F200.000
G1 X37.580 Y149.708 Z7.250 F200.000
G1 X38.287 Y149.708 Z7.250 F200.000
G1 X34.159 Y145.581 Z7.250 F200.000
G3 X32.830 Y144.252 Z7.250 I2.173 J-3.502 K0.000 F200.000
G1 X23.620 Y135.042 Z7.250 F200.000
G1 X24.327 Y135.042 Z7.250 F200.000
G1 X32.211 Y142.925 Z7.250 F200.000
G3 X32.064 Y142.072 Z7.250 I4.308 J-1.178 K0.000 F200.000
G1 X25.034 Y135.042 Z7.250 F200.000
G1 X25.741 Y135.042 Z7.250 F200.000
G1 X32.050 Y141.350 Z7.250 F200.000
G3 X32.123 Y140.717 Z7.250 I3.822 J0.121 K0.000 F200.000
G1 X26.449 Y135.042 Z7.250 F200.000
G1 X27.156 Y135.042 Z7.250 F200.000
G1 X32.268 Y140.154 Z7.250 F200.000
G3 X32.476 Y139.655 Z7.250 I2.367 J0.690 K0.000 F200.000
G1 X27.863 Y135.042 Z7.250 F200.000
G1 X28.570 Y135.042 Z7.250 F200.000
G1 X32.736 Y139.208 Z7.250 F200.000
G3 X33.031 Y138.795 Z7.250 I5.747 J3.780 K0.000 F200.000
G1 X29.277 Y135.042 Z7.250 F200.000
G1 X29.984 Y135.042 Z7.250 F200.000
G1 X33.382 Y138.440 Z7.250 F200.000
G3 X33.769 Y138.119 Z7.250 I1.581 J1.512 K0.000 F200.000
G1 X30.691 Y135.042 Z7.250 F200.000
G1 X31.398 Y135.042 Z7.250 F200.000
G1 X34.193 Y137.836 Z7.250 F200.000
G3 X34.655 Y137.591 Z7.250 I1.134 J1.580 K0.000 F200.000
G1 X32.105 Y135.042 Z7.250 F200.000
G1 X32.813 Y135.042 Z7.250 F200.000
G1 X35.165 Y137.394 Z7.250 F200.000
G3 X35.721 Y137.243 Z7.250 I0.815 J1.895 K0.000 F200.000
G1 X33.520 Y135.042 Z7.250 F200.000
G1 X34.227 Y135.042 Z7.250 F200.000
G1 X36.339 Y137.153 Z7.250 F200.000
G3 X37.011 Y137.118 Z7.250 I0.534 J3.784 K0.000 F200.000
G1 X34.934 Y135.042 Z7.250 F200.000
G1 X35.641 Y135.042 Z7.250 F200.000
G1 X37.785 Y137.186 Z7.250 F200.000
G3 X38.750 Y137.444 Z7.250 I-0.494 J3.786 K0.000 F200.000
G1 X36.348 Y135.042 Z7.250 F200.000
G1 X37.055 Y135.042 Z7.250 F200.000
G1 X41.232 Y139.219 Z7.250 F200.000
G1 X41.209 Y139.481 Z7.250 F200.000
G2 X41.761 Y140.271 Z7.250 I0.747 J0.066 K0.000 F200.000
G3 X42.575 Y140.562 Z7.250 I-0.477 J2.620 K0.000 F200.000
G1 X42.994 Y140.981 Z7.250 F200.000
G2 X42.575 Y140.562 Z7.250 I-0.810 J0.390 K0.000 F200.000
G1 X42.575 Y140.561 Z7.250 F200.000
G2 X41.761 Y140.271 Z7.250 I-1.022 J1.580 K0.000 F200.000
G3 X41.209 Y139.481 Z7.250 I0.195 J-0.724 K0.000 F200.000
G1 X41.340 Y138.005 Z7.250 F200.000
G3 X42.015 Y137.324 Z7.250 I0.747 J0.066 K0.000 F200.000
G3 X42.664 Y137.414 Z7.250 I0.001 J2.369 K0.000 F200.000
G3 X45.599 Y140.036 Z7.250 I-0.706 J3.743 K0.000 F200.000
G3 X44.841 Y144.435 Z7.250 I-4.568 J1.478 K0.000 F200.000
G3 X42.155 Y146.104 Z7.250 I-4.011 J-3.460 K0.000 F200.000
G3 X38.639 Y146.545 Z7.250 I-3.272 J-11.875 K0.000 F200.000
G3 X34.924 Y145.974 Z7.250 I-0.379 J-9.915 K0.000 F200.000
G3 X32.209 Y142.921 Z7.250 I1.677 J-4.225 K0.000 F200.000
G3 X33.000 Y138.835 Z7.250 I4.376 J-1.272 K0.000 F200.000
G3 X36.898 Y137.116 Z7.250 I3.758 J3.242 K0.000 F200.000
G3 X40.193 Y138.354 Z7.250 I0.117 J4.694 K0.000 F200.000
G3 X41.035 Y143.418 Z7.250 I-2.920 J3.087 K0.000 F200.000
G2 X42.512 Y142.757 Z7.250 I-0.582 J-3.279 K0.000 F200.000
G2 X42.899 Y140.826 Z7.250 I-0.793 J-1.164 K0.000 F200.000
G2 X42.575 Y140.561 Z7.250 I-1.345 J1.315 K0.000 F200.000
G1 X42.575 Y140.561 Z7.000 F200.000
G2 X41.761 Y140.271 Z7.000 I-1.022 J1.580 K0.000 F200.000
G3 X41.209 Y139.481 Z7.000 I0.195 J-0.724 K0.000 F200.000
G1 X41.340 Y138.005 Z7.000 F200.000
G3 X42.015 Y137.324 Z7.000 I0.747 J0.066 K0.000 F200.000
G3 X42.664 Y137.414 Z7.000 I0.001 J2.369 K0.000 F200.000
G3 X45.599 Y140.036 Z7.000 I-0.706 J3.743 K0.000 F200.000
G3 X44.841 Y144.435 Z7.000 I-4.568 J1.478 K0.000 F200.000
G3 X42.155 Y146.104 Z7.000 I-4.011 J-3.460 K0.000 F200.000
G3 X38.639 Y146.545 Z7.000 I-3.272 J-11.875 K0.000 F200.000
G3 X34.924 Y145.974 Z7.000 I-0.379 J-9.915 K0.000 F200.000
G3 X32.209 Y142.921 Z7.000 I1.677 J-4.225 K0.000 F200.000
G3 X33.000 Y138.835 Z7.000 I4.376 J-1.272 K0.000 F200.000
G3 X36.898 Y137.116 Z7.000 I3.758 J3.242 K0.000 F200.000
G3 X40.193 Y138.354 Z7.000 I0.117 J4.694 K0.000 F200.000
G3 X41.035 Y143.418 Z7.000 I-2.920 J3.087 K0.000 F200.000
G2 X42.512 Y142.757 Z7.000 I-0.582 J-3.279 K0.000 F200.000
G2 X42.899 Y140.826 Z7.000 I-0.793 J-1.164 K0.000 F200.000
G2 X42.575 Y140.561 Z7.000 I-1.345 J1.315 K0.000 F200.000
G1 X42.575 Y140.562 Z7.000 F200.000
G3 X42.994 Y140.981 Z7.000 I-0.390 J0.810 K0.000 F200.000
G1 X42.575 Y140.562 Z7.000 F200.000
G2 X41.761 Y140.271 Z7.000 I-1.291 J2.329 K0.000 F200.000
G3 X41.209 Y139.481 Z7.000 I0.195 J-0.724 K0.000 F200.000
G1 X41.232 Y139.219 Z7.000 F200.000
G1 X37.055 Y135.042 Z7.000 F200.000
G1 X36.348 Y135.042 Z7.000 F200.000
G1 X38.750 Y137.444 Z7.000 F200.000
G2 X37.785 Y137.186 Z7.000 I-1.459 J3.529 K0.000 F200.000
G1 X35.641 Y135.042 Z7.000 F200.000
G1 X34.934 Y135.042 Z7.000 F200.000
G1 X37.011 Y137.118 Z7.000 F200.000
G2 X36.339 Y137.153 Z7.000 I-0.138 J3.819 K0.000 F200.000
G1 X34.227 Y135.042 Z7.000 F200.000
G1 X33.520 Y135.042 Z7.000 F200.000
G1 X35.721 Y137.243 Z7.000 F200.000
G2 X35.165 Y137.394 Z7.000 I0.260 J2.047 K0.000 F200.000
G1 X32.813 Y135.042 Z7.000 F200.000
G1 X32.105 Y135.042 Z7.000 F200.000
G1 X34.655 Y137.591 Z7.000 F200.000
G2 X34.193 Y137.836 Z7.000 I0.672 J1.825 K0.000 F200.000
G1 X31.398 Y135.042 Z7.000 F200.000
G1 X30.691 Y135.042 Z7.000 F200.000
G1 X33.769 Y138.119 Z7.000 F200.000
G2 X33.382 Y138.440 Z7.000 I1.194 J1.833 K0.000 F200.000
G1 X29.984 Y135.042 Z7.000 F200.000
G1 X29.277 Y135.042 Z7.000 F200.000
G1 X33.031 Y138.795 Z7.000 F200.000
G2 X32.736 Y139.208 Z7.000 I5.453 J4.193 K0.000 F200.000
G1 X28.570 Y135.042 Z7.000 F200.000
G1 X27.863 Y135.042 Z7.000 F200.000
G1 X32.476 Y139.655 Z7.000 F200.000
G2 X32.268 Y140.154 Z7.000 I2.159 J1.190 K0.000 F200.000
G1 X27.156 Y135.042 Z7.000 F200.000
G1 X26.449 Y135.042 Z7.000 F200.000
G1 X32.123 Y140.717 Z7.000 F200.000
G2 X32.050 Y141.350 Z7.000 I3.749 J0.755 K0.000 F200.000
G1 X25.741 Y135.042 Z7.000 F200.000
G1 X25.034 Y135.042 Z7.000 F200.000
G1 X32.064 Y142.072 Z7.000 F200.000
G2 X32.211 Y142.925 Z7.000 I4.455 J-0.324 K0.000 F200.000
G1 X24.327 Y135.042 Z7.000 F200.000
G1 X23.620 Y135.042 Z7.000 F200.000
G1 X32.830 Y144.252 Z7.000 F200.000
G2 X34.159 Y145.581 Z7.000 I3.502 J-2.173 K0.000 F200.000
G1 X38.287 Y149.708 Z7.000 F200.000
G1 X37.580 Y149.708 Z7.000 F200.000
G1 X22.913 Y135.042 Z7.000 F200.000
G1 X22.206 Y135.042 Z7.000 F200.000
G1 X36.873 Y149.708 Z7.000 F200.000
G1 X36.166 Y149.708 Z7.000 F200.000
G1 X21.499 Y135.042 Z7.000 F200.000
G1 X20.792 Y135.042 Z7.000 F200.000
G1 X35.458 Y149.708 Z7.000 F200.000
G1 X34.751 Y149.708 Z7.000 F200.000
G1 X20.085 Y135.042 Z7.000 F200.000
G1 X19.378 Y135.042 Z7.000 F200.000
G1 X34.044 Y149.708 Z7.000 F200.000
G1 X33.337 Y149.708 Z7.000 F200.000
G1 X18.670 Y135.042 Z7.000 F200.000
G1 X17.963 Y135.042 Z7.000 F200.000
G1 X32.630 Y149.708 Z7.000 F200.000
G1 X31.923 Y149.708 Z7.000 F200.000
G1 X17.256 Y135.042 Z7.000 F200.000
G1 X16.549 Y135.042 Z7.000 F200.000
G1 X31.216 Y149.708 Z7.000 F200.000
G1 X30.509 Y149.708 Z7.000 F200.000
G1 X15.842 Y135.042 Z7.000 F200.000
G1 X15.135 Y135.042 Z7.000 F200.000
G1 X29.802 Y149.708 Z7.000 F200.000
G1 X29.094 Y149.708 Z7.000 F200.000
G1 X14.428 Y135.042 Z7.000 F200.000
G1 X13.721 Y135.042 Z7.000 F200.000
G1 X28.387 Y149.708 Z7.000 F200.000
G1 X27.680 Y149.708 Z7.000 F200.000
G1 X13.014 Y135.042 Z7.000 F200.000
G1 X12.306 Y135.042 Z7.000 F200.000
G1 X26.973 Y149.708 Z7.000 F200.000
G1 X26.266 Y149.708 Z7.000 F200.000
G1 X11.599 Y135.042 Z7.000 F200.000
G1 X10.892 Y135.042 Z7.000 F200.000
G1 X25.559 Y149.708 Z7.000 F200.000
G1 X24.852 Y149.708 Z7.000 F200.000
G1 X10.185 Y135.042 Z7.000 F200.000
G1 X9.750 Y135.042 Z7.000 F200.000
G1 X9.750 Y135.314 Z7.000 F200.000
G1 X24.145 Y149.708 Z7.000 F200.000
G1 X23.438 Y149.708 Z7.000 F200.000
G1 X9.750 Y136.021 Z7.000 F200.000
G1 X9.750 Y136.728 Z7.000 F200.000
G1 X22.730 Y149.708 Z7.000 F200.000
G1 X22.023 Y149.708 Z7.000 F200.000
G1 X9.750 Y137.435 Z7.000 F200.000
G1 X9.750 Y138.142 Z7.000 F200.000
G1 X21.316 Y149.708 Z7.000 F200.000
G1 X20.609 Y149.708 Z7.000 F200.000
G1 X9.750 Y138.849 Z7.000 F200.000
G1 X9.750 Y139.556 Z7.000 F200.000
G1 X19.902 Y149.708 Z7.000 F200.000
G1 X19.195 Y149.708 Z7.000 F200.000
G1 X9.750 Y140.263 Z7.000 F200.000
G1 X9.750 Y140.970 Z7.000 F200.000
G1 X18.488 Y149.708 Z7.000 F200.000
G1 X17.781 Y149.708 Z7.000 F200.000
G1 X9.750 Y141.678 Z7.000 F200.000
G1 X9.750 Y142.385 Z7.000 F200.000
G1 X17.074 Y149.708 Z7.000 F200.000
G1 X16.367 Y149.708 Z7.000 F200.000
G1 X9.750 Y143.092 Z7.000 F200.000
G1 X9.750 Y143.799 Z7.000 F200.000
G1 X15.659 Y149.708 Z7.000 F200.000
G1 X14.952 Y149.708 Z7.000 F200.000
G1 X9.750 Y144.506 Z7.000 F200.000
G1 X9.750 Y145.213 Z7.000 F200.000
G1 X14.245 Y149.708 Z7.000 F200.000
G1 X13.538 Y149.708 Z7.000 F200.000
G1 X9.750 Y145.920 Z7.000 F200.000
G1 X9.750 Y146.627 Z7.000 F200.000
G1 X12.831 Y149.708 Z7.000 F200.000
G1 X12.124 Y149.708 Z7.000 F200.000
G1 X9.750 Y147.334 Z7.000 F200.000
G1 X9.750 Y148.042 Z7.000 F200.000
G1 X11.417 Y149.708 Z7.000 F200.000
G1 X10.710 Y149.708 Z7.000 F200.000
G1 X9.750 Y148.749 Z7.000 F200.000
G1 X9.750 Y149.456 Z7.000 F200.000
G1 X9.750 Y149.708 Z7.000 F200.000
G1 X10.003 Y149.708 Z7.000 F200.000
G1 X9.750 Y149.456 Z7.000 F200.000
G0 Z14.300
G0 X38.287 Y149.708 Z14.300
G0 X38.287 Y149.708 Z12.300
G1 X38.287 Y149.708 Z8.750 F200.000
G1 X34.159 Y145.581 Z8.750 F200.000
G2 X35.432 Y146.147 Z8.750 I2.518 J-3.949 K0.000 F200.000
G1 X38.994 Y149.708 Z8.750 F200.000
G1 X39.701 Y149.708 Z8.750 F200.000
G1 X36.362 Y146.370 Z8.750 F200.000
G2 X37.180 Y146.480 Z8.750 I1.635 J-9.047 K0.000 F200.000
G1 X40.408 Y149.708 Z8.750 F200.000
G1 X41.115 Y149.708 Z8.750 F200.000
G1 X37.938 Y146.531 Z8.750 F200.000
G2 X38.658 Y146.544 Z8.750 I0.516 J-8.549 K0.000 F200.000
G1 X41.822 Y149.708 Z8.750 F200.000
G1 X42.529 Y149.708 Z8.750 F200.000
G1 X39.346 Y146.525 Z8.750 F200.000
G2 X40.010 Y146.481 Z8.750 I-0.018 J-5.320 K0.000 F200.000
G1 X43.237 Y149.708 Z8.750 F200.000
G1 X43.944 Y149.708 Z8.750 F200.000
G1 X40.654 Y146.419 Z8.750 F200.000
G2 X41.254 Y146.312 Z8.750 I-4.779 J-28.465 K0.000 F200.000
G1 X44.651 Y149.708 Z8.750 F200.000
G1 X45.358 Y149.708 Z8.750 F200.000
G1 X41.839 Y146.189 Z8.750 F200.000
G2 X42.384 Y146.028 Z8.750 I-1.019 J-4.454 K0.000 F200.000
G1 X46.065 Y149.708 Z8.750 F200.000
G1 X46.772 Y149.708 Z8.750 F200.000
G1 X42.894 Y145.830 Z8.750 F200.000
G2 X43.379 Y145.608 Z8.750 I-0.902 J-2.600 K0.000 F200.000
G1 X47.479 Y149.708 Z8.750 F200.000
G1 X48.186 Y149.708 Z8.750 F200.000
G1 X43.822 Y145.344 Z8.750 F200.000
G2 X44.225 Y145.040 Z8.750 I-1.334 J-2.182 K0.000 F200.000
G1 X48.893 Y149.708 Z8.750 F200.000
G1 X49.601 Y149.708 Z8.750 F200.000
G1 X44.592 Y144.700 Z8.750 F200.000
G2 X44.922 Y144.323 Z8.750 I-1.294 J-1.467 K0.000 F200.000
G1 X50.308 Y149.708 Z8.750 F200.000
G1 X51.015 Y149.708 Z8.750 F200.000
G1 X45.210 Y143.903 Z8.750 F200.000
G2 X45.449 Y143.435 Z8.750 I-7.255 J-3.999 K0.000 F200.000
G1 X51.722 Y149.708 Z8.750 F200.000
G1 X52.429 Y149.708 Z8.750 F200.000
G1 X45.632 Y142.911 Z8.750 F200.000
G2 X45.754 Y142.327 Z8.750 I-2.681 J-0.868 K0.000 F200.000
G1 X53.136 Y149.708 Z8.750 F200.000
G1 X53.843 Y149.708 Z8.750 F200.000
G1 X45.815 Y141.680 Z8.750 F200.000
G2 X45.778 Y140.936 Z8.750 I-3.763 J-0.186 K0.000 F200.000
G1 X54.550 Y149.708 Z8.750 F200.000
G1 X55.257 Y149.708 Z8.750 F200.000
G1 X45.603 Y140.054 Z8.750 F200.000
G1 X45.603 Y140.054 Z8.500 F200.000
G1 X55.257 Y149.708 Z8.500 F200.000
G1 X54.550 Y149.708 Z8.500 F200.000
G1 X45.778 Y140.936 Z8.500 F200.000
G3 X45.815 Y141.680 Z8.500 I-3.726 J0.558 K0.000 F200.000
G1 X53.843 Y149.708 Z8.500 F200.000
G1 X53.136 Y149.708 Z8.500 F200.000
G1 X45.754 Y142.327 Z8.500 F200.000
G3 X45.632 Y142.911 Z8.500 I-2.804 J-0.283 K0.000 F200.000
G1 X52.429 Y149.708 Z8.500 F200.000
G1 X51.722 Y149.708 Z8.500 F200.000
G1 X45.449 Y143.435 Z8.500 F200.000
G3 X45.210 Y143.903 Z8.500 I-7.494 J-3.531 K0.000 F200.000
G1 X51.015 Y149.708 Z8.500 F200.000
G1 X50.308 Y149.708 Z8.500 F200.000
G1 X44.922 Y144.323 Z8.500 F200.000
G3 X44.592 Y144.700 Z8.500 I-1.624 J-1.090 K0.000 F200.000
G1 X49.601 Y149.708 Z8.500 F200.000
G1 X48.893 Y149.708 Z8.500 F200.000
G1 X44.225 Y145.040 Z8.500 F200.000
G3 X43.822 Y145.344 Z8.500 I-1.737 J-1.878 K0.000 F200.000
G1 X48.186 Y149.708 Z8.500 F200.000
G1 X47.479 Y149.708 Z8.500 F200.000
G1 X43.379 Y145.608 Z8.500 F200.000
G3 X42.894 Y145.830 Z8.500 I-1.386 J-2.378 K0.000 F200.000
G1 X46.772 Y149.708 Z8.500 F200.000
G1 X46.065 Y149.708 Z8.500 F200.000
G1 X42.384 Y146.028 Z8.500 F200.000
G3 X41.839 Y146.189 Z8.500 I-1.565 J-4.293 K0.000 F200.000
G1 X45.358 Y149.708 Z8.500 F200.000
G1 X44.651 Y149.708 Z8.500 F200.000
G1 X41.254 Y146.312 Z8.500 F200.000
G3 X40.654 Y146.419 Z8.500 I-5.379 J-28.357 K0.000 F200.000
G1 X43.944 Y149.708 Z8.500 F200.000
G1 X43.237 Y149.708 Z8.500 F200.000
G1 X40.010 Y146.481 Z8.500 F200.000
G3 X39.346 Y146.525 Z8.500 I-0.681 J-5.276 K0.000 F200.000
G1 X42.529 Y149.708 Z8.500 F200.000
G1 X41.822 Y149.708 Z8.500 F200.000
G1 X38.658 Y146.544 Z8.500 F200.000
G3 X37.938 Y146.531 Z8.500 I-0.204 J-8.563 K0.000 F200.000
G1 X41.115 Y149.708 Z8.500 F200.000
G1 X40.408 Y149.708 Z8.500 F200.000
G1 X37.180 Y146.480 Z8.500 F200.000
G3 X36.362 Y146.370 Z8.500 I0.817 J-9.157 K0.000 F200.000
G1 X39.701 Y149.708 Z8.500 F200.000
G1 X38.994 Y149.708 Z8.500 F200.000
G1 X35.432 Y146.147 Z8.500 F200.000
G3 X34.159 Y145.581 Z8.500 I1.245 J-4.515 K0.000 F200.000
G1 X38.287 Y149.708 Z8.500 F200.000
G1 X38.287 Y149.708 Z8.250 F200.000
G1 X34.159 Y145.581 Z8.250 F200.000
G2 X35.432 Y146.147 Z8.250 I2.518 J-3.949 K0.000 F200.000
G1 X38.994 Y149.708 Z8.250 F200.000
G1 X39.701 Y149.708 Z8.250 F200.000
G1 X36.362 Y146.370 Z8.250 F200.000
G2 X37.180 Y146.480 Z8.250 I1.635 J-9.047 K0.000 F200.000
G1 X40.408 Y149.708 Z8.250 F200.000
G1 X41.115 Y149.708 Z8.250 F200.000
G1 X37.938 Y146.531 Z8.250 F200.000
G2 X38.658 Y146.544 Z8.250 I0.516 J-8.549 K0.000 F200.000
G1 X41.822 Y149.708 Z8.250 F200.000
G1 X42.529 Y149.708 Z8.250 F200.000
G1 X39.346 Y146.525 Z8.250 F200.000
G2 X40.010 Y146.481 Z8.250 I-0.018 J-5.320 K0.000 F200.000
G1 X43.237 Y149.708 Z8.250 F200.000
G1 X43.944 Y149.708 Z8.250 F200.000
G1 X40.654 Y146.419 Z8.250 F200.000
G2 X41.254 Y146.312 Z8.250 I-4.779 J-28.465 K0.000 F200.000
G1 X44.651 Y149.708 Z8.250 F200.000
G1 X45.358 Y149.708 Z8.250 F200.000
G1 X41.839 Y146.189 Z8.250 F200.000
G2 X42.384 Y146.028 Z8.250 I-1.019 J-4.454 K0.000 F200.000
G1 X46.065 Y149.708 Z8.250 F200.000
G1 X46.772 Y149.708 Z8.250 F200.000
G1 X42.894 Y145.830 Z8.250 F200.000
G2 X43.379 Y145.608 Z8.250 I-0.902 J-2.600 K0.000 F200.000
G1 X47.479 Y149.708 Z8.250 F200.000
G1 X48.186 Y149.708 Z8.250 F200.000
G1 X43.822 Y145.344 Z8.250 F200.000
G2 X44.225 Y145.040 Z8.250 I-1.334 J-2.182 K0.000 F200.000
G1 X48.893 Y149.708 Z8.250 F200.000
G1 X49.601 Y149.708 Z8.250 F200.000
G1 X44.592 Y144.700 Z8.250 F200.000
G2 X44.922 Y144.323 Z8.250 I-1.294 J-1.467 K0.000 F200.000
G1 X50.308 Y149.708 Z8.250 F200.000
G1 X51.015 Y149.708 Z8.250 F200.000
G1 X45.210 Y143.903 Z8.250 F200.000
G2 X45.449 Y143.435 Z8.250 I-7.255 J-3.999 K0.000 F200.000
G1 X51.722 Y149.708 Z8.250 F200.000
G1 X52.429 Y149.708 Z8.250 F200.000
G1 X45.632 Y142.911 Z8.250 F200.000
G2 X45.754 Y142.327 Z8.250 I-2.681 J-0.868 K0.000 F200.000
G1 X53.136 Y149.708 Z8.250 F200.000
G1 X53.843 Y149.708 Z8.250 F200.000
G1 X45.815 Y141.680 Z8.250 F200.000
G2 X45.778 Y140.936 Z8.250 I-3.763 J-0.186 K0.000 F200.000
G1 X54.550 Y149.708 Z8.250 F200.000
G1 X55.257 Y149.708 Z8.250 F200.000
G1 X45.603 Y140.054 Z8.250 F200.000
G1 X45.603 Y140.054 Z8.000 F200.000
G1 X55.257 Y149.708 Z8.000 F200.000
G1 X54.550 Y149.708 Z8.000 F200.000
G1 X45.778 Y140.936 Z8.000 F200.000
G3 X45.815 Y141.680 Z8.000 I-3.726 J0.558 K0.000 F200.000
G1 X53.843 Y149.708 Z8.000 F200.000
G1 X53.136 Y149.708 Z8.000 F200.000
G1 X45.754 Y142.327 Z8.000 F200.000
G3 X45.632 Y142.911 Z8.000 I-2.804 J-0.283 K0.000 F200.000
G1 X52.429 Y149.708 Z8.000 F200.000
G1 X51.722 Y149.708 Z8.000 F200.000
G1 X45.449 Y143.435 Z8.000 F200.000
G3 X45.210 Y143.903 Z8.000 I-7.494 J-3.531 K0.000 F200.000
G1 X51.015 Y149.708 Z8.000 F200.000
G1 X50.308 Y149.708 Z8.000 F200.000
G1 X44.922 Y144.323 Z8.000 F200.000
G3 X44.592 Y144.700 Z8.000 I-1.624 J-1.090 K0.000 F200.000
G1 X49.601 Y149.708 Z8.000 F200.000
G1 X48.893 Y149.708 Z8.000 F200.000
G1 X44.225 Y145.040 Z8.000 F200.000
G3 X43.822 Y145.344 Z8.000 I-1.737 J-1.878 K0.000 F200.000
G1 X48.186 Y149.708 Z8.000 F200.000
G1 X47.479 Y149.708 Z8.000 F200.000
G1 X43.379 Y145.608 Z8.000 F200.000
G3 X42.894 Y145.830 Z8.000 I-1.386 J-2.378 K0.000 F200.000
G1 X46.772 Y149.708 Z8.000 F200.000
G1 X46.065 Y149.708 Z8.000 F200.000
G1 X42.384 Y146.028 Z8.000 F200.000
G3 X41.839 Y146.189 Z8.000 I-1.565 J-4.293 K0.000 F200.000
G1 X45.358 Y149.708 Z8.000 F200.000
G1 X44.651 Y149.708 Z8.000 F200.000
G1 X41.254 Y146.312 Z8.000 F200.000
G3 X40.654 Y146.419 Z8.000 I-5.379 J-28.357 K0.000 F200.000
G1 X43.944 Y149.708 Z8.000 F200.000
G1 X43.237 Y149.708 Z8.000 F200.000
G1 X40.010 Y146.481 Z8.000 F200.000
G3 X39.346 Y146.525 Z8.000 I-0.681 J-5.276 K0.000 F200.000
G1 X42.529 Y149.708 Z8.000 F200.000
G1 X41.822 Y149.708 Z8.000 F200.000
G1 X38.658 Y146.544 Z8.000 F200.000
G3 X37.938 Y146.531 Z8.000 I-0.204 J-8.563 K0.000 F200.000
G1 X41.115 Y149.708 Z8.000 F200.000
G1 X40.408 Y149.708 Z8.000 F200.000
G1 X37.180 Y146.480 Z8.000 F200.000
G3 X36.362 Y146.370 Z8.000 I0.817 J-9.157 K0.000 F200.000
G1 X39.701 Y149.708 Z8.000 F200.000
G1 X38.994 Y149.708 Z8.000 F200.000
G1 X35.432 Y146.147 Z8.000 F200.000
G3 X34.159 Y145.581 Z8.000 I1.245 J-4.515 K0.000 F200.000
G1 X38.287 Y149.708 Z8.000 F200.000
G1 X38.287 Y149.708 Z7.750 F200.000
G1 X34.159 Y145.581 Z7.750 F200.000
G2 X35.432 Y146.147 Z7.750 I2.518 J-3.949 K0.000 F200.000
G1 X38.994 Y149.708 Z7.750 F200.000
G1 X39.701 Y149.708 Z7.750 F200.000
G1 X36.362 Y146.370 Z7.750 F200.000
G2 X37.180 Y146.480 Z7.750 I1.635 J-9.047 K0.000 F200.000
G1 X40.408 Y149.708 Z7.750 F200.000
G1 X41.115 Y149.708 Z7.750 F200.000
G1 X37.938 Y146.531 Z7.750 F200.000
G2 X38.658 Y146.544 Z7.750 I0.516 J-8.549 K0.000 F200.000
G1 X41.822 Y149.708 Z7.750 F200.000
G1 X42.529 Y149.708 Z7.750 F200.000
G1 X39.346 Y146.525 Z7.750 F200.000
G2 X40.010 Y146.481 Z7.750 I-0.018 J-5.320 K0.000 F200.000
G1 X43.237 Y149.708 Z7.750 F200.000
G1 X43.944 Y149.708 Z7.750 F200.000
G1 X40.654 Y146.419 Z7.750 F200.000
G2 X41.254 Y146.312 Z7.750 I-4.779 J-28.465 K0.000 F200.000
G1 X44.651 Y149.708 Z7.750 F200.000
G1 X45.358 Y149.708 Z7.750 F200.000
G1 X41.839 Y146.189 Z7.750 F200.000
G2 X42.384 Y146.028 Z7.750 I-1.019 J-4.454 K0.000 F200.000
G1 X46.065 Y149.708 Z7.750 F200.000
G1 X46.772 Y149.708 Z7.750 F200.000
G1 X42.894 Y145.830 Z7.750 F200.000
G2 X43.379 Y145.608 Z7.750 I-0.902 J-2.600 K0.000 F200.000
G1 X47.479 Y149.708 Z7.750 F200.000
G1 X48.186 Y149.708 Z7.750 F200.000
G1 X43.822 Y145.344 Z7.750 F200.000
G2 X44.225 Y145.040 Z7.750 I-1.334 J-2.182 K0.000 F200.000
G1 X48.893 Y149.708 Z7.750 F200.000
G1 X49.601 Y149.708 Z7.750 F200.000
G1 X44.592 Y144.700 Z7.750 F200.000
G2 X44.922 Y144.323 Z7.750 I-1.294 J-1.467 K0.000 F200.000
G1 X50.308 Y149.708 Z7.750 F200.000
G1 X51.015 Y149.708 Z7.750 F200.000
G1 X45.210 Y143.903 Z7.750 F200.000
G2 X45.449 Y143.435 Z7.750 I-7.255 J-3.999 K0.000 F200.000
G1 X51.722 Y149.708 Z7.750 F200.000
G1 X52.429 Y149.708 Z7.750 F200.000
G1 X45.632 Y142.911 Z7.750 F200.000
G2 X45.754 Y142.327 Z7.750 I-2.681 J-0.868 K0.000 F200.000
G1 X53.136 Y149.708 Z7.750 F200.000
G1 X53.843 Y149.708 Z7.750 F200.000
G1 X45.815 Y141.680 Z7.750 F200.000
G2 X45.778 Y140.936 Z7.750 I-3.763 J-0.186 K0.000 F200.000
G1 X54.550 Y149.708 Z7.750 F200.000
G1 X55.257 Y149.708 Z7.750 F200.000
G1 X45.603 Y140.054 Z7.750 F200.000
G1 X45.603 Y140.054 Z7.500 F200.000
G1 X55.257 Y149.708 Z7.500 F200.000
G1 X54.550 Y149.708 Z7.500 F200.000
G1 X45.778 Y140.936 Z7.500 F200.000
G3 X45.815 Y141.680 Z7.500 I-3.726 J0.558 K0.000 F200.000
G1 X53.843 Y149.708 Z7.500 F200.000
G1 X53.136 Y149.708 Z7.500 F200.000
G1 X45.754 Y142.327 Z7.500 F200.000
G3 X45.632 Y142.911 Z7.500 I-2.804 J-0.283 K0.000 F200.000
G1 X52.429 Y149.708 Z7.500 F200.000
G1 X51.722 Y149.708 Z7.500 F200.000
G1 X45.449 Y143.435 Z7.500 F200.000
G3 X45.210 Y143.903 Z7.500 I-7.494 J-3.531 K0.000 F200.000
G1 X51.015 Y149.708 Z7.500 F200.000
G1 X50.308 Y149.708 Z7.500 F200.000
G1 X44.922 Y144.323 Z7.500 F200.000
G3 X44.592 Y144.700 Z7.500 I-1.624 J-1.090 K0.000 F200.000
G1 X49.601 Y149.708 Z7.500 F200.000
G1 X48.893 Y149.708 Z7.500 F200.000
G1 X44.225 Y145.040 Z7.500 F200.000
G3 X43.822 Y145.344 Z7.500 I-1.737 J-1.878 K0.000 F200.000
G1 X48.186 Y149.708 Z7.500 F200.000
G1 X47.479 Y149.708 Z7.500 F200.000
G1 X43.379 Y145.608 Z7.500 F200.000
G3 X42.894 Y145.830 Z7.500 I-1.386 J-2.378 K0.000 F200.000
G1 X46.772 Y149.708 Z7.500 F200.000
G1 X46.065 Y149.708 Z7.500 F200.000
G1 X42.384 Y146.028 Z7.500 F200.000
G3 X41.839 Y146.189 Z7.500 I-1.565 J-4.293 K0.000 F200.000
G1 X45.358 Y149.708 Z7.500 F200.000
G1 X44.651 Y149.708 Z7.500 F200.000
G1 X41.254 Y146.312 Z7.500 F200.000
G3 X40.654 Y146.419 Z7.500 I-5.379 J-28.357 K0.000 F200.000
G1 X43.944 Y149.708 Z7.500 F200.000
G1 X43.237 Y149.708 Z7.500 F200.000
G1 X40.010 Y146.481 Z7.500 F200.000
G3 X39.346 Y146.525 Z7.500 I-0.681 J-5.276 K0.000 F200.000
G1 X42.529 Y149.708 Z7.500 F200.000
G1 X41.822 Y149.708 Z7.500 F200.000
G1 X38.658 Y146.544 Z7.500 F200.000
G3 X37.938 Y146.531 Z7.500 I-0.204 J-8.563 K0.000 F200.000
G1 X41.115 Y149.708 Z7.500 F200.000
G1 X40.408 Y149.708 Z7.500 F200.000
G1 X37.180 Y146.480 Z7.500 F200.000
G3 X36.362 Y146.370 Z7.500 I0.817 J-9.157 K0.000 F200.000
G1 X39.701 Y149.708 Z7.500 F200.000
G1 X38.994 Y149.708 Z7.500 F200.000
G1 X35.432 Y146.147 Z7.500 F200.000
G3 X34.159 Y145.581 Z7.500 I1.245 J-4.515 K0.000 F200.000
G1 X38.287 Y149.708 Z7.500 F200.000
G1 X38.287 Y149.708 Z7.250 F200.000
G1 X34.159 Y145.581 Z7.250 F200.000
G2 X35.432 Y146.147 Z7.250 I2.518 J-3.949 K0.000 F200.000
G1 X38.994 Y149.708 Z7.250 F200.000
G1 X39.701 Y149.708 Z7.250 F200.000
G1 X36.362 Y146.370 Z7.250 F200.000
G2 X37.180 Y146.480 Z7.250 I1.635 J-9.047 K0.000 F200.000
G1 X40.408 Y149.708 Z7.250 F200.000
G1 X41.115 Y149.708 Z7.250 F200.000
G1 X37.938 Y146.531 Z7.250 F200.000
G2 X38.658 Y146.544 Z7.250 I0.516 J-8.549 K0.000 F200.000
G1 X41.822 Y149.708 Z7.250 F200.000
G1 X42.529 Y149.708 Z7.250 F200.000
G1 X39.346 Y146.525 Z7.250 F200.000
G2 X40.010 Y146.481 Z7.250 I-0.018 J-5.320 K0.000 F200.000
G1 X43.237 Y149.708 Z7.250 F200.000
G1 X43.944 Y149.708 Z7.250 F200.000
G1 X40.654 Y146.419 Z7.250 F200.000
G2 X41.254 Y146.312 Z7.250 I-4.779 J-28.465 K0.000 F200.000
G1 X44.651 Y149.708 Z7.250 F200.000
G1 X45.358 Y149.708 Z7.250 F200.000
G1 X41.839 Y146.189 Z7.250 F200.000
G2 X42.384 Y146.028 Z7.250 I-1.019 J-4.454 K0.000 F200.000
G1 X46.065 Y149.708 Z7.250 F200.000
G1 X46.772 Y149.708 Z7.250 F200.000
G1 X42.894 Y145.830 Z7.250 F200.000
G2 X43.379 Y145.608 Z7.250 I-0.902 J-2.600 K0.000 F200.000
G1 X47.479 Y149.708 Z7.250 F200.000
G1 X48.186 Y149.708 Z7.250 F200.000
G1 X43.822 Y145.344 Z7.250 F200.000
G2 X44.225 Y145.040 Z7.250 I-1.334 J-2.182 K0.000 F200.000
G1 X48.893 Y149.708 Z7.250 F200.000
G1 X49.601 Y149.708 Z7.250 F200.000
G1 X44.592 Y144.700 Z7.250 F200.000
G2 X44.922 Y144.323 Z7.250 I-1.294 J-1.467 K0.000 F200.000
G1 X50.308 Y149.708 Z7.250 F200.000
G1 X51.015 Y149.708 Z7.250 F200.000
G1 X45.210 Y143.903 Z7.250 F200.000
G2 X45.449 Y143.435 Z7.250 I-7.255 J-3.999 K0.000 F200.000
G1 X51.722 Y149.708 Z7.250 F200.000
G1 X52.429 Y149.708 Z7.250 F200.000
G1 X45.632 Y142.911 Z7.250 F200.000
G2 X45.754 Y142.327 Z7.250 I-2.681 J-0.868 K0.000 F200.000
G1 X53.136 Y149.708 Z7.250 F200.000
G1 X53.843 Y149.708 Z7.250 F200.000
G1 X45.815 Y141.680 Z7.250 F200.000
G2 X45.778 Y140.936 Z7.250 I-3.763 J-0.186 K0.000 F200.000
G1 X54.550 Y149.708 Z7.250 F200.000
G1 X55.257 Y149.708 Z7.250 F200.000
G1 X45.603 Y140.054 Z7.250 F200.000
G1 X45.603 Y140.054 Z7.000 F200.000
G1 X55.257 Y149.708 Z7.000 F200.000
G1 X54.550 Y149.708 Z7.000 F200.000
G1 X45.778 Y140.936 Z7.000 F200.000
G3 X45.815 Y141.680 Z7.000 I-3.726 J0.558 K0.000 F200.000
G1 X53.843 Y149.708 Z7.000 F200.000
G1 X53.136 Y149.708 Z7.000 F200.000
G1 X45.754 Y142.327 Z7.000 F200.000
G3 X45.632 Y142.911 Z7.000 I-2.804 J-0.283 K0.000 F200.000
G1 X52.429 Y149.708 Z7.000 F200.000
G1 X51.722 Y149.708 Z7.000 F200.000
G1 X45.449 Y143.435 Z7.000 F200.000
G3 X45.210 Y143.903 Z7.000 I-7.494 J-3.531 K0.000 F200.000
G1 X51.015 Y149.708 Z7.000 F200.000
G1 X50.308 Y149.708 Z7.000 F200.000
G1 X44.922 Y144.323 Z7.000 F200.000
G3 X44.592 Y144.700 Z7.000 I-1.624 J-1.090 K0.000 F200.000
G1 X49.601 Y149.708 Z7.000 F200.000
G1 X48.893 Y149.708 Z7.000 F200.000
G1 X44.225 Y145.040 Z7.000 F200.000
G3 X43.822 Y145.344 Z7.000 I-1.737 J-1.878 K0.000 F200.000
G1 X48.186 Y149.708 Z7.000 F200.000
G1 X47.479 Y149.708 Z7.000 F200.000
G1 X43.379 Y145.608 Z7.000 F200.000
G3 X42.894 Y145.830 Z7.000 I-1.386 J-2.378 K0.000 F200.000
G1 X46.772 Y149.708 Z7.000 F200.000
G1 X46.065 Y149.708 Z7.000 F200.000
G1 X42.384 Y146.028 Z7.000 F200.000
G3 X41.839 Y146.189 Z7.000 I-1.565 J-4.293 K0.000 F200.000
G1 X45.358 Y149.708 Z7.000 F200.000
G1 X44.651 Y149.708 Z7.000 F200.000
G1 X41.254 Y146.312 Z7.000 F200.000
G3 X40.654 Y146.419 Z7.000 I-5.379 J-28.357 K0.000 F200.000
G1 X43.944 Y149.708 Z7.000 F200.000
G1 X43.237 Y149.708 Z7.000 F200.000
G1 X40.010 Y146.481 Z7.000 F200.000
G3 X39.346 Y146.525 Z7.000 I-0.681 J-5.276 K0.000 F200.000
G1 X42.529 Y149.708 Z7.000 F200.000
G1 X41.822 Y149.708 Z7.000 F200.000
G1 X38.658 Y146.544 Z7.000 F200.000
G3 X37.938 Y146.531 Z7.000 I-0.204 J-8.563 K0.000 F200.000
G1 X41.115 Y149.708 Z7.000 F200.000
G1 X40.408 Y149.708 Z7.000 F200.000
G1 X37.180 Y146.480 Z7.000 F200.000
G3 X36.362 Y146.370 Z7.000 I0.817 J-9.157 K0.000 F200.000
G1 X39.701 Y149.708 Z7.000 F200.000
G1 X38.994 Y149.708 Z7.000 F200.000
G1 X35.432 Y146.147 Z7.000 F200.000
G3 X34.159 Y145.581 Z7.000 I1.245 J-4.515 K0.000 F200.000
G1 X38.287 Y149.708 Z7.000 F200.000
G0 Z14.300
G0 X41.159 Y143.388 Z14.300
G0 X41.159 Y143.388 Z12.300
G1 X41.159 Y143.388 Z8.750 F200.000
G3 X41.035 Y143.418 Z8.750 I-0.211 J-0.599 K0.000 F200.000
G2 X41.084 Y143.313 Z8.750 I-0.990 J-0.530 K0.000 F200.000
G1 X41.159 Y143.388 Z8.750 F200.000
G2 X41.701 Y143.223 Z8.750 I-0.363 J-2.163 K0.000 F200.000
G1 X41.294 Y142.816 Z8.750 F200.000
G1 X41.438 Y142.252 Z8.750 F200.000
G1 X42.178 Y142.993 Z8.750 F200.000
G2 X42.581 Y142.689 Z8.750 I-0.805 J-1.486 K0.000 F200.000
G1 X41.503 Y141.611 Z8.750 F200.000
G2 X41.487 Y140.888 Z8.750 I-3.054 J-0.293 K0.000 F200.000
G1 X42.912 Y142.312 Z8.750 F200.000
G2 X43.107 Y141.800 Z8.750 I-0.881 J-0.628 K0.000 F200.000
G1 X41.263 Y139.956 Z8.750 F200.000
G1 X41.263 Y139.956 Z8.500 F200.000
G1 X43.107 Y141.800 Z8.500 F200.000
G3 X42.912 Y142.312 Z8.500 I-1.075 J-0.116 K0.000 F200.000
G1 X41.487 Y140.888 Z8.500 F200.000
G3 X41.503 Y141.611 Z8.500 I-3.038 J0.431 K0.000 F200.000
G1 X42.581 Y142.689 Z8.500 F200.000
G3 X42.178 Y142.993 Z8.500 I-1.208 J-1.182 K0.000 F200.000
G1 X41.438 Y142.252 Z8.500 F200.000
G1 X41.294 Y142.816 Z8.500 F200.000
G1 X41.701 Y143.223 Z8.500 F200.000
G3 X41.159 Y143.388 Z8.500 I-0.905 J-1.997 K0.000 F200.000
G1 X41.084 Y143.313 Z8.500 F200.000
G3 X41.035 Y143.418 Z8.500 I-1.039 J-0.426 K0.000 F200.000
G2 X41.159 Y143.388 Z8.500 I-0.087 J-0.629 K0.000 F200.000
G1 X41.159 Y143.388 Z8.250 F200.000
G3 X41.035 Y143.418 Z8.250 I-0.211 J-0.599 K0.000 F200.000
G2 X41.084 Y143.313 Z8.250 I-0.990 J-0.530 K0.000 F200.000
G1 X41.159 Y143.388 Z8.250 F200.000
G2 X41.701 Y143.223 Z8.250 I-0.363 J-2.163 K0.000 F200.000
G1 X41.294 Y142.816 Z8.250 F200.000
G1 X41.438 Y142.252 Z8.250 F200.000
G1 X42.178 Y142.993 Z8.250 F200.000
G2 X42.581 Y142.689 Z8.250 I-0.805 J-1.486 K0.000 F200.000
G1 X41.503 Y141.611 Z8.250 F200.000
G2 X41.487 Y140.888 Z8.250 I-3.054 J-0.293 K0.000 F200.000
G1 X42.912 Y142.312 Z8.250 F200.000
G2 X43.107 Y141.800 Z8.250 I-0.881 J-0.628 K0.000 F200.000
G1 X41.263 Y139.956 Z8.250 F200.000
G1 X41.263 Y139.956 Z8.000 F200.000
G1 X43.107 Y141.800 Z8.000 F200.000
G3 X42.912 Y142.312 Z8.000 I-1.075 J-0.116 K0.000 F200.000
G1 X41.487 Y140.888 Z8.000 F200.000
G3 X41.503 Y141.611 Z8.000 I-3.038 J0.431 K0.000 F200.000
G1 X42.581 Y142.689 Z8.000 F200.000
G3 X42.178 Y142.993 Z8.000 I-1.208 J-1.182 K0.000 F200.000
G1 X41.438 Y142.252 Z8.000 F200.000
G1 X41.294 Y142.816 Z8.000 F200.000
G1 X41.701 Y143.223 Z8.000 F200.000
G3 X41.159 Y143.388 Z8.000 I-0.905 J-1.997 K0.000 F200.000
G1 X41.084 Y143.313 Z8.000 F200.000
G3 X41.035 Y143.418 Z8.000 I-1.039 J-0.426 K0.000 F200.000
G2 X41.159 Y143.388 Z8.000 I-0.087 J-0.629 K0.000 F200.000
G1 X41.159 Y143.388 Z7.750 F200.000
G3 X41.035 Y143.418 Z7.750 I-0.211 J-0.599 K0.000 F200.000
G2 X41.084 Y143.313 Z7.750 I-0.990 J-0.530 K0.000 F200.000
G1 X41.159 Y143.388 Z7.750 F200.000
G2 X41.701 Y143.223 Z7.750 I-0.363 J-2.163 K0.000 F200.000
G1 X41.294 Y142.816 Z7.750 F200.000
G1 X41.438 Y142.252 Z7.750 F200.000
G1 X42.178 Y142.993 Z7.750 F200.000
G2 X42.581 Y142.689 Z7.750 I-0.805 J-1.486 K0.000 F200.000
G1 X41.503 Y141.611 Z7.750 F200.000
G2 X41.487 Y140.888 Z7.750 I-3.054 J-0.293 K0.000 F200.000
G1 X42.912 Y142.312 Z7.750 F200.000
G2 X43.107 Y141.800 Z7.750 I-0.881 J-0.628 K0.000 F200.000
G1 X41.263 Y139.956 Z7.750 F200.000
G1 X41.263 Y139.956 Z7.500 F200.000
G1 X43.107 Y141.800 Z7.500 F200.000
G3 X42.912 Y142.312 Z7.500 I-1.075 J-0.116 K0.000 F200.000
G1 X41.487 Y140.888 Z7.500 F200.000
G3 X41.503 Y141.611 Z7.500 I-3.038 J0.431 K0.000 F200.000
G1 X42.581 Y142.689 Z7.500 F200.000
G3 X42.178 Y142.993 Z7.500 I-1.208 J-1.182 K0.000 F200.000
G1 X41.438 Y142.252 Z7.500 F200.000
G1 X41.294 Y142.816 Z7.500 F200.000
G1 X41.701 Y143.223 Z7.500 F200.000
G3 X41.159 Y143.388 Z7.500 I-0.905 J-1.997 K0.000 F200.000
G1 X41.084 Y143.313 Z7.500 F200.000
G3 X41.035 Y143.418 Z7.500 I-1.039 J-0.426 K0.000 F200.000
G2 X41.159 Y143.388 Z7.500 I-0.087 J-0.629 K0.000 F200.000
G1 X41.159 Y143.388 Z7.250 F200.000
G3 X41.035 Y143.418 Z7.250 I-0.211 J-0.599 K0.000 F200.000
G2 X41.084 Y143.313 Z7.250 I-0.990 J-0.530 K0.000 F200.000
G1 X41.159 Y143.388 Z7.250 F200.000
G2 X41.701 Y143.223 Z7.250 I-0.363 J-2.163 K0.000 F200.000
G1 X41.294 Y142.816 Z7.250 F200.000
G1 X41.438 Y142.252 Z7.250 F200.000
G1 X42.178 Y142.993 Z7.250 F200.000
G2 X42.581 Y142.689 Z7.250 I-0.805 J-1.486 K0.000 F200.000
G1 X41.503 Y141.611 Z7.250 F200.000
G2 X41.487 Y140.888 Z7.250 I-3.054 J-0.293 K0.000 F200.000
G1 X42.912 Y142.312 Z7.250 F200.000
G2 X43.107 Y141.800 Z7.250 I-0.881 J-0.628 K0.000 F200.000
G1 X41.263 Y139.956 Z7.250 F200.000
G1 X41.263 Y139.956 Z7.000 F200.000
G1 X43.107 Y141.800 Z7.000 F200.000
G3 X42.912 Y142.312 Z7.000 I-1.075 J-0.116 K0.000 F200.000
G1 X41.487 Y140.888 Z7.000 F200.000
G3 X41.503 Y141.611 Z7.000 I-3.038 J0.431 K0.000 F200.000
G1 X42.581 Y142.689 Z7.000 F200.000
G3 X42.178 Y142.993 Z7.000 I-1.208 J-1.182 K0.000 F200.000
G1 X41.438 Y142.252 Z7.000 F200.000
G1 X41.294 Y142.816 Z7.000 F200.000
G1 X41.701 Y143.223 Z7.000 F200.000
G3 X41.159 Y143.388 Z7.000 I-0.905 J-1.997 K0.000 F200.000
G1 X41.084 Y143.313 Z7.000 F200.000
G3 X41.035 Y143.418 Z7.000 I-1.039 J-0.426 K0.000 F200.000
G2 X41.159 Y143.388 Z7.000 I-0.087 J-0.629 K0.000 F200.000
G0 Z14.300
G0 X37.055 Y135.042 Z14.300
G0 X37.055 Y135.042 Z12.300
G1 X37.055 Y135.042 Z8.750 F200.000
G1 X41.232 Y139.219 Z8.750 F200.000
G1 X41.290 Y138.569 Z8.750 F200.000
G1 X37.762 Y135.042 Z8.750 F200.000
G1 X38.469 Y135.042 Z8.750 F200.000
G1 X41.357 Y137.929 Z8.750 F200.000
G3 X41.621 Y137.486 Z8.750 I0.642 J0.081 K0.000 F200.000
G1 X39.177 Y135.042 Z8.750 F200.000
G1 X39.884 Y135.042 Z8.750 F200.000
G1 X42.173 Y137.331 Z8.750 F200.000
G3 X43.084 Y137.535 Z8.750 I-0.426 J4.033 K0.000 F200.000
G1 X40.591 Y135.042 Z8.750 F200.000
G1 X41.298 Y135.042 Z8.750 F200.000
G1 X55.965 Y149.708 Z8.750 F200.000
G1 X56.672 Y149.708 Z8.750 F200.000
G1 X42.005 Y135.042 Z8.750 F200.000
G1 X42.712 Y135.042 Z8.750 F200.000
G1 X57.379 Y149.708 Z8.750 F200.000
G1 X58.086 Y149.708 Z8.750 F200.000
G1 X43.419 Y135.042 Z8.750 F200.000
G1 X44.126 Y135.042 Z8.750 F200.000
G1 X58.793 Y149.708 Z8.750 F200.000
G1 X59.500 Y149.708 Z8.750 F200.000
G1 X44.833 Y135.042 Z8.750 F200.000
G1 X45.540 Y135.042 Z8.750 F200.000
G1 X60.207 Y149.708 Z8.750 F200.000
G1 X60.914 Y149.708 Z8.750 F200.000
G1 X46.248 Y135.042 Z8.750 F200.000
G1 X46.955 Y135.042 Z8.750 F200.000
G1 X61.621 Y149.708 Z8.750 F200.000
G1 X62.328 Y149.708 Z8.750 F200.000
G1 X47.662 Y135.042 Z8.750 F200.000
G1 X48.369 Y135.042 Z8.750 F200.000
G1 X63.036 Y149.708 Z8.750 F200.000
G1 X63.743 Y149.708 Z8.750 F200.000
G1 X49.076 Y135.042 Z8.750 F200.000
G1 X49.783 Y135.042 Z8.750 F200.000
G1 X64.450 Y149.708 Z8.750 F200.000
G1 X65.157 Y149.708 Z8.750 F200.000
G1 X50.490 Y135.042 Z8.750 F200.000
G1 X51.197 Y135.042 Z8.750 F200.000
G1 X65.864 Y149.708 Z8.750 F200.000
G1 X66.571 Y149.708 Z8.750 F200.000
G1 X51.904 Y135.042 Z8.750 F200.000
G1 X52.612 Y135.042 Z8.750 F200.000
G1 X67.278 Y149.708 Z8.750 F200.000
G1 X67.985 Y149.708 Z8.750 F200.000
G1 X53.319 Y135.042 Z8.750 F200.000
G1 X54.026 Y135.042 Z8.750 F200.000
G1 X68.692 Y149.708 Z8.750 F200.000
G1 X68.875 Y149.708 Z8.750 F200.000
G1 X68.875 Y149.184 Z8.750 F200.000
G1 X54.733 Y135.042 Z8.750 F200.000
G1 X55.440 Y135.042 Z8.750 F200.000
G1 X68.875 Y148.477 Z8.750 F200.000
G1 X68.875 Y147.770 Z8.750 F200.000
G1 X56.147 Y135.042 Z8.750 F200.000
G1 X56.854 Y135.042 Z8.750 F200.000
G1 X68.875 Y147.062 Z8.750 F200.000
G1 X68.875 Y146.355 Z8.750 F200.000
G1 X57.561 Y135.042 Z8.750 F200.000
G1 X58.268 Y135.042 Z8.750 F200.000
G1 X68.875 Y145.648 Z8.750 F200.000
G1 X68.875 Y144.941 Z8.750 F200.000
G1 X58.976 Y135.042 Z8.750 F200.000
G1 X59.683 Y135.042 Z8.750 F200.000
G1 X68.875 Y144.234 Z8.750 F200.000
G1 X68.875 Y143.527 Z8.750 F200.000
G1 X60.390 Y135.042 Z8.750 F200.000
G1 X61.097 Y135.042 Z8.750 F200.000
G1 X68.875 Y142.820 Z8.750 F200.000
G1 X68.875 Y142.113 Z8.750 F200.000
G1 X61.804 Y135.042 Z8.750 F200.000
G1 X62.511 Y135.042 Z8.750 F200.000
G1 X68.875 Y141.406 Z8.750 F200.000
G1 X68.875 Y140.699 Z8.750 F200.000
G1 X63.218 Y135.042 Z8.750 F200.000
G1 X63.925 Y135.042 Z8.750 F200.000
G1 X68.875 Y139.991 Z8.750 F200.000
G1 X68.875 Y139.284 Z8.750 F200.000
G1 X64.632 Y135.042 Z8.750 F200.000
G1 X65.339 Y135.042 Z8.750 F200.000
G1 X68.875 Y138.577 Z8.750 F200.000
G1 X68.875 Y137.870 Z8.750 F200.000
G1 X66.047 Y135.042 Z8.750 F200.000
G1 X66.754 Y135.042 Z8.750 F200.000
G1 X68.875 Y137.163 Z8.750 F200.000
G1 X68.875 Y136.456 Z8.750 F200.000
G1 X67.461 Y135.042 Z8.750 F200.000
G1 X68.168 Y135.042 Z8.750 F200.000
G1 X68.875 Y135.749 Z8.750 F200.000
G1 X68.875 Y135.042 Z8.750 F200.000
G1 X68.875 Y135.042 Z8.500 F200.000
G1 X68.875 Y135.749 Z8.500 F200.000
G1 X68.168 Y135.042 Z8.500 F200.000
G1 X67.461 Y135.042 Z8.500 F200.000
G1 X68.875 Y136.456 Z8.500 F200.000
G1 X68.875 Y137.163 Z8.500 F200.000
G1 X66.754 Y135.042 Z8.500 F200.000
G1 X66.047 Y135.042 Z8.500 F200.000
G1 X68.875 Y137.870 Z8.500 F200.000
G1 X68.875 Y138.577 Z8.500 F200.000
G1 X65.339 Y135.042 Z8.500 F200.000
G1 X64.632 Y135.042 Z8.500 F200.000
G1 X68.875 Y139.284 Z8.500 F200.000
G1 X68.875 Y139.991 Z8.500 F200.000
G1 X63.925 Y135.042 Z8.500 F200.000
G1 X63.218 Y135.042 Z8.500 F200.000
G1 X68.875 Y140.699 Z8.500 F200.000
G1 X68.875 Y141.406 Z8.500 F200.000
G1 X62.511 Y135.042 Z8.500 F200.000
G1 X61.804 Y135.042 Z8.500 F200.000
G1 X68.875 Y142.113 Z8.500 F200.000
G1 X68.875 Y142.820 Z8.500 F200.000
G1 X61.097 Y135.042 Z8.500 F200.000
G1 X60.390 Y135.042 Z8.500 F200.000
G1 X68.875 Y143.527 Z8.500 F200.000
G1 X68.875 Y144.234 Z8.500 F200.000
G1 X59.683 Y135.042 Z8.500 F200.000
G1 X58.976 Y135.042 Z8.500 F200.000
G1 X68.875 Y144.941 Z8.500 F200.000
G1 X68.875 Y145.648 Z8.500 F200.000
G1 X58.268 Y135.042 Z8.500 F200.000
G1 X57.561 Y135.042 Z8.500 F200.000
G1 X68.875 Y146.355 Z8.500 F200.000
G1 X68.875 Y147.062 Z8.500 F200.000
G1 X56.854 Y135.042 Z8.500 F200.000
G1 X56.147 Y135.042 Z8.500 F200.000
G1 X68.875 Y147.770 Z8.500 F200.000
G1 X68.875 Y148.477 Z8.500 F200.000
G1 X55.440 Y135.042 Z8.500 F200.000
G1 X54.733 Y135.042 Z8.500 F200.000
G1 X68.875 Y149.184 Z8.500 F200.000
G1 X68.875 Y149.708 Z8.500 F200.000
G1 X68.692 Y149.708 Z8.500 F200.000
G1 X54.026 Y135.042 Z8.500 F200.000
G1 X53.319 Y135.042 Z8.500 F200.000
G1 X67.985 Y149.708 Z8.500 F200.000
G1 X67.278 Y149.708 Z8.500 F200.000
G1 X52.612 Y135.042 Z8.500 F200.000
G1 X51.904 Y135.042 Z8.500 F200.000
G1 X66.571 Y149.708 Z8.500 F200.000
G1 X65.864 Y149.708 Z8.500 F200.000
G1 X51.197 Y135.042 Z8.500 F200.000
G1 X50.490 Y135.042 Z8.500 F200.000
G1 X65.157 Y149.708 Z8.500 F200.000
G1 X64.450 Y149.708 Z8.500 F200.000
G1 X49.783 Y135.042 Z8.500 F200.000
G1 X49.076 Y135.042 Z8.500 F200.000
G1 X63.743 Y149.708 Z8.500 F200.000
G1 X63.036 Y149.708 Z8.500 F200.000
G1 X48.369 Y135.042 Z8.500 F200.000
G1 X47.662 Y135.042 Z8.500 F200.000
G1 X62.328 Y149.708 Z8.500 F200.000
G1 X61.621 Y149.708 Z8.500 F200.000
G1 X46.955 Y135.042 Z8.500 F200.000
G1 X46.248 Y135.042 Z8.500 F200.000
G1 X60.914 Y149.708 Z8.500 F200.000
G1 X60.207 Y149.708 Z8.500 F200.000
G1 X45.540 Y135.042 Z8.500 F200.000
G1 X44.833 Y135.042 Z8.500 F200.000
G1 X59.500 Y149.708 Z8.500 F200.000
G1 X58.793 Y149.708 Z8.500 F200.000
G1 X44.126 Y135.042 Z8.500 F200.000
G1 X43.419 Y135.042 Z8.500 F200.000
G1 X58.086 Y149.708 Z8.500 F200.000
G1 X57.379 Y149.708 Z8.500 F200.000
G1 X42.712 Y135.042 Z8.500 F200.000
G1 X42.005 Y135.042 Z8.500 F200.000
G1 X56.672 Y149.708 Z8.500 F200.000
G1 X55.965 Y149.708 Z8.500 F200.000
G1 X41.298 Y135.042 Z8.500 F200.000
G1 X40.591 Y135.042 Z8.500 F200.000
G1 X43.084 Y137.535 Z8.500 F200.000
G2 X42.173 Y137.331 Z8.500 I-1.337 J3.829 K0.000 F200.000
G1 X39.884 Y135.042 Z8.500 F200.000
G1 X39.177 Y135.042 Z8.500 F200.000
G1 X41.621 Y137.486 Z8.500 F200.000
G2 X41.357 Y137.929 Z8.500 I0.378 J0.525 K0.000 F200.000
G1 X38.469 Y135.042 Z8.500 F200.000
G1 X37.762 Y135.042 Z8.500 F200.000
G1 X41.290 Y138.569 Z8.500 F200.000
G1 X41.232 Y139.219 Z8.500 F200.000
G1 X37.055 Y135.042 Z8.500 F200.000
G1 X37.055 Y135.042 Z8.250 F200.000
G1 X41.232 Y139.219 Z8.250 F200.000
G1 X41.290 Y138.569 Z8.250 F200.000
G1 X37.762 Y135.042 Z8.250 F200.000
G1 X38.469 Y135.042 Z8.250 F200.000
G1 X41.357 Y137.929 Z8.250 F200.000
G3 X41.621 Y137.486 Z8.250 I0.642 J0.081 K0.000 F200.000
G1 X39.177 Y135.042 Z8.250 F200.000
G1 X39.884 Y135.042 Z8.250 F200.000
G1 X42.173 Y137.331 Z8.250 F200.000
G3 X43.084 Y137.535 Z8.250 I-0.426 J4.033 K0.000 F200.000
G1 X40.591 Y135.042 Z8.250 F200.000
G1 X41.298 Y135.042 Z8.250 F200.000
G1 X55.965 Y149.708 Z8.250 F200.000
G1 X56.672 Y149.708 Z8.250 F200.000
G1 X42.005 Y135.042 Z8.250 F200.000
G1 X42.712 Y135.042 Z8.250 F200.000
G1 X57.379 Y149.708 Z8.250 F200.000
G1 X58.086 Y149.708 Z8.250 F200.000
G1 X43.419 Y135.042 Z8.250 F200.000
G1 X44.126 Y135.042 Z8.250 F200.000
G1 X58.793 Y149.708 Z8.250 F200.000
G1 X59.500 Y149.708 Z8.250 F200.000
G1 X44.833 Y135.042 Z8.250 F200.000
G1 X45.540 Y135.042 Z8.250 F200.000
G1 X60.207 Y149.708 Z8.250 F200.000
G1 X60.914 Y149.708 Z8.250 F200.000
G1 X46.248 Y135.042 Z8.250 F200.000
G1 X46.955 Y135.042 Z8.250 F200.000
G1 X61.621 Y149.708 Z8.250 F200.000
G1 X62.328 Y149.708 Z8.250 F200.000
G1 X47.662 Y135.042 Z8.250 F200.000
G1 X48.369 Y135.042 Z8.250 F200.000
G1 X63.036 Y149.708 Z8.250 F200.000
G1 X63.743 Y149.708 Z8.250 F200.000
G1 X49.076 Y135.042 Z8.250 F200.000
G1 X49.783 Y135.042 Z8.250 F200.000
G1 X64.450 Y149.708 Z8.250 F200.000
G1 X65.157 Y149.708 Z8.250 F200.000
G1 X50.490 Y135.042 Z8.250 F200.000
G1 X51.197 Y135.042 Z8.250 F200.000
G1 X65.864 Y149.708 Z8.250 F200.000
G1 X66.571 Y149.708 Z8.250 F200.000
G1 X51.904 Y135.042 Z8.250 F200.000
G1 X52.612 Y135.042 Z8.250 F200.000
G1 X67.278 Y149.708 Z8.250 F200.000
G1 X67.985 Y149.708 Z8.250 F200.000
G1 X53.319 Y135.042 Z8.250 F200.000
G1 X54.026 Y135.042 Z8.250 F200.000
G1 X68.692 Y149.708 Z8.250 F200.000
G1 X68.875 Y149.708 Z8.250 F200.000
G1 X68.875 Y149.184 Z8.250 F200.000
G1 X54.733 Y135.042 Z8.250 F200.000
G1 X55.440 Y135.042 Z8.250 F200.000
G1 X68.875 Y148.477 Z8.250 F200.000
G1 X68.875 Y147.770 Z8.250 F200.000
G1 X56.147 Y135.042 Z8.250 F200.000
G1 X56.854 Y135.042 Z8.250 F200.000
G1 X68.875 Y147.062 Z8.250 F200.000
G1 X68.875 Y146.355 Z8.250 F200.000
G1 X57.561 Y135.042 Z8.250 F200.000
G1 X58.268 Y135.042 Z8.250 F200.000
G1 X68.875 Y145.648 Z8.250 F200.000
G1 X68.875 Y144.941 Z8.250 F200.000
G1 X58.976 Y135.042 Z8.250 F200.000
G1 X59.683 Y135.042 Z8.250 F200.000
G1 X68.875 Y144.234 Z8.250 F200.000
G1 X68.875 Y143.527 Z8.250 F200.000
G1 X60.390 Y135.042 Z8.250 F200.000
G1 X61.097 Y135.042 Z8.250 F200.000
G1 X68.875 Y142.820 Z8.250 F200.000
G1 X68.875 Y142.113 Z8.250 F200.000
G1 X61.804 Y135.042 Z8.250 F200.000
G1 X62.511 Y135.042 Z8.250 F200.000
G1 X68.875 Y141.406 Z8.250 F200.000
G1 X68.875 Y140.699 Z8.250 F200.000
G1 X63.218 Y135.042 Z8.250 F200.000
G1 X63.925 Y135.042 Z8.250 F200.000
G1 X68.875 Y139.991 Z8.250 F200.000
G1 X68.875 Y139.284 Z8.250 F200.000
G1 X64.632 Y135.042 Z8.250 F200.000
G1 X65.339 Y135.042 Z8.250 F200.000
G1 X68.875 Y138.577 Z8.250 F200.000
G1 X68.875 Y137.870 Z8.250 F200.000
G1 X66.047 Y135.042 Z8.250 F200.000
G1 X66.754 Y135.042 Z8.250 F200.000
G1 X68.875 Y137.163 Z8.250 F200.000
G1 X68.875 Y136.456 Z8.250 F200.000
G1 X67.461 Y135.042 Z8.250 F200.000
G1 X68.168 Y135.042 Z8.250 F200.000
G1 X68.875 Y135.749 Z8.250 F200.000
G1 X68.875 Y135.042 Z8.250 F200.000
G1 X68.875 Y135.042 Z8.000 F200.000
G1 X68.875 Y135.749 Z8.000 F200.000
G1 X68.168 Y135.042 Z8.000 F200.000
G1 X67.461 Y135.042 Z8.000 F200.000
G1 X68.875 Y136.456 Z8.000 F200.000
G1 X68.875 Y137.163 Z8.000 F200.000
G1 X66.754 Y135.042 Z8.000 F200.000
G1 X66.047 Y135.042 Z8.000 F200.000
G1 X68.875 Y137.870 Z8.000 F200.000
G1 X68.875 Y138.577 Z8.000 F200.000
G1 X65.339 Y135.042 Z8.000 F200.000
G1 X64.632 Y135.042 Z8.000 F200.000
G1 X68.875 Y139.284 Z8.000 F200.000
G1 X68.875 Y139.991 Z8.000 F200.000
G1 X63.925 Y135.042 Z8.000 F200.000
G1 X63.218 Y135.042 Z8.000 F200.000
G1 X68.875 Y140.699 Z8.000 F200.000
G1 X68.875 Y141.406 Z8.000 F200.000
G1 X62.511 Y135.042 Z8.000 F200.000
G1 X61.804 Y135.042 Z8.000 F200.000
G1 X68.875 Y142.113 Z8.000 F200.000
G1 X68.875 Y142.820 Z8.000 F200.000
G1 X61.097 Y135.042 Z8.000 F200.000
G1 X60.390 Y135.042 Z8.000 F200.000
G1 X68.875 Y143.527 Z8.000 F200.000
G1 X68.875 Y144.234 Z8.000 F200.000
G1 X59.683 Y135.042 Z8.000 F200.000
G1 X58.976 Y135.042 Z8.000 F200.000
G1 X68.875 Y144.941 Z8.000 F200.000
G1 X68.875 Y145.648 Z8.000 F200.000
G1 X58.268 Y135.042 Z8.000 F200.000
G1 X57.561 Y135.042 Z8.000 F200.000
G1 X68.875 Y146.355 Z8.000 F200.000
G1 X68.875 Y147.062 Z8.000 F200.000
G1 X56.854 Y135.042 Z8.000 F200.000
G1 X56.147 Y135.042 Z8.000 F200.000
G1 X68.875 Y147.770 Z8.000 F200.000
G1 X68.875 Y148.477 Z8.000 F200.000
G1 X55.440 Y135.042 Z8.000 F200.000
G1 X54.733 Y135.042 Z8.000 F200.000
G1 X68.875 Y149.184 Z8.000 F200.000
G1 X68.875 Y149.708 Z8.000 F200.000
G1 X68.692 Y149.708 Z8.000 F200.000
G1 X54.026 Y135.042 Z8.000 F200.000
G1 X53.319 Y135.042 Z8.000 F200.000
G1 X67.985 Y149.708 Z8.000 F200.000
G1 X67.278 Y149.708 Z8.000 F200.000
G1 X52.612 Y135.042 Z8.000 F200.000
G1 X51.904 Y135.042 Z8.000 F200.000
G1 X66.571 Y149.708 Z8.000 F200.000
G1 X65.864 Y149.708 Z8.000 F200.000
G1 X51.197 Y135.042 Z8.000 F200.000
G1 X50.490 Y135.042 Z8.000 F200.000
G1 X65.157 Y149.708 Z8.000 F200.000
G1 X64.450 Y149.708 Z8.000 F200.000
G1 X49.783 Y135.042 Z8.000 F200.000
G1 X49.076 Y135.042 Z8.000 F200.000
G1 X63.743 Y149.708 Z8.000 F200.000
G1 X63.036 Y149.708 Z8.000 F200.000
G1 X48.369 Y135.042 Z8.000 F200.000
G1 X47.662 Y135.042 Z8.000 F200.000
G1 X62.328 Y149.708 Z8.000 F200.000
G1 X61.621 Y149.708 Z8.000 F200.000
G1 X46.955 Y135.042 Z8.000 F200.000
G1 X46.248 Y135.042 Z8.000 F200.000
G1 X60.914 Y149.708 Z8.000 F200.000
G1 X60.207 Y149.708 Z8.000 F200.000
G1 X45.540 Y135.042 Z8.000 F200.000
G1 X44.833 Y135.042 Z8.000 F200.000
G1 X59.500 Y149.708 Z8.000 F200.000
G1 X58.793 Y149.708 Z8.000 F200.000
G1 X44.126 Y135.042 Z8.000 F200.000
G1 X43.419 Y135.042 Z8.000 F200.000
G1 X58.086 Y149.708 Z8.000 F200.000
G1 X57.379 Y149.708 Z8.000 F200.000
G1 X42.712 Y135.042 Z8.000 F200.000
G1 X42.005 Y135.042 Z8.000 F200.000
G1 X56.672 Y149.708 Z8.000 F200.000
G1 X55.965 Y149.708 Z8.000 F200.000
G1 X41.298 Y135.042 Z8.000 F200.000
G1 X40.591 Y135.042 Z8.000 F200.000
G1 X43.084 Y137.535 Z8.000 F200.000
G2 X42.173 Y137.331 Z8.000 I-1.337 J3.829 K0.000 F200.000
G1 X39.884 Y135.042 Z8.000 F200.000
G1 X39.177 Y135.042 Z8.000 F200.000
G1 X41.621 Y137.486 Z8.000 F200.000
G2 X41.357 Y137.929 Z8.000 I0.378 J0.525 K0.000 F200.000
G1 X38.469 Y135.042 Z8.000 F200.000
G1 X37.762 Y135.042 Z8.000 F200.000
G1 X41.290 Y138.569 Z8.000 F200.000
G1 X41.232 Y139.219 Z8.000 F200.000
G1 X37.055 Y135.042 Z8.000 F200.000
G1 X37.055 Y135.042 Z7.750 F200.000
G1 X41.232 Y139.219 Z7.750 F200.000
G1 X41.290 Y138.569 Z7.750 F200.000
G1 X37.762 Y135.042 Z7.750 F200.000
G1 X38.469 Y135.042 Z7.750 F200.000
G1 X41.357 Y137.929 Z7.750 F200.000
G3 X41.621 Y137.486 Z7.750 I0.642 J0.081 K0.000 F200.000
G1 X39.177 Y135.042 Z7.750 F200.000
G1 X39.884 Y135.042 Z7.750 F200.000
G1 X42.173 Y137.331 Z7.750 F200.000
G3 X43.084 Y137.535 Z7.750 I-0.426 J4.033 K0.000 F200.000
G1 X40.591 Y135.042 Z7.750 F200.000
G1 X41.298 Y135.042 Z7.750 F200.000
G1 X55.965 Y149.708 Z7.750 F200.000
G1 X56.672 Y149.708 Z7.750 F200.000
G1 X42.005 Y135.042 Z7.750 F200.000
G1 X42.712 Y135.042 Z7.750 F200.000
G1 X57.379 Y149.708 Z7.750 F200.000
G1 X58.086 Y149.708 Z7.750 F200.000
G1 X43.419 Y135.042 Z7.750 F200.000
G1 X44.126 Y135.042 Z7.750 F200.000
G1 X58.793 Y149.708 Z7.750 F200.000
G1 X59.500 Y149.708 Z7.750 F200.000
G1 X44.833 Y135.042 Z7.750 F200.000
G1 X45.540 Y135.042 Z7.750 F200.000
G1 X60.207 Y149.708 Z7.750 F200.000
G1 X60.914 Y149.708 Z7.750 F200.000
G1 X46.248 Y135.042 Z7.750 F200.000
G1 X46.955 Y135.042 Z7.750 F200.000
G1 X61.621 Y149.708 Z7.750 F200.000
G1 X62.328 Y149.708 Z7.750 F200.000
G1 X47.662 Y135.042 Z7.750 F200.000
G1 X48.369 Y135.042 Z7.750 F200.000
G1 X63.036 Y149.708 Z7.750 F200.000
G1 X63.743 Y149.708 Z7.750 F200.000
G1 X49.076 Y135.042 Z7.750 F200.000
G1 X49.783 Y135.042 Z7.750 F200.000
G1 X64.450 Y149.708 Z7.750 F200.000
G1 X65.157 Y149.708 Z7.750 F200.000
G1 X50.490 Y135.042 Z7.750 F200.000
G1 X51.197 Y135.042 Z7.750 F200.000
G1 X65.864 Y149.708 Z7.750 F200.000
G1 X66.571 Y149.708 Z7.750 F200.000
G1 X51.904 Y135.042 Z7.750 F200.000
G1 X52.612 Y135.042 Z7.750 F200.000
G1 X67.278 Y149.708 Z7.750 F200.000
G1 X67.985 Y149.708 Z7.750 F200.000
G1 X53.319 Y135.042 Z7.750 F200.000
G1 X54.026 Y135.042 Z7.750 F200.000
G1 X68.692 Y149.708 Z7.750 F200.000
G1 X68.875 Y149.708 Z7.750 F200.000
G1 X68.875 Y149.184 Z7.750 F200.000
G1 X54.733 Y135.042 Z7.750 F200.000
G1 X55.440 Y135.042 Z7.750 F200.000
G1 X68.875 Y148.477 Z7.750 F200.000
G1 X68.875 Y147.770 Z7.750 F200.000
G1 X56.147 Y135.042 Z7.750 F200.000
G1 X56.854 Y135.042 Z7.750 F200.000
G1 X68.875 Y147.062 Z7.750 F200.000
G1 X68.875 Y146.355 Z7.750 F200.000
G1 X57.561 Y135.042 Z7.750 F200.000
G1 X58.268 Y135.042 Z7.750 F200.000
G1 X68.875 Y145.648 Z7.750 F200.000
G1 X68.875 Y144.941 Z7.750 F200.000
G1 X58.976 Y135.042 Z7.750 F200.000
G1 X59.683 Y135.042 Z7.750 F200.000
G1 X68.875 Y144.234 Z7.750 F200.000
G1 X68.875 Y143.527 Z7.750 F200.000
G1 X60.390 Y135.042 Z7.750 F200.000
G1 X61.097 Y135.042 Z7.750 F200.000
G1 X68.875 Y142.820 Z7.750 F200.000
G1 X68.875 Y142.113 Z7.750 F200.000
G1 X61.804 Y135.042 Z7.750 F200.000
G1 X62.511 Y135.042 Z7.750 F200.000
G1 X68.875 Y141.406 Z7.750 F200.000
G1 X68.875 Y140.699 Z7.750 F200.000
G1 X63.218 Y135.042 Z7.750 F200.000
G1 X63.925 Y135.042 Z7.750 F200.000
G1 X68.875 Y139.991 Z7.750 F200.000
G1 X68.875 Y139.284 Z7.750 F200.000
G1 X64.632 Y135.042 Z7.750 F200.000
G1 X65.339 Y135.042 Z7.750 F200.000
G1 X68.875 Y138.577 Z7.750 F200.000
G1 X68.875 Y137.870 Z7.750 F200.000
G1 X66.047 Y135.042 Z7.750 F200.000
G1 X66.754 Y135.042 Z7.750 F200.000
G1 X68.875 Y137.163 Z7.750 F200.000
G1 X68.875 Y136.456 Z7.750 F200.000
G1 X67.461 Y135.042 Z7.750 F200.000
G1 X68.168 Y135.042 Z7.750 F200.000
G1 X68.875 Y135.749 Z7.750 F200.000
G1 X68.875 Y135.042 Z7.750 F200.000
G1 X68.875 Y135.042 Z7.500 F200.000
G1 X68.875 Y135.749 Z7.500 F200.000
G1 X68.168 Y135.042 Z7.500 F200.000
G1 X67.461 Y135.042 Z7.500 F200.000
G1 X68.875 Y136.456 Z7.500 F200.000
G1 X68.875 Y137.163 Z7.500 F200.000
G1 X66.754 Y135.042 Z7.500 F200.000
G1 X66.047 Y135.042 Z7.500 F200.000
G1 X68.875 Y137.870 Z7.500 F200.000
G1 X68.875 Y138.577 Z7.500 F200.000
G1 X65.339 Y135.042 Z7.500 F200.000
G1 X64.632 Y135.042 Z7.500 F200.000
G1 X68.875 Y139.284 Z7.500 F200.000
G1 X68.875 Y139.991 Z7.500 F200.000
G1 X63.925 Y135.042 Z7.500 F200.000
G1 X63.218 Y135.042 Z7.500 F200.000
G1 X68.875 Y140.699 Z7.500 F200.000
G1 X68.875 Y141.406 Z7.500 F200.000
G1 X62.511 Y135.042 Z7.500 F200.000
G1 X61.804 Y135.042 Z7.500 F200.000
G1 X68.875 Y142.113 Z7.500 F200.000
G1 X68.875 Y142.820 Z7.500 F200.000
G1 X61.097 Y135.042 Z7.500 F200.000
G1 X60.390 Y135.042 Z7.500 F200.000
G1 X68.875 Y143.527 Z7.500 F200.000
G1 X68.875 Y144.234 Z7.500 F200.000
G1 X59.683 Y135.042 Z7.500 F200.000
G1 X58.976 Y135.042 Z7.500 F200.000
G1 X68.875 Y144.941 Z7.500 F200.000
G1 X68.875 Y145.648 Z7.500 F200.000
G1 X58.268 Y135.042 Z7.500 F200.000
G1 X57.561 Y135.042 Z7.500 F200.000
G1 X68.875 Y146.355 Z7.500 F200.000
G1 X68.875 Y147.062 Z7.500 F200.000
G1 X56.854 Y135.042 Z7.500 F200.000
G1 X56.147 Y135.042 Z7.500 F200.000
G1 X68.875 Y147.770 Z7.500 F200.000
G1 X68.875 Y148.477 Z7.500 F200.000
G1 X55.440 Y135.042 Z7.500 F200.000
G1 X54.733 Y135.042 Z7.500 F200.000
G1 X68.875 Y149.184 Z7.500 F200.000
G1 X68.875 Y149.708 Z7.500 F200.000
G1 X68.692 Y149.708 Z7.500 F200.000
G1 X54.026 Y135.042 Z7.500 F200.000
G1 X53.319 Y135.042 Z7.500 F200.000
G1 X67.985 Y149.708 Z7.500 F200.000
G1 X67.278 Y149.708 Z7.500 F200.000
G1 X52.612 Y135.042 Z7.500 F200.000
G1 X51.904 Y135.042 Z7.500 F200.000
G1 X66.571 Y149.708 Z7.500 F200.000
G1 X65.864 Y149.708 Z7.500 F200.000
G1 X51.197 Y135.042 Z7.500 F200.000
G1 X50.490 Y135.042 Z7.500 F200.000
G1 X65.157 Y149.708 Z7.500 F200.000
G1 X64.450 Y149.708 Z7.500 F200.000
G1 X49.783 Y135.042 Z7.500 F200.000
G1 X49.076 Y135.042 Z7.500 F200.000
G1 X63.743 Y149.708 Z7.500 F200.000
G1 X63.036 Y149.708 Z7.500 F200.000
G1 X48.369 Y135.042 Z7.500 F200.000
G1 X47.662 Y135.042 Z7.500 F200.000
G1 X62.328 Y149.708 Z7.500 F200.000
G1 X61.621 Y149.708 Z7.500 F200.000
G1 X46.955 Y135.042 Z7.500 F200.000
G1 X46.248 Y135.042 Z7.500 F200.000
G1 X60.914 Y149.708 Z7.500 F200.000
G1 X60.207 Y149.708 Z7.500 F200.000
G1 X45.540 Y135.042 Z7.500 F200.000
G1 X44.833 Y135.042 Z7.500 F200.000
G1 X59.500 Y149.708 Z7.500 F200.000
G1 X58.793 Y149.708 Z7.500 F200.000
G1 X44.126 Y135.042 Z7.500 F200.000
G1 X43.419 Y135.042 Z7.500 F200.000
G1 X58.086 Y149.708 Z7.500 F200.000
G1 X57.379 Y149.708 Z7.500 F200.000
G1 X42.712 Y135.042 Z7.500 F200.000
G1 X42.005 Y135.042 Z7.500 F200.000
G1 X56.672 Y149.708 Z7.500 F200.000
G1 X55.965 Y149.708 Z7.500 F200.000
G1 X41.298 Y135.042 Z7.500 F200.000
G1 X40.591 Y135.042 Z7.500 F200.000
G1 X43.084 Y137.535 Z7.500 F200.000
G2 X42.173 Y137.331 Z7.500 I-1.337 J3.829 K0.000 F200.000
G1 X39.884 Y135.042 Z7.500 F200.000
G1 X39.177 Y135.042 Z7.500 F200.000
G1 X41.621 Y137.486 Z7.500 F200.000
G2 X41.357 Y137.929 Z7.500 I0.378 J0.525 K0.000 F200.000
G1 X38.469 Y135.042 Z7.500 F200.000
G1 X37.762 Y135.042 Z7.500 F200.000
G1 X41.290 Y138.569 Z7.500 F200.000
G1 X41.232 Y139.219 Z7.500 F200.000
G1 X37.055 Y135.042 Z7.500 F200.000
G1 X37.055 Y135.042 Z7.250 F200.000
G1 X41.232 Y139.219 Z7.250 F200.000
G1 X41.290 Y138.569 Z7.250 F200.000
G1 X37.762 Y135.042 Z7.250 F200.000
G1 X38.469 Y135.042 Z7.250 F200.000
G1 X41.357 Y137.929 Z7.250 F200.000
G3 X41.621 Y137.486 Z7.250 I0.642 J0.081 K0.000 F200.000
G1 X39.177 Y135.042 Z7.250 F200.000
G1 X39.884 Y135.042 Z7.250 F200.000
G1 X42.173 Y137.331 Z7.250 F200.000
G3 X43.084 Y137.535 Z7.250 I-0.426 J4.033 K0.000 F200.000
G1 X40.591 Y135.042 Z7.250 F200.000
G1 X41.298 Y135.042 Z7.250 F200.000
G1 X55.965 Y149.708 Z7.250 F200.000
G1 X56.672 Y149.708 Z7.250 F200.000
G1 X42.005 Y135.042 Z7.250 F200.000
G1 X42.712 Y135.042 Z7.250 F200.000
G1 X57.379 Y149.708 Z7.250 F200.000
G1 X58.086 Y149.708 Z7.250 F200.000
G1 X43.419 Y135.042 Z7.250 F200.000
G1 X44.126 Y135.042 Z7.250 F200.000
G1 X58.793 Y149.708 Z7.250 F200.000
G1 X59.500 Y149.708 Z7.250 F200.000
G1 X44.833 Y135.042 Z7.250 F200.000
G1 X45.540 Y135.042 Z7.250 F200.000
G1 X60.207 Y149.708 Z7.250 F200.000
G1 X60.914 Y149.708 Z7.250 F200.000
G1 X46.248 Y135.042 Z7.250 F200.000
G1 X46.955 Y135.042 Z7.250 F200.000
G1 X61.621 Y149.708 Z7.250 F200.000
G1 X62.328 Y149.708 Z7.250 F200.000
G1 X47.662 Y135.042 Z7.250 F200.000
G1 X48.369 Y135.042 Z7.250 F200.000
G1 X63.036 Y149.708 Z7.250 F200.000
G1 X63.743 Y149.708 Z7.250 F200.000
G1 X49.076 Y135.042 Z7.250 F200.000
G1 X49.783 Y135.042 Z7.250 F200.000
G1 X64.450 Y149.708 Z7.250 F200.000
G1 X65.157 Y149.708 Z7.250 F200.000
G1 X50.490 Y135.042 Z7.250 F200.000
G1 X51.197 Y135.042 Z7.250 F200.000
G1 X65.864 Y149.708 Z7.250 F200.000
G1 X66.571 Y149.708 Z7.250 F200.000
G1 X51.904 Y135.042 Z7.250 F200.000
G1 X52.612 Y135.042 Z7.250 F200.000
G1 X67.278 Y149.708 Z7.250 F200.000
G1 X67.985 Y149.708 Z7.250 F200.000
G1 X53.319 Y135.042 Z7.250 F200.000
G1 X54.026 Y135.042 Z7.250 F200.000
G1 X68.692 Y149.708 Z7.250 F200.000
G1 X68.875 Y149.708 Z7.250 F200.000
G1 X68.875 Y149.184 Z7.250 F200.000
G1 X54.733 Y135.042 Z7.250 F200.000
G1 X55.440 Y135.042 Z7.250 F200.000
G1 X68.875 Y148.477 Z7.250 F200.000
G1 X68.875 Y147.770 Z7.250 F200.000
G1 X56.147 Y135.042 Z7.250 F200.000
G1 X56.854 Y135.042 Z7.250 F200.000
G1 X68.875 Y147.062 Z7.250 F200.000
G1 X68.875 Y146.355 Z7.250 F200.000
G1 X57.561 Y135.042 Z7.250 F200.000
G1 X58.268 Y135.042 Z7.250 F200.000
G1 X68.875 Y145.648 Z7.250 F200.000
G1 X68.875 Y144.941 Z7.250 F200.000
G1 X58.976 Y135.042 Z7.250 F200.000
G1 X59.683 Y135.042 Z7.250 F200.000
G1 X68.875 Y144.234 Z7.250 F200.000
G1 X68.875 Y143.527 Z7.250 F200.000
G1 X60.390 Y135.042 Z7.250 F200.000
G1 X61.097 Y135.042 Z7.250 F200.000
G1 X68.875 Y142.820 Z7.250 F200.000
G1 X68.875 Y142.113 Z7.250 F200.000
G1 X61.804 Y135.042 Z7.250 F200.000
G1 X62.511 Y135.042 Z7.250 F200.000
G1 X68.875 Y141.406 Z7.250 F200.000
G1 X68.875 Y140.699 Z7.250 F200.000
G1 X63.218 Y135.042 Z7.250 F200.000
G1 X63.925 Y135.042 Z7.250 F200.000
G1 X68.875 Y139.991 Z7.250 F200.000
G1 X68.875 Y139.284 Z7.250 F200.000
G1 X64.632 Y135.042 Z7.250 F200.000
G1 X65.339 Y135.042 Z7.250 F200.000
G1 X68.875 Y138.577 Z7.250 F200.000
G1 X68.875 Y137.870 Z7.250 F200.000
G1 X66.047 Y135.042 Z7.250 F200.000
G1 X66.754 Y135.042 Z7.250 F200.000
G1 X68.875 Y137.163 Z7.250 F200.000
G1 X68.875 Y136.456 Z7.250 F200.000
G1 X67.461 Y135.042 Z7.250 F200.000
G1 X68.168 Y135.042 Z7.250 F200.000
G1 X68.875 Y135.749 Z7.250 F200.000
G1 X68.875 Y135.042 Z7.250 F200.000
G1 X68.875 Y135.042 Z7.000 F200.000
G1 X68.875 Y135.749 Z7.000 F200.000
G1 X68.168 Y135.042 Z7.000 F200.000
G1 X67.461 Y135.042 Z7.000 F200.000
G1 X68.875 Y136.456 Z7.000 F200.000
G1 X68.875 Y137.163 Z7.000 F200.000
G1 X66.754 Y135.042 Z7.000 F200.000
G1 X66.047 Y135.042 Z7.000 F200.000
G1 X68.875 Y137.870 Z7.000 F200.000
G1 X68.875 Y138.577 Z7.000 F200.000
G1 X65.339 Y135.042 Z7.000 F200.000
G1 X64.632 Y135.042 Z7.000 F200.000
G1 X68.875 Y139.284 Z7.000 F200.000
G1 X68.875 Y139.991 Z7.000 F200.000
G1 X63.925 Y135.042 Z7.000 F200.000
G1 X63.218 Y135.042 Z7.000 F200.000
G1 X68.875 Y140.699 Z7.000 F200.000
G1 X68.875 Y141.406 Z7.000 F200.000
G1 X62.511 Y135.042 Z7.000 F200.000
G1 X61.804 Y135.042 Z7.000 F200.000
G1 X68.875 Y142.113 Z7.000 F200.000
G1 X68.875 Y142.820 Z7.000 F200.000
G1 X61.097 Y135.042 Z7.000 F200.000
G1 X60.390 Y135.042 Z7.000 F200.000
G1 X68.875 Y143.527 Z7.000 F200.000
G1 X68.875 Y144.234 Z7.000 F200.000
G1 X59.683 Y135.042 Z7.000 F200.000
G1 X58.976 Y135.042 Z7.000 F200.000
G1 X68.875 Y144.941 Z7.000 F200.000
G1 X68.875 Y145.648 Z7.000 F200.000
G1 X58.268 Y135.042 Z7.000 F200.000
G1 X57.561 Y135.042 Z7.000 F200.000
G1 X68.875 Y146.355 Z7.000 F200.000
G1 X68.875 Y147.062 Z7.000 F200.000
G1 X56.854 Y135.042 Z7.000 F200.000
G1 X56.147 Y135.042 Z7.000 F200.000
G1 X68.875 Y147.770 Z7.000 F200.000
G1 X68.875 Y148.477 Z7.000 F200.000
G1 X55.440 Y135.042 Z7.000 F200.000
G1 X54.733 Y135.042 Z7.000 F200.000
G1 X68.875 Y149.184 Z7.000 F200.000
G1 X68.875 Y149.708 Z7.000 F200.000
G1 X68.692 Y149.708 Z7.000 F200.000
G1 X54.026 Y135.042 Z7.000 F200.000
G1 X53.319 Y135.042 Z7.000 F200.000
G1 X67.985 Y149.708 Z7.000 F200.000
G1 X67.278 Y149.708 Z7.000 F200.000
G1 X52.612 Y135.042 Z7.000 F200.000
G1 X51.904 Y135.042 Z7.000 F200.000
G1 X66.571 Y149.708 Z7.000 F200.000
G1 X65.864 Y149.708 Z7.000 F200.000
G1 X51.197 Y135.042 Z7.000 F200.000
G1 X50.490 Y135.042 Z7.000 F200.000
G1 X65.157 Y149.708 Z7.000 F200.000
G1 X64.450 Y149.708 Z7.000 F200.000
G1 X49.783 Y135.042 Z7.000 F200.000
G1 X49.076 Y135.042 Z7.000 F200.000
G1 X63.743 Y149.708 Z7.000 F200.000
G1 X63.036 Y149.708 Z7.000 F200.000
G1 X48.369 Y135.042 Z7.000 F200.000
G1 X47.662 Y135.042 Z7.000 F200.000
G1 X62.328 Y149.708 Z7.000 F200.000
G1 X61.621 Y149.708 Z7.000 F200.000
G1 X46.955 Y135.042 Z7.000 F200.000
G1 X46.248 Y135.042 Z7.000 F200.000
G1 X60.914 Y149.708 Z7.000 F200.000
G1 X60.207 Y149.708 Z7.000 F200.000
G1 X45.540 Y135.042 Z7.000 F200.000
G1 X44.833 Y135.042 Z7.000 F200.000
G1 X59.500 Y149.708 Z7.000 F200.000
G1 X58.793 Y149.708 Z7.000 F200.000
G1 X44.126 Y135.042 Z7.000 F200.000
G1 X43.419 Y135.042 Z7.000 F200.000
G1 X58.086 Y149.708 Z7.000 F200.000
G1 X57.379 Y149.708 Z7.000 F200.000
G1 X42.712 Y135.042 Z7.000 F200.000
G1 X42.005 Y135.042 Z7.000 F200.000
G1 X56.672 Y149.708 Z7.000 F200.000
G1 X55.965 Y149.708 Z7.000 F200.000
G1 X41.298 Y135.042 Z7.000 F200.000
G1 X40.591 Y135.042 Z7.000 F200.000
G1 X43.084 Y137.535 Z7.000 F200.000
G2 X42.173 Y137.331 Z7.000 I-1.337 J3.829 K0.000 F200.000
G1 X39.884 Y135.042 Z7.000 F200.000
G1 X39.177 Y135.042 Z7.000 F200.000
G1 X41.621 Y137.486 Z7.000 F200.000
G2 X41.357 Y137.929 Z7.000 I0.378 J0.525 K0.000 F200.000
G1 X38.469 Y135.042 Z7.000 F200.000
G1 X37.762 Y135.042 Z7.000 F200.000
G1 X41.290 Y138.569 Z7.000 F200.000
G1 X41.232 Y139.219 Z7.000 F200.000
G1 X37.055 Y135.042 Z7.000 F200.000
G0 Z14.300
G0 Z14.300
(Finish operation: Pocket_Shape001)
(Begin postamble)
M5
G17 G90
M2
