(Exported by FreeCAD)
(Post Processor: grbl_post)
(Output Time:2024-02-15 18:22:00.501424)
(Begin preamble)
G17 G90
G21
(Begin operation: Fixture)
(Path: Fixture)
G54
(Finish operation: Fixture)
(Begin operation: 3.175mm-endmill001)
(Path: 3.175mm-endmill001)
(3.175mm-endmill001)
(Begin toolchange)
( M6 T4 )
M3 S10000
(Finish operation: 3.175mm-endmill001)
(Begin operation: Pocket_Shape)
(Path: Pocket_Shape)
(Pocket_Shape)
G0 Z14.100
G0 X12.001 Y21.365
G0 Z12.100
G1 X12.001 Y21.365 Z7.515 F2000.000
G1 X10.286 Y21.365 Z7.515 F2000.000
G1 X10.286 Y8.585 Z7.515 F2000.000
G1 X12.001 Y8.585 Z7.515 F2000.000
G1 X12.001 Y21.365 Z7.515 F2000.000
G0 Z14.100
G0 X11.208 Y20.573 Z14.100
G0 X11.208 Y20.573 Z12.100
G1 X11.208 Y20.573 Z7.515 F2000.000
G1 X11.078 Y20.573 Z7.515 F2000.000
G1 X11.078 Y9.378 Z7.515 F2000.000
G1 X11.208 Y9.378 Z7.515 F2000.000
G1 X11.208 Y20.573 Z7.515 F2000.000
G1 X11.208 Y20.573 Z5.930 F2000.000
G1 X11.078 Y20.573 Z5.930 F2000.000
G1 X11.078 Y9.378 Z5.930 F2000.000
G1 X11.208 Y9.378 Z5.930 F2000.000
G1 X11.208 Y20.573 Z5.930 F2000.000
G0 Z14.100
G0 Y21.365 Z14.100
G0 Y21.365 Z12.100
G1 X11.208 Y21.365 Z5.930 F2000.000
G1 X10.286 Y21.365 Z5.930 F2000.000
G1 X10.286 Y8.585 Z5.930 F2000.000
G1 X12.001 Y8.585 Z5.930 F2000.000
G1 X12.001 Y21.365 Z5.930 F2000.000
G1 X11.208 Y21.365 Z5.930 F2000.000
G1 X11.208 Y21.365 Z5.100 F2000.000
G1 X10.286 Y21.365 Z5.100 F2000.000
G1 X10.286 Y8.585 Z5.100 F2000.000
G1 X12.001 Y8.585 Z5.100 F2000.000
G1 X12.001 Y21.365 Z5.100 F2000.000
G1 X11.208 Y21.365 Z5.100 F2000.000
G0 Z14.100
G0 Y20.573 Z14.100
G0 Y20.573 Z12.100
G1 X11.208 Y20.573 Z5.100 F2000.000
G1 X11.078 Y20.573 Z5.100 F2000.000
G1 X11.078 Y9.378 Z5.100 F2000.000
G1 X11.208 Y9.378 Z5.100 F2000.000
G1 X11.208 Y20.573 Z5.100 F2000.000
G0 Z14.100
G0 Z14.100
G0 X11.208 Y20.573
G0 X18.460
G0 X18.460 Z12.100
G1 X18.460 Y20.573 Z7.515 F2000.000
G1 X18.460 Y8.585 Z7.515 F2000.000
G1 X19.776 Y8.585 Z7.515 F2000.000
G1 X19.776 Y14.852 Z7.515 F2000.000
G2 X21.549 Y16.437 Z7.515 I1.602 J-0.008 K0.000 F2000.000
G2 X22.847 Y15.761 Z7.515 I0.000 J-1.585 K0.000 F2000.000
G1 X27.872 Y8.585 Z7.515 F2000.000
G1 X29.097 Y8.585 Z7.515 F2000.000
G1 X29.097 Y21.365 Z7.515 F2000.000
G1 X27.781 Y21.365 Z7.515 F2000.000
G1 X27.781 Y15.238 Z7.515 F2000.000
G2 X26.009 Y13.653 Z7.515 I-1.602 J0.008 K0.000 F2000.000
G2 X24.715 Y14.322 Z7.515 I-0.000 J1.585 K0.000 F2000.000
G1 X19.726 Y21.365 Z7.515 F2000.000
G1 X18.460 Y21.365 Z7.515 F2000.000
G1 X18.460 Y20.573 Z7.515 F2000.000
G0 Z14.100
G0 X19.253 Z14.100
G0 X19.253 Z12.100
G1 X19.253 Y20.573 Z7.515 F2000.000
G1 X19.253 Y15.931 Z7.515 F2000.000
G2 X21.694 Y17.216 Z7.515 I2.132 J-1.089 K0.000 F2000.000
G1 X19.317 Y20.573 Z7.515 F2000.000
G1 X19.253 Y20.573 Z7.515 F2000.000
G0 Z14.100
G0 X20.045 Y18.173 Z14.100
G0 X20.045 Y18.173 Z12.100
G1 X20.045 Y18.173 Z7.515 F2000.000
G1 X20.045 Y17.728 Z7.515 F2000.000
G1 X20.289 Y17.828 Z7.515 F2000.000
G1 X20.045 Y18.173 Z7.515 F2000.000
G0 Z14.100
G0 X25.835 Y12.876 Z14.100
G0 X25.835 Y12.876 Z12.100
G1 X25.835 Y12.876 Z7.515 F2000.000
G1 X28.284 Y9.378 Z7.515 F2000.000
G1 X28.305 Y9.378 Z7.515 F2000.000
G1 X28.305 Y14.159 Z7.515 F2000.000
G2 X25.835 Y12.876 Z7.515 I-2.136 J1.093 K0.000 F2000.000
G0 Z14.100
G0 X27.240 Y12.250 Z14.100
G0 X27.240 Y12.250 Z12.100
G1 X27.240 Y12.250 Z7.515 F2000.000
G1 X27.512 Y11.862 Z7.515 F2000.000
G1 X27.512 Y12.363 Z7.515 F2000.000
G1 X27.240 Y12.250 Z7.515 F2000.000
G1 X27.240 Y12.250 Z5.930 F2000.000
G1 X27.512 Y11.862 Z5.930 F2000.000
G1 X27.512 Y12.363 Z5.930 F2000.000
G1 X27.240 Y12.250 Z5.930 F2000.000
G0 Z14.100
G0 X26.976 Y12.993 Z14.100
G0 X26.976 Y12.993 Z12.100
G1 X26.976 Y12.993 Z5.930 F2000.000
G2 X25.835 Y12.876 Z5.930 I-0.806 J2.259 K0.000 F2000.000
G1 X28.284 Y9.378 Z5.930 F2000.000
G1 X28.305 Y9.378 Z5.930 F2000.000
G1 X28.305 Y14.159 Z5.930 F2000.000
G2 X26.976 Y12.993 Z5.930 I-2.136 J1.093 K0.000 F2000.000
G0 Z14.100
G0 X26.713 Y13.736 Z14.100
G0 X26.713 Y13.736 Z12.100
G1 X26.713 Y13.736 Z5.930 F2000.000
G2 X26.009 Y13.653 Z5.930 I-0.534 J1.511 K0.000 F2000.000
G2 X24.715 Y14.322 Z5.930 I-0.000 J1.585 K0.000 F2000.000
G1 X19.726 Y21.365 Z5.930 F2000.000
G1 X18.460 Y21.365 Z5.930 F2000.000
G1 X18.460 Y8.585 Z5.930 F2000.000
G1 X19.776 Y8.585 Z5.930 F2000.000
G1 X19.776 Y14.852 Z5.930 F2000.000
G2 X21.549 Y16.437 Z5.930 I1.602 J-0.008 K0.000 F2000.000
G2 X22.847 Y15.761 Z5.930 I0.000 J-1.585 K0.000 F2000.000
G1 X27.872 Y8.585 Z5.930 F2000.000
G1 X29.097 Y8.585 Z5.930 F2000.000
G1 X29.097 Y21.365 Z5.930 F2000.000
G1 X27.781 Y21.365 Z5.930 F2000.000
G1 X27.781 Y15.238 Z5.930 F2000.000
G2 X26.713 Y13.736 Z5.930 I-1.602 J0.008 K0.000 F2000.000
G0 Z14.100
G0 X21.694 Y17.216 Z14.100
G0 X21.694 Y17.216 Z12.100
G1 X21.694 Y17.216 Z5.930 F2000.000
G1 X19.317 Y20.573 Z5.930 F2000.000
G1 X19.253 Y20.573 Z5.930 F2000.000
G1 X19.253 Y15.931 Z5.930 F2000.000
G2 X21.694 Y17.216 Z5.930 I2.132 J-1.089 K0.000 F2000.000
G0 Z14.100
G0 X20.289 Y17.828 Z14.100
G0 X20.289 Y17.828 Z12.100
G1 X20.289 Y17.828 Z5.930 F2000.000
G1 X20.045 Y18.173 Z5.930 F2000.000
G1 X20.045 Y17.728 Z5.930 F2000.000
G1 X20.289 Y17.828 Z5.930 F2000.000
G1 X20.289 Y17.828 Z5.100 F2000.000
G1 X20.045 Y18.173 Z5.100 F2000.000
G1 X20.045 Y17.728 Z5.100 F2000.000
G1 X20.289 Y17.828 Z5.100 F2000.000
G0 Z14.100
G0 X20.560 Y17.090 Z14.100
G0 X20.560 Y17.090 Z12.100
G1 X20.560 Y17.090 Z5.100 F2000.000
G2 X21.694 Y17.216 Z5.100 I0.825 J-2.248 K0.000 F2000.000
G1 X19.317 Y20.573 Z5.100 F2000.000
G1 X19.253 Y20.573 Z5.100 F2000.000
G1 X19.253 Y15.931 Z5.100 F2000.000
G2 X20.560 Y17.090 Z5.100 I2.132 J-1.089 K0.000 F2000.000
G0 Z14.100
G0 X20.830 Y16.349 Z14.100
G0 X20.830 Y16.349 Z12.100
G1 X20.830 Y16.349 Z5.100 F2000.000
G2 X21.549 Y16.437 Z5.100 I0.549 J-1.506 K0.000 F2000.000
G2 X22.847 Y15.761 Z5.100 I0.000 J-1.585 K0.000 F2000.000
G1 X27.872 Y8.585 Z5.100 F2000.000
G1 X29.097 Y8.585 Z5.100 F2000.000
G1 X29.097 Y21.365 Z5.100 F2000.000
G1 X27.781 Y21.365 Z5.100 F2000.000
G1 X27.781 Y15.238 Z5.100 F2000.000
G2 X26.009 Y13.653 Z5.100 I-1.602 J0.008 K0.000 F2000.000
G2 X24.715 Y14.322 Z5.100 I-0.000 J1.585 K0.000 F2000.000
G1 X19.726 Y21.365 Z5.100 F2000.000
G1 X18.460 Y21.365 Z5.100 F2000.000
G1 X18.460 Y8.585 Z5.100 F2000.000
G1 X19.776 Y8.585 Z5.100 F2000.000
G1 X19.776 Y14.852 Z5.100 F2000.000
G2 X20.830 Y16.349 Z5.100 I1.602 J-0.008 K0.000 F2000.000
G0 Z14.100
G0 X25.835 Y12.876 Z14.100
G0 X25.835 Y12.876 Z12.100
G1 X25.835 Y12.876 Z5.100 F2000.000
G1 X28.284 Y9.378 Z5.100 F2000.000
G1 X28.305 Y9.378 Z5.100 F2000.000
G1 X28.305 Y14.159 Z5.100 F2000.000
G2 X25.835 Y12.876 Z5.100 I-2.136 J1.093 K0.000 F2000.000
G0 Z14.100
G0 X27.240 Y12.250 Z14.100
G0 X27.240 Y12.250 Z12.100
G1 X27.240 Y12.250 Z5.100 F2000.000
G1 X27.512 Y11.862 Z5.100 F2000.000
G1 X27.512 Y12.363 Z5.100 F2000.000
G1 X27.240 Y12.250 Z5.100 F2000.000
G0 Z14.100
G0 Z14.100
G0 X27.240 Y12.250
G0 X35.557
G0 X35.557 Z12.100
G1 X35.557 Y12.250 Z7.515 F2000.000
G1 X35.557 Y8.610 Z7.515 F2000.000
G1 X37.272 Y8.610 Z7.515 F2000.000
G1 X37.272 Y12.533 Z7.515 F2000.000
G2 X38.857 Y14.118 Z7.515 I1.585 J-0.000 K0.000 F2000.000
G1 X43.103 Y14.118 Z7.515 F2000.000
G1 X43.103 Y14.636 Z7.515 F2000.000
G1 X38.857 Y14.636 Z7.515 F2000.000
G2 X37.272 Y16.221 Z7.515 I0.000 J1.585 K0.000 F2000.000
G1 X37.272 Y19.162 Z7.515 F2000.000
G2 X38.857 Y20.747 Z7.515 I1.585 J-0.000 K0.000 F2000.000
G1 X43.727 Y20.747 Z7.515 F2000.000
G1 X43.727 Y21.415 Z7.515 F2000.000
G1 X35.557 Y21.415 Z7.515 F2000.000
G1 X35.557 Y12.250 Z7.515 F2000.000
G0 Z14.100
G0 X36.349 Z14.100
G0 X36.349 Z12.100
G1 X36.349 Y12.250 Z7.515 F2000.000
G1 X36.349 Y9.402 Z7.515 F2000.000
G1 X36.479 Y9.402 Z7.515 F2000.000
G1 X36.479 Y12.533 Z7.515 F2000.000
G2 X37.362 Y14.380 Z7.515 I2.368 J0.003 K0.000 F2000.000
G2 X36.479 Y16.221 Z7.515 I1.459 J1.832 K0.000 F2000.000
G1 X36.479 Y19.162 Z7.515 F2000.000
G2 X36.991 Y20.622 Z7.515 I2.300 J0.014 K0.000 F2000.000
G1 X36.349 Y20.622 Z7.515 F2000.000
G1 X36.349 Y12.250 Z7.515 F2000.000
G1 X36.349 Y12.250 Z5.930 F2000.000
G1 X36.349 Y9.402 Z5.930 F2000.000
G1 X36.479 Y9.402 Z5.930 F2000.000
G1 X36.479 Y12.533 Z5.930 F2000.000
G2 X37.362 Y14.380 Z5.930 I2.368 J0.003 K0.000 F2000.000
G2 X36.479 Y16.221 Z5.930 I1.459 J1.832 K0.000 F2000.000
G1 X36.479 Y19.162 Z5.930 F2000.000
G2 X36.991 Y20.622 Z5.930 I2.300 J0.014 K0.000 F2000.000
G1 X36.349 Y20.622 Z5.930 F2000.000
G1 X36.349 Y12.250 Z5.930 F2000.000
G0 Z14.100
G0 X35.557 Z14.100
G0 X35.557 Z12.100
G1 X35.557 Y12.250 Z5.930 F2000.000
G1 X35.557 Y8.610 Z5.930 F2000.000
G1 X37.272 Y8.610 Z5.930 F2000.000
G1 X37.272 Y12.533 Z5.930 F2000.000
G2 X38.857 Y14.118 Z5.930 I1.585 J-0.000 K0.000 F2000.000
G1 X43.103 Y14.118 Z5.930 F2000.000
G1 X43.103 Y14.636 Z5.930 F2000.000
G1 X38.857 Y14.636 Z5.930 F2000.000
G2 X37.272 Y16.221 Z5.930 I0.000 J1.585 K0.000 F2000.000
G1 X37.272 Y19.162 Z5.930 F2000.000
G2 X38.857 Y20.747 Z5.930 I1.585 J-0.000 K0.000 F2000.000
G1 X43.727 Y20.747 Z5.930 F2000.000
G1 X43.727 Y21.415 Z5.930 F2000.000
G1 X35.557 Y21.415 Z5.930 F2000.000
G1 X35.557 Y12.250 Z5.930 F2000.000
G1 X35.557 Y12.250 Z5.100 F2000.000
G1 X35.557 Y8.610 Z5.100 F2000.000
G1 X37.272 Y8.610 Z5.100 F2000.000
G1 X37.272 Y12.533 Z5.100 F2000.000
G2 X38.857 Y14.118 Z5.100 I1.585 J-0.000 K0.000 F2000.000
G1 X43.103 Y14.118 Z5.100 F2000.000
G1 X43.103 Y14.636 Z5.100 F2000.000
G1 X38.857 Y14.636 Z5.100 F2000.000
G2 X37.272 Y16.221 Z5.100 I0.000 J1.585 K0.000 F2000.000
G1 X37.272 Y19.162 Z5.100 F2000.000
G2 X38.857 Y20.747 Z5.100 I1.585 J-0.000 K0.000 F2000.000
G1 X43.727 Y20.747 Z5.100 F2000.000
G1 X43.727 Y21.415 Z5.100 F2000.000
G1 X35.557 Y21.415 Z5.100 F2000.000
G1 X35.557 Y12.250 Z5.100 F2000.000
G0 Z14.100
G0 X36.349 Z14.100
G0 X36.349 Z12.100
G1 X36.349 Y12.250 Z5.100 F2000.000
G1 X36.349 Y9.402 Z5.100 F2000.000
G1 X36.479 Y9.402 Z5.100 F2000.000
G1 X36.479 Y12.533 Z5.100 F2000.000
G2 X37.362 Y14.380 Z5.100 I2.368 J0.003 K0.000 F2000.000
G2 X36.479 Y16.221 Z5.100 I1.459 J1.832 K0.000 F2000.000
G1 X36.479 Y19.162 Z5.100 F2000.000
G2 X36.991 Y20.622 Z5.100 I2.300 J0.014 K0.000 F2000.000
G1 X36.349 Y20.622 Z5.100 F2000.000
G1 X36.349 Y12.250 Z5.100 F2000.000
G0 Z14.100
G0 Z14.100
G0 X36.349 Y12.250
G0 X49.364
G0 X49.364 Z12.100
G1 X49.364 Y12.250 Z7.515 F2000.000
G1 X49.364 Y8.585 Z7.515 F2000.000
G1 X51.007 Y8.585 Z7.515 F2000.000
G1 X51.007 Y12.333 Z7.515 F2000.000
G2 X52.592 Y13.918 Z7.515 I1.585 J-0.000 K0.000 F2000.000
G1 X53.814 Y13.918 Z7.515 F2000.000
G2 X55.244 Y13.017 Z7.515 I-0.000 J-1.585 K0.000 F2000.000
G1 X57.363 Y8.585 Z7.515 F2000.000
G1 X59.106 Y8.585 Z7.515 F2000.000
G1 X57.203 Y12.221 Z7.515 F2000.000
G2 X57.833 Y14.339 Z7.515 I1.404 J0.735 K0.000 F2000.000
G3 X59.799 Y17.499 Z7.515 I-1.470 J3.106 K0.000 F2000.000
G3 X59.019 Y20.000 Z7.515 I-3.812 J0.184 K0.000 F2000.000
G3 X56.579 Y21.291 Z7.515 I-2.967 J-2.656 K0.000 F2000.000
G3 X55.048 Y21.415 Z7.515 I-1.463 J-8.551 K0.000 F2000.000
G1 X49.364 Y21.415 Z7.515 F2000.000
G1 X49.364 Y12.250 Z7.515 F2000.000
G0 Z14.100
G0 X50.156 Z14.100
G0 X50.156 Z12.100
G1 X50.156 Y12.250 Z7.515 F2000.000
G1 X50.156 Y9.378 Z7.515 F2000.000
G1 X50.214 Y9.378 Z7.515 F2000.000
G1 X50.214 Y12.333 Z7.515 F2000.000
G2 X50.887 Y13.980 Z7.515 I2.294 J0.023 K0.000 F2000.000
G2 X50.214 Y15.623 Z7.515 I1.650 J1.635 K0.000 F2000.000
G1 X50.214 Y19.461 Z7.515 F2000.000
G2 X50.523 Y20.622 Z7.515 I2.259 J0.022 K0.000 F2000.000
G1 X50.156 Y20.622 Z7.515 F2000.000
G1 X50.156 Y12.250 Z7.515 F2000.000
G0 Z14.100
G0 X51.664 Y14.338 Z14.100
G0 X51.664 Y14.338 Z12.100
G1 X51.664 Y14.338 Z7.515 F2000.000
G3 X52.592 Y14.038 Z7.515 I0.928 J1.285 K0.000 F2000.000
G1 X54.350 Y14.038 Z7.515 F2000.000
G3 X57.063 Y15.143 Z7.515 I0.047 J3.768 K0.000 F2000.000
G3 X57.855 Y18.337 Z7.515 I-2.723 J2.370 K0.000 F2000.000
G3 X54.493 Y21.040 Z7.515 I-3.395 J-0.781 K0.000 F2000.000
G1 X52.592 Y21.046 Z7.515 F2000.000
G3 X51.007 Y19.461 Z7.515 I0.000 J-1.585 K0.000 F2000.000
G1 X51.007 Y15.623 Z7.515 F2000.000
G3 X51.664 Y14.338 Z7.515 I1.585 J0.000 K0.000 F2000.000
G0 Z14.100
G0 X55.873 Y13.496 Z14.100
G0 X55.873 Y13.496 Z12.100
G1 X55.873 Y13.496 Z7.515 F2000.000
G2 X56.245 Y12.761 Z7.515 I-3.035 J-1.996 K0.000 F2000.000
G2 X56.353 Y13.682 Z7.515 I1.802 J0.255 K0.000 F2000.000
G2 X55.873 Y13.496 Z7.515 I-1.805 J3.936 K0.000 F2000.000
G0 Z14.100
G0 X58.396 Y15.773 Z14.100
G0 X58.396 Y15.773 Z12.100
G1 X58.396 Y15.773 Z7.515 F2000.000
G3 X59.005 Y17.502 Z7.515 I-1.727 J1.580 K0.000 F2000.000
G3 X58.397 Y19.506 Z7.515 I-3.028 J0.175 K0.000 F2000.000
G3 X58.136 Y19.770 Z7.515 I-1.253 J-0.973 K0.000 F2000.000
G2 X58.396 Y15.773 Z7.515 I-4.058 J-2.270 K0.000 F2000.000
G1 X58.396 Y15.773 Z5.930 F2000.000
G3 X59.005 Y17.502 Z5.930 I-1.727 J1.580 K0.000 F2000.000
G3 X58.397 Y19.506 Z5.930 I-3.028 J0.175 K0.000 F2000.000
G3 X58.136 Y19.770 Z5.930 I-1.253 J-0.973 K0.000 F2000.000
G2 X58.396 Y15.773 Z5.930 I-4.058 J-2.270 K0.000 F2000.000
G0 Z14.100
G0 X57.658 Y16.090 Z14.100
G0 X57.658 Y16.090 Z12.100
G1 X57.658 Y16.090 Z5.930 F2000.000
G3 X57.855 Y18.337 Z5.930 I-3.318 J1.424 K0.000 F2000.000
G3 X54.493 Y21.040 Z5.930 I-3.395 J-0.781 K0.000 F2000.000
G1 X52.592 Y21.046 Z5.930 F2000.000
G3 X51.007 Y19.461 Z5.930 I0.000 J-1.585 K0.000 F2000.000
G1 X51.007 Y15.623 Z5.930 F2000.000
G3 X52.592 Y14.038 Z5.930 I1.585 J0.000 K0.000 F2000.000
G1 X54.350 Y14.038 Z5.930 F2000.000
G3 X57.063 Y15.143 Z5.930 I0.047 J3.768 K0.000 F2000.000
G3 X57.658 Y16.090 Z5.930 I-2.723 J2.370 K0.000 F2000.000
G0 Z14.100
G0 X58.737 Y14.960 Z14.100
G0 X58.737 Y14.960 Z12.100
G1 X58.737 Y14.960 Z5.930 F2000.000
G3 X59.799 Y17.499 Z5.930 I-2.373 J2.485 K0.000 F2000.000
G3 X59.019 Y20.000 Z5.930 I-3.812 J0.184 K0.000 F2000.000
G3 X56.579 Y21.291 Z5.930 I-2.967 J-2.656 K0.000 F2000.000
G3 X55.048 Y21.415 Z5.930 I-1.463 J-8.551 K0.000 F2000.000
G1 X49.364 Y21.415 Z5.930 F2000.000
G1 X49.364 Y8.585 Z5.930 F2000.000
G1 X51.007 Y8.585 Z5.930 F2000.000
G1 X51.007 Y12.333 Z5.930 F2000.000
G2 X52.592 Y13.918 Z5.930 I1.585 J-0.000 K0.000 F2000.000
G1 X53.814 Y13.918 Z5.930 F2000.000
G2 X55.244 Y13.017 Z5.930 I-0.000 J-1.585 K0.000 F2000.000
G1 X57.363 Y8.585 Z5.930 F2000.000
G1 X59.106 Y8.585 Z5.930 F2000.000
G1 X57.203 Y12.221 Z5.930 F2000.000
G2 X57.833 Y14.339 Z5.930 I1.404 J0.735 K0.000 F2000.000
G3 X58.737 Y14.960 Z5.930 I-1.470 J3.106 K0.000 F2000.000
G0 Z14.100
G0 X56.353 Y13.682 Z14.100
G0 X56.353 Y13.682 Z12.100
G1 X56.353 Y13.682 Z5.930 F2000.000
G2 X55.873 Y13.496 Z5.930 I-1.805 J3.936 K0.000 F2000.000
G2 X56.245 Y12.761 Z5.930 I-3.035 J-1.996 K0.000 F2000.000
G2 X56.353 Y13.682 Z5.930 I1.802 J0.255 K0.000 F2000.000
G0 Z14.100
G0 X50.887 Y13.980 Z14.100
G0 X50.887 Y13.980 Z12.100
G1 X50.887 Y13.980 Z5.930 F2000.000
G2 X50.214 Y15.623 Z5.930 I1.650 J1.635 K0.000 F2000.000
G1 X50.214 Y19.461 Z5.930 F2000.000
G2 X50.523 Y20.622 Z5.930 I2.259 J0.022 K0.000 F2000.000
G1 X50.156 Y20.622 Z5.930 F2000.000
G1 X50.156 Y9.378 Z5.930 F2000.000
G1 X50.214 Y9.378 Z5.930 F2000.000
G1 X50.214 Y12.333 Z5.930 F2000.000
G2 X50.887 Y13.980 Z5.930 I2.294 J0.023 K0.000 F2000.000
G1 X50.887 Y13.980 Z5.100 F2000.000
G2 X50.214 Y15.623 Z5.100 I1.650 J1.635 K0.000 F2000.000
G1 X50.214 Y19.461 Z5.100 F2000.000
G2 X50.523 Y20.622 Z5.100 I2.259 J0.022 K0.000 F2000.000
G1 X50.156 Y20.622 Z5.100 F2000.000
G1 X50.156 Y9.378 Z5.100 F2000.000
G1 X50.214 Y9.378 Z5.100 F2000.000
G1 X50.214 Y12.333 Z5.100 F2000.000
G2 X50.887 Y13.980 Z5.100 I2.294 J0.023 K0.000 F2000.000
G0 Z14.100
G0 X51.451 Y14.523 Z14.100
G0 X51.451 Y14.523 Z12.100
G1 X51.451 Y14.523 Z5.100 F2000.000
G3 X52.592 Y14.038 Z5.100 I1.141 J1.100 K0.000 F2000.000
G1 X54.350 Y14.038 Z5.100 F2000.000
G3 X57.063 Y15.143 Z5.100 I0.047 J3.768 K0.000 F2000.000
G3 X57.855 Y18.337 Z5.100 I-2.723 J2.370 K0.000 F2000.000
G3 X54.493 Y21.040 Z5.100 I-3.395 J-0.781 K0.000 F2000.000
G1 X52.592 Y21.046 Z5.100 F2000.000
G3 X51.007 Y19.461 Z5.100 I0.000 J-1.585 K0.000 F2000.000
G1 X51.007 Y15.623 Z5.100 F2000.000
G3 X51.451 Y14.523 Z5.100 I1.585 J0.000 K0.000 F2000.000
G0 Z14.100
G0 X51.859 Y13.739 Z14.100
G0 X51.859 Y13.739 Z12.100
G1 X51.859 Y13.739 Z5.100 F2000.000
G2 X52.592 Y13.918 Z5.100 I0.732 J-1.406 K0.000 F2000.000
G1 X53.814 Y13.918 Z5.100 F2000.000
G2 X55.244 Y13.017 Z5.100 I-0.000 J-1.585 K0.000 F2000.000
G1 X57.363 Y8.585 Z5.100 F2000.000
G1 X59.106 Y8.585 Z5.100 F2000.000
G1 X57.203 Y12.221 Z5.100 F2000.000
G2 X57.833 Y14.339 Z5.100 I1.404 J0.735 K0.000 F2000.000
G3 X59.799 Y17.499 Z5.100 I-1.470 J3.106 K0.000 F2000.000
G3 X59.019 Y20.000 Z5.100 I-3.812 J0.184 K0.000 F2000.000
G3 X56.579 Y21.291 Z5.100 I-2.967 J-2.656 K0.000 F2000.000
G3 X55.048 Y21.415 Z5.100 I-1.463 J-8.551 K0.000 F2000.000
G1 X49.364 Y21.415 Z5.100 F2000.000
G1 X49.364 Y8.585 Z5.100 F2000.000
G1 X51.007 Y8.585 Z5.100 F2000.000
G1 X51.007 Y12.333 Z5.100 F2000.000
G2 X51.859 Y13.739 Z5.100 I1.585 J-0.000 K0.000 F2000.000
G0 Z14.100
G0 X55.873 Y13.496 Z14.100
G0 X55.873 Y13.496 Z12.100
G1 X55.873 Y13.496 Z5.100 F2000.000
G2 X56.245 Y12.761 Z5.100 I-3.035 J-1.996 K0.000 F2000.000
G2 X56.353 Y13.682 Z5.100 I1.802 J0.255 K0.000 F2000.000
G2 X55.873 Y13.496 Z5.100 I-1.805 J3.936 K0.000 F2000.000
G0 Z14.100
G0 X58.396 Y15.773 Z14.100
G0 X58.396 Y15.773 Z12.100
G1 X58.396 Y15.773 Z5.100 F2000.000
G3 X59.005 Y17.502 Z5.100 I-1.727 J1.580 K0.000 F2000.000
G3 X58.397 Y19.506 Z5.100 I-3.028 J0.175 K0.000 F2000.000
G3 X58.136 Y19.770 Z5.100 I-1.253 J-0.973 K0.000 F2000.000
G2 X58.396 Y15.773 Z5.100 I-4.058 J-2.270 K0.000 F2000.000
G0 Z14.100
G0 Z14.100
G0 X58.396 Y15.773
G0 X66.157 Y13.423
G0 X66.157 Y13.423 Z12.100
G1 X66.157 Y13.423 Z7.515 F2000.000
G1 X64.700 Y8.610 Z7.515 F2000.000
G1 X66.158 Y8.610 Z7.515 F2000.000
G1 X66.582 Y10.405 Z7.515 F2000.000
G2 X68.125 Y11.625 Z7.515 I1.543 J-0.365 K0.000 F2000.000
G1 X72.482 Y11.625 Z7.515 F2000.000
G2 X74.027 Y10.394 Z7.515 I-0.000 J-1.585 K0.000 F2000.000
G1 X74.435 Y8.610 Z7.515 F2000.000
G1 X76.275 Y8.610 Z7.515 F2000.000
G1 X72.436 Y21.415 Z7.515 F2000.000
G1 X68.576 Y21.415 Z7.515 F2000.000
G1 X66.157 Y13.423 Z7.515 F2000.000
G0 Z14.100
G0 X66.734 Y12.594 Z14.100
G0 X66.734 Y12.594 Z12.100
G1 X66.734 Y12.594 Z7.515 F2000.000
G1 X66.478 Y11.747 Z7.515 F2000.000
G2 X66.991 Y12.121 Z7.515 I1.285 J-1.227 K0.000 F2000.000
G2 X66.734 Y12.594 Z7.515 I1.177 J0.944 K0.000 F2000.000
G0 Z14.100
G0 X67.461 Y12.887 Z14.100
G0 X67.461 Y12.887 Z12.100
G1 X67.461 Y12.887 Z7.515 F2000.000
G3 X68.931 Y11.895 Z7.515 I1.470 J0.593 K0.000 F2000.000
G1 X71.699 Y11.895 Z7.515 F2000.000
G3 X73.245 Y13.829 Z7.515 I0.000 J1.585 K0.000 F2000.000
G1 X72.007 Y19.312 Z7.515 F2000.000
G3 X70.461 Y20.548 Z7.515 I-1.546 J-0.349 K0.000 F2000.000
G3 X68.673 Y19.324 Z7.515 I-0.208 J-1.615 K0.000 F2000.000
G1 X67.388 Y13.841 Z7.515 F2000.000
G3 X67.461 Y12.887 Z7.515 I1.543 J-0.362 K0.000 F2000.000
G0 Z14.100
G0 X73.635 Y12.114 Z14.100
G0 X73.635 Y12.114 Z12.100
G1 X73.635 Y12.114 Z7.515 F2000.000
G2 X74.800 Y10.570 Z7.515 I-1.122 J-2.058 K0.000 F2000.000
G1 X75.067 Y9.402 Z7.515 F2000.000
G1 X75.210 Y9.402 Z7.515 F2000.000
G1 X74.059 Y13.242 Z7.515 F2000.000
G2 X73.635 Y12.114 Z7.515 I-2.165 J0.169 K0.000 F2000.000
G1 X73.635 Y12.114 Z5.930 F2000.000
G2 X74.800 Y10.570 Z5.930 I-1.122 J-2.058 K0.000 F2000.000
G1 X75.067 Y9.402 Z5.930 F2000.000
G1 X75.210 Y9.402 Z5.930 F2000.000
G1 X74.059 Y13.242 Z5.930 F2000.000
G2 X73.635 Y12.114 Z5.930 I-2.165 J0.169 K0.000 F2000.000
G0 Z14.100
G0 X72.994 Y12.566 Z14.100
G0 X72.994 Y12.566 Z12.100
G1 X72.994 Y12.566 Z5.930 F2000.000
G3 X73.245 Y13.829 Z5.930 I-1.295 J0.914 K0.000 F2000.000
G1 X72.007 Y19.312 Z5.930 F2000.000
G3 X70.461 Y20.548 Z5.930 I-1.546 J-0.349 K0.000 F2000.000
G3 X68.673 Y19.324 Z5.930 I-0.208 J-1.615 K0.000 F2000.000
G1 X67.388 Y13.841 Z5.930 F2000.000
G3 X68.931 Y11.895 Z5.930 I1.543 J-0.362 K0.000 F2000.000
G1 X71.699 Y11.895 Z5.930 F2000.000
G3 X72.994 Y12.566 Z5.930 I0.000 J1.585 K0.000 F2000.000
G0 Z14.100
G0 X72.797 Y11.594 Z14.100
G0 X72.797 Y11.594 Z12.100
G1 X72.797 Y11.594 Z5.930 F2000.000
G2 X74.027 Y10.394 Z5.930 I-0.315 J-1.553 K0.000 F2000.000
G1 X74.435 Y8.610 Z5.930 F2000.000
G1 X76.275 Y8.610 Z5.930 F2000.000
G1 X72.436 Y21.415 Z5.930 F2000.000
G1 X68.576 Y21.415 Z5.930 F2000.000
G1 X64.700 Y8.610 Z5.930 F2000.000
G1 X66.158 Y8.610 Z5.930 F2000.000
G1 X66.582 Y10.405 Z5.930 F2000.000
G2 X68.125 Y11.625 Z5.930 I1.543 J-0.365 K0.000 F2000.000
G1 X72.482 Y11.625 Z5.930 F2000.000
G2 X72.797 Y11.594 Z5.930 I-0.000 J-1.585 K0.000 F2000.000
G0 Z14.100
G0 X66.991 Y12.121 Z14.100
G0 X66.991 Y12.121 Z12.100
G1 X66.991 Y12.121 Z5.930 F2000.000
G2 X66.734 Y12.594 Z5.930 I1.177 J0.944 K0.000 F2000.000
G1 X66.478 Y11.747 Z5.930 F2000.000
G2 X66.991 Y12.121 Z5.930 I1.285 J-1.227 K0.000 F2000.000
G1 X66.991 Y12.121 Z5.100 F2000.000
G2 X66.734 Y12.594 Z5.100 I1.177 J0.944 K0.000 F2000.000
G1 X66.478 Y11.747 Z5.100 F2000.000
G2 X66.991 Y12.121 Z5.100 I1.285 J-1.227 K0.000 F2000.000
G0 Z14.100
G0 X67.366 Y11.432 Z14.100
G0 X67.366 Y11.432 Z12.100
G1 X67.366 Y11.432 Z5.100 F2000.000
G2 X68.125 Y11.625 Z5.100 I0.759 J-1.392 K0.000 F2000.000
G1 X72.482 Y11.625 Z5.100 F2000.000
G2 X74.027 Y10.394 Z5.100 I-0.000 J-1.585 K0.000 F2000.000
G1 X74.435 Y8.610 Z5.100 F2000.000
G1 X76.275 Y8.610 Z5.100 F2000.000
G1 X72.436 Y21.415 Z5.100 F2000.000
G1 X68.576 Y21.415 Z5.100 F2000.000
G1 X64.700 Y8.610 Z5.100 F2000.000
G1 X66.158 Y8.610 Z5.100 F2000.000
G1 X66.582 Y10.405 Z5.100 F2000.000
G2 X67.366 Y11.432 Z5.100 I1.543 J-0.365 K0.000 F2000.000
G0 Z14.100
G0 X67.968 Y12.220 Z14.100
G0 X67.968 Y12.220 Z12.100
G1 X67.968 Y12.220 Z5.100 F2000.000
G3 X68.931 Y11.895 Z5.100 I0.962 J1.259 K0.000 F2000.000
G1 X71.699 Y11.895 Z5.100 F2000.000
G3 X73.245 Y13.829 Z5.100 I0.000 J1.585 K0.000 F2000.000
G1 X72.007 Y19.312 Z5.100 F2000.000
G3 X70.461 Y20.548 Z5.100 I-1.546 J-0.349 K0.000 F2000.000
G3 X68.673 Y19.324 Z5.100 I-0.208 J-1.615 K0.000 F2000.000
G1 X67.388 Y13.841 Z5.100 F2000.000
G3 X67.968 Y12.220 Z5.100 I1.543 J-0.362 K0.000 F2000.000
G0 Z14.100
G0 X73.635 Y12.114 Z14.100
G0 X73.635 Y12.114 Z12.100
G1 X73.635 Y12.114 Z5.100 F2000.000
G2 X74.800 Y10.570 Z5.100 I-1.122 J-2.058 K0.000 F2000.000
G1 X75.067 Y9.402 Z5.100 F2000.000
G1 X75.210 Y9.402 Z5.100 F2000.000
G1 X74.059 Y13.242 Z5.100 F2000.000
G2 X73.635 Y12.114 Z5.100 I-2.165 J0.169 K0.000 F2000.000
G0 Z14.100
G0 Z14.100
G0 X73.635 Y12.114
G0 X81.595 Y10.314
G0 X81.595 Y10.314 Z12.100
G1 X81.595 Y10.314 Z7.515 F2000.000
G3 X83.063 Y8.963 Z7.515 I2.776 J1.544 K0.000 F2000.000
G3 X85.371 Y8.381 Z7.515 I2.674 J5.735 K0.000 F2000.000
G3 X88.195 Y8.464 Z7.515 I1.074 J11.579 K0.000 F2000.000
G3 X90.588 Y9.432 Z7.515 I-0.613 J4.957 K0.000 F2000.000
G3 X91.799 Y12.126 Z7.515 I-2.092 J2.560 K0.000 F2000.000
G3 X91.565 Y13.575 Z7.515 I-3.429 J0.188 K0.000 F2000.000
G3 X90.343 Y14.812 Z7.515 I-2.302 J-1.052 K0.000 F2000.000
G3 X88.612 Y15.340 Z7.515 I-2.608 J-5.451 K0.000 F2000.000
G2 X85.629 Y15.855 Z7.515 I3.093 J26.825 K0.000 F2000.000
G2 X83.618 Y17.083 Z7.515 I0.662 J3.347 K0.000 F2000.000
G2 X84.748 Y20.935 Z7.515 I2.228 J1.438 K0.000 F2000.000
G2 X88.582 Y20.788 Z7.515 I1.762 J-4.139 K0.000 F2000.000
G2 X89.679 Y19.782 Z7.515 I-1.472 J-2.705 K0.000 F2000.000
G1 X90.985 Y19.782 Z7.515 F2000.000
G3 X88.308 Y21.496 Z7.515 I-3.387 J-2.342 K0.000 F2000.000
G3 X83.624 Y21.169 Z7.515 I-1.755 J-8.566 K0.000 F2000.000
G3 X81.889 Y19.774 Z7.515 I1.193 J-3.260 K0.000 F2000.000
G3 X81.832 Y16.406 Z7.515 I3.372 J-1.742 K0.000 F2000.000
G3 X83.317 Y15.243 Z7.515 I2.406 J1.545 K0.000 F2000.000
G3 X84.710 Y14.848 Z7.515 I2.630 J6.619 K0.000 F2000.000
G2 X87.164 Y14.405 Z7.515 I-10.185 J-63.453 K0.000 F2000.000
G2 X89.002 Y13.735 Z7.515 I-0.789 J-5.016 K0.000 F2000.000
G2 X88.764 Y9.252 Z7.515 I-1.469 J-2.170 K0.000 F2000.000
G2 X86.449 Y8.758 Z7.515 I-2.034 J3.862 K0.000 F2000.000
G2 X83.232 Y10.199 Z7.515 I-0.139 J4.002 K0.000 F2000.000
G1 X83.152 Y10.314 Z7.515 F2000.000
G1 X81.595 Y10.314 Z7.515 F2000.000
G0 Z14.100
G0 X83.532 Y16.018 Z14.100
G0 X83.532 Y16.018 Z12.100
G1 X83.532 Y16.018 Z7.515 F2000.000
G2 X82.461 Y19.139 Z7.515 I2.015 J2.436 K0.000 F2000.000
G3 X82.517 Y16.809 Z7.515 I2.888 J-1.096 K0.000 F2000.000
G3 X83.532 Y16.018 Z7.515 I1.673 J1.100 K0.000 F2000.000
G0 Z14.100
G0 X89.612 Y14.259 Z14.100
G0 X89.612 Y14.259 Z12.100
G1 X89.612 Y14.259 Z7.515 F2000.000
G2 X90.939 Y11.454 Z7.515 I-1.909 J-2.619 K0.000 F2000.000
G3 X90.731 Y13.450 Z7.515 I-3.000 J0.696 K0.000 F2000.000
G3 X89.612 Y14.259 Z7.515 I-1.672 J-1.134 K0.000 F2000.000
G1 X89.612 Y14.259 Z5.930 F2000.000
G2 X90.939 Y11.454 Z5.930 I-1.909 J-2.619 K0.000 F2000.000
G3 X90.731 Y13.450 Z5.930 I-3.000 J0.696 K0.000 F2000.000
G3 X89.612 Y14.259 Z5.930 I-1.672 J-1.134 K0.000 F2000.000
G0 Z14.100
G0 X89.134 Y13.640 Z14.100
G0 X89.134 Y13.640 Z12.100
G1 X89.134 Y13.640 Z5.930 F2000.000
G2 X88.764 Y9.252 Z5.930 I-1.601 J-2.075 K0.000 F2000.000
G2 X86.449 Y8.758 Z5.930 I-2.034 J3.862 K0.000 F2000.000
G2 X83.232 Y10.199 Z5.930 I-0.139 J4.002 K0.000 F2000.000
G1 X83.152 Y10.314 Z5.930 F2000.000
G1 X81.595 Y10.314 Z5.930 F2000.000
G3 X83.063 Y8.963 Z5.930 I2.776 J1.544 K0.000 F2000.000
G3 X85.371 Y8.381 Z5.930 I2.674 J5.735 K0.000 F2000.000
G3 X88.195 Y8.464 Z5.930 I1.074 J11.579 K0.000 F2000.000
G3 X90.588 Y9.432 Z5.930 I-0.613 J4.957 K0.000 F2000.000
G3 X91.799 Y12.126 Z5.930 I-2.092 J2.560 K0.000 F2000.000
G3 X91.565 Y13.575 Z5.930 I-3.429 J0.188 K0.000 F2000.000
G3 X90.343 Y14.812 Z5.930 I-2.302 J-1.052 K0.000 F2000.000
G3 X88.612 Y15.340 Z5.930 I-2.608 J-5.451 K0.000 F2000.000
G2 X85.629 Y15.855 Z5.930 I3.093 J26.825 K0.000 F2000.000
G2 X83.618 Y17.083 Z5.930 I0.662 J3.347 K0.000 F2000.000
G2 X84.748 Y20.935 Z5.930 I2.228 J1.438 K0.000 F2000.000
G2 X88.582 Y20.788 Z5.930 I1.762 J-4.139 K0.000 F2000.000
G2 X89.679 Y19.782 Z5.930 I-1.472 J-2.705 K0.000 F2000.000
G1 X90.985 Y19.782 Z5.930 F2000.000
G3 X88.308 Y21.496 Z5.930 I-3.387 J-2.342 K0.000 F2000.000
G3 X83.624 Y21.169 Z5.930 I-1.755 J-8.566 K0.000 F2000.000
G3 X81.889 Y19.774 Z5.930 I1.193 J-3.260 K0.000 F2000.000
G3 X81.832 Y16.406 Z5.930 I3.372 J-1.742 K0.000 F2000.000
G3 X83.317 Y15.243 Z5.930 I2.406 J1.545 K0.000 F2000.000
G3 X84.710 Y14.848 Z5.930 I2.630 J6.619 K0.000 F2000.000
G2 X87.164 Y14.405 Z5.930 I-10.185 J-63.453 K0.000 F2000.000
G2 X89.002 Y13.735 Z5.930 I-0.789 J-5.016 K0.000 F2000.000
G2 X89.134 Y13.640 Z5.930 I-1.469 J-2.170 K0.000 F2000.000
G0 Z14.100
G0 X83.532 Y16.018 Z14.100
G0 X83.532 Y16.018 Z12.100
G1 X83.532 Y16.018 Z5.930 F2000.000
G2 X82.461 Y19.139 Z5.930 I2.015 J2.436 K0.000 F2000.000
G3 X82.517 Y16.809 Z5.930 I2.888 J-1.096 K0.000 F2000.000
G3 X83.532 Y16.018 Z5.930 I1.673 J1.100 K0.000 F2000.000
G1 X83.532 Y16.018 Z5.100 F2000.000
G2 X82.461 Y19.139 Z5.100 I2.015 J2.436 K0.000 F2000.000
G3 X82.517 Y16.809 Z5.100 I2.888 J-1.096 K0.000 F2000.000
G3 X83.532 Y16.018 Z5.100 I1.673 J1.100 K0.000 F2000.000
G0 Z14.100
G0 X84.057 Y16.624 Z14.100
G0 X84.057 Y16.624 Z12.100
G1 X84.057 Y16.624 Z5.100 F2000.000
G2 X83.618 Y17.083 Z5.100 I2.235 J2.578 K0.000 F2000.000
G2 X84.748 Y20.935 Z5.100 I2.228 J1.438 K0.000 F2000.000
G2 X88.582 Y20.788 Z5.100 I1.762 J-4.139 K0.000 F2000.000
G2 X89.679 Y19.782 Z5.100 I-1.472 J-2.705 K0.000 F2000.000
G1 X90.985 Y19.782 Z5.100 F2000.000
G3 X88.308 Y21.496 Z5.100 I-3.387 J-2.342 K0.000 F2000.000
G3 X83.624 Y21.169 Z5.100 I-1.755 J-8.566 K0.000 F2000.000
G3 X81.889 Y19.774 Z5.100 I1.193 J-3.260 K0.000 F2000.000
G3 X81.832 Y16.406 Z5.100 I3.372 J-1.742 K0.000 F2000.000
G3 X83.317 Y15.243 Z5.100 I2.406 J1.545 K0.000 F2000.000
G3 X84.710 Y14.848 Z5.100 I2.630 J6.619 K0.000 F2000.000
G2 X87.164 Y14.405 Z5.100 I-10.185 J-63.453 K0.000 F2000.000
G2 X89.002 Y13.735 Z5.100 I-0.789 J-5.016 K0.000 F2000.000
G2 X88.764 Y9.252 Z5.100 I-1.469 J-2.170 K0.000 F2000.000
G2 X86.449 Y8.758 Z5.100 I-2.034 J3.862 K0.000 F2000.000
G2 X83.232 Y10.199 Z5.100 I-0.139 J4.002 K0.000 F2000.000
G1 X83.152 Y10.314 Z5.100 F2000.000
G1 X81.595 Y10.314 Z5.100 F2000.000
G3 X83.063 Y8.963 Z5.100 I2.776 J1.544 K0.000 F2000.000
G3 X85.371 Y8.381 Z5.100 I2.674 J5.735 K0.000 F2000.000
G3 X88.195 Y8.464 Z5.100 I1.074 J11.579 K0.000 F2000.000
G3 X90.588 Y9.432 Z5.100 I-0.613 J4.957 K0.000 F2000.000
G3 X91.799 Y12.126 Z5.100 I-2.092 J2.560 K0.000 F2000.000
G3 X91.565 Y13.575 Z5.100 I-3.429 J0.188 K0.000 F2000.000
G3 X90.343 Y14.812 Z5.100 I-2.302 J-1.052 K0.000 F2000.000
G3 X88.612 Y15.340 Z5.100 I-2.608 J-5.451 K0.000 F2000.000
G2 X85.629 Y15.855 Z5.100 I3.093 J26.825 K0.000 F2000.000
G2 X84.057 Y16.624 Z5.100 I0.662 J3.347 K0.000 F2000.000
G0 Z14.100
G0 X89.612 Y14.259 Z14.100
G0 X89.612 Y14.259 Z12.100
G1 X89.612 Y14.259 Z5.100 F2000.000
G2 X90.939 Y11.454 Z5.100 I-1.909 J-2.619 K0.000 F2000.000
G3 X90.731 Y13.450 Z5.100 I-3.000 J0.696 K0.000 F2000.000
G3 X89.612 Y14.259 Z5.100 I-1.672 J-1.134 K0.000 F2000.000
G0 Z14.100
G0 Z14.100
G0 X89.612 Y14.259
G0 X96.267 Y20.647
G0 X96.267 Y20.647 Z12.100
G1 X96.267 Y20.647 Z7.515 F2000.000
G1 X98.769 Y20.647 Z7.515 F2000.000
G2 X100.354 Y19.062 Z7.515 I-0.000 J-1.585 K0.000 F2000.000
G1 X100.354 Y8.610 Z7.515 F2000.000
G1 X102.069 Y8.610 Z7.515 F2000.000
G1 X102.069 Y19.062 Z7.515 F2000.000
G2 X103.654 Y20.647 Z7.515 I1.585 J-0.000 K0.000 F2000.000
G1 X106.107 Y20.647 Z7.515 F2000.000
G1 X106.107 Y21.415 Z7.515 F2000.000
G1 X96.267 Y21.415 Z7.515 F2000.000
G1 X96.267 Y20.647 Z7.515 F2000.000
G0 Z14.100
G0 X100.554 Y20.622 Z14.100
G0 X100.554 Y20.622 Z12.100
G1 X100.554 Y20.622 Z7.515 F2000.000
G2 X101.147 Y19.062 Z7.515 I-1.735 J-1.552 K0.000 F2000.000
G1 X101.147 Y9.402 Z7.515 F2000.000
G1 X101.277 Y9.402 Z7.515 F2000.000
G1 X101.277 Y19.062 Z7.515 F2000.000
G2 X101.861 Y20.622 Z7.515 I2.374 J0.001 K0.000 F2000.000
G1 X100.554 Y20.622 Z7.515 F2000.000
G1 X100.554 Y20.622 Z5.930 F2000.000
G2 X101.147 Y19.062 Z5.930 I-1.735 J-1.552 K0.000 F2000.000
G1 X101.147 Y9.402 Z5.930 F2000.000
G1 X101.277 Y9.402 Z5.930 F2000.000
G1 X101.277 Y19.062 Z5.930 F2000.000
G2 X101.861 Y20.622 Z5.930 I2.374 J0.001 K0.000 F2000.000
G1 X100.554 Y20.622 Z5.930 F2000.000
G0 Z14.100
G0 X99.963 Y20.106 Z14.100
G0 X99.963 Y20.106 Z12.100
G1 X99.963 Y20.106 Z5.930 F2000.000
G2 X100.354 Y19.062 Z5.930 I-1.193 J-1.043 K0.000 F2000.000
G1 X100.354 Y8.610 Z5.930 F2000.000
G1 X102.069 Y8.610 Z5.930 F2000.000
G1 X102.069 Y19.062 Z5.930 F2000.000
G2 X103.654 Y20.647 Z5.930 I1.585 J-0.000 K0.000 F2000.000
G1 X106.107 Y20.647 Z5.930 F2000.000
G1 X106.107 Y21.415 Z5.930 F2000.000
G1 X96.267 Y21.415 Z5.930 F2000.000
G1 X96.267 Y20.647 Z5.930 F2000.000
G1 X98.769 Y20.647 Z5.930 F2000.000
G2 X99.963 Y20.106 Z5.930 I-0.000 J-1.585 K0.000 F2000.000
G1 X99.963 Y20.106 Z5.100 F2000.000
G2 X100.354 Y19.062 Z5.100 I-1.193 J-1.043 K0.000 F2000.000
G1 X100.354 Y8.610 Z5.100 F2000.000
G1 X102.069 Y8.610 Z5.100 F2000.000
G1 X102.069 Y19.062 Z5.100 F2000.000
G2 X103.654 Y20.647 Z5.100 I1.585 J-0.000 K0.000 F2000.000
G1 X106.107 Y20.647 Z5.100 F2000.000
G1 X106.107 Y21.415 Z5.100 F2000.000
G1 X96.267 Y21.415 Z5.100 F2000.000
G1 X96.267 Y20.647 Z5.100 F2000.000
G1 X98.769 Y20.647 Z5.100 F2000.000
G2 X99.963 Y20.106 Z5.100 I-0.000 J-1.585 K0.000 F2000.000
G0 Z14.100
G0 X100.554 Y20.622 Z14.100
G0 X100.554 Y20.622 Z12.100
G1 X100.554 Y20.622 Z5.100 F2000.000
G2 X101.147 Y19.062 Z5.100 I-1.735 J-1.552 K0.000 F2000.000
G1 X101.147 Y9.402 Z5.100 F2000.000
G1 X101.277 Y9.402 Z5.100 F2000.000
G1 X101.277 Y19.062 Z5.100 F2000.000
G2 X101.861 Y20.622 Z5.100 I2.374 J0.001 K0.000 F2000.000
G1 X100.554 Y20.622 Z5.100 F2000.000
G0 Z14.100
G0 Z14.100
G0 X100.554 Y20.622
G0 X111.320
G0 X111.320 Z12.100
G1 X111.320 Y20.622 Z7.515 F2000.000
G1 X111.320 Y8.585 Z7.515 F2000.000
G1 X112.963 Y8.585 Z7.515 F2000.000
G1 X112.963 Y12.333 Z7.515 F2000.000
G2 X114.548 Y13.918 Z7.515 I1.585 J-0.000 K0.000 F2000.000
G1 X115.770 Y13.918 Z7.515 F2000.000
G2 X117.200 Y13.017 Z7.515 I-0.000 J-1.585 K0.000 F2000.000
G1 X119.319 Y8.585 Z7.515 F2000.000
G1 X121.063 Y8.585 Z7.515 F2000.000
G1 X119.160 Y12.221 Z7.515 F2000.000
G2 X119.790 Y14.339 Z7.515 I1.404 J0.735 K0.000 F2000.000
G3 X121.755 Y17.499 Z7.515 I-1.470 J3.106 K0.000 F2000.000
G3 X120.975 Y20.000 Z7.515 I-3.812 J0.184 K0.000 F2000.000
G3 X118.536 Y21.291 Z7.515 I-2.967 J-2.656 K0.000 F2000.000
G3 X117.004 Y21.415 Z7.515 I-1.463 J-8.551 K0.000 F2000.000
G1 X111.320 Y21.415 Z7.515 F2000.000
G1 X111.320 Y20.622 Z7.515 F2000.000
G0 Z14.100
G0 X112.113 Z14.100
G0 X112.113 Z12.100
G1 X112.113 Y20.622 Z7.515 F2000.000
G1 X112.113 Y9.378 Z7.515 F2000.000
G1 X112.171 Y9.378 Z7.515 F2000.000
G1 X112.171 Y12.333 Z7.515 F2000.000
G2 X112.844 Y13.980 Z7.515 I2.294 J0.023 K0.000 F2000.000
G2 X112.171 Y15.623 Z7.515 I1.650 J1.635 K0.000 F2000.000
G1 X112.171 Y19.461 Z7.515 F2000.000
G2 X112.479 Y20.622 Z7.515 I2.259 J0.022 K0.000 F2000.000
G1 X112.113 Y20.622 Z7.515 F2000.000
G0 Z14.100
G0 X113.118 Y20.143 Z14.100
G0 X113.118 Y20.143 Z12.100
G1 X113.118 Y20.143 Z7.515 F2000.000
G3 X112.963 Y19.461 Z7.515 I1.431 J-0.682 K0.000 F2000.000
G1 X112.963 Y15.623 Z7.515 F2000.000
G3 X114.548 Y14.038 Z7.515 I1.585 J0.000 K0.000 F2000.000
G1 X116.306 Y14.038 Z7.515 F2000.000
G3 X119.020 Y15.143 Z7.515 I0.047 J3.768 K0.000 F2000.000
G3 X119.812 Y18.337 Z7.515 I-2.723 J2.370 K0.000 F2000.000
G3 X116.449 Y21.040 Z7.515 I-3.395 J-0.781 K0.000 F2000.000
G1 X114.548 Y21.046 Z7.515 F2000.000
G3 X113.118 Y20.143 Z7.515 I0.000 J-1.585 K0.000 F2000.000
G0 Z14.100
G0 X120.093 Y19.770 Z14.100
G0 X120.093 Y19.770 Z12.100
G1 X120.093 Y19.770 Z7.515 F2000.000
G2 X120.352 Y15.773 Z7.515 I-4.058 J-2.270 K0.000 F2000.000
G3 X120.961 Y17.502 Z7.515 I-1.727 J1.580 K0.000 F2000.000
G3 X120.353 Y19.506 Z7.515 I-3.028 J0.175 K0.000 F2000.000
G3 X120.093 Y19.770 Z7.515 I-1.253 J-0.973 K0.000 F2000.000
G0 Z14.100
G0 X118.310 Y13.682 Z14.100
G0 X118.310 Y13.682 Z12.100
G1 X118.310 Y13.682 Z7.515 F2000.000
G2 X117.829 Y13.496 Z7.515 I-1.805 J3.936 K0.000 F2000.000
G2 X118.201 Y12.761 Z7.515 I-3.035 J-1.996 K0.000 F2000.000
G2 X118.310 Y13.682 Z7.515 I1.802 J0.255 K0.000 F2000.000
G1 X118.310 Y13.682 Z5.930 F2000.000
G2 X117.829 Y13.496 Z5.930 I-1.805 J3.936 K0.000 F2000.000
G2 X118.201 Y12.761 Z5.930 I-3.035 J-1.996 K0.000 F2000.000
G2 X118.310 Y13.682 Z5.930 I1.802 J0.255 K0.000 F2000.000
G0 Z14.100
G0 X119.055 Y13.442 Z14.100
G0 X119.055 Y13.442 Z12.100
G1 X119.055 Y13.442 Z5.930 F2000.000
G2 X119.790 Y14.339 Z5.930 I1.509 J-0.486 K0.000 F2000.000
G3 X121.755 Y17.499 Z5.930 I-1.470 J3.106 K0.000 F2000.000
G3 X120.975 Y20.000 Z5.930 I-3.812 J0.184 K0.000 F2000.000
G3 X118.536 Y21.291 Z5.930 I-2.967 J-2.656 K0.000 F2000.000
G3 X117.004 Y21.415 Z5.930 I-1.463 J-8.551 K0.000 F2000.000
G1 X111.320 Y21.415 Z5.930 F2000.000
G1 X111.320 Y8.585 Z5.930 F2000.000
G1 X112.963 Y8.585 Z5.930 F2000.000
G1 X112.963 Y12.333 Z5.930 F2000.000
G2 X114.548 Y13.918 Z5.930 I1.585 J-0.000 K0.000 F2000.000
G1 X115.770 Y13.918 Z5.930 F2000.000
G2 X117.200 Y13.017 Z5.930 I-0.000 J-1.585 K0.000 F2000.000
G1 X119.319 Y8.585 Z5.930 F2000.000
G1 X121.063 Y8.585 Z5.930 F2000.000
G1 X119.160 Y12.221 Z5.930 F2000.000
G2 X119.055 Y13.442 Z5.930 I1.404 J0.735 K0.000 F2000.000
G0 Z14.100
G0 X118.337 Y14.602 Z14.100
G0 X118.337 Y14.602 Z12.100
G1 X118.337 Y14.602 Z5.930 F2000.000
G3 X119.020 Y15.143 Z5.930 I-1.984 J3.204 K0.000 F2000.000
G3 X119.812 Y18.337 Z5.930 I-2.723 J2.370 K0.000 F2000.000
G3 X116.449 Y21.040 Z5.930 I-3.395 J-0.781 K0.000 F2000.000
G1 X114.548 Y21.046 Z5.930 F2000.000
G3 X112.963 Y19.461 Z5.930 I0.000 J-1.585 K0.000 F2000.000
G1 X112.963 Y15.623 Z5.930 F2000.000
G3 X114.548 Y14.038 Z5.930 I1.585 J0.000 K0.000 F2000.000
G1 X116.306 Y14.038 Z5.930 F2000.000
G3 X118.337 Y14.602 Z5.930 I0.047 J3.768 K0.000 F2000.000
G0 Z14.100
G0 X120.352 Y15.773 Z14.100
G0 X120.352 Y15.773 Z12.100
G1 X120.352 Y15.773 Z5.930 F2000.000
G3 X120.961 Y17.502 Z5.930 I-1.727 J1.580 K0.000 F2000.000
G3 X120.353 Y19.506 Z5.930 I-3.028 J0.175 K0.000 F2000.000
G3 X120.093 Y19.770 Z5.930 I-1.253 J-0.973 K0.000 F2000.000
G2 X120.352 Y15.773 Z5.930 I-4.058 J-2.270 K0.000 F2000.000
G0 Z14.100
G0 X112.844 Y13.980 Z14.100
G0 X112.844 Y13.980 Z12.100
G1 X112.844 Y13.980 Z5.930 F2000.000
G2 X112.171 Y15.623 Z5.930 I1.650 J1.635 K0.000 F2000.000
G1 X112.171 Y19.461 Z5.930 F2000.000
G2 X112.479 Y20.622 Z5.930 I2.259 J0.022 K0.000 F2000.000
G1 X112.113 Y20.622 Z5.930 F2000.000
G1 X112.113 Y9.378 Z5.930 F2000.000
G1 X112.171 Y9.378 Z5.930 F2000.000
G1 X112.171 Y12.333 Z5.930 F2000.000
G2 X112.844 Y13.980 Z5.930 I2.294 J0.023 K0.000 F2000.000
G1 X112.844 Y13.980 Z5.100 F2000.000
G2 X112.171 Y15.623 Z5.100 I1.650 J1.635 K0.000 F2000.000
G1 X112.171 Y19.461 Z5.100 F2000.000
G2 X112.479 Y20.622 Z5.100 I2.259 J0.022 K0.000 F2000.000
G1 X112.113 Y20.622 Z5.100 F2000.000
G1 X112.113 Y9.378 Z5.100 F2000.000
G1 X112.171 Y9.378 Z5.100 F2000.000
G1 X112.171 Y12.333 Z5.100 F2000.000
G2 X112.844 Y13.980 Z5.100 I2.294 J0.023 K0.000 F2000.000
G0 Z14.100
G0 X113.407 Y14.523 Z14.100
G0 X113.407 Y14.523 Z12.100
G1 X113.407 Y14.523 Z5.100 F2000.000
G3 X114.548 Y14.038 Z5.100 I1.141 J1.100 K0.000 F2000.000
G1 X116.306 Y14.038 Z5.100 F2000.000
G3 X119.020 Y15.143 Z5.100 I0.047 J3.768 K0.000 F2000.000
G3 X119.812 Y18.337 Z5.100 I-2.723 J2.370 K0.000 F2000.000
G3 X116.449 Y21.040 Z5.100 I-3.395 J-0.781 K0.000 F2000.000
G1 X114.548 Y21.046 Z5.100 F2000.000
G3 X112.963 Y19.461 Z5.100 I0.000 J-1.585 K0.000 F2000.000
G1 X112.963 Y15.623 Z5.100 F2000.000
G3 X113.407 Y14.523 Z5.100 I1.585 J0.000 K0.000 F2000.000
G0 Z14.100
G0 X113.816 Y13.739 Z14.100
G0 X113.816 Y13.739 Z12.100
G1 X113.816 Y13.739 Z5.100 F2000.000
G2 X114.548 Y13.918 Z5.100 I0.732 J-1.406 K0.000 F2000.000
G1 X115.770 Y13.918 Z5.100 F2000.000
G2 X117.200 Y13.017 Z5.100 I-0.000 J-1.585 K0.000 F2000.000
G1 X119.319 Y8.585 Z5.100 F2000.000
G1 X121.063 Y8.585 Z5.100 F2000.000
G1 X119.160 Y12.221 Z5.100 F2000.000
G2 X119.790 Y14.339 Z5.100 I1.404 J0.735 K0.000 F2000.000
G3 X121.755 Y17.499 Z5.100 I-1.470 J3.106 K0.000 F2000.000
G3 X120.975 Y20.000 Z5.100 I-3.812 J0.184 K0.000 F2000.000
G3 X118.536 Y21.291 Z5.100 I-2.967 J-2.656 K0.000 F2000.000
G3 X117.004 Y21.415 Z5.100 I-1.463 J-8.551 K0.000 F2000.000
G1 X111.320 Y21.415 Z5.100 F2000.000
G1 X111.320 Y8.585 Z5.100 F2000.000
G1 X112.963 Y8.585 Z5.100 F2000.000
G1 X112.963 Y12.333 Z5.100 F2000.000
G2 X113.816 Y13.739 Z5.100 I1.585 J-0.000 K0.000 F2000.000
G0 Z14.100
G0 X117.829 Y13.496 Z14.100
G0 X117.829 Y13.496 Z12.100
G1 X117.829 Y13.496 Z5.100 F2000.000
G2 X118.201 Y12.761 Z5.100 I-3.035 J-1.996 K0.000 F2000.000
G2 X118.310 Y13.682 Z5.100 I1.802 J0.255 K0.000 F2000.000
G2 X117.829 Y13.496 Z5.100 I-1.805 J3.936 K0.000 F2000.000
G0 Z14.100
G0 X120.352 Y15.773 Z14.100
G0 X120.352 Y15.773 Z12.100
G1 X120.352 Y15.773 Z5.100 F2000.000
G3 X120.961 Y17.502 Z5.100 I-1.727 J1.580 K0.000 F2000.000
G3 X120.353 Y19.506 Z5.100 I-3.028 J0.175 K0.000 F2000.000
G3 X120.093 Y19.770 Z5.100 I-1.253 J-0.973 K0.000 F2000.000
G2 X120.352 Y15.773 Z5.100 I-4.058 J-2.270 K0.000 F2000.000
G0 Z14.100
G0 Z14.100
G0 X120.352 Y15.773
G0 X127.270
G0 X127.270 Z12.100
G1 X127.270 Y15.773 Z7.515 F2000.000
G1 X127.270 Y12.588 Z7.515 F2000.000
G3 X128.076 Y10.065 Z7.515 I3.817 J-0.172 K0.000 F2000.000
G3 X131.095 Y8.471 Z7.515 I3.699 J3.352 K0.000 F2000.000
G3 X134.385 Y8.472 Z7.515 I1.644 J9.972 K0.000 F2000.000
G3 X137.064 Y9.703 Z7.515 I-0.742 J5.146 K0.000 F2000.000
G3 X138.206 Y12.589 Z7.515 I-2.596 J2.697 K0.000 F2000.000
G1 X138.206 Y21.415 Z7.515 F2000.000
G1 X136.491 Y21.415 Z7.515 F2000.000
G1 X136.488 Y13.133 Z7.515 F2000.000
G2 X135.522 Y10.373 Z7.515 I-3.973 J-0.159 K0.000 F2000.000
G2 X130.539 Y9.855 Z7.515 I-2.806 J2.768 K0.000 F2000.000
G2 X129.080 Y12.181 Z7.515 I1.878 J2.799 K0.000 F2000.000
G2 X128.985 Y13.245 Z7.515 I5.697 J1.043 K0.000 F2000.000
G1 X128.985 Y21.415 Z7.515 F2000.000
G1 X127.270 Y21.415 Z7.515 F2000.000
G1 X127.270 Y15.773 Z7.515 F2000.000
G0 Z14.100
G0 X128.063 Z14.100
G0 X128.063 Z12.100
G1 X128.063 Y15.773 Z7.515 F2000.000
G1 X128.063 Y12.609 Z7.515 F2000.000
G3 X128.691 Y10.566 Z7.515 I3.056 J-0.178 K0.000 F2000.000
G3 X129.060 Y10.198 Z7.515 I1.627 J1.263 K0.000 F2000.000
G2 X128.193 Y13.245 Z7.515 I4.246 J2.856 K0.000 F2000.000
G1 X128.193 Y20.622 Z7.515 F2000.000
G1 X128.063 Y20.622 Z7.515 F2000.000
G1 X128.063 Y15.773 Z7.515 F2000.000
G0 Z14.100
G0 X137.280 Y15.768 Z14.100
G0 X137.280 Y15.768 Z12.100
G1 X137.280 Y15.768 Z7.515 F2000.000
G1 X137.278 Y13.078 Z7.515 F2000.000
G2 X136.354 Y10.142 Z7.515 I-4.768 J-0.112 K0.000 F2000.000
G3 X137.384 Y12.061 Z7.515 I-1.692 J2.144 K0.000 F2000.000
G1 X137.414 Y12.611 Z7.515 F2000.000
G1 X137.414 Y20.622 Z7.515 F2000.000
G1 X137.283 Y20.622 Z7.515 F2000.000
G1 X137.280 Y15.768 Z7.515 F2000.000
G1 X137.280 Y15.768 Z5.930 F2000.000
G1 X137.278 Y13.078 Z5.930 F2000.000
G2 X136.354 Y10.142 Z5.930 I-4.768 J-0.112 K0.000 F2000.000
G3 X137.384 Y12.061 Z5.930 I-1.692 J2.144 K0.000 F2000.000
G1 X137.414 Y12.611 Z5.930 F2000.000
G1 X137.414 Y20.622 Z5.930 F2000.000
G1 X137.283 Y20.622 Z5.930 F2000.000
G1 X137.280 Y15.768 Z5.930 F2000.000
G0 Z14.100
G0 X136.489 Y15.768 Z14.100
G0 X136.489 Y15.768 Z12.100
G1 X136.489 Y15.768 Z5.930 F2000.000
G1 X136.488 Y13.133 Z5.930 F2000.000
G2 X135.522 Y10.373 Z5.930 I-3.973 J-0.159 K0.000 F2000.000
G2 X130.539 Y9.855 Z5.930 I-2.806 J2.768 K0.000 F2000.000
G2 X129.080 Y12.181 Z5.930 I1.878 J2.799 K0.000 F2000.000
G2 X128.985 Y13.245 Z5.930 I5.697 J1.043 K0.000 F2000.000
G1 X128.985 Y21.415 Z5.930 F2000.000
G1 X127.270 Y21.415 Z5.930 F2000.000
G1 X127.270 Y12.588 Z5.930 F2000.000
G3 X128.076 Y10.065 Z5.930 I3.817 J-0.172 K0.000 F2000.000
G3 X131.095 Y8.471 Z5.930 I3.699 J3.352 K0.000 F2000.000
G3 X134.385 Y8.472 Z5.930 I1.644 J9.972 K0.000 F2000.000
G3 X137.064 Y9.703 Z5.930 I-0.742 J5.146 K0.000 F2000.000
G3 X138.206 Y12.589 Z5.930 I-2.596 J2.697 K0.000 F2000.000
G1 X138.206 Y21.415 Z5.930 F2000.000
G1 X136.491 Y21.415 Z5.930 F2000.000
G1 X136.489 Y15.768 Z5.930 F2000.000
G0 Z14.100
G0 X128.193 Z14.100
G0 X128.193 Z12.100
G1 X128.193 Y15.768 Z5.930 F2000.000
G1 X128.193 Y20.622 Z5.930 F2000.000
G1 X128.063 Y20.622 Z5.930 F2000.000
G1 X128.063 Y12.609 Z5.930 F2000.000
G3 X128.691 Y10.566 Z5.930 I3.056 J-0.178 K0.000 F2000.000
G3 X129.060 Y10.198 Z5.930 I1.627 J1.263 K0.000 F2000.000
G2 X128.193 Y13.245 Z5.930 I4.246 J2.856 K0.000 F2000.000
G1 X128.193 Y15.768 Z5.930 F2000.000
G1 X128.193 Y15.768 Z5.100 F2000.000
G1 X128.193 Y20.622 Z5.100 F2000.000
G1 X128.063 Y20.622 Z5.100 F2000.000
G1 X128.063 Y12.609 Z5.100 F2000.000
G3 X128.691 Y10.566 Z5.100 I3.056 J-0.178 K0.000 F2000.000
G3 X129.060 Y10.198 Z5.100 I1.627 J1.263 K0.000 F2000.000
G2 X128.193 Y13.245 Z5.100 I4.246 J2.856 K0.000 F2000.000
G1 X128.193 Y15.768 Z5.100 F2000.000
G0 Z14.100
G0 X128.985 Z14.100
G0 X128.985 Z12.100
G1 X128.985 Y15.768 Z5.100 F2000.000
G1 X128.985 Y21.415 Z5.100 F2000.000
G1 X127.270 Y21.415 Z5.100 F2000.000
G1 X127.270 Y12.588 Z5.100 F2000.000
G3 X128.076 Y10.065 Z5.100 I3.817 J-0.172 K0.000 F2000.000
G3 X131.095 Y8.471 Z5.100 I3.699 J3.352 K0.000 F2000.000
G3 X134.385 Y8.472 Z5.100 I1.644 J9.972 K0.000 F2000.000
G3 X137.064 Y9.703 Z5.100 I-0.742 J5.146 K0.000 F2000.000
G3 X138.206 Y12.589 Z5.100 I-2.596 J2.697 K0.000 F2000.000
G1 X138.206 Y21.415 Z5.100 F2000.000
G1 X136.491 Y21.415 Z5.100 F2000.000
G1 X136.488 Y13.133 Z5.100 F2000.000
G2 X135.522 Y10.373 Z5.100 I-3.973 J-0.159 K0.000 F2000.000
G2 X130.539 Y9.855 Z5.100 I-2.806 J2.768 K0.000 F2000.000
G2 X129.080 Y12.181 Z5.100 I1.878 J2.799 K0.000 F2000.000
G2 X128.985 Y13.245 Z5.100 I5.697 J1.043 K0.000 F2000.000
G1 X128.985 Y15.768 Z5.100 F2000.000
G0 Z14.100
G0 X137.280 Y15.763 Z14.100
G0 X137.280 Y15.763 Z12.100
G1 X137.280 Y15.763 Z5.100 F2000.000
G1 X137.278 Y13.078 Z5.100 F2000.000
G2 X136.354 Y10.142 Z5.100 I-4.768 J-0.112 K0.000 F2000.000
G3 X137.384 Y12.061 Z5.100 I-1.692 J2.144 K0.000 F2000.000
G1 X137.414 Y12.611 Z5.100 F2000.000
G1 X137.414 Y20.622 Z5.100 F2000.000
G1 X137.283 Y20.622 Z5.100 F2000.000
G1 X137.280 Y15.763 Z5.100 F2000.000
G0 Z14.100
G0 Z14.100
G0 X137.280 Y15.763
G0 X143.817 Y15.817
G0 X143.817 Y15.817 Z12.100
G1 X143.817 Y15.817 Z7.515 F2000.000
G3 X143.819 Y15.690 Z7.515 I7.737 J0.064 K0.000 F2000.000
G3 X143.859 Y13.408 Z7.515 I25.855 J-0.684 K0.000 F2000.000
G3 X144.841 Y10.433 Z7.515 I6.022 J0.338 K0.000 F2000.000
G3 X147.802 Y8.512 Z7.515 I3.867 J2.718 K0.000 F2000.000
G3 X151.067 Y8.478 Z7.515 I1.719 J8.384 K0.000 F2000.000
G3 X153.596 Y9.693 Z7.515 I-0.828 J4.964 K0.000 F2000.000
G3 X154.772 Y11.839 Z7.515 I-2.462 J2.744 K0.000 F2000.000
G1 X153.158 Y11.839 Z7.515 F2000.000
G2 X150.707 Y9.306 Z7.515 I-3.519 J0.953 K0.000 F2000.000
G2 X146.659 Y10.622 Z7.515 I-1.096 J3.512 K0.000 F2000.000
G2 X145.749 Y13.118 Z7.515 I4.315 J2.987 K0.000 F2000.000
G2 X145.771 Y17.030 Z7.515 I20.634 J1.843 K0.000 F2000.000
G2 X146.698 Y19.424 Z7.515 I4.896 J-0.519 K0.000 F2000.000
G2 X152.495 Y19.472 Z7.515 I2.917 J-2.290 K0.000 F2000.000
G2 X153.148 Y18.173 Z7.515 I-3.098 J-2.371 K0.000 F2000.000
G1 X154.767 Y18.173 Z7.515 F2000.000
G3 X152.505 Y21.052 Z7.515 I-3.865 J-0.709 K0.000 F2000.000
G3 X149.551 Y21.663 Z7.515 I-2.819 J-6.185 K0.000 F2000.000
G3 X147.052 Y21.272 Z7.515 I-0.177 J-7.061 K0.000 F2000.000
G3 X144.196 Y18.274 Z7.515 I1.561 J-4.347 K0.000 F2000.000
G3 X143.817 Y15.817 Z7.515 I7.357 J-2.393 K0.000 F2000.000
G0 Z14.100
G0 X144.615 Y15.779 Z14.100
G0 X144.615 Y15.779 Z12.100
G1 X144.615 Y15.779 Z7.515 F2000.000
G3 X144.761 Y12.704 Z7.515 I16.301 J-0.769 K0.000 F2000.000
G3 X145.795 Y10.500 Z7.515 I4.521 J0.776 K0.000 F2000.000
G2 X144.890 Y14.252 Z7.515 I6.143 J3.467 K0.000 F2000.000
G2 X144.943 Y16.804 Z7.515 I25.320 J0.756 K0.000 F2000.000
G2 X145.790 Y19.497 Z7.515 I6.256 J-0.489 K0.000 F2000.000
G3 X144.765 Y17.346 Z7.515 I3.341 J-2.912 K0.000 F2000.000
G3 X144.615 Y15.779 Z7.515 I16.151 J-2.336 K0.000 F2000.000
G1 X144.615 Y15.779 Z5.930 F2000.000
G3 X144.761 Y12.704 Z5.930 I16.301 J-0.769 K0.000 F2000.000
G3 X145.795 Y10.500 Z5.930 I4.521 J0.776 K0.000 F2000.000
G2 X144.890 Y14.252 Z5.930 I6.143 J3.467 K0.000 F2000.000
G2 X144.943 Y16.804 Z5.930 I25.320 J0.756 K0.000 F2000.000
G2 X145.790 Y19.497 Z5.930 I6.256 J-0.489 K0.000 F2000.000
G3 X144.765 Y17.346 Z5.930 I3.341 J-2.912 K0.000 F2000.000
G3 X144.615 Y15.779 Z5.930 I16.151 J-2.336 K0.000 F2000.000
G0 Z14.100
G0 X143.817 Y15.767 Z14.100
G0 X143.817 Y15.767 Z12.100
G1 X143.817 Y15.767 Z5.930 F2000.000
G3 X143.819 Y15.690 Z5.930 I7.736 J0.113 K0.000 F2000.000
G3 X143.859 Y13.408 Z5.930 I25.855 J-0.684 K0.000 F2000.000
G3 X144.841 Y10.433 Z5.930 I6.022 J0.338 K0.000 F2000.000
G3 X147.802 Y8.512 Z5.930 I3.867 J2.718 K0.000 F2000.000
G3 X151.067 Y8.478 Z5.930 I1.719 J8.384 K0.000 F2000.000
G3 X153.596 Y9.693 Z5.930 I-0.828 J4.964 K0.000 F2000.000
G3 X154.772 Y11.839 Z5.930 I-2.462 J2.744 K0.000 F2000.000
G1 X153.158 Y11.839 Z5.930 F2000.000
G2 X150.707 Y9.306 Z5.930 I-3.519 J0.953 K0.000 F2000.000
G2 X146.659 Y10.622 Z5.930 I-1.096 J3.512 K0.000 F2000.000
G2 X145.749 Y13.118 Z5.930 I4.315 J2.987 K0.000 F2000.000
G2 X145.771 Y17.030 Z5.930 I20.634 J1.843 K0.000 F2000.000
G2 X146.698 Y19.424 Z5.930 I4.896 J-0.519 K0.000 F2000.000
G2 X152.495 Y19.472 Z5.930 I2.917 J-2.290 K0.000 F2000.000
G2 X153.148 Y18.173 Z5.930 I-3.098 J-2.371 K0.000 F2000.000
G1 X154.767 Y18.173 Z5.930 F2000.000
G3 X152.505 Y21.052 Z5.930 I-3.865 J-0.709 K0.000 F2000.000
G3 X149.551 Y21.663 Z5.930 I-2.819 J-6.185 K0.000 F2000.000
G3 X147.052 Y21.272 Z5.930 I-0.177 J-7.061 K0.000 F2000.000
G3 X144.196 Y18.274 Z5.930 I1.561 J-4.347 K0.000 F2000.000
G3 X143.817 Y15.767 Z5.930 I7.357 J-2.393 K0.000 F2000.000
G1 X143.817 Y15.767 Z5.100 F2000.000
G3 X143.819 Y15.690 Z5.100 I7.736 J0.113 K0.000 F2000.000
G3 X143.859 Y13.408 Z5.100 I25.855 J-0.684 K0.000 F2000.000
G3 X144.841 Y10.433 Z5.100 I6.022 J0.338 K0.000 F2000.000
G3 X147.802 Y8.512 Z5.100 I3.867 J2.718 K0.000 F2000.000
G3 X151.067 Y8.478 Z5.100 I1.719 J8.384 K0.000 F2000.000
G3 X153.596 Y9.693 Z5.100 I-0.828 J4.964 K0.000 F2000.000
G3 X154.772 Y11.839 Z5.100 I-2.462 J2.744 K0.000 F2000.000
G1 X153.158 Y11.839 Z5.100 F2000.000
G2 X150.707 Y9.306 Z5.100 I-3.519 J0.953 K0.000 F2000.000
G2 X146.659 Y10.622 Z5.100 I-1.096 J3.512 K0.000 F2000.000
G2 X145.749 Y13.118 Z5.100 I4.315 J2.987 K0.000 F2000.000
G2 X145.771 Y17.030 Z5.100 I20.634 J1.843 K0.000 F2000.000
G2 X146.698 Y19.424 Z5.100 I4.896 J-0.519 K0.000 F2000.000
G2 X152.495 Y19.472 Z5.100 I2.917 J-2.290 K0.000 F2000.000
G2 X153.148 Y18.173 Z5.100 I-3.098 J-2.371 K0.000 F2000.000
G1 X154.767 Y18.173 Z5.100 F2000.000
G3 X152.505 Y21.052 Z5.100 I-3.865 J-0.709 K0.000 F2000.000
G3 X149.551 Y21.663 Z5.100 I-2.819 J-6.185 K0.000 F2000.000
G3 X147.052 Y21.272 Z5.100 I-0.177 J-7.061 K0.000 F2000.000
G3 X144.196 Y18.274 Z5.100 I1.561 J-4.347 K0.000 F2000.000
G3 X143.817 Y15.767 Z5.100 I7.357 J-2.393 K0.000 F2000.000
G0 Z14.100
G0 X144.613 Y15.732 Z14.100
G0 X144.613 Y15.732 Z12.100
G1 X144.613 Y15.732 Z5.100 F2000.000
G3 X144.761 Y12.704 Z5.100 I16.303 J-0.722 K0.000 F2000.000
G3 X145.795 Y10.500 Z5.100 I4.521 J0.776 K0.000 F2000.000
G2 X144.890 Y14.252 Z5.100 I6.143 J3.467 K0.000 F2000.000
G2 X144.943 Y16.804 Z5.100 I25.320 J0.756 K0.000 F2000.000
G2 X145.790 Y19.497 Z5.100 I6.256 J-0.489 K0.000 F2000.000
G3 X144.765 Y17.346 Z5.100 I3.341 J-2.912 K0.000 F2000.000
G3 X144.613 Y15.732 Z5.100 I16.151 J-2.336 K0.000 F2000.000
G0 Z14.100
G0 Z14.100
G0 X144.613 Y15.732
G0 X159.320 Y20.647
G0 X159.320 Y20.647 Z12.100
G1 X159.320 Y20.647 Z7.515 F2000.000
G1 X161.822 Y20.647 Z7.515 F2000.000
G2 X163.407 Y19.062 Z7.515 I-0.000 J-1.585 K0.000 F2000.000
G1 X163.407 Y8.610 Z7.515 F2000.000
G1 X165.122 Y8.610 Z7.515 F2000.000
G1 X165.122 Y19.062 Z7.515 F2000.000
G2 X166.707 Y20.647 Z7.515 I1.585 J-0.000 K0.000 F2000.000
G1 X169.160 Y20.647 Z7.515 F2000.000
G1 X169.160 Y21.415 Z7.515 F2000.000
G1 X159.320 Y21.415 Z7.515 F2000.000
G1 X159.320 Y20.647 Z7.515 F2000.000
G0 Z14.100
G0 X163.607 Y20.622 Z14.100
G0 X163.607 Y20.622 Z12.100
G1 X163.607 Y20.622 Z7.515 F2000.000
G2 X164.200 Y19.062 Z7.515 I-1.735 J-1.552 K0.000 F2000.000
G1 X164.200 Y9.402 Z7.515 F2000.000
G1 X164.330 Y9.402 Z7.515 F2000.000
G1 X164.330 Y19.062 Z7.515 F2000.000
G2 X164.914 Y20.622 Z7.515 I2.374 J0.001 K0.000 F2000.000
G1 X163.607 Y20.622 Z7.515 F2000.000
G1 X163.607 Y20.622 Z5.930 F2000.000
G2 X164.200 Y19.062 Z5.930 I-1.735 J-1.552 K0.000 F2000.000
G1 X164.200 Y9.402 Z5.930 F2000.000
G1 X164.330 Y9.402 Z5.930 F2000.000
G1 X164.330 Y19.062 Z5.930 F2000.000
G2 X164.914 Y20.622 Z5.930 I2.374 J0.001 K0.000 F2000.000
G1 X163.607 Y20.622 Z5.930 F2000.000
G0 Z14.100
G0 X163.016 Y20.106 Z14.100
G0 X163.016 Y20.106 Z12.100
G1 X163.016 Y20.106 Z5.930 F2000.000
G2 X163.407 Y19.062 Z5.930 I-1.193 J-1.043 K0.000 F2000.000
G1 X163.407 Y8.610 Z5.930 F2000.000
G1 X165.122 Y8.610 Z5.930 F2000.000
G1 X165.122 Y19.062 Z5.930 F2000.000
G2 X166.707 Y20.647 Z5.930 I1.585 J-0.000 K0.000 F2000.000
G1 X169.160 Y20.647 Z5.930 F2000.000
G1 X169.160 Y21.415 Z5.930 F2000.000
G1 X159.320 Y21.415 Z5.930 F2000.000
G1 X159.320 Y20.647 Z5.930 F2000.000
G1 X161.822 Y20.647 Z5.930 F2000.000
G2 X163.016 Y20.106 Z5.930 I-0.000 J-1.585 K0.000 F2000.000
G1 X163.016 Y20.106 Z5.100 F2000.000
G2 X163.407 Y19.062 Z5.100 I-1.193 J-1.043 K0.000 F2000.000
G1 X163.407 Y8.610 Z5.100 F2000.000
G1 X165.122 Y8.610 Z5.100 F2000.000
G1 X165.122 Y19.062 Z5.100 F2000.000
G2 X166.707 Y20.647 Z5.100 I1.585 J-0.000 K0.000 F2000.000
G1 X169.160 Y20.647 Z5.100 F2000.000
G1 X169.160 Y21.415 Z5.100 F2000.000
G1 X159.320 Y21.415 Z5.100 F2000.000
G1 X159.320 Y20.647 Z5.100 F2000.000
G1 X161.822 Y20.647 Z5.100 F2000.000
G2 X163.016 Y20.106 Z5.100 I-0.000 J-1.585 K0.000 F2000.000
G0 Z14.100
G0 X163.607 Y20.622 Z14.100
G0 X163.607 Y20.622 Z12.100
G1 X163.607 Y20.622 Z5.100 F2000.000
G2 X164.200 Y19.062 Z5.100 I-1.735 J-1.552 K0.000 F2000.000
G1 X164.200 Y9.402 Z5.100 F2000.000
G1 X164.330 Y9.402 Z5.100 F2000.000
G1 X164.330 Y19.062 Z5.100 F2000.000
G2 X164.914 Y20.622 Z5.100 I2.374 J0.001 K0.000 F2000.000
G1 X163.607 Y20.622 Z5.100 F2000.000
G0 Z14.100
G0 Z14.100
G0 X163.607 Y20.622
G0 X174.174
G0 X174.174 Z12.100
G1 X174.174 Y20.622 Z7.515 F2000.000
G1 X174.174 Y12.588 Z7.515 F2000.000
G3 X174.979 Y10.065 Z7.515 I3.817 J-0.172 K0.000 F2000.000
G3 X177.998 Y8.471 Z7.515 I3.699 J3.352 K0.000 F2000.000
G3 X181.288 Y8.472 Z7.515 I1.644 J9.972 K0.000 F2000.000
G3 X183.967 Y9.703 Z7.515 I-0.742 J5.146 K0.000 F2000.000
G3 X185.110 Y12.589 Z7.515 I-2.596 J2.697 K0.000 F2000.000
G1 X185.110 Y21.415 Z7.515 F2000.000
G1 X183.394 Y21.415 Z7.515 F2000.000
G1 X183.391 Y13.133 Z7.515 F2000.000
G2 X182.425 Y10.373 Z7.515 I-3.973 J-0.159 K0.000 F2000.000
G2 X177.442 Y9.855 Z7.515 I-2.806 J2.768 K0.000 F2000.000
G2 X175.983 Y12.181 Z7.515 I1.878 J2.799 K0.000 F2000.000
G2 X175.889 Y13.245 Z7.515 I5.697 J1.043 K0.000 F2000.000
G1 X175.889 Y21.415 Z7.515 F2000.000
G1 X174.174 Y21.415 Z7.515 F2000.000
G1 X174.174 Y20.622 Z7.515 F2000.000
G0 Z14.100
G0 X174.966 Z14.100
G0 X174.966 Z12.100
G1 X174.966 Y20.622 Z7.515 F2000.000
G1 X174.966 Y12.609 Z7.515 F2000.000
G3 X175.594 Y10.566 Z7.515 I3.056 J-0.178 K0.000 F2000.000
G3 X175.964 Y10.198 Z7.515 I1.627 J1.263 K0.000 F2000.000
G2 X175.096 Y13.245 Z7.515 I4.246 J2.856 K0.000 F2000.000
G1 X175.096 Y20.622 Z7.515 F2000.000
G1 X174.966 Y20.622 Z7.515 F2000.000
G0 Z14.100
G0 X184.186 Z14.100
G0 X184.186 Z12.100
G1 X184.186 Y20.622 Z7.515 F2000.000
G1 X184.182 Y13.078 Z7.515 F2000.000
G2 X183.257 Y10.142 Z7.515 I-4.768 J-0.112 K0.000 F2000.000
G3 X184.287 Y12.061 Z7.515 I-1.692 J2.144 K0.000 F2000.000
G1 X184.317 Y12.611 Z7.515 F2000.000
G1 X184.317 Y20.622 Z7.515 F2000.000
G1 X184.186 Y20.622 Z7.515 F2000.000
G1 X184.186 Y20.622 Z5.930 F2000.000
G1 X184.182 Y13.078 Z5.930 F2000.000
G2 X183.257 Y10.142 Z5.930 I-4.768 J-0.112 K0.000 F2000.000
G3 X184.287 Y12.061 Z5.930 I-1.692 J2.144 K0.000 F2000.000
G1 X184.317 Y12.611 Z5.930 F2000.000
G1 X184.317 Y20.622 Z5.930 F2000.000
G1 X184.186 Y20.622 Z5.930 F2000.000
G0 Z14.100
G0 X183.394 Y20.623 Z14.100
G0 X183.394 Y20.623 Z12.100
G1 X183.394 Y20.623 Z5.930 F2000.000
G1 X183.391 Y13.133 Z5.930 F2000.000
G2 X182.425 Y10.373 Z5.930 I-3.973 J-0.159 K0.000 F2000.000
G2 X177.442 Y9.855 Z5.930 I-2.806 J2.768 K0.000 F2000.000
G2 X175.983 Y12.181 Z5.930 I1.878 J2.799 K0.000 F2000.000
G2 X175.889 Y13.245 Z5.930 I5.697 J1.043 K0.000 F2000.000
G1 X175.889 Y21.415 Z5.930 F2000.000
G1 X174.174 Y21.415 Z5.930 F2000.000
G1 X174.174 Y12.588 Z5.930 F2000.000
G3 X174.979 Y10.065 Z5.930 I3.817 J-0.172 K0.000 F2000.000
G3 X177.998 Y8.471 Z5.930 I3.699 J3.352 K0.000 F2000.000
G3 X181.288 Y8.472 Z5.930 I1.644 J9.972 K0.000 F2000.000
G3 X183.967 Y9.703 Z5.930 I-0.742 J5.146 K0.000 F2000.000
G3 X185.110 Y12.589 Z5.930 I-2.596 J2.697 K0.000 F2000.000
G1 X185.110 Y21.415 Z5.930 F2000.000
G1 X183.394 Y21.415 Z5.930 F2000.000
G1 X183.394 Y20.623 Z5.930 F2000.000
G0 Z14.100
G0 X175.096 Y20.622 Z14.100
G0 X175.096 Y20.622 Z12.100
G1 X175.096 Y20.622 Z5.930 F2000.000
G1 X174.966 Y20.622 Z5.930 F2000.000
G1 X174.966 Y12.609 Z5.930 F2000.000
G3 X175.594 Y10.566 Z5.930 I3.056 J-0.178 K0.000 F2000.000
G3 X175.964 Y10.198 Z5.930 I1.627 J1.263 K0.000 F2000.000
G2 X175.096 Y13.245 Z5.930 I4.246 J2.856 K0.000 F2000.000
G1 X175.096 Y20.622 Z5.930 F2000.000
G1 X175.096 Y20.622 Z5.100 F2000.000
G1 X174.966 Y20.622 Z5.100 F2000.000
G1 X174.966 Y12.609 Z5.100 F2000.000
G3 X175.594 Y10.566 Z5.100 I3.056 J-0.178 K0.000 F2000.000
G3 X175.964 Y10.198 Z5.100 I1.627 J1.263 K0.000 F2000.000
G2 X175.096 Y13.245 Z5.100 I4.246 J2.856 K0.000 F2000.000
G1 X175.096 Y20.622 Z5.100 F2000.000
G0 Z14.100
G0 Y21.415 Z14.100
G0 Y21.415 Z12.100
G1 X175.096 Y21.415 Z5.100 F2000.000
G1 X174.174 Y21.415 Z5.100 F2000.000
G1 X174.174 Y12.588 Z5.100 F2000.000
G3 X174.979 Y10.065 Z5.100 I3.817 J-0.172 K0.000 F2000.000
G3 X177.998 Y8.471 Z5.100 I3.699 J3.352 K0.000 F2000.000
G3 X181.288 Y8.472 Z5.100 I1.644 J9.972 K0.000 F2000.000
G3 X183.967 Y9.703 Z5.100 I-0.742 J5.146 K0.000 F2000.000
G3 X185.110 Y12.589 Z5.100 I-2.596 J2.697 K0.000 F2000.000
G1 X185.110 Y21.415 Z5.100 F2000.000
G1 X183.394 Y21.415 Z5.100 F2000.000
G1 X183.391 Y13.133 Z5.100 F2000.000
G2 X182.425 Y10.373 Z5.100 I-3.973 J-0.159 K0.000 F2000.000
G2 X177.442 Y9.855 Z5.100 I-2.806 J2.768 K0.000 F2000.000
G2 X175.983 Y12.181 Z5.100 I1.878 J2.799 K0.000 F2000.000
G2 X175.889 Y13.245 Z5.100 I5.697 J1.043 K0.000 F2000.000
G1 X175.889 Y21.415 Z5.100 F2000.000
G1 X175.096 Y21.415 Z5.100 F2000.000
G0 Z14.100
G0 X184.186 Y20.622 Z14.100
G0 X184.186 Y20.622 Z12.100
G1 X184.186 Y20.622 Z5.100 F2000.000
G1 X184.182 Y13.078 Z5.100 F2000.000
G2 X183.257 Y10.142 Z5.100 I-4.768 J-0.112 K0.000 F2000.000
G3 X184.287 Y12.061 Z5.100 I-1.692 J2.144 K0.000 F2000.000
G1 X184.317 Y12.611 Z5.100 F2000.000
G1 X184.317 Y20.622 Z5.100 F2000.000
G1 X184.186 Y20.622 Z5.100 F2000.000
G0 Z14.100
G0 Z14.100
G0 X184.186 Y20.622
G0 X191.370
G0 X191.370 Z12.100
G1 X191.370 Y20.622 Z7.515 F2000.000
G1 X191.370 Y8.585 Z7.515 F2000.000
G1 X193.013 Y8.585 Z7.515 F2000.000
G1 X193.013 Y12.333 Z7.515 F2000.000
G2 X194.598 Y13.918 Z7.515 I1.585 J-0.000 K0.000 F2000.000
G1 X195.820 Y13.918 Z7.515 F2000.000
G2 X197.250 Y13.017 Z7.515 I-0.000 J-1.585 K0.000 F2000.000
G1 X199.369 Y8.585 Z7.515 F2000.000
G1 X201.113 Y8.585 Z7.515 F2000.000
G1 X199.209 Y12.221 Z7.515 F2000.000
G2 X199.839 Y14.339 Z7.515 I1.404 J0.735 K0.000 F2000.000
G3 X201.805 Y17.499 Z7.515 I-1.470 J3.106 K0.000 F2000.000
G3 X201.025 Y20.000 Z7.515 I-3.812 J0.184 K0.000 F2000.000
G3 X198.586 Y21.291 Z7.515 I-2.967 J-2.656 K0.000 F2000.000
G3 X197.054 Y21.415 Z7.515 I-1.463 J-8.551 K0.000 F2000.000
G1 X191.370 Y21.415 Z7.515 F2000.000
G1 X191.370 Y20.622 Z7.515 F2000.000
G0 Z14.100
G0 X192.163 Z14.100
G0 X192.163 Z12.100
G1 X192.163 Y20.622 Z7.515 F2000.000
G1 X192.163 Y9.378 Z7.515 F2000.000
G1 X192.221 Y9.378 Z7.515 F2000.000
G1 X192.221 Y12.333 Z7.515 F2000.000
G2 X192.893 Y13.980 Z7.515 I2.294 J0.023 K0.000 F2000.000
G2 X192.221 Y15.623 Z7.515 I1.650 J1.635 K0.000 F2000.000
G1 X192.221 Y19.461 Z7.515 F2000.000
G2 X192.529 Y20.622 Z7.515 I2.259 J0.022 K0.000 F2000.000
G1 X192.163 Y20.622 Z7.515 F2000.000
G0 Z14.100
G0 X193.167 Y20.143 Z14.100
G0 X193.167 Y20.143 Z12.100
G1 X193.167 Y20.143 Z7.515 F2000.000
G3 X193.013 Y19.461 Z7.515 I1.431 J-0.682 K0.000 F2000.000
G1 X193.013 Y15.623 Z7.515 F2000.000
G3 X194.598 Y14.038 Z7.515 I1.585 J0.000 K0.000 F2000.000
G1 X196.356 Y14.038 Z7.515 F2000.000
G3 X199.070 Y15.143 Z7.515 I0.047 J3.768 K0.000 F2000.000
G3 X199.862 Y18.337 Z7.515 I-2.723 J2.370 K0.000 F2000.000
G3 X196.499 Y21.040 Z7.515 I-3.395 J-0.781 K0.000 F2000.000
G1 X194.598 Y21.046 Z7.515 F2000.000
G3 X193.167 Y20.143 Z7.515 I0.000 J-1.585 K0.000 F2000.000
G0 Z14.100
G0 X200.143 Y19.770 Z14.100
G0 X200.143 Y19.770 Z12.100
G1 X200.143 Y19.770 Z7.515 F2000.000
G2 X200.402 Y15.773 Z7.515 I-4.058 J-2.270 K0.000 F2000.000
G3 X201.011 Y17.502 Z7.515 I-1.727 J1.580 K0.000 F2000.000
G3 X200.403 Y19.506 Z7.515 I-3.028 J0.175 K0.000 F2000.000
G3 X200.143 Y19.770 Z7.515 I-1.253 J-0.973 K0.000 F2000.000
G0 Z14.100
G0 X198.360 Y13.682 Z14.100
G0 X198.360 Y13.682 Z12.100
G1 X198.360 Y13.682 Z7.515 F2000.000
G2 X197.879 Y13.496 Z7.515 I-1.805 J3.936 K0.000 F2000.000
G2 X198.251 Y12.761 Z7.515 I-3.035 J-1.996 K0.000 F2000.000
G2 X198.360 Y13.682 Z7.515 I1.802 J0.255 K0.000 F2000.000
G1 X198.360 Y13.682 Z5.930 F2000.000
G2 X197.879 Y13.496 Z5.930 I-1.805 J3.936 K0.000 F2000.000
G2 X198.251 Y12.761 Z5.930 I-3.035 J-1.996 K0.000 F2000.000
G2 X198.360 Y13.682 Z5.930 I1.802 J0.255 K0.000 F2000.000
G0 Z14.100
G0 X199.105 Y13.442 Z14.100
G0 X199.105 Y13.442 Z12.100
G1 X199.105 Y13.442 Z5.930 F2000.000
G2 X199.839 Y14.339 Z5.930 I1.509 J-0.486 K0.000 F2000.000
G3 X201.805 Y17.499 Z5.930 I-1.470 J3.106 K0.000 F2000.000
G3 X201.025 Y20.000 Z5.930 I-3.812 J0.184 K0.000 F2000.000
G3 X198.586 Y21.291 Z5.930 I-2.967 J-2.656 K0.000 F2000.000
G3 X197.054 Y21.415 Z5.930 I-1.463 J-8.551 K0.000 F2000.000
G1 X191.370 Y21.415 Z5.930 F2000.000
G1 X191.370 Y8.585 Z5.930 F2000.000
G1 X193.013 Y8.585 Z5.930 F2000.000
G1 X193.013 Y12.333 Z5.930 F2000.000
G2 X194.598 Y13.918 Z5.930 I1.585 J-0.000 K0.000 F2000.000
G1 X195.820 Y13.918 Z5.930 F2000.000
G2 X197.250 Y13.017 Z5.930 I-0.000 J-1.585 K0.000 F2000.000
G1 X199.369 Y8.585 Z5.930 F2000.000
G1 X201.113 Y8.585 Z5.930 F2000.000
G1 X199.209 Y12.221 Z5.930 F2000.000
G2 X199.105 Y13.442 Z5.930 I1.404 J0.735 K0.000 F2000.000
G0 Z14.100
G0 X198.387 Y14.602 Z14.100
G0 X198.387 Y14.602 Z12.100
G1 X198.387 Y14.602 Z5.930 F2000.000
G3 X199.070 Y15.143 Z5.930 I-1.984 J3.204 K0.000 F2000.000
G3 X199.862 Y18.337 Z5.930 I-2.723 J2.370 K0.000 F2000.000
G3 X196.499 Y21.040 Z5.930 I-3.395 J-0.781 K0.000 F2000.000
G1 X194.598 Y21.046 Z5.930 F2000.000
G3 X193.013 Y19.461 Z5.930 I0.000 J-1.585 K0.000 F2000.000
G1 X193.013 Y15.623 Z5.930 F2000.000
G3 X194.598 Y14.038 Z5.930 I1.585 J0.000 K0.000 F2000.000
G1 X196.356 Y14.038 Z5.930 F2000.000
G3 X198.387 Y14.602 Z5.930 I0.047 J3.768 K0.000 F2000.000
G0 Z14.100
G0 X200.402 Y15.773 Z14.100
G0 X200.402 Y15.773 Z12.100
G1 X200.402 Y15.773 Z5.930 F2000.000
G3 X201.011 Y17.502 Z5.930 I-1.727 J1.580 K0.000 F2000.000
G3 X200.403 Y19.506 Z5.930 I-3.028 J0.175 K0.000 F2000.000
G3 X200.143 Y19.770 Z5.930 I-1.253 J-0.973 K0.000 F2000.000
G2 X200.402 Y15.773 Z5.930 I-4.058 J-2.270 K0.000 F2000.000
G0 Z14.100
G0 X192.893 Y13.980 Z14.100
G0 X192.893 Y13.980 Z12.100
G1 X192.893 Y13.980 Z5.930 F2000.000
G2 X192.221 Y15.623 Z5.930 I1.650 J1.635 K0.000 F2000.000
G1 X192.221 Y19.461 Z5.930 F2000.000
G2 X192.529 Y20.622 Z5.930 I2.259 J0.022 K0.000 F2000.000
G1 X192.163 Y20.622 Z5.930 F2000.000
G1 X192.163 Y9.378 Z5.930 F2000.000
G1 X192.221 Y9.378 Z5.930 F2000.000
G1 X192.221 Y12.333 Z5.930 F2000.000
G2 X192.893 Y13.980 Z5.930 I2.294 J0.023 K0.000 F2000.000
G1 X192.893 Y13.980 Z5.100 F2000.000
G2 X192.221 Y15.623 Z5.100 I1.650 J1.635 K0.000 F2000.000
G1 X192.221 Y19.461 Z5.100 F2000.000
G2 X192.529 Y20.622 Z5.100 I2.259 J0.022 K0.000 F2000.000
G1 X192.163 Y20.622 Z5.100 F2000.000
G1 X192.163 Y9.378 Z5.100 F2000.000
G1 X192.221 Y9.378 Z5.100 F2000.000
G1 X192.221 Y12.333 Z5.100 F2000.000
G2 X192.893 Y13.980 Z5.100 I2.294 J0.023 K0.000 F2000.000
G0 Z14.100
G0 X193.457 Y14.523 Z14.100
G0 X193.457 Y14.523 Z12.100
G1 X193.457 Y14.523 Z5.100 F2000.000
G3 X194.598 Y14.038 Z5.100 I1.141 J1.100 K0.000 F2000.000
G1 X196.356 Y14.038 Z5.100 F2000.000
G3 X199.070 Y15.143 Z5.100 I0.047 J3.768 K0.000 F2000.000
G3 X199.862 Y18.337 Z5.100 I-2.723 J2.370 K0.000 F2000.000
G3 X196.499 Y21.040 Z5.100 I-3.395 J-0.781 K0.000 F2000.000
G1 X194.598 Y21.046 Z5.100 F2000.000
G3 X193.013 Y19.461 Z5.100 I0.000 J-1.585 K0.000 F2000.000
G1 X193.013 Y15.623 Z5.100 F2000.000
G3 X193.457 Y14.523 Z5.100 I1.585 J0.000 K0.000 F2000.000
G0 Z14.100
G0 X193.866 Y13.739 Z14.100
G0 X193.866 Y13.739 Z12.100
G1 X193.866 Y13.739 Z5.100 F2000.000
G2 X194.598 Y13.918 Z5.100 I0.732 J-1.406 K0.000 F2000.000
G1 X195.820 Y13.918 Z5.100 F2000.000
G2 X197.250 Y13.017 Z5.100 I-0.000 J-1.585 K0.000 F2000.000
G1 X199.369 Y8.585 Z5.100 F2000.000
G1 X201.113 Y8.585 Z5.100 F2000.000
G1 X199.209 Y12.221 Z5.100 F2000.000
G2 X199.839 Y14.339 Z5.100 I1.404 J0.735 K0.000 F2000.000
G3 X201.805 Y17.499 Z5.100 I-1.470 J3.106 K0.000 F2000.000
G3 X201.025 Y20.000 Z5.100 I-3.812 J0.184 K0.000 F2000.000
G3 X198.586 Y21.291 Z5.100 I-2.967 J-2.656 K0.000 F2000.000
G3 X197.054 Y21.415 Z5.100 I-1.463 J-8.551 K0.000 F2000.000
G1 X191.370 Y21.415 Z5.100 F2000.000
G1 X191.370 Y8.585 Z5.100 F2000.000
G1 X193.013 Y8.585 Z5.100 F2000.000
G1 X193.013 Y12.333 Z5.100 F2000.000
G2 X193.866 Y13.739 Z5.100 I1.585 J-0.000 K0.000 F2000.000
G0 Z14.100
G0 X197.879 Y13.496 Z14.100
G0 X197.879 Y13.496 Z12.100
G1 X197.879 Y13.496 Z5.100 F2000.000
G2 X198.251 Y12.761 Z5.100 I-3.035 J-1.996 K0.000 F2000.000
G2 X198.360 Y13.682 Z5.100 I1.802 J0.255 K0.000 F2000.000
G2 X197.879 Y13.496 Z5.100 I-1.805 J3.936 K0.000 F2000.000
G0 Z14.100
G0 X200.402 Y15.773 Z14.100
G0 X200.402 Y15.773 Z12.100
G1 X200.402 Y15.773 Z5.100 F2000.000
G3 X201.011 Y17.502 Z5.100 I-1.727 J1.580 K0.000 F2000.000
G3 X200.403 Y19.506 Z5.100 I-3.028 J0.175 K0.000 F2000.000
G3 X200.143 Y19.770 Z5.100 I-1.253 J-0.973 K0.000 F2000.000
G2 X200.402 Y15.773 Z5.100 I-4.058 J-2.270 K0.000 F2000.000
G0 Z14.100
G0 Z14.100
G0 X200.402 Y15.773
G0 X207.520
G0 X207.520 Z12.100
G1 X207.520 Y15.773 Z7.515 F2000.000
G1 X207.520 Y8.585 Z7.515 F2000.000
G1 X215.714 Y8.585 Z7.515 F2000.000
G1 X215.714 Y9.203 Z7.515 F2000.000
G1 X210.769 Y9.203 Z7.515 F2000.000
G2 X209.184 Y10.788 Z7.515 I0.000 J1.585 K0.000 F2000.000
G1 X209.184 Y13.253 Z7.515 F2000.000
G2 X210.769 Y14.838 Z7.515 I1.585 J-0.000 K0.000 F2000.000
G1 X215.290 Y14.838 Z7.515 F2000.000
G1 X215.290 Y15.085 Z7.515 F2000.000
G1 X210.769 Y15.085 Z7.515 F2000.000
G2 X209.184 Y16.670 Z7.515 I0.000 J1.585 K0.000 F2000.000
G1 X209.184 Y19.212 Z7.515 F2000.000
G2 X210.769 Y20.797 Z7.515 I1.585 J-0.000 K0.000 F2000.000
G1 X215.714 Y20.797 Z7.515 F2000.000
G1 X215.714 Y21.415 Z7.515 F2000.000
G1 X207.520 Y21.415 Z7.515 F2000.000
G1 X207.520 Y15.773 Z7.515 F2000.000
G0 Z14.100
G0 X208.312 Z14.100
G0 X208.312 Z12.100
G1 X208.312 Y15.773 Z7.515 F2000.000
G1 X208.312 Y9.378 Z7.515 F2000.000
G1 X208.863 Y9.378 Z7.515 F2000.000
G2 X208.392 Y10.788 Z7.515 I1.847 J1.401 K0.000 F2000.000
G1 X208.392 Y13.253 Z7.515 F2000.000
G2 X209.128 Y14.960 Z7.515 I2.292 J0.024 K0.000 F2000.000
G2 X208.392 Y16.670 Z7.515 I1.604 J1.704 K0.000 F2000.000
G1 X208.392 Y19.212 Z7.515 F2000.000
G2 X208.867 Y20.622 Z7.515 I2.275 J0.019 K0.000 F2000.000
G1 X208.312 Y20.622 Z7.515 F2000.000
G1 X208.312 Y15.773 Z7.515 F2000.000
G1 X208.312 Y15.773 Z5.930 F2000.000
G1 X208.312 Y9.378 Z5.930 F2000.000
G1 X208.863 Y9.378 Z5.930 F2000.000
G2 X208.392 Y10.788 Z5.930 I1.847 J1.401 K0.000 F2000.000
G1 X208.392 Y13.253 Z5.930 F2000.000
G2 X209.128 Y14.960 Z5.930 I2.292 J0.024 K0.000 F2000.000
G2 X208.392 Y16.670 Z5.930 I1.604 J1.704 K0.000 F2000.000
G1 X208.392 Y19.212 Z5.930 F2000.000
G2 X208.867 Y20.622 Z5.930 I2.275 J0.019 K0.000 F2000.000
G1 X208.312 Y20.622 Z5.930 F2000.000
G1 X208.312 Y15.773 Z5.930 F2000.000
G0 Z14.100
G0 X207.520 Z14.100
G0 X207.520 Z12.100
G1 X207.520 Y15.773 Z5.930 F2000.000
G1 X207.520 Y8.585 Z5.930 F2000.000
G1 X215.714 Y8.585 Z5.930 F2000.000
G1 X215.714 Y9.203 Z5.930 F2000.000
G1 X210.769 Y9.203 Z5.930 F2000.000
G2 X209.184 Y10.788 Z5.930 I0.000 J1.585 K0.000 F2000.000
G1 X209.184 Y13.253 Z5.930 F2000.000
G2 X210.769 Y14.838 Z5.930 I1.585 J-0.000 K0.000 F2000.000
G1 X215.290 Y14.838 Z5.930 F2000.000
G1 X215.290 Y15.085 Z5.930 F2000.000
G1 X210.769 Y15.085 Z5.930 F2000.000
G2 X209.184 Y16.670 Z5.930 I0.000 J1.585 K0.000 F2000.000
G1 X209.184 Y19.212 Z5.930 F2000.000
G2 X210.769 Y20.797 Z5.930 I1.585 J-0.000 K0.000 F2000.000
G1 X215.714 Y20.797 Z5.930 F2000.000
G1 X215.714 Y21.415 Z5.930 F2000.000
G1 X207.520 Y21.415 Z5.930 F2000.000
G1 X207.520 Y15.773 Z5.930 F2000.000
G1 X207.520 Y15.773 Z5.100 F2000.000
G1 X207.520 Y8.585 Z5.100 F2000.000
G1 X215.714 Y8.585 Z5.100 F2000.000
G1 X215.714 Y9.203 Z5.100 F2000.000
G1 X210.769 Y9.203 Z5.100 F2000.000
G2 X209.184 Y10.788 Z5.100 I0.000 J1.585 K0.000 F2000.000
G1 X209.184 Y13.253 Z5.100 F2000.000
G2 X210.769 Y14.838 Z5.100 I1.585 J-0.000 K0.000 F2000.000
G1 X215.290 Y14.838 Z5.100 F2000.000
G1 X215.290 Y15.085 Z5.100 F2000.000
G1 X210.769 Y15.085 Z5.100 F2000.000
G2 X209.184 Y16.670 Z5.100 I0.000 J1.585 K0.000 F2000.000
G1 X209.184 Y19.212 Z5.100 F2000.000
G2 X210.769 Y20.797 Z5.100 I1.585 J-0.000 K0.000 F2000.000
G1 X215.714 Y20.797 Z5.100 F2000.000
G1 X215.714 Y21.415 Z5.100 F2000.000
G1 X207.520 Y21.415 Z5.100 F2000.000
G1 X207.520 Y15.773 Z5.100 F2000.000
G0 Z14.100
G0 X208.312 Z14.100
G0 X208.312 Z12.100
G1 X208.312 Y15.773 Z5.100 F2000.000
G1 X208.312 Y9.378 Z5.100 F2000.000
G1 X208.863 Y9.378 Z5.100 F2000.000
G2 X208.392 Y10.788 Z5.100 I1.847 J1.401 K0.000 F2000.000
G1 X208.392 Y13.253 Z5.100 F2000.000
G2 X209.128 Y14.960 Z5.100 I2.292 J0.024 K0.000 F2000.000
G2 X208.392 Y16.670 Z5.100 I1.604 J1.704 K0.000 F2000.000
G1 X208.392 Y19.212 Z5.100 F2000.000
G2 X208.867 Y20.622 Z5.100 I2.275 J0.019 K0.000 F2000.000
G1 X208.312 Y20.622 Z5.100 F2000.000
G1 X208.312 Y15.773 Z5.100 F2000.000
G0 Z14.100
G0 Z14.100
G0 X208.312 Y15.773
G0 X179.194 Y35.585
G0 X179.194 Y35.585 Z12.100
G1 X179.194 Y35.585 Z7.515 F2000.000
G1 X179.194 Y36.203 Z7.515 F2000.000
G1 X174.249 Y36.203 Z7.515 F2000.000
G2 X172.664 Y37.788 Z7.515 I0.000 J1.585 K0.000 F2000.000
G1 X172.664 Y40.253 Z7.515 F2000.000
G2 X174.249 Y41.838 Z7.515 I1.585 J-0.000 K0.000 F2000.000
G1 X178.770 Y41.838 Z7.515 F2000.000
G1 X178.770 Y42.085 Z7.515 F2000.000
G1 X174.249 Y42.085 Z7.515 F2000.000
G2 X172.664 Y43.670 Z7.515 I0.000 J1.585 K0.000 F2000.000
G1 X172.664 Y46.212 Z7.515 F2000.000
G2 X174.249 Y47.797 Z7.515 I1.585 J-0.000 K0.000 F2000.000
G1 X179.194 Y47.797 Z7.515 F2000.000
G1 X179.194 Y48.415 Z7.515 F2000.000
G1 X170.999 Y48.415 Z7.515 F2000.000
G1 X170.999 Y35.585 Z7.515 F2000.000
G1 X179.194 Y35.585 Z7.515 F2000.000
G0 Z14.100
G0 X172.343 Y36.378 Z14.100
G0 X172.343 Y36.378 Z12.100
G1 X172.343 Y36.378 Z7.515 F2000.000
G2 X171.872 Y37.788 Z7.515 I1.847 J1.401 K0.000 F2000.000
G1 X171.872 Y40.253 Z7.515 F2000.000
G2 X172.608 Y41.960 Z7.515 I2.292 J0.024 K0.000 F2000.000
G2 X171.872 Y43.670 Z7.515 I1.604 J1.704 K0.000 F2000.000
G1 X171.872 Y46.212 Z7.515 F2000.000
G2 X172.347 Y47.622 Z7.515 I2.275 J0.019 K0.000 F2000.000
G1 X171.792 Y47.622 Z7.515 F2000.000
G1 X171.792 Y36.378 Z7.515 F2000.000
G1 X172.343 Y36.378 Z7.515 F2000.000
G1 X172.343 Y36.378 Z5.930 F2000.000
G2 X171.872 Y37.788 Z5.930 I1.847 J1.401 K0.000 F2000.000
G1 X171.872 Y40.253 Z5.930 F2000.000
G2 X172.608 Y41.960 Z5.930 I2.292 J0.024 K0.000 F2000.000
G2 X171.872 Y43.670 Z5.930 I1.604 J1.704 K0.000 F2000.000
G1 X171.872 Y46.212 Z5.930 F2000.000
G2 X172.347 Y47.622 Z5.930 I2.275 J0.019 K0.000 F2000.000
G1 X171.792 Y47.622 Z5.930 F2000.000
G1 X171.792 Y36.378 Z5.930 F2000.000
G1 X172.343 Y36.378 Z5.930 F2000.000
G0 Z14.100
G0 X172.975 Y36.845 Z14.100
G0 X172.975 Y36.845 Z12.100
G1 X172.975 Y36.845 Z5.930 F2000.000
G2 X172.664 Y37.788 Z5.930 I1.274 J0.943 K0.000 F2000.000
G1 X172.664 Y40.253 Z5.930 F2000.000
G2 X174.249 Y41.838 Z5.930 I1.585 J-0.000 K0.000 F2000.000
G1 X178.770 Y41.838 Z5.930 F2000.000
G1 X178.770 Y42.085 Z5.930 F2000.000
G1 X174.249 Y42.085 Z5.930 F2000.000
G2 X172.664 Y43.670 Z5.930 I0.000 J1.585 K0.000 F2000.000
G1 X172.664 Y46.212 Z5.930 F2000.000
G2 X174.249 Y47.797 Z5.930 I1.585 J-0.000 K0.000 F2000.000
G1 X179.194 Y47.797 Z5.930 F2000.000
G1 X179.194 Y48.415 Z5.930 F2000.000
G1 X170.999 Y48.415 Z5.930 F2000.000
G1 X170.999 Y35.585 Z5.930 F2000.000
G1 X179.194 Y35.585 Z5.930 F2000.000
G1 X179.194 Y36.203 Z5.930 F2000.000
G1 X174.249 Y36.203 Z5.930 F2000.000
G2 X172.975 Y36.845 Z5.930 I0.000 J1.585 K0.000 F2000.000
G1 X172.975 Y36.845 Z5.100 F2000.000
G2 X172.664 Y37.788 Z5.100 I1.274 J0.943 K0.000 F2000.000
G1 X172.664 Y40.253 Z5.100 F2000.000
G2 X174.249 Y41.838 Z5.100 I1.585 J-0.000 K0.000 F2000.000
G1 X178.770 Y41.838 Z5.100 F2000.000
G1 X178.770 Y42.085 Z5.100 F2000.000
G1 X174.249 Y42.085 Z5.100 F2000.000
G2 X172.664 Y43.670 Z5.100 I0.000 J1.585 K0.000 F2000.000
G1 X172.664 Y46.212 Z5.100 F2000.000
G2 X174.249 Y47.797 Z5.100 I1.585 J-0.000 K0.000 F2000.000
G1 X179.194 Y47.797 Z5.100 F2000.000
G1 X179.194 Y48.415 Z5.100 F2000.000
G1 X170.999 Y48.415 Z5.100 F2000.000
G1 X170.999 Y35.585 Z5.100 F2000.000
G1 X179.194 Y35.585 Z5.100 F2000.000
G1 X179.194 Y36.203 Z5.100 F2000.000
G1 X174.249 Y36.203 Z5.100 F2000.000
G2 X172.975 Y36.845 Z5.100 I0.000 J1.585 K0.000 F2000.000
G0 Z14.100
G0 X172.343 Y36.378 Z14.100
G0 X172.343 Y36.378 Z12.100
G1 X172.343 Y36.378 Z5.100 F2000.000
G2 X171.872 Y37.788 Z5.100 I1.847 J1.401 K0.000 F2000.000
G1 X171.872 Y40.253 Z5.100 F2000.000
G2 X172.608 Y41.960 Z5.100 I2.292 J0.024 K0.000 F2000.000
G2 X171.872 Y43.670 Z5.100 I1.604 J1.704 K0.000 F2000.000
G1 X171.872 Y46.212 Z5.100 F2000.000
G2 X172.347 Y47.622 Z5.100 I2.275 J0.019 K0.000 F2000.000
G1 X171.792 Y47.622 Z5.100 F2000.000
G1 X171.792 Y36.378 Z5.100 F2000.000
G1 X172.343 Y36.378 Z5.100 F2000.000
G0 Z14.100
G0 Z14.100
G0 X172.343 Y36.378
G0 X165.139 Y38.187
G0 X165.139 Y38.187 Z12.100
G1 X165.139 Y38.187 Z7.515 F2000.000
G3 X165.236 Y39.126 Z7.515 I-3.206 J0.805 K0.000 F2000.000
G3 X165.001 Y40.575 Z7.515 I-3.429 J0.188 K0.000 F2000.000
G3 X163.779 Y41.812 Z7.515 I-2.302 J-1.052 K0.000 F2000.000
G3 X162.048 Y42.340 Z7.515 I-2.608 J-5.451 K0.000 F2000.000
G2 X159.065 Y42.855 Z7.515 I3.093 J26.825 K0.000 F2000.000
G2 X157.054 Y44.083 Z7.515 I0.662 J3.347 K0.000 F2000.000
G2 X158.184 Y47.935 Z7.515 I2.228 J1.438 K0.000 F2000.000
G2 X162.018 Y47.788 Z7.515 I1.762 J-4.139 K0.000 F2000.000
G2 X163.115 Y46.782 Z7.515 I-1.472 J-2.705 K0.000 F2000.000
G1 X164.421 Y46.782 Z7.515 F2000.000
G3 X161.744 Y48.496 Z7.515 I-3.387 J-2.342 K0.000 F2000.000
G3 X157.060 Y48.169 Z7.515 I-1.755 J-8.566 K0.000 F2000.000
G3 X155.321 Y46.766 Z7.515 I1.194 J-3.261 K0.000 F2000.000
G3 X155.268 Y43.406 Z7.515 I3.382 J-1.733 K0.000 F2000.000
G3 X156.754 Y42.243 Z7.515 I2.406 J1.545 K0.000 F2000.000
G3 X158.146 Y41.848 Z7.515 I2.630 J6.619 K0.000 F2000.000
G2 X160.601 Y41.405 Z7.515 I-10.185 J-63.453 K0.000 F2000.000
G2 X162.438 Y40.735 Z7.515 I-0.789 J-5.016 K0.000 F2000.000
G2 X161.925 Y36.116 Z7.515 I-1.477 J-2.174 K0.000 F2000.000
G2 X157.402 Y36.499 Z7.515 I-1.888 J4.596 K0.000 F2000.000
G2 X156.588 Y37.314 Z7.515 I1.888 J2.700 K0.000 F2000.000
G1 X155.031 Y37.314 Z7.515 F2000.000
G3 X156.499 Y35.963 Z7.515 I2.776 J1.544 K0.000 F2000.000
G3 X158.807 Y35.381 Z7.515 I2.674 J5.735 K0.000 F2000.000
G3 X161.631 Y35.464 Z7.515 I1.074 J11.579 K0.000 F2000.000
G3 X164.024 Y36.432 Z7.515 I-0.613 J4.957 K0.000 F2000.000
G3 X165.139 Y38.187 Z7.515 I-2.091 J2.560 K0.000 F2000.000
G0 Z14.100
G0 X164.375 Y38.454 Z14.100
G0 X164.375 Y38.454 Z12.100
G1 X164.375 Y38.454 Z7.515 F2000.000
G3 X164.167 Y40.450 Z7.515 I-3.001 J0.697 K0.000 F2000.000
G3 X163.048 Y41.259 Z7.515 I-1.672 J-1.134 K0.000 F2000.000
G2 X164.375 Y38.454 Z7.515 I-1.909 J-2.619 K0.000 F2000.000
G0 Z14.100
G0 X156.968 Y43.018 Z14.100
G0 X156.968 Y43.018 Z12.100
G1 X156.968 Y43.018 Z7.515 F2000.000
G2 X155.901 Y46.157 Z7.515 I2.015 J2.436 K0.000 F2000.000
G3 X155.953 Y43.809 Z7.515 I2.903 J-1.110 K0.000 F2000.000
G3 X156.968 Y43.018 Z7.515 I1.673 J1.100 K0.000 F2000.000
G1 X156.968 Y43.018 Z5.930 F2000.000
G2 X155.901 Y46.157 Z5.930 I2.015 J2.436 K0.000 F2000.000
G3 X155.953 Y43.809 Z5.930 I2.903 J-1.110 K0.000 F2000.000
G3 X156.968 Y43.018 Z5.930 I1.673 J1.100 K0.000 F2000.000
G0 Z14.100
G0 X157.493 Y43.624 Z14.100
G0 X157.493 Y43.624 Z12.100
G1 X157.493 Y43.624 Z5.930 F2000.000
G2 X157.054 Y44.083 Z5.930 I2.235 J2.578 K0.000 F2000.000
G2 X158.184 Y47.935 Z5.930 I2.228 J1.438 K0.000 F2000.000
G2 X162.018 Y47.788 Z5.930 I1.762 J-4.139 K0.000 F2000.000
G2 X163.115 Y46.782 Z5.930 I-1.472 J-2.705 K0.000 F2000.000
G1 X164.421 Y46.782 Z5.930 F2000.000
G3 X161.744 Y48.496 Z5.930 I-3.387 J-2.342 K0.000 F2000.000
G3 X157.060 Y48.169 Z5.930 I-1.755 J-8.566 K0.000 F2000.000
G3 X155.321 Y46.766 Z5.930 I1.194 J-3.261 K0.000 F2000.000
G3 X155.268 Y43.406 Z5.930 I3.382 J-1.733 K0.000 F2000.000
G3 X156.754 Y42.243 Z5.930 I2.406 J1.545 K0.000 F2000.000
G3 X158.146 Y41.848 Z5.930 I2.630 J6.619 K0.000 F2000.000
G2 X160.601 Y41.405 Z5.930 I-10.185 J-63.453 K0.000 F2000.000
G2 X162.438 Y40.735 Z5.930 I-0.789 J-5.016 K0.000 F2000.000
G2 X161.925 Y36.116 Z5.930 I-1.477 J-2.174 K0.000 F2000.000
G2 X157.402 Y36.499 Z5.930 I-1.888 J4.596 K0.000 F2000.000
G2 X156.588 Y37.314 Z5.930 I1.888 J2.700 K0.000 F2000.000
G1 X155.031 Y37.314 Z5.930 F2000.000
G3 X156.499 Y35.963 Z5.930 I2.776 J1.544 K0.000 F2000.000
G3 X158.807 Y35.381 Z5.930 I2.674 J5.735 K0.000 F2000.000
G3 X161.631 Y35.464 Z5.930 I1.074 J11.579 K0.000 F2000.000
G3 X164.024 Y36.432 Z5.930 I-0.613 J4.957 K0.000 F2000.000
G3 X165.236 Y39.126 Z5.930 I-2.091 J2.560 K0.000 F2000.000
G3 X165.001 Y40.575 Z5.930 I-3.429 J0.188 K0.000 F2000.000
G3 X163.779 Y41.812 Z5.930 I-2.302 J-1.052 K0.000 F2000.000
G3 X162.048 Y42.340 Z5.930 I-2.608 J-5.451 K0.000 F2000.000
G2 X159.065 Y42.855 Z5.930 I3.093 J26.825 K0.000 F2000.000
G2 X157.493 Y43.624 Z5.930 I0.662 J3.347 K0.000 F2000.000
G0 Z14.100
G0 X163.048 Y41.259 Z14.100
G0 X163.048 Y41.259 Z12.100
G1 X163.048 Y41.259 Z5.930 F2000.000
G2 X164.375 Y38.454 Z5.930 I-1.909 J-2.619 K0.000 F2000.000
G3 X164.167 Y40.450 Z5.930 I-3.001 J0.697 K0.000 F2000.000
G3 X163.048 Y41.259 Z5.930 I-1.672 J-1.134 K0.000 F2000.000
G1 X163.048 Y41.259 Z5.100 F2000.000
G2 X164.375 Y38.454 Z5.100 I-1.909 J-2.619 K0.000 F2000.000
G3 X164.167 Y40.450 Z5.100 I-3.001 J0.697 K0.000 F2000.000
G3 X163.048 Y41.259 Z5.100 I-1.672 J-1.134 K0.000 F2000.000
G0 Z14.100
G0 X162.569 Y40.640 Z14.100
G0 X162.569 Y40.640 Z12.100
G1 X162.569 Y40.640 Z5.100 F2000.000
G2 X161.925 Y36.116 Z5.100 I-1.608 J-2.079 K0.000 F2000.000
G2 X157.402 Y36.499 Z5.100 I-1.888 J4.596 K0.000 F2000.000
G2 X156.588 Y37.314 Z5.100 I1.888 J2.700 K0.000 F2000.000
G1 X155.031 Y37.314 Z5.100 F2000.000
G3 X156.499 Y35.963 Z5.100 I2.776 J1.544 K0.000 F2000.000
G3 X158.807 Y35.381 Z5.100 I2.674 J5.735 K0.000 F2000.000
G3 X161.631 Y35.464 Z5.100 I1.074 J11.579 K0.000 F2000.000
G3 X164.024 Y36.432 Z5.100 I-0.613 J4.957 K0.000 F2000.000
G3 X165.236 Y39.126 Z5.100 I-2.091 J2.560 K0.000 F2000.000
G3 X165.001 Y40.575 Z5.100 I-3.429 J0.188 K0.000 F2000.000
G3 X163.779 Y41.812 Z5.100 I-2.302 J-1.052 K0.000 F2000.000
G3 X162.048 Y42.340 Z5.100 I-2.608 J-5.451 K0.000 F2000.000
G2 X159.065 Y42.855 Z5.100 I3.093 J26.825 K0.000 F2000.000
G2 X157.054 Y44.083 Z5.100 I0.662 J3.347 K0.000 F2000.000
G2 X158.184 Y47.935 Z5.100 I2.228 J1.438 K0.000 F2000.000
G2 X162.018 Y47.788 Z5.100 I1.762 J-4.139 K0.000 F2000.000
G2 X163.115 Y46.782 Z5.100 I-1.472 J-2.705 K0.000 F2000.000
G1 X164.421 Y46.782 Z5.100 F2000.000
G3 X161.744 Y48.496 Z5.100 I-3.387 J-2.342 K0.000 F2000.000
G3 X157.060 Y48.169 Z5.100 I-1.755 J-8.566 K0.000 F2000.000
G3 X155.321 Y46.766 Z5.100 I1.194 J-3.261 K0.000 F2000.000
G3 X155.268 Y43.406 Z5.100 I3.382 J-1.733 K0.000 F2000.000
G3 X156.754 Y42.243 Z5.100 I2.406 J1.545 K0.000 F2000.000
G3 X158.146 Y41.848 Z5.100 I2.630 J6.619 K0.000 F2000.000
G2 X160.601 Y41.405 Z5.100 I-10.185 J-63.453 K0.000 F2000.000
G2 X162.438 Y40.735 Z5.100 I-0.789 J-5.016 K0.000 F2000.000
G2 X162.569 Y40.640 Z5.100 I-1.477 J-2.174 K0.000 F2000.000
G0 Z14.100
G0 X156.968 Y43.018 Z14.100
G0 X156.968 Y43.018 Z12.100
G1 X156.968 Y43.018 Z5.100 F2000.000
G2 X155.901 Y46.157 Z5.100 I2.015 J2.436 K0.000 F2000.000
G3 X155.953 Y43.809 Z5.100 I2.903 J-1.110 K0.000 F2000.000
G3 X156.968 Y43.018 Z5.100 I1.673 J1.100 K0.000 F2000.000
G0 Z14.100
G0 Z14.100
G0 X156.968 Y43.018
G0 X148.889
G0 X148.889 Z12.100
G1 X148.889 Y43.018 Z7.515 F2000.000
G1 X148.889 Y48.365 Z7.515 F2000.000
G1 X147.174 Y48.365 Z7.515 F2000.000
G1 X147.174 Y35.585 Z7.515 F2000.000
G1 X148.889 Y35.585 Z7.515 F2000.000
G1 X148.889 Y43.018 Z7.515 F2000.000
G0 Z14.100
G0 X148.096 Z14.100
G0 X148.096 Z12.100
G1 X148.096 Y43.018 Z7.515 F2000.000
G1 X148.096 Y47.573 Z7.515 F2000.000
G1 X147.966 Y47.573 Z7.515 F2000.000
G1 X147.966 Y36.378 Z7.515 F2000.000
G1 X148.096 Y36.378 Z7.515 F2000.000
G1 X148.096 Y43.018 Z7.515 F2000.000
G1 X148.096 Y43.018 Z5.930 F2000.000
G1 X148.096 Y47.573 Z5.930 F2000.000
G1 X147.966 Y47.573 Z5.930 F2000.000
G1 X147.966 Y36.378 Z5.930 F2000.000
G1 X148.096 Y36.378 Z5.930 F2000.000
G1 X148.096 Y43.018 Z5.930 F2000.000
G0 Z14.100
G0 X148.889 Z14.100
G0 X148.889 Z12.100
G1 X148.889 Y43.018 Z5.930 F2000.000
G1 X148.889 Y48.365 Z5.930 F2000.000
G1 X147.174 Y48.365 Z5.930 F2000.000
G1 X147.174 Y35.585 Z5.930 F2000.000
G1 X148.889 Y35.585 Z5.930 F2000.000
G1 X148.889 Y43.018 Z5.930 F2000.000
G1 X148.889 Y43.018 Z5.100 F2000.000
G1 X148.889 Y48.365 Z5.100 F2000.000
G1 X147.174 Y48.365 Z5.100 F2000.000
G1 X147.174 Y35.585 Z5.100 F2000.000
G1 X148.889 Y35.585 Z5.100 F2000.000
G1 X148.889 Y43.018 Z5.100 F2000.000
G0 Z14.100
G0 X148.096 Z14.100
G0 X148.096 Z12.100
G1 X148.096 Y43.018 Z5.100 F2000.000
G1 X148.096 Y47.573 Z5.100 F2000.000
G1 X147.966 Y47.573 Z5.100 F2000.000
G1 X147.966 Y36.378 Z5.100 F2000.000
G1 X148.096 Y36.378 Z5.100 F2000.000
G1 X148.096 Y43.018 Z5.100 F2000.000
G0 Z14.100
G0 Z14.100
G0 X148.096 Y43.018
G0 X140.714
G0 X140.714 Z12.100
G1 X140.714 Y43.018 Z7.515 F2000.000
G1 X140.714 Y48.415 Z7.515 F2000.000
G1 X138.221 Y48.415 Z7.515 F2000.000
G1 X135.233 Y42.179 Z7.515 F2000.000
G2 X132.952 Y41.436 Z7.515 I-1.522 J0.801 K0.000 F2000.000
G2 X132.210 Y42.181 Z7.515 I0.688 J1.428 K0.000 F2000.000
G1 X129.233 Y48.415 Z7.515 F2000.000
G1 X126.688 Y48.415 Z7.515 F2000.000
G1 X126.688 Y35.585 Z7.515 F2000.000
G1 X127.854 Y35.585 Z7.515 F2000.000
G1 X127.854 Y42.922 Z7.515 F2000.000
G2 X129.673 Y44.507 Z7.515 I1.611 J-0.012 K0.000 F2000.000
G2 X131.111 Y43.589 Z7.515 I-0.000 J-1.585 K0.000 F2000.000
G1 X133.415 Y38.621 Z7.515 F2000.000
G1 X133.955 Y38.621 Z7.515 F2000.000
G1 X136.238 Y43.584 Z7.515 F2000.000
G2 X137.900 Y44.507 Z7.515 I1.472 J-0.693 K0.000 F2000.000
G2 X139.485 Y42.922 Z7.515 I-0.000 J-1.585 K0.000 F2000.000
G1 X139.485 Y35.585 Z7.515 F2000.000
G1 X140.714 Y35.585 Z7.515 F2000.000
G1 X140.714 Y43.018 Z7.515 F2000.000
G0 Z14.100
G0 X139.922 Y44.157 Z14.100
G0 X139.922 Y44.157 Z12.100
G1 X139.922 Y44.157 Z7.515 F2000.000
G1 X139.922 Y47.622 Z7.515 F2000.000
G1 X138.720 Y47.622 Z7.515 F2000.000
G1 X137.603 Y45.291 Z7.515 F2000.000
G2 X139.922 Y44.157 Z7.515 I0.276 J-2.373 K0.000 F2000.000
G0 Z14.100
G0 X139.129 Y45.833 Z14.100
G0 X139.129 Y45.833 Z12.100
G1 X139.129 Y45.833 Z7.515 F2000.000
G1 X139.129 Y46.642 Z7.515 F2000.000
G1 X138.800 Y45.956 Z7.515 F2000.000
G2 X139.129 Y45.833 Z7.515 I-0.222 J-1.099 K0.000 F2000.000
G0 Z14.100
G0 X133.948 Y40.503 Z14.100
G0 X133.948 Y40.503 Z12.100
G1 X133.948 Y40.503 Z7.515 F2000.000
G2 X133.414 Y40.507 Z7.515 I-0.253 J1.855 K0.000 F2000.000
G1 X133.683 Y39.927 Z7.515 F2000.000
G1 X133.948 Y40.503 Z7.515 F2000.000
G0 Z14.100
G0 X129.850 Y45.284 Z14.100
G0 X129.850 Y45.284 Z12.100
G1 X129.850 Y45.284 Z7.515 F2000.000
G1 X128.733 Y47.622 Z7.515 F2000.000
G1 X127.480 Y47.622 Z7.515 F2000.000
G1 X127.480 Y44.254 Z7.515 F2000.000
G2 X129.850 Y45.284 Z7.515 I2.003 J-1.369 K0.000 F2000.000
G0 Z14.100
G0 X128.639 Y45.980 Z14.100
G0 X128.639 Y45.980 Z12.100
G1 X128.639 Y45.980 Z7.515 F2000.000
G1 X128.273 Y46.748 Z7.515 F2000.000
G1 X128.273 Y45.860 Z7.515 F2000.000
G2 X128.639 Y45.980 Z7.515 I0.564 J-1.097 K0.000 F2000.000
G1 X128.639 Y45.980 Z5.930 F2000.000
G1 X128.273 Y46.748 Z5.930 F2000.000
G1 X128.273 Y45.860 Z5.930 F2000.000
G2 X128.639 Y45.980 Z5.930 I0.564 J-1.097 K0.000 F2000.000
G0 Z14.100
G0 X128.845 Y45.226 Z14.100
G0 X128.845 Y45.226 Z12.100
G1 X128.845 Y45.226 Z5.930 F2000.000
G2 X129.850 Y45.284 Z5.930 I0.638 J-2.340 K0.000 F2000.000
G1 X128.733 Y47.622 Z5.930 F2000.000
G1 X127.480 Y47.622 Z5.930 F2000.000
G1 X127.480 Y44.254 Z5.930 F2000.000
G2 X128.845 Y45.226 Z5.930 I2.003 J-1.369 K0.000 F2000.000
G0 Z14.100
G0 X129.049 Y44.466 Z14.100
G0 X129.049 Y44.466 Z12.100
G1 X129.049 Y44.466 Z5.930 F2000.000
G2 X129.673 Y44.507 Z5.930 I0.417 J-1.556 K0.000 F2000.000
G2 X131.111 Y43.589 Z5.930 I-0.000 J-1.585 K0.000 F2000.000
G1 X133.415 Y38.621 Z5.930 F2000.000
G1 X133.955 Y38.621 Z5.930 F2000.000
G1 X136.238 Y43.584 Z5.930 F2000.000
G2 X137.900 Y44.507 Z5.930 I1.472 J-0.693 K0.000 F2000.000
G2 X139.485 Y42.922 Z5.930 I-0.000 J-1.585 K0.000 F2000.000
G1 X139.485 Y35.585 Z5.930 F2000.000
G1 X140.714 Y35.585 Z5.930 F2000.000
G1 X140.714 Y48.415 Z5.930 F2000.000
G1 X138.221 Y48.415 Z5.930 F2000.000
G1 X135.233 Y42.179 Z5.930 F2000.000
G2 X132.952 Y41.436 Z5.930 I-1.522 J0.801 K0.000 F2000.000
G2 X132.210 Y42.181 Z5.930 I0.688 J1.428 K0.000 F2000.000
G1 X129.233 Y48.415 Z5.930 F2000.000
G1 X126.688 Y48.415 Z5.930 F2000.000
G1 X126.688 Y35.585 Z5.930 F2000.000
G1 X127.854 Y35.585 Z5.930 F2000.000
G1 X127.854 Y42.922 Z5.930 F2000.000
G2 X129.049 Y44.466 Z5.930 I1.611 J-0.012 K0.000 F2000.000
G0 Z14.100
G0 X133.414 Y40.507 Z14.100
G0 X133.414 Y40.507 Z12.100
G1 X133.414 Y40.507 Z5.930 F2000.000
G1 X133.683 Y39.927 Z5.930 F2000.000
G1 X133.948 Y40.503 Z5.930 F2000.000
G2 X133.414 Y40.507 Z5.930 I-0.253 J1.855 K0.000 F2000.000
G0 Z14.100
G0 X137.603 Y45.291 Z14.100
G0 X137.603 Y45.291 Z12.100
G1 X137.603 Y45.291 Z5.930 F2000.000
G2 X139.922 Y44.157 Z5.930 I0.276 J-2.373 K0.000 F2000.000
G1 X139.922 Y47.622 Z5.930 F2000.000
G1 X138.720 Y47.622 Z5.930 F2000.000
G1 X137.603 Y45.291 Z5.930 F2000.000
G0 Z14.100
G0 X138.800 Y45.956 Z14.100
G0 X138.800 Y45.956 Z12.100
G1 X138.800 Y45.956 Z5.930 F2000.000
G2 X139.129 Y45.833 Z5.930 I-0.222 J-1.099 K0.000 F2000.000
G1 X139.129 Y46.642 Z5.930 F2000.000
G1 X138.800 Y45.956 Z5.930 F2000.000
G1 X138.800 Y45.956 Z5.100 F2000.000
G2 X139.129 Y45.833 Z5.100 I-0.222 J-1.099 K0.000 F2000.000
G1 X139.129 Y46.642 Z5.100 F2000.000
G1 X138.800 Y45.956 Z5.100 F2000.000
G0 Z14.100
G0 X138.572 Y45.204 Z14.100
G0 X138.572 Y45.204 Z12.100
G1 X138.572 Y45.204 Z5.100 F2000.000
G2 X139.922 Y44.157 Z5.100 I-0.693 J-2.287 K0.000 F2000.000
G1 X139.922 Y47.622 Z5.100 F2000.000
G1 X138.720 Y47.622 Z5.100 F2000.000
G1 X137.603 Y45.291 Z5.100 F2000.000
G2 X138.572 Y45.204 Z5.100 I0.276 J-2.373 K0.000 F2000.000
G0 Z14.100
G0 X138.348 Y44.442 Z14.100
G0 X138.348 Y44.442 Z12.100
G1 X138.348 Y44.442 Z5.100 F2000.000
G2 X139.485 Y42.922 Z5.100 I-0.448 J-1.520 K0.000 F2000.000
G1 X139.485 Y35.585 Z5.100 F2000.000
G1 X140.714 Y35.585 Z5.100 F2000.000
G1 X140.714 Y48.415 Z5.100 F2000.000
G1 X138.221 Y48.415 Z5.100 F2000.000
G1 X135.233 Y42.179 Z5.100 F2000.000
G2 X132.952 Y41.436 Z5.100 I-1.522 J0.801 K0.000 F2000.000
G2 X132.210 Y42.181 Z5.100 I0.688 J1.428 K0.000 F2000.000
G1 X129.233 Y48.415 Z5.100 F2000.000
G1 X126.688 Y48.415 Z5.100 F2000.000
G1 X126.688 Y35.585 Z5.100 F2000.000
G1 X127.854 Y35.585 Z5.100 F2000.000
G1 X127.854 Y42.922 Z5.100 F2000.000
G2 X129.673 Y44.507 Z5.100 I1.611 J-0.012 K0.000 F2000.000
G2 X131.111 Y43.589 Z5.100 I-0.000 J-1.585 K0.000 F2000.000
G1 X133.415 Y38.621 Z5.100 F2000.000
G1 X133.955 Y38.621 Z5.100 F2000.000
G1 X136.238 Y43.584 Z5.100 F2000.000
G2 X137.900 Y44.507 Z5.100 I1.472 J-0.693 K0.000 F2000.000
G2 X138.348 Y44.442 Z5.100 I-0.000 J-1.585 K0.000 F2000.000
G0 Z14.100
G0 X133.948 Y40.503 Z14.100
G0 X133.948 Y40.503 Z12.100
G1 X133.948 Y40.503 Z5.100 F2000.000
G2 X133.414 Y40.507 Z5.100 I-0.253 J1.855 K0.000 F2000.000
G1 X133.683 Y39.927 Z5.100 F2000.000
G1 X133.948 Y40.503 Z5.100 F2000.000
G0 Z14.100
G0 X129.850 Y45.284 Z14.100
G0 X129.850 Y45.284 Z12.100
G1 X129.850 Y45.284 Z5.100 F2000.000
G1 X128.733 Y47.622 Z5.100 F2000.000
G1 X127.480 Y47.622 Z5.100 F2000.000
G1 X127.480 Y44.254 Z5.100 F2000.000
G2 X129.850 Y45.284 Z5.100 I2.003 J-1.369 K0.000 F2000.000
G0 Z14.100
G0 X128.639 Y45.980 Z14.100
G0 X128.639 Y45.980 Z12.100
G1 X128.639 Y45.980 Z5.100 F2000.000
G1 X128.273 Y46.748 Z5.100 F2000.000
G1 X128.273 Y45.860 Z5.100 F2000.000
G2 X128.639 Y45.980 Z5.100 I0.564 J-1.097 K0.000 F2000.000
G0 Z14.100
G0 Z14.100
G0 X128.639 Y45.980
G0 X120.577 Y47.797
G0 X120.577 Y47.797 Z12.100
G1 X120.577 Y47.797 Z7.515 F2000.000
G1 X120.577 Y48.415 Z7.515 F2000.000
G1 X112.383 Y48.415 Z7.515 F2000.000
G1 X112.383 Y35.585 Z7.515 F2000.000
G1 X120.577 Y35.585 Z7.515 F2000.000
G1 X120.577 Y36.203 Z7.515 F2000.000
G1 X115.632 Y36.203 Z7.515 F2000.000
G2 X114.047 Y37.788 Z7.515 I0.000 J1.585 K0.000 F2000.000
G1 X114.047 Y40.253 Z7.515 F2000.000
G2 X115.632 Y41.838 Z7.515 I1.585 J-0.000 K0.000 F2000.000
G1 X120.153 Y41.838 Z7.515 F2000.000
G1 X120.153 Y42.085 Z7.515 F2000.000
G1 X115.632 Y42.085 Z7.515 F2000.000
G2 X114.047 Y43.670 Z7.515 I0.000 J1.585 K0.000 F2000.000
G1 X114.047 Y46.212 Z7.515 F2000.000
G2 X115.632 Y47.797 Z7.515 I1.585 J-0.000 K0.000 F2000.000
G1 X120.577 Y47.797 Z7.515 F2000.000
G0 Z14.100
G0 X113.730 Y47.622 Z14.100
G0 X113.730 Y47.622 Z12.100
G1 X113.730 Y47.622 Z7.515 F2000.000
G1 X113.175 Y47.622 Z7.515 F2000.000
G1 X113.175 Y36.378 Z7.515 F2000.000
G1 X113.726 Y36.378 Z7.515 F2000.000
G2 X113.255 Y37.788 Z7.515 I1.847 J1.401 K0.000 F2000.000
G1 X113.255 Y40.253 Z7.515 F2000.000
G2 X113.991 Y41.960 Z7.515 I2.292 J0.024 K0.000 F2000.000
G2 X113.255 Y43.670 Z7.515 I1.604 J1.704 K0.000 F2000.000
G1 X113.255 Y46.212 Z7.515 F2000.000
G2 X113.730 Y47.622 Z7.515 I2.275 J0.019 K0.000 F2000.000
G1 X113.730 Y47.622 Z5.930 F2000.000
G1 X113.175 Y47.622 Z5.930 F2000.000
G1 X113.175 Y36.378 Z5.930 F2000.000
G1 X113.726 Y36.378 Z5.930 F2000.000
G2 X113.255 Y37.788 Z5.930 I1.847 J1.401 K0.000 F2000.000
G1 X113.255 Y40.253 Z5.930 F2000.000
G2 X113.991 Y41.960 Z5.930 I2.292 J0.024 K0.000 F2000.000
G2 X113.255 Y43.670 Z5.930 I1.604 J1.704 K0.000 F2000.000
G1 X113.255 Y46.212 Z5.930 F2000.000
G2 X113.730 Y47.622 Z5.930 I2.275 J0.019 K0.000 F2000.000
G0 Z14.100
G0 X114.359 Y47.156 Z14.100
G0 X114.359 Y47.156 Z12.100
G1 X114.359 Y47.156 Z5.930 F2000.000
G2 X115.632 Y47.797 Z5.930 I1.273 J-0.944 K0.000 F2000.000
G1 X120.577 Y47.797 Z5.930 F2000.000
G1 X120.577 Y48.415 Z5.930 F2000.000
G1 X112.383 Y48.415 Z5.930 F2000.000
G1 X112.383 Y35.585 Z5.930 F2000.000
G1 X120.577 Y35.585 Z5.930 F2000.000
G1 X120.577 Y36.203 Z5.930 F2000.000
G1 X115.632 Y36.203 Z5.930 F2000.000
G2 X114.047 Y37.788 Z5.930 I0.000 J1.585 K0.000 F2000.000
G1 X114.047 Y40.253 Z5.930 F2000.000
G2 X115.632 Y41.838 Z5.930 I1.585 J-0.000 K0.000 F2000.000
G1 X120.153 Y41.838 Z5.930 F2000.000
G1 X120.153 Y42.085 Z5.930 F2000.000
G1 X115.632 Y42.085 Z5.930 F2000.000
G2 X114.047 Y43.670 Z5.930 I0.000 J1.585 K0.000 F2000.000
G1 X114.047 Y46.212 Z5.930 F2000.000
G2 X114.359 Y47.156 Z5.930 I1.585 J-0.000 K0.000 F2000.000
G1 X114.359 Y47.156 Z5.100 F2000.000
G2 X115.632 Y47.797 Z5.100 I1.273 J-0.944 K0.000 F2000.000
G1 X120.577 Y47.797 Z5.100 F2000.000
G1 X120.577 Y48.415 Z5.100 F2000.000
G1 X112.383 Y48.415 Z5.100 F2000.000
G1 X112.383 Y35.585 Z5.100 F2000.000
G1 X120.577 Y35.585 Z5.100 F2000.000
G1 X120.577 Y36.203 Z5.100 F2000.000
G1 X115.632 Y36.203 Z5.100 F2000.000
G2 X114.047 Y37.788 Z5.100 I0.000 J1.585 K0.000 F2000.000
G1 X114.047 Y40.253 Z5.100 F2000.000
G2 X115.632 Y41.838 Z5.100 I1.585 J-0.000 K0.000 F2000.000
G1 X120.153 Y41.838 Z5.100 F2000.000
G1 X120.153 Y42.085 Z5.100 F2000.000
G1 X115.632 Y42.085 Z5.100 F2000.000
G2 X114.047 Y43.670 Z5.100 I0.000 J1.585 K0.000 F2000.000
G1 X114.047 Y46.212 Z5.100 F2000.000
G2 X114.359 Y47.156 Z5.100 I1.585 J-0.000 K0.000 F2000.000
G0 Z14.100
G0 X113.730 Y47.622 Z14.100
G0 X113.730 Y47.622 Z12.100
G1 X113.730 Y47.622 Z5.100 F2000.000
G1 X113.175 Y47.622 Z5.100 F2000.000
G1 X113.175 Y36.378 Z5.100 F2000.000
G1 X113.726 Y36.378 Z5.100 F2000.000
G2 X113.255 Y37.788 Z5.100 I1.847 J1.401 K0.000 F2000.000
G1 X113.255 Y40.253 Z5.100 F2000.000
G2 X113.991 Y41.960 Z5.100 I2.292 J0.024 K0.000 F2000.000
G2 X113.255 Y43.670 Z5.100 I1.604 J1.704 K0.000 F2000.000
G1 X113.255 Y46.212 Z5.100 F2000.000
G2 X113.730 Y47.622 Z5.100 I2.275 J0.019 K0.000 F2000.000
G0 Z14.100
G0 Z14.100
G0 X113.730 Y47.622
G0 X106.540 Y45.678
G0 X106.540 Y45.678 Z12.100
G1 X106.540 Y45.678 Z7.515 F2000.000
G3 X105.888 Y47.000 Z7.515 I-3.684 J-0.996 K0.000 F2000.000
G3 X103.449 Y48.291 Z7.515 I-2.967 J-2.656 K0.000 F2000.000
G3 X101.917 Y48.415 Z7.515 I-1.463 J-8.551 K0.000 F2000.000
G1 X96.233 Y48.415 Z7.515 F2000.000
G1 X96.233 Y35.585 Z7.515 F2000.000
G1 X97.876 Y35.585 Z7.515 F2000.000
G1 X97.876 Y39.333 Z7.515 F2000.000
G2 X99.461 Y40.918 Z7.515 I1.585 J-0.000 K0.000 F2000.000
G1 X100.683 Y40.918 Z7.515 F2000.000
G2 X102.113 Y40.017 Z7.515 I-0.000 J-1.585 K0.000 F2000.000
G1 X104.232 Y35.585 Z7.515 F2000.000
G1 X105.976 Y35.585 Z7.515 F2000.000
G1 X104.072 Y39.221 Z7.515 F2000.000
G2 X104.702 Y41.339 Z7.515 I1.404 J0.735 K0.000 F2000.000
G3 X106.668 Y44.499 Z7.515 I-1.470 J3.106 K0.000 F2000.000
G3 X106.540 Y45.678 Z7.515 I-3.812 J0.184 K0.000 F2000.000
G0 Z14.100
G0 X105.774 Y45.471 Z14.100
G0 X105.774 Y45.471 Z12.100
G1 X105.774 Y45.471 Z7.515 F2000.000
G3 X105.266 Y46.506 Z7.515 I-2.927 J-0.794 K0.000 F2000.000
G3 X105.006 Y46.770 Z7.515 I-1.253 J-0.973 K0.000 F2000.000
G2 X105.265 Y42.773 Z7.515 I-4.058 J-2.270 K0.000 F2000.000
G3 X105.874 Y44.502 Z7.515 I-1.727 J1.580 K0.000 F2000.000
G3 X105.774 Y45.471 Z7.515 I-3.028 J0.175 K0.000 F2000.000
G0 Z14.100
G0 X104.743 Y45.254 Z14.100
G0 X104.743 Y45.254 Z12.100
G1 X104.743 Y45.254 Z7.515 F2000.000
G3 X104.724 Y45.337 Z7.515 I-3.534 J-0.741 K0.000 F2000.000
G3 X101.362 Y48.040 Z7.515 I-3.395 J-0.781 K0.000 F2000.000
G1 X99.461 Y48.046 Z7.515 F2000.000
G3 X97.876 Y46.461 Z7.515 I0.000 J-1.585 K0.000 F2000.000
G1 X97.876 Y42.623 Z7.515 F2000.000
G3 X99.461 Y41.038 Z7.515 I1.585 J0.000 K0.000 F2000.000
G1 X101.219 Y41.038 Z7.515 F2000.000
G3 X103.933 Y42.143 Z7.515 I0.047 J3.768 K0.000 F2000.000
G3 X104.743 Y45.254 Z7.515 I-2.723 J2.370 K0.000 F2000.000
G0 Z14.100
G0 X103.222 Y40.682 Z14.100
G0 X103.222 Y40.682 Z12.100
G1 X103.222 Y40.682 Z7.515 F2000.000
G2 X102.742 Y40.496 Z7.515 I-1.805 J3.936 K0.000 F2000.000
G2 X103.114 Y39.761 Z7.515 I-3.035 J-1.996 K0.000 F2000.000
G2 X103.222 Y40.682 Z7.515 I1.802 J0.255 K0.000 F2000.000
G0 Z14.100
G0 X97.756 Y40.980 Z14.100
G0 X97.756 Y40.980 Z12.100
G1 X97.756 Y40.980 Z7.515 F2000.000
G2 X97.084 Y42.623 Z7.515 I1.650 J1.635 K0.000 F2000.000
G1 X97.084 Y46.461 Z7.515 F2000.000
G2 X97.392 Y47.622 Z7.515 I2.259 J0.022 K0.000 F2000.000
G1 X97.025 Y47.622 Z7.515 F2000.000
G1 X97.025 Y36.378 Z7.515 F2000.000
G1 X97.084 Y36.378 Z7.515 F2000.000
G1 X97.084 Y39.333 Z7.515 F2000.000
G2 X97.756 Y40.980 Z7.515 I2.294 J0.023 K0.000 F2000.000
G1 X97.756 Y40.980 Z5.930 F2000.000
G2 X97.084 Y42.623 Z5.930 I1.650 J1.635 K0.000 F2000.000
G1 X97.084 Y46.461 Z5.930 F2000.000
G2 X97.392 Y47.622 Z5.930 I2.259 J0.022 K0.000 F2000.000
G1 X97.025 Y47.622 Z5.930 F2000.000
G1 X97.025 Y36.378 Z5.930 F2000.000
G1 X97.084 Y36.378 Z5.930 F2000.000
G1 X97.084 Y39.333 Z5.930 F2000.000
G2 X97.756 Y40.980 Z5.930 I2.294 J0.023 K0.000 F2000.000
G0 Z14.100
G0 X98.320 Y41.523 Z14.100
G0 X98.320 Y41.523 Z12.100
G1 X98.320 Y41.523 Z5.930 F2000.000
G3 X99.461 Y41.038 Z5.930 I1.141 J1.100 K0.000 F2000.000
G1 X101.219 Y41.038 Z5.930 F2000.000
G3 X103.933 Y42.143 Z5.930 I0.047 J3.768 K0.000 F2000.000
G3 X104.724 Y45.337 Z5.930 I-2.723 J2.370 K0.000 F2000.000
G3 X101.362 Y48.040 Z5.930 I-3.395 J-0.781 K0.000 F2000.000
G1 X99.461 Y48.046 Z5.930 F2000.000
G3 X97.876 Y46.461 Z5.930 I0.000 J-1.585 K0.000 F2000.000
G1 X97.876 Y42.623 Z5.930 F2000.000
G3 X98.320 Y41.523 Z5.930 I1.585 J0.000 K0.000 F2000.000
G0 Z14.100
G0 X98.729 Y40.739 Z14.100
G0 X98.729 Y40.739 Z12.100
G1 X98.729 Y40.739 Z5.930 F2000.000
G2 X99.461 Y40.918 Z5.930 I0.732 J-1.406 K0.000 F2000.000
G1 X100.683 Y40.918 Z5.930 F2000.000
G2 X102.113 Y40.017 Z5.930 I-0.000 J-1.585 K0.000 F2000.000
G1 X104.232 Y35.585 Z5.930 F2000.000
G1 X105.976 Y35.585 Z5.930 F2000.000
G1 X104.072 Y39.221 Z5.930 F2000.000
G2 X104.702 Y41.339 Z5.930 I1.404 J0.735 K0.000 F2000.000
G3 X106.668 Y44.499 Z5.930 I-1.470 J3.106 K0.000 F2000.000
G3 X105.888 Y47.000 Z5.930 I-3.812 J0.184 K0.000 F2000.000
G3 X103.449 Y48.291 Z5.930 I-2.967 J-2.656 K0.000 F2000.000
G3 X101.917 Y48.415 Z5.930 I-1.463 J-8.551 K0.000 F2000.000
G1 X96.233 Y48.415 Z5.930 F2000.000
G1 X96.233 Y35.585 Z5.930 F2000.000
G1 X97.876 Y35.585 Z5.930 F2000.000
G1 X97.876 Y39.333 Z5.930 F2000.000
G2 X98.729 Y40.739 Z5.930 I1.585 J-0.000 K0.000 F2000.000
G0 Z14.100
G0 X102.742 Y40.496 Z14.100
G0 X102.742 Y40.496 Z12.100
G1 X102.742 Y40.496 Z5.930 F2000.000
G2 X103.114 Y39.761 Z5.930 I-3.035 J-1.996 K0.000 F2000.000
G2 X103.222 Y40.682 Z5.930 I1.802 J0.255 K0.000 F2000.000
G2 X102.742 Y40.496 Z5.930 I-1.805 J3.936 K0.000 F2000.000
G0 Z14.100
G0 X105.265 Y42.773 Z14.100
G0 X105.265 Y42.773 Z12.100
G1 X105.265 Y42.773 Z5.930 F2000.000
G3 X105.874 Y44.502 Z5.930 I-1.727 J1.580 K0.000 F2000.000
G3 X105.266 Y46.506 Z5.930 I-3.028 J0.175 K0.000 F2000.000
G3 X105.006 Y46.770 Z5.930 I-1.253 J-0.973 K0.000 F2000.000
G2 X105.265 Y42.773 Z5.930 I-4.058 J-2.270 K0.000 F2000.000
G1 X105.265 Y42.773 Z5.100 F2000.000
G3 X105.874 Y44.502 Z5.100 I-1.727 J1.580 K0.000 F2000.000
G3 X105.266 Y46.506 Z5.100 I-3.028 J0.175 K0.000 F2000.000
G3 X105.006 Y46.770 Z5.100 I-1.253 J-0.973 K0.000 F2000.000
G2 X105.265 Y42.773 Z5.100 I-4.058 J-2.270 K0.000 F2000.000
G0 Z14.100
G0 X104.527 Y43.090 Z14.100
G0 X104.527 Y43.090 Z12.100
G1 X104.527 Y43.090 Z5.100 F2000.000
G3 X104.724 Y45.337 Z5.100 I-3.318 J1.424 K0.000 F2000.000
G3 X101.362 Y48.040 Z5.100 I-3.395 J-0.781 K0.000 F2000.000
G1 X99.461 Y48.046 Z5.100 F2000.000
G3 X97.876 Y46.461 Z5.100 I0.000 J-1.585 K0.000 F2000.000
G1 X97.876 Y42.623 Z5.100 F2000.000
G3 X99.461 Y41.038 Z5.100 I1.585 J0.000 K0.000 F2000.000
G1 X101.219 Y41.038 Z5.100 F2000.000
G3 X103.933 Y42.143 Z5.100 I0.047 J3.768 K0.000 F2000.000
G3 X104.527 Y43.090 Z5.100 I-2.723 J2.370 K0.000 F2000.000
G0 Z14.100
G0 X105.606 Y41.960 Z14.100
G0 X105.606 Y41.960 Z12.100
G1 X105.606 Y41.960 Z5.100 F2000.000
G3 X106.668 Y44.499 Z5.100 I-2.373 J2.485 K0.000 F2000.000
G3 X105.888 Y47.000 Z5.100 I-3.812 J0.184 K0.000 F2000.000
G3 X103.449 Y48.291 Z5.100 I-2.967 J-2.656 K0.000 F2000.000
G3 X101.917 Y48.415 Z5.100 I-1.463 J-8.551 K0.000 F2000.000
G1 X96.233 Y48.415 Z5.100 F2000.000
G1 X96.233 Y35.585 Z5.100 F2000.000
G1 X97.876 Y35.585 Z5.100 F2000.000
G1 X97.876 Y39.333 Z5.100 F2000.000
G2 X99.461 Y40.918 Z5.100 I1.585 J-0.000 K0.000 F2000.000
G1 X100.683 Y40.918 Z5.100 F2000.000
G2 X102.113 Y40.017 Z5.100 I-0.000 J-1.585 K0.000 F2000.000
G1 X104.232 Y35.585 Z5.100 F2000.000
G1 X105.976 Y35.585 Z5.100 F2000.000
G1 X104.072 Y39.221 Z5.100 F2000.000
G2 X104.702 Y41.339 Z5.100 I1.404 J0.735 K0.000 F2000.000
G3 X105.606 Y41.960 Z5.100 I-1.470 J3.106 K0.000 F2000.000
G0 Z14.100
G0 X103.222 Y40.682 Z14.100
G0 X103.222 Y40.682 Z12.100
G1 X103.222 Y40.682 Z5.100 F2000.000
G2 X102.742 Y40.496 Z5.100 I-1.805 J3.936 K0.000 F2000.000
G2 X103.114 Y39.761 Z5.100 I-3.035 J-1.996 K0.000 F2000.000
G2 X103.222 Y40.682 Z5.100 I1.802 J0.255 K0.000 F2000.000
G0 Z14.100
G0 X97.756 Y40.980 Z14.100
G0 X97.756 Y40.980 Z12.100
G1 X97.756 Y40.980 Z5.100 F2000.000
G2 X97.084 Y42.623 Z5.100 I1.650 J1.635 K0.000 F2000.000
G1 X97.084 Y46.461 Z5.100 F2000.000
G2 X97.392 Y47.622 Z5.100 I2.259 J0.022 K0.000 F2000.000
G1 X97.025 Y47.622 Z5.100 F2000.000
G1 X97.025 Y36.378 Z5.100 F2000.000
G1 X97.084 Y36.378 Z5.100 F2000.000
G1 X97.084 Y39.333 Z5.100 F2000.000
G2 X97.756 Y40.980 Z5.100 I2.294 J0.023 K0.000 F2000.000
G0 Z14.100
G0 Z14.100
G0 X97.756 Y40.980
G0 X90.610 Y42.770
G0 X90.610 Y42.770 Z12.100
G1 X90.610 Y42.770 Z7.515 F2000.000
G3 X90.691 Y43.197 Z7.515 I-3.646 J0.913 K0.000 F2000.000
G3 X89.904 Y46.954 Z7.515 I-4.877 J0.939 K0.000 F2000.000
G3 X87.882 Y48.266 Z7.515 I-2.814 J-2.123 K0.000 F2000.000
G3 X86.439 Y48.415 Z7.515 I-1.381 J-6.305 K0.000 F2000.000
G1 X80.781 Y48.415 Z7.515 F2000.000
G1 X80.781 Y35.610 Z7.515 F2000.000
G1 X82.519 Y35.610 Z7.515 F2000.000
G1 X82.519 Y38.336 Z7.515 F2000.000
G2 X84.104 Y39.921 Z7.515 I1.585 J-0.000 K0.000 F2000.000
G3 X87.131 Y39.956 Z7.515 I1.137 J32.754 K0.000 F2000.000
G3 X89.341 Y40.772 Z7.515 I-0.188 J3.914 K0.000 F2000.000
G3 X90.610 Y42.770 Z7.515 I-2.377 J2.911 K0.000 F2000.000
G0 Z14.100
G0 X89.841 Y42.987 Z14.100
G0 X89.841 Y42.987 Z12.100
G1 X89.841 Y42.987 Z7.515 F2000.000
G3 X89.976 Y44.100 Z7.515 I-3.485 J0.985 K0.000 F2000.000
G3 X89.159 Y46.604 Z7.515 I-3.765 J0.158 K0.000 F2000.000
G2 X89.186 Y41.712 Z7.515 I-4.437 J-2.471 K0.000 F2000.000
G3 X89.841 Y42.987 Z7.515 I-2.830 J2.261 K0.000 F2000.000
G0 Z14.100
G0 X88.921 Y43.194 Z14.100
G0 X88.921 Y43.194 Z12.100
G1 X88.921 Y43.194 Z7.515 F2000.000
G3 X88.988 Y44.533 Z7.515 I-3.836 J0.862 K0.000 F2000.000
G3 X85.943 Y47.883 Z7.515 I-3.536 J-0.156 K0.000 F2000.000
G3 X84.081 Y47.946 Z7.515 I-1.304 J-10.926 K0.000 F2000.000
G3 X82.496 Y46.361 Z7.515 I0.000 J-1.585 K0.000 F2000.000
G1 X82.496 Y41.875 Z7.515 F2000.000
G3 X83.728 Y40.330 Z7.515 I1.585 J0.000 K0.000 F2000.000
G3 X85.159 Y40.290 Z7.515 I0.892 J6.328 K0.000 F2000.000
G3 X88.069 Y41.496 Z7.515 I0.120 J3.825 K0.000 F2000.000
G3 X88.921 Y43.194 Z7.515 I-2.984 J2.561 K0.000 F2000.000
G0 Z14.100
G0 X82.512 Y40.090 Z14.100
G0 X82.512 Y40.090 Z12.100
G1 X82.512 Y40.090 Z7.515 F2000.000
G2 X81.703 Y41.875 Z7.515 I1.566 J1.785 K0.000 F2000.000
G1 X81.703 Y46.361 Z7.515 F2000.000
G2 X82.070 Y47.622 Z7.515 I2.308 J0.013 K0.000 F2000.000
G1 X81.574 Y47.622 Z7.515 F2000.000
G1 X81.574 Y36.402 Z7.515 F2000.000
G1 X81.727 Y36.402 Z7.515 F2000.000
G1 X81.727 Y38.336 Z7.515 F2000.000
