
(Exported by FreeCAD)
(Post Processor: grbl_post)
(Output Time:2024-02-11 15:15:51.462410)
(Begin preamble)
G17 G90
G21
(Begin operation: Fixture)
(Path: Fixture)
G54
(Finish operation: Fixture)
(Begin operation: 3.175mm-endmill004)
(Path: 3.175mm-endmill004)
(3.175mm-endmill004)
(Begin toolchange)
( M6 T4 )
M3 S10000
(Finish operation: 3.175mm-endmill004)
(Begin operation: Profile)
(Path: Profile)
(Profile)
(Compensated Tool Path. Diameter: 3.17)
G0 Z14.300
G0 X242.121 Y156.121
G0 Z12.300
G1 X242.121 Y156.121 Z7.715 F2000.000
G2 X242.585 Y155.000 Z7.715 I-1.121 J-1.121 K0.000 F2000.000
G1 X242.585 Y0.000 Z7.715 F2000.000
G2 X241.000 Y-1.585 Z7.715 I-1.585 J0.000 K0.000 F2000.000
G1 X0.000 Y-1.585 Z7.715 F2000.000
G2 X-1.585 Y0.000 Z7.715 I0.000 J1.585 K0.000 F2000.000
G1 X-1.585 Y155.000 Z7.715 F2000.000
G2 X0.000 Y156.585 Z7.715 I1.585 J-0.000 K0.000 F2000.000
G1 X241.000 Y156.585 Z7.715 F2000.000
G2 X242.121 Y156.121 Z7.715 I-0.000 J-1.585 K0.000 F2000.000
G1 X242.121 Y156.121 Z6.130 F2000.000
G2 X242.585 Y155.000 Z6.130 I-1.121 J-1.121 K0.000 F2000.000
G1 X242.585 Y0.000 Z6.130 F2000.000
G2 X241.000 Y-1.585 Z6.130 I-1.585 J0.000 K0.000 F2000.000
G1 X0.000 Y-1.585 Z6.130 F2000.000
G2 X-1.585 Y0.000 Z6.130 I0.000 J1.585 K0.000 F2000.000
G1 X-1.585 Y155.000 Z6.130 F2000.000
G2 X0.000 Y156.585 Z6.130 I1.585 J-0.000 K0.000 F2000.000
G1 X241.000 Y156.585 Z6.130 F2000.000
G2 X242.121 Y156.121 Z6.130 I-0.000 J-1.585 K0.000 F2000.000
G1 X242.121 Y156.121 Z4.545 F2000.000
G2 X242.585 Y155.000 Z4.545 I-1.121 J-1.121 K0.000 F2000.000
G1 X242.585 Y0.000 Z4.545 F2000.000
G2 X241.000 Y-1.585 Z4.545 I-1.585 J0.000 K0.000 F2000.000
G1 X0.000 Y-1.585 Z4.545 F2000.000
G2 X-1.585 Y0.000 Z4.545 I0.000 J1.585 K0.000 F2000.000
G1 X-1.585 Y155.000 Z4.545 F2000.000
G2 X0.000 Y156.585 Z4.545 I1.585 J-0.000 K0.000 F2000.000
G1 X241.000 Y156.585 Z4.545 F2000.000
G2 X242.121 Y156.121 Z4.545 I-0.000 J-1.585 K0.000 F2000.000
G1 X242.121 Y156.121 Z2.960 F2000.000
G2 X242.585 Y155.000 Z2.960 I-1.121 J-1.121 K0.000 F2000.000
G1 X242.585 Y0.000 Z2.960 F2000.000
G2 X241.000 Y-1.585 Z2.960 I-1.585 J0.000 K0.000 F2000.000
G1 X0.000 Y-1.585 Z2.960 F2000.000
G2 X-1.585 Y0.000 Z2.960 I0.000 J1.585 K0.000 F2000.000
G1 X-1.585 Y155.000 Z2.960 F2000.000
G2 X0.000 Y156.585 Z2.960 I1.585 J-0.000 K0.000 F2000.000
G1 X241.000 Y156.585 Z2.960 F2000.000
G2 X242.121 Y156.121 Z2.960 I-0.000 J-1.585 K0.000 F2000.000
G1 X242.121 Y156.121 Z1.375 F2000.000
G2 X242.585 Y155.000 Z1.375 I-1.121 J-1.121 K0.000 F2000.000
G1 X242.585 Y0.000 Z1.375 F2000.000
G2 X241.000 Y-1.585 Z1.375 I-1.585 J0.000 K0.000 F2000.000
G1 X0.000 Y-1.585 Z1.375 F2000.000
G2 X-1.585 Y0.000 Z1.375 I0.000 J1.585 K0.000 F2000.000
G1 X-1.585 Y155.000 Z1.375 F2000.000
G2 X0.000 Y156.585 Z1.375 I1.585 J-0.000 K0.000 F2000.000
G1 X241.000 Y156.585 Z1.375 F2000.000
G2 X242.121 Y156.121 Z1.375 I-0.000 J-1.585 K0.000 F2000.000
G1 X242.121 Y156.121 Z0.000 F2000.000
G2 X242.585 Y155.000 Z0.000 I-1.121 J-1.121 K0.000 F2000.000
G1 X242.585 Y0.000 Z0.000 F2000.000
G2 X241.000 Y-1.585 Z0.000 I-1.585 J0.000 K0.000 F2000.000
G1 X0.000 Y-1.585 Z0.000 F2000.000
G2 X-1.585 Y0.000 Z0.000 I0.000 J1.585 K0.000 F2000.000
G1 X-1.585 Y155.000 Z0.000 F2000.000
G2 X0.000 Y156.585 Z0.000 I1.585 J-0.000 K0.000 F2000.000
G1 X241.000 Y156.585 Z0.000 F2000.000
G2 X242.121 Y156.121 Z0.000 I-0.000 J-1.585 K0.000 F2000.000
G0 Z14.300
G0 Z14.300
(Finish operation: Profile)
(Begin postamble)
M5
G17 G90
M2
