(Exported by FreeCAD)
(Post Processor: grbl_post)
(Output Time:2024-02-11 15:16:08.542969)
(Begin preamble)
G17 G90
G21
(Begin operation: Fixture)
(Path: Fixture)
G54
(Finish operation: Fixture)
(Begin operation: 3.175mm-endmill001)
(Path: 3.175mm-endmill001)
(3.175mm-endmill001)
(Begin toolchange)
( M6 T4 )
M3 S10000
(Finish operation: 3.175mm-endmill001)
(Begin operation: MillFace)
(Path: MillFace)
(MillFace)
G0 Z14.300
G0 X241.017 Y155.017
G0 Z12.300
G1 X241.017 Y155.017 Z9.000 F2000.000
G2 X241.032 Y154.922 Z9.000 I-0.058 J-0.057 K0.000 F2000.000
G1 X241.032 Y0.078 Z9.000 F2000.000
G2 X240.922 Y-0.032 Z9.000 I-0.072 J-0.037 K0.000 F2000.000
G1 X0.078 Y-0.032 Z9.000 F2000.000
G2 X-0.032 Y0.078 Z9.000 I-0.037 J0.072 K0.000 F2000.000
G1 X-0.032 Y154.922 Z9.000 F2000.000
G2 X0.078 Y155.032 Z9.000 I0.072 J0.037 K0.000 F2000.000
G1 X240.922 Y155.032 Z9.000 F2000.000
G2 X241.017 Y155.017 Z9.000 I0.037 J-0.072 K0.000 F2000.000
G0 Z14.300
G0 X241.009 Y-0.022 Z14.300
G0 X241.009 Y-0.022 Z12.300
G1 X241.009 Y-0.022 Z9.000 F2000.000
G3 X241.032 Y0.078 Z9.000 I-0.042 J0.062 K0.000 F2000.000
G1 X241.032 Y2.239 Z9.000 F2000.000
G1 X238.761 Y-0.032 Z9.000 F2000.000
G1 X236.519 Y-0.032 Z9.000 F2000.000
G1 X241.032 Y4.481 Z9.000 F2000.000
G1 X241.032 Y6.722 Z9.000 F2000.000
G1 X234.278 Y-0.032 Z9.000 F2000.000
G1 X232.036 Y-0.032 Z9.000 F2000.000
G1 X241.032 Y8.964 Z9.000 F2000.000
G1 X241.032 Y11.205 Z9.000 F2000.000
G1 X229.795 Y-0.032 Z9.000 F2000.000
G1 X227.553 Y-0.032 Z9.000 F2000.000
G1 X241.032 Y13.447 Z9.000 F2000.000
G1 X241.032 Y15.688 Z9.000 F2000.000
G1 X225.312 Y-0.032 Z9.000 F2000.000
G1 X223.070 Y-0.032 Z9.000 F2000.000
G1 X241.032 Y17.930 Z9.000 F2000.000
G1 X241.032 Y20.171 Z9.000 F2000.000
G1 X220.829 Y-0.032 Z9.000 F2000.000
G1 X218.587 Y-0.032 Z9.000 F2000.000
G1 X241.032 Y22.413 Z9.000 F2000.000
G1 X241.032 Y24.655 Z9.000 F2000.000
G1 X216.345 Y-0.032 Z9.000 F2000.000
G1 X214.104 Y-0.032 Z9.000 F2000.000
G1 X241.032 Y26.896 Z9.000 F2000.000
G1 X241.032 Y29.138 Z9.000 F2000.000
G1 X211.862 Y-0.032 Z9.000 F2000.000
G1 X209.621 Y-0.032 Z9.000 F2000.000
G1 X241.032 Y31.379 Z9.000 F2000.000
G1 X241.032 Y33.621 Z9.000 F2000.000
G1 X207.379 Y-0.032 Z9.000 F2000.000
G1 X205.138 Y-0.032 Z9.000 F2000.000
G1 X241.032 Y35.862 Z9.000 F2000.000
G1 X241.032 Y38.104 Z9.000 F2000.000
G1 X202.896 Y-0.032 Z9.000 F2000.000
G1 X200.655 Y-0.032 Z9.000 F2000.000
G1 X241.032 Y40.345 Z9.000 F2000.000
G1 X241.032 Y42.587 Z9.000 F2000.000
G1 X198.413 Y-0.032 Z9.000 F2000.000
G1 X196.172 Y-0.032 Z9.000 F2000.000
G1 X241.032 Y44.828 Z9.000 F2000.000
G1 X241.032 Y47.070 Z9.000 F2000.000
G1 X193.930 Y-0.032 Z9.000 F2000.000
G1 X191.689 Y-0.032 Z9.000 F2000.000
G1 X241.032 Y49.311 Z9.000 F2000.000
G1 X241.032 Y51.553 Z9.000 F2000.000
G1 X189.447 Y-0.032 Z9.000 F2000.000
G1 X187.206 Y-0.032 Z9.000 F2000.000
G1 X241.032 Y53.794 Z9.000 F2000.000
G1 X241.032 Y56.036 Z9.000 F2000.000
G1 X184.964 Y-0.032 Z9.000 F2000.000
G1 X182.723 Y-0.032 Z9.000 F2000.000
G1 X241.032 Y58.277 Z9.000 F2000.000
G1 X241.032 Y60.519 Z9.000 F2000.000
G1 X180.481 Y-0.032 Z9.000 F2000.000
G1 X178.239 Y-0.032 Z9.000 F2000.000
G1 X241.032 Y62.761 Z9.000 F2000.000
G1 X241.032 Y65.002 Z9.000 F2000.000
G1 X175.998 Y-0.032 Z9.000 F2000.000
G1 X173.756 Y-0.032 Z9.000 F2000.000
G1 X241.032 Y67.244 Z9.000 F2000.000
G1 X241.032 Y69.485 Z9.000 F2000.000
G1 X171.515 Y-0.032 Z9.000 F2000.000
G1 X169.273 Y-0.032 Z9.000 F2000.000
G1 X241.032 Y71.727 Z9.000 F2000.000
G1 X241.032 Y73.968 Z9.000 F2000.000
G1 X167.032 Y-0.032 Z9.000 F2000.000
G1 X164.790 Y-0.032 Z9.000 F2000.000
G1 X241.032 Y76.210 Z9.000 F2000.000
G1 X241.032 Y78.451 Z9.000 F2000.000
G1 X162.549 Y-0.032 Z9.000 F2000.000
G1 X160.307 Y-0.032 Z9.000 F2000.000
G1 X241.032 Y80.693 Z9.000 F2000.000
G1 X241.032 Y82.934 Z9.000 F2000.000
G1 X158.066 Y-0.032 Z9.000 F2000.000
G1 X155.824 Y-0.032 Z9.000 F2000.000
G1 X241.032 Y85.176 Z9.000 F2000.000
G1 X241.032 Y87.417 Z9.000 F2000.000
G1 X153.583 Y-0.032 Z9.000 F2000.000
G1 X151.341 Y-0.032 Z9.000 F2000.000
G1 X241.032 Y89.659 Z9.000 F2000.000
G1 X241.032 Y91.900 Z9.000 F2000.000
G1 X149.100 Y-0.032 Z9.000 F2000.000
G1 X146.858 Y-0.032 Z9.000 F2000.000
G1 X241.032 Y94.142 Z9.000 F2000.000
G1 X241.032 Y96.383 Z9.000 F2000.000
G1 X144.617 Y-0.032 Z9.000 F2000.000
G1 X142.375 Y-0.032 Z9.000 F2000.000
G1 X241.032 Y98.625 Z9.000 F2000.000
G1 X241.032 Y100.866 Z9.000 F2000.000
G1 X140.134 Y-0.032 Z9.000 F2000.000
G1 X137.892 Y-0.032 Z9.000 F2000.000
G1 X241.032 Y103.108 Z9.000 F2000.000
G1 X241.032 Y105.350 Z9.000 F2000.000
G1 X135.650 Y-0.032 Z9.000 F2000.000
G1 X133.409 Y-0.032 Z9.000 F2000.000
G1 X241.032 Y107.591 Z9.000 F2000.000
G1 X241.032 Y109.833 Z9.000 F2000.000
G1 X131.167 Y-0.032 Z9.000 F2000.000
G1 X128.926 Y-0.032 Z9.000 F2000.000
G1 X241.032 Y112.074 Z9.000 F2000.000
G1 X241.032 Y114.316 Z9.000 F2000.000
G1 X126.684 Y-0.032 Z9.000 F2000.000
G1 X124.443 Y-0.032 Z9.000 F2000.000
G1 X241.032 Y116.557 Z9.000 F2000.000
G1 X241.032 Y118.799 Z9.000 F2000.000
G1 X122.201 Y-0.032 Z9.000 F2000.000
G1 X119.960 Y-0.032 Z9.000 F2000.000
G1 X241.032 Y121.040 Z9.000 F2000.000
G1 X241.032 Y123.282 Z9.000 F2000.000
G1 X117.718 Y-0.032 Z9.000 F2000.000
G1 X115.477 Y-0.032 Z9.000 F2000.000
G1 X241.032 Y125.523 Z9.000 F2000.000
G1 X241.032 Y127.765 Z9.000 F2000.000
G1 X113.235 Y-0.032 Z9.000 F2000.000
G1 X110.994 Y-0.032 Z9.000 F2000.000
G1 X241.032 Y130.006 Z9.000 F2000.000
G1 X241.032 Y132.248 Z9.000 F2000.000
G1 X108.752 Y-0.032 Z9.000 F2000.000
G1 X106.511 Y-0.032 Z9.000 F2000.000
G1 X241.032 Y134.489 Z9.000 F2000.000
G1 X241.032 Y136.731 Z9.000 F2000.000
G1 X104.269 Y-0.032 Z9.000 F2000.000
G1 X102.028 Y-0.032 Z9.000 F2000.000
G1 X241.032 Y138.972 Z9.000 F2000.000
G1 X241.032 Y141.214 Z9.000 F2000.000
G1 X99.786 Y-0.032 Z9.000 F2000.000
G1 X97.544 Y-0.032 Z9.000 F2000.000
G1 X241.032 Y143.456 Z9.000 F2000.000
G1 X241.032 Y145.697 Z9.000 F2000.000
G1 X95.303 Y-0.032 Z9.000 F2000.000
G1 X93.061 Y-0.032 Z9.000 F2000.000
G1 X241.032 Y147.939 Z9.000 F2000.000
G1 X241.032 Y150.180 Z9.000 F2000.000
G1 X90.820 Y-0.032 Z9.000 F2000.000
G1 X88.578 Y-0.032 Z9.000 F2000.000
G1 X241.032 Y152.422 Z9.000 F2000.000
G1 X241.032 Y154.663 Z9.000 F2000.000
G1 X86.337 Y-0.032 Z9.000 F2000.000
G1 X84.095 Y-0.032 Z9.000 F2000.000
G1 X239.159 Y155.032 Z9.000 F2000.000
G1 X236.917 Y155.032 Z9.000 F2000.000
G1 X81.854 Y-0.032 Z9.000 F2000.000
G1 X79.612 Y-0.032 Z9.000 F2000.000
G1 X234.676 Y155.032 Z9.000 F2000.000
G1 X232.434 Y155.032 Z9.000 F2000.000
G1 X77.371 Y-0.032 Z9.000 F2000.000
G1 X75.129 Y-0.032 Z9.000 F2000.000
G1 X230.193 Y155.032 Z9.000 F2000.000
G1 X227.951 Y155.032 Z9.000 F2000.000
G1 X72.888 Y-0.032 Z9.000 F2000.000
G1 X70.646 Y-0.032 Z9.000 F2000.000
G1 X225.710 Y155.032 Z9.000 F2000.000
G1 X223.468 Y155.032 Z9.000 F2000.000
G1 X68.405 Y-0.032 Z9.000 F2000.000
G1 X66.163 Y-0.032 Z9.000 F2000.000
G1 X221.226 Y155.032 Z9.000 F2000.000
G1 X218.985 Y155.032 Z9.000 F2000.000
G1 X63.922 Y-0.032 Z9.000 F2000.000
G1 X61.680 Y-0.032 Z9.000 F2000.000
G1 X216.743 Y155.032 Z9.000 F2000.000
G1 X214.502 Y155.032 Z9.000 F2000.000
G1 X59.438 Y-0.032 Z9.000 F2000.000
G1 X57.197 Y-0.032 Z9.000 F2000.000
G1 X212.260 Y155.032 Z9.000 F2000.000
G1 X210.019 Y155.032 Z9.000 F2000.000
G1 X54.955 Y-0.032 Z9.000 F2000.000
G1 X52.714 Y-0.032 Z9.000 F2000.000
G1 X207.777 Y155.032 Z9.000 F2000.000
G1 X205.536 Y155.032 Z9.000 F2000.000
G1 X50.472 Y-0.032 Z9.000 F2000.000
G1 X48.231 Y-0.032 Z9.000 F2000.000
G1 X203.294 Y155.032 Z9.000 F2000.000
G1 X201.053 Y155.032 Z9.000 F2000.000
G1 X45.989 Y-0.032 Z9.000 F2000.000
G1 X43.748 Y-0.032 Z9.000 F2000.000
G1 X198.811 Y155.032 Z9.000 F2000.000
G1 X196.570 Y155.032 Z9.000 F2000.000
G1 X41.506 Y-0.032 Z9.000 F2000.000
G1 X39.265 Y-0.032 Z9.000 F2000.000
G1 X194.328 Y155.032 Z9.000 F2000.000
G1 X192.087 Y155.032 Z9.000 F2000.000
G1 X37.023 Y-0.032 Z9.000 F2000.000
G1 X34.782 Y-0.032 Z9.000 F2000.000
G1 X189.845 Y155.032 Z9.000 F2000.000
G1 X187.604 Y155.032 Z9.000 F2000.000
G1 X32.540 Y-0.032 Z9.000 F2000.000
G1 X30.299 Y-0.032 Z9.000 F2000.000
G1 X185.362 Y155.032 Z9.000 F2000.000
G1 X183.120 Y155.032 Z9.000 F2000.000
G1 X28.057 Y-0.032 Z9.000 F2000.000
G1 X25.816 Y-0.032 Z9.000 F2000.000
G1 X180.879 Y155.032 Z9.000 F2000.000
G1 X178.637 Y155.032 Z9.000 F2000.000
G1 X23.574 Y-0.032 Z9.000 F2000.000
G1 X21.332 Y-0.032 Z9.000 F2000.000
G1 X176.396 Y155.032 Z9.000 F2000.000
G1 X174.154 Y155.032 Z9.000 F2000.000
G1 X19.091 Y-0.032 Z9.000 F2000.000
G1 X16.849 Y-0.032 Z9.000 F2000.000
G1 X171.913 Y155.032 Z9.000 F2000.000
G1 X169.671 Y155.032 Z9.000 F2000.000
G1 X14.608 Y-0.032 Z9.000 F2000.000
G1 X12.366 Y-0.032 Z9.000 F2000.000
G1 X167.430 Y155.032 Z9.000 F2000.000
G1 X165.188 Y155.032 Z9.000 F2000.000
G1 X10.125 Y-0.032 Z9.000 F2000.000
G1 X7.883 Y-0.032 Z9.000 F2000.000
G1 X162.947 Y155.032 Z9.000 F2000.000
G1 X160.705 Y155.032 Z9.000 F2000.000
G1 X5.642 Y-0.032 Z9.000 F2000.000
G1 X3.400 Y-0.032 Z9.000 F2000.000
G1 X158.464 Y155.032 Z9.000 F2000.000
G1 X156.222 Y155.032 Z9.000 F2000.000
G1 X1.159 Y-0.032 Z9.000 F2000.000
G1 X0.078 Y-0.032 Z9.000 F2000.000
G2 X-0.032 Y0.078 Z9.000 I-0.037 J0.072 K0.000 F2000.000
G1 X-0.032 Y1.019 Z9.000 F2000.000
G1 X153.981 Y155.032 Z9.000 F2000.000
G1 X151.739 Y155.032 Z9.000 F2000.000
G1 X-0.032 Y3.261 Z9.000 F2000.000
G1 X-0.032 Y5.502 Z9.000 F2000.000
G1 X149.498 Y155.032 Z9.000 F2000.000
G1 X147.256 Y155.032 Z9.000 F2000.000
G1 X-0.032 Y7.744 Z9.000 F2000.000
G1 X-0.032 Y9.986 Z9.000 F2000.000
G1 X145.014 Y155.032 Z9.000 F2000.000
G1 X142.773 Y155.032 Z9.000 F2000.000
G1 X-0.032 Y12.227 Z9.000 F2000.000
G1 X-0.032 Y14.469 Z9.000 F2000.000
G1 X140.531 Y155.032 Z9.000 F2000.000
G1 X138.290 Y155.032 Z9.000 F2000.000
G1 X-0.032 Y16.710 Z9.000 F2000.000
G1 X-0.032 Y18.952 Z9.000 F2000.000
G1 X136.048 Y155.032 Z9.000 F2000.000
G1 X133.807 Y155.032 Z9.000 F2000.000
G1 X-0.032 Y21.193 Z9.000 F2000.000
G1 X-0.032 Y23.435 Z9.000 F2000.000
G1 X131.565 Y155.032 Z9.000 F2000.000
G1 X129.324 Y155.032 Z9.000 F2000.000
G1 X-0.032 Y25.676 Z9.000 F2000.000
G1 X-0.032 Y27.918 Z9.000 F2000.000
G1 X127.082 Y155.032 Z9.000 F2000.000
G1 X124.841 Y155.032 Z9.000 F2000.000
G1 X-0.032 Y30.159 Z9.000 F2000.000
G1 X-0.032 Y32.401 Z9.000 F2000.000
G1 X122.599 Y155.032 Z9.000 F2000.000
G1 X120.358 Y155.032 Z9.000 F2000.000
G1 X-0.032 Y34.642 Z9.000 F2000.000
G1 X-0.032 Y36.884 Z9.000 F2000.000
G1 X118.116 Y155.032 Z9.000 F2000.000
G1 X115.875 Y155.032 Z9.000 F2000.000
G1 X-0.032 Y39.125 Z9.000 F2000.000
G1 X-0.032 Y41.367 Z9.000 F2000.000
G1 X113.633 Y155.032 Z9.000 F2000.000
G1 X111.392 Y155.032 Z9.000 F2000.000
G1 X-0.032 Y43.608 Z9.000 F2000.000
G1 X-0.032 Y45.850 Z9.000 F2000.000
G1 X109.150 Y155.032 Z9.000 F2000.000
G1 X106.909 Y155.032 Z9.000 F2000.000
G1 X-0.032 Y48.091 Z9.000 F2000.000
G1 X-0.032 Y50.333 Z9.000 F2000.000
G1 X104.667 Y155.032 Z9.000 F2000.000
G1 X102.425 Y155.032 Z9.000 F2000.000
G1 X-0.032 Y52.575 Z9.000 F2000.000
G1 X-0.032 Y54.816 Z9.000 F2000.000
G1 X100.184 Y155.032 Z9.000 F2000.000
G1 X97.942 Y155.032 Z9.000 F2000.000
G1 X-0.032 Y57.058 Z9.000 F2000.000
G1 X-0.032 Y59.299 Z9.000 F2000.000
G1 X95.701 Y155.032 Z9.000 F2000.000
G1 X93.459 Y155.032 Z9.000 F2000.000
G1 X-0.032 Y61.541 Z9.000 F2000.000
G1 X-0.032 Y63.782 Z9.000 F2000.000
G1 X91.218 Y155.032 Z9.000 F2000.000
G1 X88.976 Y155.032 Z9.000 F2000.000
G1 X-0.032 Y66.024 Z9.000 F2000.000
G1 X-0.032 Y68.265 Z9.000 F2000.000
G1 X86.735 Y155.032 Z9.000 F2000.000
G1 X84.493 Y155.032 Z9.000 F2000.000
G1 X-0.032 Y70.507 Z9.000 F2000.000
G1 X-0.032 Y72.748 Z9.000 F2000.000
G1 X82.252 Y155.032 Z9.000 F2000.000
G1 X80.010 Y155.032 Z9.000 F2000.000
G1 X-0.032 Y74.990 Z9.000 F2000.000
G1 X-0.032 Y77.231 Z9.000 F2000.000
G1 X77.769 Y155.032 Z9.000 F2000.000
G1 X75.527 Y155.032 Z9.000 F2000.000
G1 X-0.032 Y79.473 Z9.000 F2000.000
G1 X-0.032 Y81.714 Z9.000 F2000.000
G1 X73.286 Y155.032 Z9.000 F2000.000
G1 X71.044 Y155.032 Z9.000 F2000.000
G1 X-0.032 Y83.956 Z9.000 F2000.000
G1 X-0.032 Y86.197 Z9.000 F2000.000
G1 X68.803 Y155.032 Z9.000 F2000.000
G1 X66.561 Y155.032 Z9.000 F2000.000
G1 X-0.032 Y88.439 Z9.000 F2000.000
G1 X-0.032 Y90.681 Z9.000 F2000.000
G1 X64.319 Y155.032 Z9.000 F2000.000
G1 X62.078 Y155.032 Z9.000 F2000.000
G1 X-0.032 Y92.922 Z9.000 F2000.000
G1 X-0.032 Y95.164 Z9.000 F2000.000
G1 X59.836 Y155.032 Z9.000 F2000.000
G1 X57.595 Y155.032 Z9.000 F2000.000
G1 X-0.032 Y97.405 Z9.000 F2000.000
G1 X-0.032 Y99.647 Z9.000 F2000.000
G1 X55.353 Y155.032 Z9.000 F2000.000
G1 X53.112 Y155.032 Z9.000 F2000.000
G1 X-0.032 Y101.888 Z9.000 F2000.000
G1 X-0.032 Y104.130 Z9.000 F2000.000
G1 X50.870 Y155.032 Z9.000 F2000.000
G1 X48.629 Y155.032 Z9.000 F2000.000
G1 X-0.032 Y106.371 Z9.000 F2000.000
G1 X-0.032 Y108.613 Z9.000 F2000.000
G1 X46.387 Y155.032 Z9.000 F2000.000
G1 X44.146 Y155.032 Z9.000 F2000.000
G1 X-0.032 Y110.854 Z9.000 F2000.000
G1 X-0.032 Y113.096 Z9.000 F2000.000
G1 X41.904 Y155.032 Z9.000 F2000.000
G1 X39.663 Y155.032 Z9.000 F2000.000
G1 X-0.032 Y115.337 Z9.000 F2000.000
G1 X-0.032 Y117.579 Z9.000 F2000.000
G1 X37.421 Y155.032 Z9.000 F2000.000
G1 X35.180 Y155.032 Z9.000 F2000.000
G1 X-0.032 Y119.820 Z9.000 F2000.000
G1 X-0.032 Y122.062 Z9.000 F2000.000
G1 X32.938 Y155.032 Z9.000 F2000.000
G1 X30.697 Y155.032 Z9.000 F2000.000
G1 X-0.032 Y124.303 Z9.000 F2000.000
G1 X-0.032 Y126.545 Z9.000 F2000.000
G1 X28.455 Y155.032 Z9.000 F2000.000
G1 X26.213 Y155.032 Z9.000 F2000.000
G1 X-0.032 Y128.787 Z9.000 F2000.000
G1 X-0.032 Y131.028 Z9.000 F2000.000
G1 X23.972 Y155.032 Z9.000 F2000.000
G1 X21.730 Y155.032 Z9.000 F2000.000
G1 X-0.032 Y133.270 Z9.000 F2000.000
G1 X-0.032 Y135.511 Z9.000 F2000.000
G1 X19.489 Y155.032 Z9.000 F2000.000
G1 X17.247 Y155.032 Z9.000 F2000.000
G1 X-0.032 Y137.753 Z9.000 F2000.000
G1 X-0.032 Y139.994 Z9.000 F2000.000
G1 X15.006 Y155.032 Z9.000 F2000.000
G1 X12.764 Y155.032 Z9.000 F2000.000
G1 X-0.032 Y142.236 Z9.000 F2000.000
G1 X-0.032 Y144.477 Z9.000 F2000.000
G1 X10.523 Y155.032 Z9.000 F2000.000
G1 X8.281 Y155.032 Z9.000 F2000.000
G1 X-0.032 Y146.719 Z9.000 F2000.000
G1 X-0.032 Y148.960 Z9.000 F2000.000
G1 X6.040 Y155.032 Z9.000 F2000.000
G1 X3.798 Y155.032 Z9.000 F2000.000
G1 X-0.032 Y151.202 Z9.000 F2000.000
G1 X-0.032 Y153.443 Z9.000 F2000.000
G1 X-0.032 Y154.922 Z9.000 F2000.000
G2 X0.078 Y155.032 Z9.000 I0.072 J0.037 K0.000 F2000.000
G1 X1.557 Y155.032 Z9.000 F2000.000
G1 X-0.032 Y153.443 Z9.000 F2000.000
G0 Z14.300
G0 Z14.300
(Finish operation: MillFace)
(Begin operation: Pocket_Shape)
(Path: Pocket_Shape)
(Pocket_Shape)
G0 Z14.300
G0 X239.415 Y153.415
G0 Z12.300
G1 X239.415 Y153.415 Z8.000 F2000.000
G1 X239.415 Y1.585 Z8.000 F2000.000
G1 X1.585 Y1.585 Z8.000 F2000.000
G1 X1.585 Y153.415 Z8.000 F2000.000
G1 X239.415 Y153.415 Z8.000 F2000.000
G0 Z14.300
G0 X232.121 Y146.121 Z14.300
G0 X232.121 Y146.121 Z12.300
G1 X232.121 Y146.121 Z8.000 F2000.000
G3 X231.000 Y146.585 Z8.000 I-1.121 J-1.121 K0.000 F2000.000
G1 X181.000 Y146.585 Z8.000 F2000.000
G3 X179.415 Y145.000 Z8.000 I-0.000 J-1.585 K0.000 F2000.000
G1 X179.415 Y129.000 Z8.000 F2000.000
G3 X181.000 Y127.415 Z8.000 I1.585 J-0.000 K0.000 F2000.000
G1 X231.000 Y127.415 Z8.000 F2000.000
G3 X232.585 Y129.000 Z8.000 I-0.000 J1.585 K0.000 F2000.000
G1 X232.585 Y145.000 Z8.000 F2000.000
G3 X232.121 Y146.121 Z8.000 I-1.585 J-0.000 K0.000 F2000.000
G0 Z14.300
G0 X232.585 Y129.247 Z14.300
G0 X232.585 Y129.247 Z12.300
G1 X232.585 Y129.247 Z8.000 F2000.000
G1 X239.415 Y136.077 Z8.000 F2000.000
G1 X239.415 Y138.318 Z8.000 F2000.000
G1 X232.585 Y131.488 Z8.000 F2000.000
G1 X232.585 Y133.730 Z8.000 F2000.000
G1 X239.415 Y140.560 Z8.000 F2000.000
G1 X239.415 Y142.801 Z8.000 F2000.000
G1 X232.585 Y135.971 Z8.000 F2000.000
G1 X232.585 Y138.213 Z8.000 F2000.000
G1 X239.415 Y145.043 Z8.000 F2000.000
G1 X239.415 Y147.284 Z8.000 F2000.000
G1 X232.585 Y140.454 Z8.000 F2000.000
G1 X232.585 Y142.696 Z8.000 F2000.000
G1 X239.415 Y149.526 Z8.000 F2000.000
G1 X239.415 Y151.767 Z8.000 F2000.000
G1 X232.585 Y144.937 Z8.000 F2000.000
G3 X231.778 Y146.372 Z8.000 I-1.562 J0.065 K0.000 F2000.000
G1 X238.821 Y153.415 Z8.000 F2000.000
G1 X236.580 Y153.415 Z8.000 F2000.000
G1 X229.750 Y146.585 Z8.000 F2000.000
G1 X227.508 Y146.585 Z8.000 F2000.000
G1 X234.338 Y153.415 Z8.000 F2000.000
G1 X232.096 Y153.415 Z8.000 F2000.000
G1 X225.266 Y146.585 Z8.000 F2000.000
G1 X223.025 Y146.585 Z8.000 F2000.000
G1 X229.855 Y153.415 Z8.000 F2000.000
G1 X227.613 Y153.415 Z8.000 F2000.000
G1 X220.783 Y146.585 Z8.000 F2000.000
G1 X218.542 Y146.585 Z8.000 F2000.000
G1 X225.372 Y153.415 Z8.000 F2000.000
G1 X223.130 Y153.415 Z8.000 F2000.000
G1 X216.300 Y146.585 Z8.000 F2000.000
G1 X214.059 Y146.585 Z8.000 F2000.000
G1 X220.889 Y153.415 Z8.000 F2000.000
G1 X218.647 Y153.415 Z8.000 F2000.000
G1 X211.817 Y146.585 Z8.000 F2000.000
G1 X209.576 Y146.585 Z8.000 F2000.000
G1 X216.406 Y153.415 Z8.000 F2000.000
G1 X214.164 Y153.415 Z8.000 F2000.000
G1 X207.334 Y146.585 Z8.000 F2000.000
G1 X205.093 Y146.585 Z8.000 F2000.000
G1 X211.923 Y153.415 Z8.000 F2000.000
G1 X209.681 Y153.415 Z8.000 F2000.000
G1 X202.851 Y146.585 Z8.000 F2000.000
G1 X200.610 Y146.585 Z8.000 F2000.000
G1 X207.440 Y153.415 Z8.000 F2000.000
G1 X205.198 Y153.415 Z8.000 F2000.000
G1 X198.368 Y146.585 Z8.000 F2000.000
G1 X196.127 Y146.585 Z8.000 F2000.000
G1 X202.957 Y153.415 Z8.000 F2000.000
G1 X200.715 Y153.415 Z8.000 F2000.000
G1 X193.885 Y146.585 Z8.000 F2000.000
G1 X191.644 Y146.585 Z8.000 F2000.000
G1 X198.474 Y153.415 Z8.000 F2000.000
G1 X196.232 Y153.415 Z8.000 F2000.000
G1 X189.402 Y146.585 Z8.000 F2000.000
G1 X187.160 Y146.585 Z8.000 F2000.000
G1 X193.990 Y153.415 Z8.000 F2000.000
G1 X191.749 Y153.415 Z8.000 F2000.000
G1 X184.919 Y146.585 Z8.000 F2000.000
G1 X182.677 Y146.585 Z8.000 F2000.000
G1 X189.507 Y153.415 Z8.000 F2000.000
G1 X187.266 Y153.415 Z8.000 F2000.000
G1 X180.223 Y146.372 Z8.000 F2000.000
G3 X179.628 Y145.777 Z8.000 I0.609 J-1.203 K0.000 F2000.000
G1 X172.585 Y138.734 Z8.000 F2000.000
G1 X172.585 Y140.976 Z8.000 F2000.000
G1 X185.024 Y153.415 Z8.000 F2000.000
G1 X182.783 Y153.415 Z8.000 F2000.000
G1 X172.585 Y143.217 Z8.000 F2000.000
G1 X172.585 Y145.459 Z8.000 F2000.000
G1 X180.541 Y153.415 Z8.000 F2000.000
G1 X178.300 Y153.415 Z8.000 F2000.000
G1 X172.585 Y147.700 Z8.000 F2000.000
G1 X172.585 Y149.000 Z8.000 F2000.000
G3 X172.391 Y149.747 Z8.000 I-1.165 J0.096 K0.000 F2000.000
G1 X176.058 Y153.415 Z8.000 F2000.000
G1 X173.817 Y153.415 Z8.000 F2000.000
G1 X170.987 Y150.585 Z8.000 F2000.000
G1 X168.745 Y150.585 Z8.000 F2000.000
G1 X171.575 Y153.415 Z8.000 F2000.000
G1 X169.334 Y153.415 Z8.000 F2000.000
G1 X166.504 Y150.585 Z8.000 F2000.000
G1 X164.262 Y150.585 Z8.000 F2000.000
G1 X167.092 Y153.415 Z8.000 F2000.000
G1 X164.851 Y153.415 Z8.000 F2000.000
G1 X162.021 Y150.585 Z8.000 F2000.000
G1 X159.779 Y150.585 Z8.000 F2000.000
G1 X162.609 Y153.415 Z8.000 F2000.000
G1 X160.368 Y153.415 Z8.000 F2000.000
G1 X157.538 Y150.585 Z8.000 F2000.000
G1 X155.296 Y150.585 Z8.000 F2000.000
G1 X158.126 Y153.415 Z8.000 F2000.000
G1 X155.885 Y153.415 Z8.000 F2000.000
G1 X153.055 Y150.585 Z8.000 F2000.000
G1 X150.813 Y150.585 Z8.000 F2000.000
G1 X153.643 Y153.415 Z8.000 F2000.000
G1 X151.401 Y153.415 Z8.000 F2000.000
G1 X148.571 Y150.585 Z8.000 F2000.000
G1 X146.330 Y150.585 Z8.000 F2000.000
G1 X149.160 Y153.415 Z8.000 F2000.000
G1 X146.918 Y153.415 Z8.000 F2000.000
G1 X144.088 Y150.585 Z8.000 F2000.000
G1 X141.847 Y150.585 Z8.000 F2000.000
G1 X144.677 Y153.415 Z8.000 F2000.000
G1 X142.435 Y153.415 Z8.000 F2000.000
G1 X139.605 Y150.585 Z8.000 F2000.000
G1 X137.364 Y150.585 Z8.000 F2000.000
G1 X140.194 Y153.415 Z8.000 F2000.000
G1 X137.952 Y153.415 Z8.000 F2000.000
G1 X135.122 Y150.585 Z8.000 F2000.000
G1 X132.881 Y150.585 Z8.000 F2000.000
G1 X135.711 Y153.415 Z8.000 F2000.000
G1 X133.469 Y153.415 Z8.000 F2000.000
G1 X130.639 Y150.585 Z8.000 F2000.000
G1 X128.398 Y150.585 Z8.000 F2000.000
G1 X131.228 Y153.415 Z8.000 F2000.000
G1 X128.986 Y153.415 Z8.000 F2000.000
G1 X126.156 Y150.585 Z8.000 F2000.000
G1 X124.000 Y150.585 Z8.000 F2000.000
G1 X123.904 Y150.574 Z8.000 F2000.000
G1 X126.745 Y153.415 Z8.000 F2000.000
G0 Z14.300
G0 Y150.585 Z14.300
G0 Y150.585 Z12.300
G1 X126.745 Y150.585 Z8.000 F2000.000
G1 X124.000 Y150.585 Z8.000 F2000.000
G3 X122.415 Y149.000 Z8.000 I0.000 J-1.585 K0.000 F2000.000
G1 X122.415 Y129.000 Z8.000 F2000.000
G3 X124.000 Y127.415 Z8.000 I1.585 J0.000 K0.000 F2000.000
G1 X171.000 Y127.415 Z8.000 F2000.000
G3 X172.585 Y129.000 Z8.000 I-0.000 J1.585 K0.000 F2000.000
G1 X172.585 Y149.000 Z8.000 F2000.000
G3 X171.000 Y150.585 Z8.000 I-1.585 J-0.000 K0.000 F2000.000
G1 X126.745 Y150.585 Z8.000 F2000.000
G0 Z14.300
G0 X115.573 Y149.196 Z14.300
G0 X115.573 Y149.196 Z12.300
G1 X115.573 Y149.196 Z8.000 F2000.000
G3 X114.000 Y150.585 Z8.000 I-1.573 J-0.196 K0.000 F2000.000
G1 X67.000 Y150.585 Z8.000 F2000.000
G3 X65.415 Y149.000 Z8.000 I0.000 J-1.585 K0.000 F2000.000
G1 X65.415 Y129.000 Z8.000 F2000.000
G3 X67.000 Y127.415 Z8.000 I1.585 J0.000 K0.000 F2000.000
G1 X114.000 Y127.415 Z8.000 F2000.000
G3 X115.585 Y129.000 Z8.000 I-0.000 J1.585 K0.000 F2000.000
G1 X115.585 Y149.000 Z8.000 F2000.000
G3 X115.573 Y149.196 Z8.000 I-1.585 J-0.000 K0.000 F2000.000
G0 Z14.300
G0 X115.560 Y128.782 Z14.300
G0 X115.560 Y128.782 Z12.300
G1 X115.560 Y128.782 Z8.000 F2000.000
G1 X122.415 Y135.636 Z8.000 F2000.000
G1 X122.415 Y137.878 Z8.000 F2000.000
G1 X115.585 Y131.048 Z8.000 F2000.000
G1 X115.585 Y133.289 Z8.000 F2000.000
G1 X122.415 Y140.119 Z8.000 F2000.000
G1 X122.415 Y142.361 Z8.000 F2000.000
G1 X115.585 Y135.531 Z8.000 F2000.000
G1 X115.585 Y137.772 Z8.000 F2000.000
G1 X122.415 Y144.602 Z8.000 F2000.000
G1 X122.415 Y146.844 Z8.000 F2000.000
G1 X115.585 Y140.014 Z8.000 F2000.000
G1 X115.585 Y142.255 Z8.000 F2000.000
G1 X122.426 Y149.096 Z8.000 F2000.000
G2 X123.904 Y150.574 Z8.000 I1.552 J-0.074 K0.000 F2000.000
G1 X126.745 Y153.415 Z8.000 F2000.000
G1 X124.503 Y153.415 Z8.000 F2000.000
G1 X115.585 Y144.497 Z8.000 F2000.000
G1 X115.585 Y146.738 Z8.000 F2000.000
G1 X122.262 Y153.415 Z8.000 F2000.000
G1 X120.020 Y153.415 Z8.000 F2000.000
G1 X115.585 Y148.980 Z8.000 F2000.000
G3 X114.751 Y150.388 Z8.000 I-1.565 J0.024 K0.000 F2000.000
G1 X117.779 Y153.415 Z8.000 F2000.000
G1 X115.537 Y153.415 Z8.000 F2000.000
G1 X112.707 Y150.585 Z8.000 F2000.000
G1 X110.465 Y150.585 Z8.000 F2000.000
G1 X113.295 Y153.415 Z8.000 F2000.000
G1 X111.054 Y153.415 Z8.000 F2000.000
G1 X108.224 Y150.585 Z8.000 F2000.000
G1 X105.982 Y150.585 Z8.000 F2000.000
G1 X108.812 Y153.415 Z8.000 F2000.000
G1 X106.571 Y153.415 Z8.000 F2000.000
G1 X103.741 Y150.585 Z8.000 F2000.000
G1 X101.499 Y150.585 Z8.000 F2000.000
G1 X104.329 Y153.415 Z8.000 F2000.000
G1 X102.088 Y153.415 Z8.000 F2000.000
G1 X99.258 Y150.585 Z8.000 F2000.000
G1 X97.016 Y150.585 Z8.000 F2000.000
G1 X99.846 Y153.415 Z8.000 F2000.000
G1 X97.605 Y153.415 Z8.000 F2000.000
G1 X94.775 Y150.585 Z8.000 F2000.000
G1 X92.533 Y150.585 Z8.000 F2000.000
G1 X95.363 Y153.415 Z8.000 F2000.000
G1 X93.122 Y153.415 Z8.000 F2000.000
G1 X90.292 Y150.585 Z8.000 F2000.000
G1 X88.050 Y150.585 Z8.000 F2000.000
G1 X90.880 Y153.415 Z8.000 F2000.000
G1 X88.639 Y153.415 Z8.000 F2000.000
G1 X85.809 Y150.585 Z8.000 F2000.000
G1 X83.567 Y150.585 Z8.000 F2000.000
G1 X86.397 Y153.415 Z8.000 F2000.000
G1 X84.156 Y153.415 Z8.000 F2000.000
G1 X81.326 Y150.585 Z8.000 F2000.000
G1 X79.084 Y150.585 Z8.000 F2000.000
G1 X81.914 Y153.415 Z8.000 F2000.000
G1 X79.673 Y153.415 Z8.000 F2000.000
G1 X76.843 Y150.585 Z8.000 F2000.000
G1 X74.601 Y150.585 Z8.000 F2000.000
G1 X77.431 Y153.415 Z8.000 F2000.000
G1 X75.189 Y153.415 Z8.000 F2000.000
G1 X72.359 Y150.585 Z8.000 F2000.000
G1 X70.118 Y150.585 Z8.000 F2000.000
G1 X72.948 Y153.415 Z8.000 F2000.000
G1 X70.706 Y153.415 Z8.000 F2000.000
G1 X67.876 Y150.585 Z8.000 F2000.000
G3 X66.647 Y150.545 Z8.000 I-0.438 J-5.474 K0.000 F2000.000
G3 X65.415 Y149.000 Z8.000 I0.353 J-1.545 K0.000 F2000.000
G1 X65.415 Y148.124 Z8.000 F2000.000
G1 X58.585 Y141.294 Z8.000 F2000.000
G1 X58.585 Y143.535 Z8.000 F2000.000
G1 X68.465 Y153.415 Z8.000 F2000.000
G1 X66.223 Y153.415 Z8.000 F2000.000
G1 X58.585 Y145.777 Z8.000 F2000.000
G1 X58.585 Y148.018 Z8.000 F2000.000
G1 X63.982 Y153.415 Z8.000 F2000.000
G1 X61.740 Y153.415 Z8.000 F2000.000
G1 X58.268 Y149.943 Z8.000 F2000.000
G3 X57.000 Y150.585 Z8.000 I-1.263 J-0.920 K0.000 F2000.000
G1 X56.669 Y150.585 Z8.000 F2000.000
G1 X59.499 Y153.415 Z8.000 F2000.000
G1 X57.257 Y153.415 Z8.000 F2000.000
G1 X54.427 Y150.585 Z8.000 F2000.000
G1 X52.186 Y150.585 Z8.000 F2000.000
G1 X55.016 Y153.415 Z8.000 F2000.000
G1 X52.774 Y153.415 Z8.000 F2000.000
G1 X49.944 Y150.585 Z8.000 F2000.000
G1 X47.703 Y150.585 Z8.000 F2000.000
G1 X50.533 Y153.415 Z8.000 F2000.000
G1 X48.291 Y153.415 Z8.000 F2000.000
G1 X45.461 Y150.585 Z8.000 F2000.000
G1 X43.220 Y150.585 Z8.000 F2000.000
G1 X46.050 Y153.415 Z8.000 F2000.000
G1 X43.808 Y153.415 Z8.000 F2000.000
G1 X40.978 Y150.585 Z8.000 F2000.000
G1 X38.737 Y150.585 Z8.000 F2000.000
G1 X41.567 Y153.415 Z8.000 F2000.000
G1 X39.325 Y153.415 Z8.000 F2000.000
G1 X36.495 Y150.585 Z8.000 F2000.000
G1 X34.253 Y150.585 Z8.000 F2000.000
G1 X37.083 Y153.415 Z8.000 F2000.000
G1 X34.842 Y153.415 Z8.000 F2000.000
G1 X32.012 Y150.585 Z8.000 F2000.000
G1 X29.770 Y150.585 Z8.000 F2000.000
G1 X32.600 Y153.415 Z8.000 F2000.000
G1 X30.359 Y153.415 Z8.000 F2000.000
G1 X27.529 Y150.585 Z8.000 F2000.000
G1 X25.287 Y150.585 Z8.000 F2000.000
G1 X28.117 Y153.415 Z8.000 F2000.000
G1 X25.876 Y153.415 Z8.000 F2000.000
G1 X23.046 Y150.585 Z8.000 F2000.000
G1 X20.804 Y150.585 Z8.000 F2000.000
G1 X23.634 Y153.415 Z8.000 F2000.000
G1 X21.393 Y153.415 Z8.000 F2000.000
G1 X18.563 Y150.585 Z8.000 F2000.000
G1 X16.321 Y150.585 Z8.000 F2000.000
G1 X19.151 Y153.415 Z8.000 F2000.000
G1 X16.910 Y153.415 Z8.000 F2000.000
G1 X14.080 Y150.585 Z8.000 F2000.000
G1 X11.838 Y150.585 Z8.000 F2000.000
G1 X14.668 Y153.415 Z8.000 F2000.000
G1 X12.427 Y153.415 Z8.000 F2000.000
G1 X9.508 Y150.497 Z8.000 F2000.000
G3 X8.503 Y149.492 Z8.000 I0.428 J-1.433 K0.000 F2000.000
G1 X1.585 Y142.573 Z8.000 F2000.000
G1 X1.585 Y144.815 Z8.000 F2000.000
G1 X10.185 Y153.415 Z8.000 F2000.000
G1 X7.944 Y153.415 Z8.000 F2000.000
G1 X1.585 Y147.056 Z8.000 F2000.000
G1 X1.585 Y149.298 Z8.000 F2000.000
G1 X5.702 Y153.415 Z8.000 F2000.000
G1 X3.461 Y153.415 Z8.000 F2000.000
G1 X1.585 Y153.415 Z8.000 F2000.000
G1 X1.585 Y151.539 Z8.000 F2000.000
G1 X3.461 Y153.415 Z8.000 F2000.000
G0 Z14.300
G0 X8.686 Y149.887 Z14.300
G0 X8.686 Y149.887 Z12.300
G1 X8.686 Y149.887 Z8.000 F2000.000
G3 X8.415 Y149.000 Z8.000 I1.314 J-0.887 K0.000 F2000.000
G1 X8.415 Y129.000 Z8.000 F2000.000
G3 X10.000 Y127.415 Z8.000 I1.585 J0.000 K0.000 F2000.000
G1 X57.000 Y127.415 Z8.000 F2000.000
G3 X58.585 Y129.000 Z8.000 I-0.000 J1.585 K0.000 F2000.000
G1 X58.585 Y149.000 Z8.000 F2000.000
G3 X57.000 Y150.585 Z8.000 I-1.585 J-0.000 K0.000 F2000.000
G1 X10.000 Y150.585 Z8.000 F2000.000
G3 X8.686 Y149.887 Z8.000 I0.000 J-1.585 K0.000 F2000.000
G0 Z14.300
G0 X1.585 Y142.573 Z14.300
G0 X1.585 Y142.573 Z12.300
G1 X1.585 Y142.573 Z8.000 F2000.000
G1 X8.503 Y149.492 Z8.000 F2000.000
G3 X8.415 Y149.000 Z8.000 I1.033 J-0.439 K0.000 F2000.000
G1 X8.415 Y147.162 Z8.000 F2000.000
G1 X1.585 Y140.332 Z8.000 F2000.000
G1 X1.585 Y138.090 Z8.000 F2000.000
G1 X8.415 Y144.920 Z8.000 F2000.000
G1 X8.415 Y142.679 Z8.000 F2000.000
G1 X1.585 Y135.849 Z8.000 F2000.000
G1 X1.585 Y133.607 Z8.000 F2000.000
G1 X8.415 Y140.437 Z8.000 F2000.000
G1 X8.415 Y138.196 Z8.000 F2000.000
G1 X1.585 Y131.366 Z8.000 F2000.000
G1 X1.585 Y129.124 Z8.000 F2000.000
G1 X8.415 Y135.954 Z8.000 F2000.000
G1 X8.415 Y133.713 Z8.000 F2000.000
G1 X1.585 Y126.883 Z8.000 F2000.000
G1 X1.585 Y124.641 Z8.000 F2000.000
G1 X8.415 Y131.471 Z8.000 F2000.000
G1 X8.415 Y129.230 Z8.000 F2000.000
G1 X1.585 Y122.400 Z8.000 F2000.000
G1 X1.585 Y120.158 Z8.000 F2000.000
G1 X9.120 Y127.693 Z8.000 F2000.000
G3 X9.647 Y127.455 Z8.000 I0.785 J1.036 K0.000 F2000.000
G3 X11.083 Y127.415 Z8.000 I0.894 J6.353 K0.000 F2000.000
G1 X1.585 Y117.917 Z8.000 F2000.000
G1 X1.585 Y115.675 Z8.000 F2000.000
G1 X13.325 Y127.415 Z8.000 F2000.000
G1 X15.567 Y127.415 Z8.000 F2000.000
G1 X1.585 Y113.433 Z8.000 F2000.000
G1 X1.585 Y111.192 Z8.000 F2000.000
G1 X17.808 Y127.415 Z8.000 F2000.000
G1 X20.050 Y127.415 Z8.000 F2000.000
G1 X1.585 Y108.950 Z8.000 F2000.000
G1 X1.585 Y106.709 Z8.000 F2000.000
G1 X22.291 Y127.415 Z8.000 F2000.000
G1 X24.533 Y127.415 Z8.000 F2000.000
G1 X1.585 Y104.467 Z8.000 F2000.000
G1 X1.585 Y102.226 Z8.000 F2000.000
G1 X22.422 Y123.063 Z8.000 F2000.000
G2 X23.937 Y124.578 Z8.000 I1.562 J-0.047 K0.000 F2000.000
G1 X26.774 Y127.415 Z8.000 F2000.000
G1 X29.016 Y127.415 Z8.000 F2000.000
G1 X26.186 Y124.585 Z8.000 F2000.000
G1 X28.427 Y124.585 Z8.000 F2000.000
G1 X31.257 Y127.415 Z8.000 F2000.000
G1 X33.499 Y127.415 Z8.000 F2000.000
G1 X30.669 Y124.585 Z8.000 F2000.000
G1 X32.910 Y124.585 Z8.000 F2000.000
G1 X35.740 Y127.415 Z8.000 F2000.000
G1 X37.982 Y127.415 Z8.000 F2000.000
G1 X35.152 Y124.585 Z8.000 F2000.000
G1 X37.393 Y124.585 Z8.000 F2000.000
G1 X40.223 Y127.415 Z8.000 F2000.000
G1 X42.465 Y127.415 Z8.000 F2000.000
G1 X39.635 Y124.585 Z8.000 F2000.000
G1 X41.876 Y124.585 Z8.000 F2000.000
G1 X44.706 Y127.415 Z8.000 F2000.000
G1 X46.948 Y127.415 Z8.000 F2000.000
G1 X44.118 Y124.585 Z8.000 F2000.000
G1 X46.359 Y124.585 Z8.000 F2000.000
G1 X49.189 Y127.415 Z8.000 F2000.000
G1 X51.431 Y127.415 Z8.000 F2000.000
G1 X48.601 Y124.585 Z8.000 F2000.000
G1 X50.843 Y124.585 Z8.000 F2000.000
G1 X53.673 Y127.415 Z8.000 F2000.000
G1 X55.914 Y127.415 Z8.000 F2000.000
G1 X53.084 Y124.585 Z8.000 F2000.000
G1 X55.326 Y124.585 Z8.000 F2000.000
G1 X65.415 Y134.674 Z8.000 F2000.000
G1 X65.415 Y132.433 Z8.000 F2000.000
G1 X57.567 Y124.585 Z8.000 F2000.000
G1 X59.809 Y124.585 Z8.000 F2000.000
G1 X65.415 Y130.191 Z8.000 F2000.000
G1 X65.415 Y129.000 Z8.000 F2000.000
G3 X65.651 Y128.186 Z8.000 I1.479 J-0.012 K0.000 F2000.000
G1 X62.050 Y124.585 Z8.000 F2000.000
G1 X64.292 Y124.585 Z8.000 F2000.000
G1 X67.122 Y127.415 Z8.000 F2000.000
G1 X69.363 Y127.415 Z8.000 F2000.000
G1 X66.533 Y124.585 Z8.000 F2000.000
G1 X68.775 Y124.585 Z8.000 F2000.000
G1 X71.605 Y127.415 Z8.000 F2000.000
G1 X73.846 Y127.415 Z8.000 F2000.000
G1 X71.016 Y124.585 Z8.000 F2000.000
G1 X73.258 Y124.585 Z8.000 F2000.000
G1 X76.088 Y127.415 Z8.000 F2000.000
G1 X78.329 Y127.415 Z8.000 F2000.000
G1 X75.071 Y124.157 Z8.000 F2000.000
G2 X75.545 Y123.353 Z8.000 I-0.911 J-1.080 K0.000 F2000.000
G2 X75.585 Y122.429 Z8.000 I-4.079 J-0.638 K0.000 F2000.000
G1 X80.571 Y127.415 Z8.000 F2000.000
G1 X82.812 Y127.415 Z8.000 F2000.000
G1 X75.585 Y120.188 Z8.000 F2000.000
G1 X75.585 Y117.946 Z8.000 F2000.000
G1 X85.054 Y127.415 Z8.000 F2000.000
G1 X87.295 Y127.415 Z8.000 F2000.000
G1 X75.585 Y115.705 Z8.000 F2000.000
G1 X75.585 Y113.463 Z8.000 F2000.000
G1 X89.537 Y127.415 Z8.000 F2000.000
G1 X91.779 Y127.415 Z8.000 F2000.000
G1 X75.585 Y111.221 Z8.000 F2000.000
G1 X75.585 Y108.980 Z8.000 F2000.000
G1 X84.415 Y117.810 Z8.000 F2000.000
G1 X84.415 Y119.000 Z8.000 F2000.000
G2 X86.000 Y120.585 Z8.000 I1.585 J-0.000 K0.000 F2000.000
G1 X87.190 Y120.585 Z8.000 F2000.000
G1 X94.020 Y127.415 Z8.000 F2000.000
G1 X96.262 Y127.415 Z8.000 F2000.000
G1 X89.432 Y120.585 Z8.000 F2000.000
G1 X91.673 Y120.585 Z8.000 F2000.000
G1 X98.503 Y127.415 Z8.000 F2000.000
G1 X100.745 Y127.415 Z8.000 F2000.000
G1 X93.915 Y120.585 Z8.000 F2000.000
G1 X96.156 Y120.585 Z8.000 F2000.000
G1 X102.986 Y127.415 Z8.000 F2000.000
G1 X105.228 Y127.415 Z8.000 F2000.000
G1 X98.398 Y120.585 Z8.000 F2000.000
G1 X100.639 Y120.585 Z8.000 F2000.000
G1 X107.469 Y127.415 Z8.000 F2000.000
G1 X109.711 Y127.415 Z8.000 F2000.000
G1 X102.881 Y120.585 Z8.000 F2000.000
G1 X105.122 Y120.585 Z8.000 F2000.000
G1 X111.952 Y127.415 Z8.000 F2000.000
G1 X114.000 Y127.415 Z8.000 F2000.000
G1 X114.218 Y127.440 Z8.000 F2000.000
G1 X107.003 Y120.224 Z8.000 F2000.000
G1 X107.239 Y119.988 Z8.000 F2000.000
G2 X107.585 Y118.565 Z8.000 I-1.518 J-1.123 K0.000 F2000.000
G1 X122.415 Y133.395 Z8.000 F2000.000
G1 X122.415 Y131.153 Z8.000 F2000.000
G1 X107.585 Y116.323 Z8.000 F2000.000
G1 X107.585 Y114.082 Z8.000 F2000.000
G1 X122.424 Y128.921 Z8.000 F2000.000
G3 X123.316 Y127.571 Z8.000 I1.561 J0.062 K0.000 F2000.000
G1 X116.330 Y120.585 Z8.000 F2000.000
G3 X115.012 Y120.239 Z8.000 I-0.239 J-1.773 K0.000 F2000.000
G3 X114.415 Y118.670 Z8.000 I1.071 J-1.306 K0.000 F2000.000
G1 X107.585 Y111.840 Z8.000 F2000.000
G1 X107.585 Y109.599 Z8.000 F2000.000
G1 X114.415 Y116.429 Z8.000 F2000.000
G1 X114.415 Y114.187 Z8.000 F2000.000
G1 X107.585 Y107.357 Z8.000 F2000.000
G1 X107.585 Y105.115 Z8.000 F2000.000
G1 X114.415 Y111.945 Z8.000 F2000.000
G1 X114.415 Y109.704 Z8.000 F2000.000
G1 X107.585 Y102.874 Z8.000 F2000.000
G1 X107.585 Y100.632 Z8.000 F2000.000
G1 X114.415 Y107.462 Z8.000 F2000.000
G1 X114.415 Y105.221 Z8.000 F2000.000
G1 X107.585 Y98.391 Z8.000 F2000.000
G1 X107.585 Y96.149 Z8.000 F2000.000
G1 X114.415 Y102.979 Z8.000 F2000.000
G1 X114.415 Y100.738 Z8.000 F2000.000
G1 X107.585 Y93.908 Z8.000 F2000.000
G1 X107.585 Y91.666 Z8.000 F2000.000
G1 X114.415 Y98.496 Z8.000 F2000.000
G1 X114.415 Y96.255 Z8.000 F2000.000
G1 X107.585 Y89.425 Z8.000 F2000.000
G1 X107.585 Y87.183 Z8.000 F2000.000
G1 X114.415 Y94.013 Z8.000 F2000.000
G1 X114.415 Y91.772 Z8.000 F2000.000
G1 X107.585 Y84.942 Z8.000 F2000.000
G1 X107.585 Y82.700 Z8.000 F2000.000
G1 X114.415 Y89.530 Z8.000 F2000.000
G1 X114.415 Y87.289 Z8.000 F2000.000
G1 X107.585 Y80.459 Z8.000 F2000.000
G1 X107.585 Y78.217 Z8.000 F2000.000
G1 X114.415 Y85.047 Z8.000 F2000.000
G1 X114.415 Y82.806 Z8.000 F2000.000
G1 X107.585 Y75.976 Z8.000 F2000.000
G1 X107.585 Y73.734 Z8.000 F2000.000
G1 X114.415 Y80.564 Z8.000 F2000.000
G1 X114.415 Y78.323 Z8.000 F2000.000
G1 X107.441 Y71.348 Z8.000 F2000.000
G0 Z14.300
G0 X107.444 Y71.347 Z14.300
G0 X107.444 Y71.347 Z12.300
G1 X107.444 Y71.347 Z8.000 F2000.000
G3 X107.585 Y72.000 Z8.000 I-1.444 J0.653 K0.000 F2000.000
G1 X107.585 Y119.000 Z8.000 F2000.000
G3 X106.000 Y120.585 Z8.000 I-1.585 J-0.000 K0.000 F2000.000
G1 X86.000 Y120.585 Z8.000 F2000.000
G3 X84.415 Y119.000 Z8.000 I0.000 J-1.585 K0.000 F2000.000
G1 X84.415 Y72.000 Z8.000 F2000.000
G3 X86.000 Y70.415 Z8.000 I1.585 J0.000 K0.000 F2000.000
G1 X106.000 Y70.415 Z8.000 F2000.000
G3 X107.444 Y71.347 Z8.000 I-0.000 J1.585 K0.000 F2000.000
G0 Z14.300
G0 X114.420 Y71.879 Z14.300
G0 X114.420 Y71.879 Z12.300
G1 X114.420 Y71.879 Z8.000 F2000.000
G3 X116.000 Y70.415 Z8.000 I1.580 J0.121 K0.000 F2000.000
G1 X136.000 Y70.415 Z8.000 F2000.000
G3 X137.585 Y72.000 Z8.000 I-0.000 J1.585 K0.000 F2000.000
G1 X137.585 Y119.000 Z8.000 F2000.000
G3 X136.000 Y120.585 Z8.000 I-1.585 J0.000 K0.000 F2000.000
G1 X116.000 Y120.585 Z8.000 F2000.000
G3 X114.415 Y119.000 Z8.000 I0.000 J-1.585 K0.000 F2000.000
G1 X114.415 Y72.000 Z8.000 F2000.000
G3 X114.420 Y71.879 Z8.000 I1.585 J-0.000 K0.000 F2000.000
G0 Z14.300
G0 Y58.585 Z14.300
G0 Y58.585 Z12.300
G1 X114.420 Y58.585 Z8.000 F2000.000
G1 X86.000 Y58.585 Z8.000 F2000.000
G3 X84.415 Y57.000 Z8.000 I-0.000 J-1.585 K0.000 F2000.000
G1 X84.415 Y41.000 Z8.000 F2000.000
G3 X86.000 Y39.415 Z8.000 I1.585 J-0.000 K0.000 F2000.000
G1 X136.000 Y39.415 Z8.000 F2000.000
G3 X137.585 Y41.000 Z8.000 I0.000 J1.585 K0.000 F2000.000
G1 X137.585 Y57.000 Z8.000 F2000.000
G3 X136.000 Y58.585 Z8.000 I-1.585 J-0.000 K0.000 F2000.000
G1 X114.420 Y58.585 Z8.000 F2000.000
G0 Z14.300
G0 X97.541 Y70.415 Z14.300
G0 X97.541 Y70.415 Z12.300
G1 X97.541 Y70.415 Z8.000 F2000.000
G1 X85.675 Y58.548 Z8.000 F2000.000
G1 X86.000 Y58.585 Z8.000 F2000.000
G1 X87.953 Y58.585 Z8.000 F2000.000
G1 X99.783 Y70.415 Z8.000 F2000.000
G1 X102.024 Y70.415 Z8.000 F2000.000
G1 X90.194 Y58.585 Z8.000 F2000.000
G1 X92.436 Y58.585 Z8.000 F2000.000
G1 X104.266 Y70.415 Z8.000 F2000.000
G1 X106.000 Y70.415 Z8.000 F2000.000
G3 X106.652 Y70.559 Z8.000 I0.010 J1.500 K0.000 F2000.000
G1 X94.677 Y58.585 Z8.000 F2000.000
G1 X96.919 Y58.585 Z8.000 F2000.000
G1 X114.415 Y76.081 Z8.000 F2000.000
G1 X114.415 Y73.840 Z8.000 F2000.000
G1 X99.160 Y58.585 Z8.000 F2000.000
G1 X101.402 Y58.585 Z8.000 F2000.000
G1 X114.457 Y71.640 Z8.000 F2000.000
G3 X115.548 Y70.489 Z8.000 I1.516 J0.345 K0.000 F2000.000
G1 X103.644 Y58.585 Z8.000 F2000.000
G1 X105.885 Y58.585 Z8.000 F2000.000
G1 X117.715 Y70.415 Z8.000 F2000.000
G1 X119.957 Y70.415 Z8.000 F2000.000
G1 X108.127 Y58.585 Z8.000 F2000.000
G1 X110.368 Y58.585 Z8.000 F2000.000
G1 X122.198 Y70.415 Z8.000 F2000.000
G1 X124.440 Y70.415 Z8.000 F2000.000
G1 X112.610 Y58.585 Z8.000 F2000.000
G1 X114.851 Y58.585 Z8.000 F2000.000
G1 X126.681 Y70.415 Z8.000 F2000.000
G1 X128.923 Y70.415 Z8.000 F2000.000
G1 X117.093 Y58.585 Z8.000 F2000.000
G1 X119.334 Y58.585 Z8.000 F2000.000
G1 X131.164 Y70.415 Z8.000 F2000.000
G1 X133.406 Y70.415 Z8.000 F2000.000
G1 X121.576 Y58.585 Z8.000 F2000.000
G1 X123.817 Y58.585 Z8.000 F2000.000
G1 X135.647 Y70.415 Z8.000 F2000.000
G0 Z14.300
G0 X149.423 Y71.837 Z14.300
G0 X149.423 Y71.837 Z12.300
G1 X149.423 Y71.837 Z8.000 F2000.000
G3 X151.000 Y70.415 Z8.000 I1.577 J0.163 K0.000 F2000.000
G1 X171.000 Y70.415 Z8.000 F2000.000
G3 X172.585 Y72.000 Z8.000 I-0.000 J1.585 K0.000 F2000.000
G1 X172.585 Y119.000 Z8.000 F2000.000
G3 X171.000 Y120.585 Z8.000 I-1.585 J0.000 K0.000 F2000.000
G1 X151.000 Y120.585 Z8.000 F2000.000
G3 X149.415 Y119.000 Z8.000 I0.000 J-1.585 K0.000 F2000.000
G1 X149.415 Y72.000 Z8.000 F2000.000
G3 X149.423 Y71.837 Z8.000 I1.585 J-0.000 K0.000 F2000.000
G0 Z14.300
G0 Y58.585 Z14.300
G0 Y58.585 Z12.300
G1 X149.423 Y58.585 Z8.000 F2000.000
G1 X146.000 Y58.585 Z8.000 F2000.000
G3 X144.415 Y57.000 Z8.000 I-0.000 J-1.585 K0.000 F2000.000
G1 X144.415 Y10.000 Z8.000 F2000.000
G3 X146.000 Y8.415 Z8.000 I1.585 J0.000 K0.000 F2000.000
G1 X166.000 Y8.415 Z8.000 F2000.000
G3 X167.585 Y10.000 Z8.000 I0.000 J1.585 K0.000 F2000.000
G1 X167.585 Y57.000 Z8.000 F2000.000
G3 X166.000 Y58.585 Z8.000 I-1.585 J-0.000 K0.000 F2000.000
G1 X149.423 Y58.585 Z8.000 F2000.000
G0 Z14.300
G0 X137.585 Y49.937 Z14.300
G0 X137.585 Y49.937 Z12.300
G1 X137.585 Y49.937 Z8.000 F2000.000
G1 X144.415 Y56.767 Z8.000 F2000.000
G1 X144.415 Y54.526 Z8.000 F2000.000
G1 X137.585 Y47.696 Z8.000 F2000.000
G1 X137.585 Y45.454 Z8.000 F2000.000
G1 X144.415 Y52.284 Z8.000 F2000.000
G1 X144.415 Y50.043 Z8.000 F2000.000
G1 X137.585 Y43.213 Z8.000 F2000.000
G1 X137.585 Y41.000 Z8.000 F2000.000
G1 X137.581 Y40.968 Z8.000 F2000.000
G1 X144.415 Y47.801 Z8.000 F2000.000
G1 X144.415 Y45.560 Z8.000 F2000.000
G1 X126.440 Y27.585 Z8.000 F2000.000
G1 X128.682 Y27.585 Z8.000 F2000.000
G1 X144.415 Y43.318 Z8.000 F2000.000
G1 X144.415 Y41.077 Z8.000 F2000.000
G1 X130.923 Y27.585 Z8.000 F2000.000
G1 X133.165 Y27.585 Z8.000 F2000.000
G1 X144.415 Y38.835 Z8.000 F2000.000
G1 X144.415 Y36.594 Z8.000 F2000.000
G1 X135.406 Y27.585 Z8.000 F2000.000
G1 X136.000 Y27.585 Z8.000 F2000.000
G2 X137.145 Y27.082 Z8.000 I0.014 J-1.524 K0.000 F2000.000
G1 X144.415 Y34.352 Z8.000 F2000.000
G1 X144.415 Y32.111 Z8.000 F2000.000
G1 X137.585 Y25.281 Z8.000 F2000.000
G1 X137.585 Y23.039 Z8.000 F2000.000
G1 X144.415 Y29.869 Z8.000 F2000.000
G1 X144.415 Y27.628 Z8.000 F2000.000
G1 X137.585 Y20.798 Z8.000 F2000.000
G1 X137.585 Y18.556 Z8.000 F2000.000
G1 X144.415 Y25.386 Z8.000 F2000.000
G1 X144.415 Y23.144 Z8.000 F2000.000
G1 X137.585 Y16.314 Z8.000 F2000.000
G1 X137.585 Y14.073 Z8.000 F2000.000
G1 X144.415 Y20.903 Z8.000 F2000.000
G1 X144.415 Y18.661 Z8.000 F2000.000
G1 X137.585 Y11.831 Z8.000 F2000.000
G1 X137.585 Y10.000 Z8.000 F2000.000
G2 X137.493 Y9.498 Z8.000 I-1.146 J-0.049 K0.000 F2000.000
G1 X144.415 Y16.420 Z8.000 F2000.000
G1 X144.415 Y14.178 Z8.000 F2000.000
G1 X131.822 Y1.585 Z8.000 F2000.000
G1 X134.063 Y1.585 Z8.000 F2000.000
G1 X144.415 Y11.937 Z8.000 F2000.000
G1 X144.415 Y10.000 Z8.000 F2000.000
G1 X144.446 Y9.726 Z8.000 F2000.000
G1 X136.305 Y1.585 Z8.000 F2000.000
G1 X138.546 Y1.585 Z8.000 F2000.000
G1 X145.476 Y8.515 Z8.000 F2000.000
G3 X146.000 Y8.415 Z8.000 I0.480 J1.098 K0.000 F2000.000
G1 X147.618 Y8.415 Z8.000 F2000.000
G1 X140.788 Y1.585 Z8.000 F2000.000
G1 X143.029 Y1.585 Z8.000 F2000.000
G1 X149.859 Y8.415 Z8.000 F2000.000
G1 X152.101 Y8.415 Z8.000 F2000.000
G1 X145.271 Y1.585 Z8.000 F2000.000
G1 X147.512 Y1.585 Z8.000 F2000.000
G1 X154.342 Y8.415 Z8.000 F2000.000
G1 X156.584 Y8.415 Z8.000 F2000.000
G1 X149.754 Y1.585 Z8.000 F2000.000
G1 X151.995 Y1.585 Z8.000 F2000.000
G1 X158.825 Y8.415 Z8.000 F2000.000
G1 X161.067 Y8.415 Z8.000 F2000.000
G1 X154.237 Y1.585 Z8.000 F2000.000
G1 X156.478 Y1.585 Z8.000 F2000.000
G1 X163.308 Y8.415 Z8.000 F2000.000
G1 X165.550 Y8.415 Z8.000 F2000.000
G1 X158.720 Y1.585 Z8.000 F2000.000
G1 X160.962 Y1.585 Z8.000 F2000.000
G1 X179.415 Y20.038 Z8.000 F2000.000
G1 X179.415 Y17.797 Z8.000 F2000.000
G1 X163.203 Y1.585 Z8.000 F2000.000
G1 X165.445 Y1.585 Z8.000 F2000.000
G1 X179.415 Y15.555 Z8.000 F2000.000
G1 X179.415 Y13.314 Z8.000 F2000.000
G1 X167.686 Y1.585 Z8.000 F2000.000
G1 X169.928 Y1.585 Z8.000 F2000.000
G1 X179.415 Y11.072 Z8.000 F2000.000
G1 X179.415 Y10.000 Z8.000 F2000.000
G3 X179.697 Y9.113 Z8.000 I1.508 J-0.009 K0.000 F2000.000
G1 X172.169 Y1.585 Z8.000 F2000.000
G1 X174.411 Y1.585 Z8.000 F2000.000
G1 X181.241 Y8.415 Z8.000 F2000.000
G1 X183.482 Y8.415 Z8.000 F2000.000
G1 X176.652 Y1.585 Z8.000 F2000.000
G1 X178.894 Y1.585 Z8.000 F2000.000
G1 X185.724 Y8.415 Z8.000 F2000.000
G1 X187.965 Y8.415 Z8.000 F2000.000
G1 X181.135 Y1.585 Z8.000 F2000.000
G1 X183.377 Y1.585 Z8.000 F2000.000
G1 X190.207 Y8.415 Z8.000 F2000.000
G1 X192.448 Y8.415 Z8.000 F2000.000
G1 X185.618 Y1.585 Z8.000 F2000.000
G1 X187.860 Y1.585 Z8.000 F2000.000
G1 X194.690 Y8.415 Z8.000 F2000.000
G1 X196.931 Y8.415 Z8.000 F2000.000
G1 X190.101 Y1.585 Z8.000 F2000.000
G1 X192.343 Y1.585 Z8.000 F2000.000
G1 X199.173 Y8.415 Z8.000 F2000.000
G1 X201.414 Y8.415 Z8.000 F2000.000
G1 X194.584 Y1.585 Z8.000 F2000.000
G1 X196.826 Y1.585 Z8.000 F2000.000
G1 X203.656 Y8.415 Z8.000 F2000.000
G1 X205.897 Y8.415 Z8.000 F2000.000
G1 X199.067 Y1.585 Z8.000 F2000.000
G1 X201.309 Y1.585 Z8.000 F2000.000
G1 X208.139 Y8.415 Z8.000 F2000.000
G1 X210.381 Y8.415 Z8.000 F2000.000
G1 X203.551 Y1.585 Z8.000 F2000.000
G1 X205.792 Y1.585 Z8.000 F2000.000
G1 X212.622 Y8.415 Z8.000 F2000.000
G1 X214.864 Y8.415 Z8.000 F2000.000
G1 X208.034 Y1.585 Z8.000 F2000.000
G1 X210.275 Y1.585 Z8.000 F2000.000
G1 X217.105 Y8.415 Z8.000 F2000.000
G1 X219.347 Y8.415 Z8.000 F2000.000
G1 X212.517 Y1.585 Z8.000 F2000.000
G1 X214.758 Y1.585 Z8.000 F2000.000
G1 X221.588 Y8.415 Z8.000 F2000.000
G1 X223.830 Y8.415 Z8.000 F2000.000
G1 X217.000 Y1.585 Z8.000 F2000.000
G1 X219.241 Y1.585 Z8.000 F2000.000
G1 X226.071 Y8.415 Z8.000 F2000.000
G1 X228.313 Y8.415 Z8.000 F2000.000
G1 X221.483 Y1.585 Z8.000 F2000.000
G1 X223.724 Y1.585 Z8.000 F2000.000
G1 X230.554 Y8.415 Z8.000 F2000.000
G1 X230.554 Y8.415 Z8.000 F2000.000
G1 X231.000 Y8.415 Z8.000 F2000.000
G3 X232.585 Y10.000 Z8.000 I-0.000 J1.585 K0.000 F2000.000
G1 X232.585 Y26.000 Z8.000 F2000.000
G3 X231.000 Y27.585 Z8.000 I-1.585 J-0.000 K0.000 F2000.000
G1 X181.000 Y27.585 Z8.000 F2000.000
G3 X179.415 Y26.000 Z8.000 I0.000 J-1.585 K0.000 F2000.000
G1 X179.415 Y10.000 Z8.000 F2000.000
G3 X181.000 Y8.415 Z8.000 I1.585 J0.000 K0.000 F2000.000
G1 X230.554 Y8.415 Z8.000 F2000.000
G0 Z14.300
G0 X239.415 Y1.585 Z14.300
G0 X239.415 Y1.585 Z12.300
G1 X239.415 Y1.585 Z8.000 F2000.000
G1 X239.415 Y3.827 Z8.000 F2000.000
G1 X237.173 Y1.585 Z8.000 F2000.000
G1 X234.932 Y1.585 Z8.000 F2000.000
G1 X239.415 Y6.068 Z8.000 F2000.000
G1 X239.415 Y8.310 Z8.000 F2000.000
G1 X232.690 Y1.585 Z8.000 F2000.000
G1 X230.449 Y1.585 Z8.000 F2000.000
G1 X239.415 Y10.551 Z8.000 F2000.000
G1 X239.415 Y12.793 Z8.000 F2000.000
G1 X228.207 Y1.585 Z8.000 F2000.000
G1 X225.966 Y1.585 Z8.000 F2000.000
G1 X239.415 Y15.034 Z8.000 F2000.000
G1 X239.415 Y17.276 Z8.000 F2000.000
G1 X232.585 Y10.446 Z8.000 F2000.000
G1 X232.585 Y12.687 Z8.000 F2000.000
G1 X239.415 Y19.517 Z8.000 F2000.000
G1 X239.415 Y21.759 Z8.000 F2000.000
G1 X232.585 Y14.929 Z8.000 F2000.000
G1 X232.585 Y17.170 Z8.000 F2000.000
G1 X239.415 Y24.000 Z8.000 F2000.000
G1 X239.415 Y26.242 Z8.000 F2000.000
G1 X232.585 Y19.412 Z8.000 F2000.000
G1 X232.585 Y21.653 Z8.000 F2000.000
G1 X239.415 Y28.483 Z8.000 F2000.000
G1 X239.415 Y30.725 Z8.000 F2000.000
G1 X232.585 Y23.895 Z8.000 F2000.000
G1 X232.585 Y26.000 Z8.000 F2000.000
G1 X232.571 Y26.123 Z8.000 F2000.000
G1 X239.415 Y32.966 Z8.000 F2000.000
G1 X239.415 Y35.208 Z8.000 F2000.000
G1 X231.649 Y27.442 Z8.000 F2000.000
G3 X231.000 Y27.585 Z8.000 I-0.638 J-1.349 K0.000 F2000.000
G1 X229.551 Y27.585 Z8.000 F2000.000
G1 X239.415 Y37.449 Z8.000 F2000.000
G1 X239.415 Y39.691 Z8.000 F2000.000
G1 X227.309 Y27.585 Z8.000 F2000.000
G1 X225.067 Y27.585 Z8.000 F2000.000
G1 X239.415 Y41.933 Z8.000 F2000.000
G1 X239.415 Y44.174 Z8.000 F2000.000
G1 X222.826 Y27.585 Z8.000 F2000.000
G1 X220.584 Y27.585 Z8.000 F2000.000
G1 X239.415 Y46.416 Z8.000 F2000.000
G1 X239.415 Y48.657 Z8.000 F2000.000
G1 X232.585 Y41.827 Z8.000 F2000.000
G1 X232.585 Y44.069 Z8.000 F2000.000
G1 X239.415 Y50.899 Z8.000 F2000.000
G1 X239.415 Y53.140 Z8.000 F2000.000
G1 X232.585 Y46.310 Z8.000 F2000.000
G1 X232.585 Y48.552 Z8.000 F2000.000
G1 X239.415 Y55.382 Z8.000 F2000.000
G1 X239.415 Y57.623 Z8.000 F2000.000
G1 X232.585 Y50.793 Z8.000 F2000.000
G1 X232.585 Y53.035 Z8.000 F2000.000
G1 X239.415 Y59.865 Z8.000 F2000.000
G1 X239.415 Y62.106 Z8.000 F2000.000
G1 X232.585 Y55.276 Z8.000 F2000.000
G1 X232.585 Y57.000 Z8.000 F2000.000
G3 X232.513 Y57.446 Z8.000 I-1.012 J0.065 K0.000 F2000.000
G1 X239.415 Y64.348 Z8.000 F2000.000
G1 X239.415 Y66.589 Z8.000 F2000.000
G1 X231.366 Y58.541 Z8.000 F2000.000
G3 X231.000 Y58.585 Z8.000 I-0.281 J-0.780 K0.000 F2000.000
G1 X229.169 Y58.585 Z8.000 F2000.000
G1 X239.415 Y68.831 Z8.000 F2000.000
G1 X239.415 Y71.072 Z8.000 F2000.000
G1 X226.928 Y58.585 Z8.000 F2000.000
G1 X224.686 Y58.585 Z8.000 F2000.000
G1 X239.415 Y73.314 Z8.000 F2000.000
G1 X239.415 Y75.555 Z8.000 F2000.000
G1 X222.445 Y58.585 Z8.000 F2000.000
G1 X220.203 Y58.585 Z8.000 F2000.000
G1 X239.415 Y77.797 Z8.000 F2000.000
G1 X239.415 Y80.038 Z8.000 F2000.000
G1 X232.585 Y73.208 Z8.000 F2000.000
G1 X232.585 Y75.450 Z8.000 F2000.000
G1 X239.415 Y82.280 Z8.000 F2000.000
G1 X239.415 Y84.522 Z8.000 F2000.000
G1 X232.585 Y77.692 Z8.000 F2000.000
G1 X232.585 Y79.933 Z8.000 F2000.000
G1 X239.415 Y86.763 Z8.000 F2000.000
G1 X239.415 Y89.005 Z8.000 F2000.000
G1 X232.585 Y82.175 Z8.000 F2000.000
G1 X232.585 Y84.416 Z8.000 F2000.000
G1 X239.415 Y91.246 Z8.000 F2000.000
G1 X239.415 Y93.488 Z8.000 F2000.000
G1 X232.585 Y86.658 Z8.000 F2000.000
G1 X232.585 Y88.000 Z8.000 F2000.000
G3 X232.407 Y88.721 Z8.000 I-1.120 J0.106 K0.000 F2000.000
G1 X239.415 Y95.729 Z8.000 F2000.000
G1 X239.415 Y97.971 Z8.000 F2000.000
G1 X231.026 Y89.582 Z8.000 F2000.000
G1 X231.000 Y89.585 Z8.000 F2000.000
G1 X228.788 Y89.585 Z8.000 F2000.000
G1 X239.415 Y100.212 Z8.000 F2000.000
G1 X239.415 Y102.454 Z8.000 F2000.000
G1 X226.546 Y89.585 Z8.000 F2000.000
G1 X224.305 Y89.585 Z8.000 F2000.000
G1 X239.415 Y104.695 Z8.000 F2000.000
G1 X239.415 Y106.937 Z8.000 F2000.000
G1 X222.063 Y89.585 Z8.000 F2000.000
G1 X219.822 Y89.585 Z8.000 F2000.000
G1 X239.415 Y109.178 Z8.000 F2000.000
G1 X239.415 Y111.420 Z8.000 F2000.000
G1 X232.585 Y104.590 Z8.000 F2000.000
G1 X232.585 Y106.831 Z8.000 F2000.000
G1 X239.415 Y113.661 Z8.000 F2000.000
G1 X239.415 Y115.903 Z8.000 F2000.000
G1 X232.585 Y109.073 Z8.000 F2000.000
G1 X232.585 Y111.314 Z8.000 F2000.000
G1 X239.415 Y118.144 Z8.000 F2000.000
G1 X239.415 Y120.386 Z8.000 F2000.000
G1 X232.585 Y113.556 Z8.000 F2000.000
G1 X232.585 Y115.798 Z8.000 F2000.000
G1 X239.415 Y122.628 Z8.000 F2000.000
G1 X239.415 Y124.869 Z8.000 F2000.000
G1 X232.585 Y118.039 Z8.000 F2000.000
G3 X232.545 Y119.353 Z8.000 I-5.849 J0.480 K0.000 F2000.000
G3 X232.260 Y119.955 Z8.000 I-1.463 J-0.324 K0.000 F2000.000
G1 X239.415 Y127.111 Z8.000 F2000.000
G1 X239.415 Y129.352 Z8.000 F2000.000
G1 X230.648 Y120.585 Z8.000 F2000.000
G1 X228.406 Y120.585 Z8.000 F2000.000
G1 X239.415 Y131.594 Z8.000 F2000.000
G1 X239.415 Y133.835 Z8.000 F2000.000
G1 X226.165 Y120.585 Z8.000 F2000.000
G1 X223.923 Y120.585 Z8.000 F2000.000
G1 X230.753 Y127.415 Z8.000 F2000.000
G1 X228.512 Y127.415 Z8.000 F2000.000
G1 X221.682 Y120.585 Z8.000 F2000.000
G1 X219.440 Y120.585 Z8.000 F2000.000
G1 X226.270 Y127.415 Z8.000 F2000.000
G1 X224.029 Y127.415 Z8.000 F2000.000
G1 X217.199 Y120.585 Z8.000 F2000.000
G1 X214.957 Y120.585 Z8.000 F2000.000
G1 X221.787 Y127.415 Z8.000 F2000.000
G1 X219.546 Y127.415 Z8.000 F2000.000
G1 X212.716 Y120.585 Z8.000 F2000.000
G1 X210.474 Y120.585 Z8.000 F2000.000
G1 X217.304 Y127.415 Z8.000 F2000.000
G1 X215.063 Y127.415 Z8.000 F2000.000
G1 X208.233 Y120.585 Z8.000 F2000.000
G1 X205.991 Y120.585 Z8.000 F2000.000
G1 X212.821 Y127.415 Z8.000 F2000.000
G1 X210.580 Y127.415 Z8.000 F2000.000
G1 X203.750 Y120.585 Z8.000 F2000.000
G1 X201.508 Y120.585 Z8.000 F2000.000
G1 X208.338 Y127.415 Z8.000 F2000.000
G1 X206.096 Y127.415 Z8.000 F2000.000
G1 X199.266 Y120.585 Z8.000 F2000.000
G1 X197.025 Y120.585 Z8.000 F2000.000
G1 X203.855 Y127.415 Z8.000 F2000.000
G1 X201.613 Y127.415 Z8.000 F2000.000
G1 X194.783 Y120.585 Z8.000 F2000.000
G1 X192.542 Y120.585 Z8.000 F2000.000
G1 X199.372 Y127.415 Z8.000 F2000.000
G1 X197.130 Y127.415 Z8.000 F2000.000
G1 X190.300 Y120.585 Z8.000 F2000.000
G1 X188.059 Y120.585 Z8.000 F2000.000
G1 X194.889 Y127.415 Z8.000 F2000.000
G1 X192.647 Y127.415 Z8.000 F2000.000
G1 X185.817 Y120.585 Z8.000 F2000.000
G1 X183.576 Y120.585 Z8.000 F2000.000
G1 X190.406 Y127.415 Z8.000 F2000.000
G1 X188.164 Y127.415 Z8.000 F2000.000
G1 X181.334 Y120.585 Z8.000 F2000.000
G3 X180.012 Y120.239 Z8.000 I-0.242 J-1.777 K0.000 F2000.000
G3 X179.415 Y118.666 Z8.000 I1.131 J-1.329 K0.000 F2000.000
G1 X172.585 Y111.836 Z8.000 F2000.000
G1 X172.585 Y114.077 Z8.000 F2000.000
G1 X185.923 Y127.415 Z8.000 F2000.000
G1 X183.681 Y127.415 Z8.000 F2000.000
G1 X172.585 Y116.319 Z8.000 F2000.000
G1 X172.585 Y118.560 Z8.000 F2000.000
G1 X181.440 Y127.415 Z8.000 F2000.000
G2 X180.012 Y127.761 Z8.000 I-0.304 J1.868 K0.000 F2000.000
G1 X179.778 Y127.995 Z8.000 F2000.000
G1 X172.005 Y120.222 Z8.000 F2000.000
G3 X171.000 Y120.585 Z8.000 I-0.998 J-1.192 K0.000 F2000.000
G1 X170.127 Y120.585 Z8.000 F2000.000
G1 X179.415 Y129.873 Z8.000 F2000.000
G1 X179.415 Y132.115 Z8.000 F2000.000
G1 X167.885 Y120.585 Z8.000 F2000.000
G1 X165.644 Y120.585 Z8.000 F2000.000
G1 X179.415 Y134.356 Z8.000 F2000.000
G1 X179.415 Y136.598 Z8.000 F2000.000
G1 X172.585 Y129.768 Z8.000 F2000.000
G1 X172.585 Y132.010 Z8.000 F2000.000
G1 X179.415 Y138.840 Z8.000 F2000.000
G1 X179.415 Y141.081 Z8.000 F2000.000
G1 X172.585 Y134.251 Z8.000 F2000.000
G1 X172.585 Y136.493 Z8.000 F2000.000
G1 X179.415 Y143.323 Z8.000 F2000.000
G1 X179.415 Y145.000 Z8.000 F2000.000
G2 X179.628 Y145.777 Z8.000 I1.218 J0.084 K0.000 F2000.000
G1 X172.585 Y138.734 Z8.000 F2000.000
G0 Z14.300
G0 X170.232 Y127.415 Z14.300
G0 X170.232 Y127.415 Z12.300
G1 X170.232 Y127.415 Z8.000 F2000.000
G1 X163.402 Y120.585 Z8.000 F2000.000
G1 X161.160 Y120.585 Z8.000 F2000.000
G1 X167.990 Y127.415 Z8.000 F2000.000
G1 X165.749 Y127.415 Z8.000 F2000.000
G1 X158.919 Y120.585 Z8.000 F2000.000
G1 X156.677 Y120.585 Z8.000 F2000.000
G1 X163.507 Y127.415 Z8.000 F2000.000
G1 X161.266 Y127.415 Z8.000 F2000.000
G1 X154.436 Y120.585 Z8.000 F2000.000
G1 X152.194 Y120.585 Z8.000 F2000.000
G1 X159.024 Y127.415 Z8.000 F2000.000
G0 Z14.300
G0 X172.585 Y111.836 Z14.300
G0 X172.585 Y111.836 Z12.300
G1 X172.585 Y111.836 Z8.000 F2000.000
G1 X179.415 Y118.666 Z8.000 F2000.000
G1 X179.415 Y116.424 Z8.000 F2000.000
G1 X172.585 Y109.594 Z8.000 F2000.000
G1 X172.585 Y107.353 Z8.000 F2000.000
G1 X179.415 Y114.183 Z8.000 F2000.000
G1 X179.415 Y111.941 Z8.000 F2000.000
G1 X172.585 Y105.111 Z8.000 F2000.000
G1 X172.585 Y102.870 Z8.000 F2000.000
G1 X179.415 Y109.700 Z8.000 F2000.000
G1 X179.415 Y107.458 Z8.000 F2000.000
G1 X172.585 Y100.628 Z8.000 F2000.000
G1 X172.585 Y98.387 Z8.000 F2000.000
G1 X179.415 Y105.217 Z8.000 F2000.000
G1 X179.415 Y103.000 Z8.000 F2000.000
G1 X179.418 Y102.978 Z8.000 F2000.000
G1 X172.585 Y96.145 Z8.000 F2000.000
G1 X172.585 Y93.904 Z8.000 F2000.000
G1 X180.276 Y101.595 Z8.000 F2000.000
G3 X181.000 Y101.415 Z8.000 I0.619 J0.944 K0.000 F2000.000
G1 X182.338 Y101.415 Z8.000 F2000.000
G1 X172.585 Y91.662 Z8.000 F2000.000
G1 X172.585 Y89.420 Z8.000 F2000.000
G1 X184.580 Y101.415 Z8.000 F2000.000
G1 X186.821 Y101.415 Z8.000 F2000.000
G1 X172.585 Y87.179 Z8.000 F2000.000
G1 X172.585 Y84.937 Z8.000 F2000.000
G1 X189.063 Y101.415 Z8.000 F2000.000
G1 X191.304 Y101.415 Z8.000 F2000.000
G1 X172.585 Y82.696 Z8.000 F2000.000
G1 X172.585 Y80.454 Z8.000 F2000.000
G1 X179.415 Y87.284 Z8.000 F2000.000
G1 X179.415 Y88.000 Z8.000 F2000.000
G2 X180.647 Y89.545 Z8.000 I1.585 J-0.000 K0.000 F2000.000
G2 X181.716 Y89.585 Z8.000 I0.711 J-4.721 K0.000 F2000.000
G1 X193.546 Y101.415 Z8.000 F2000.000
G1 X195.787 Y101.415 Z8.000 F2000.000
G1 X183.957 Y89.585 Z8.000 F2000.000
G1 X186.199 Y89.585 Z8.000 F2000.000
G1 X198.029 Y101.415 Z8.000 F2000.000
G1 X200.270 Y101.415 Z8.000 F2000.000
G1 X188.440 Y89.585 Z8.000 F2000.000
G1 X190.682 Y89.585 Z8.000 F2000.000
G1 X202.512 Y101.415 Z8.000 F2000.000
G1 X204.753 Y101.415 Z8.000 F2000.000
G1 X192.923 Y89.585 Z8.000 F2000.000
G1 X195.165 Y89.585 Z8.000 F2000.000
G1 X206.995 Y101.415 Z8.000 F2000.000
G1 X209.236 Y101.415 Z8.000 F2000.000
G1 X197.406 Y89.585 Z8.000 F2000.000
G1 X199.648 Y89.585 Z8.000 F2000.000
G1 X211.478 Y101.415 Z8.000 F2000.000
G1 X213.719 Y101.415 Z8.000 F2000.000
G1 X201.889 Y89.585 Z8.000 F2000.000
G1 X204.131 Y89.585 Z8.000 F2000.000
G1 X215.961 Y101.415 Z8.000 F2000.000
G1 X218.202 Y101.415 Z8.000 F2000.000
G1 X206.372 Y89.585 Z8.000 F2000.000
G1 X208.614 Y89.585 Z8.000 F2000.000
G1 X220.444 Y101.415 Z8.000 F2000.000
G1 X222.686 Y101.415 Z8.000 F2000.000
G1 X210.856 Y89.585 Z8.000 F2000.000
G1 X213.097 Y89.585 Z8.000 F2000.000
G1 X224.927 Y101.415 Z8.000 F2000.000
G1 X227.169 Y101.415 Z8.000 F2000.000
G1 X215.339 Y89.585 Z8.000 F2000.000
G1 X217.580 Y89.585 Z8.000 F2000.000
G1 X229.410 Y101.415 Z8.000 F2000.000
G1 X229.410 Y101.415 Z8.000 F2000.000
G1 X231.000 Y101.415 Z8.000 F2000.000
G3 X232.585 Y103.000 Z8.000 I-0.000 J1.585 K0.000 F2000.000
G1 X232.585 Y119.000 Z8.000 F2000.000
G3 X231.000 Y120.585 Z8.000 I-1.585 J-0.000 K0.000 F2000.000
G1 X181.000 Y120.585 Z8.000 F2000.000
G3 X179.415 Y119.000 Z8.000 I0.000 J-1.585 K0.000 F2000.000
G1 X179.415 Y103.000 Z8.000 F2000.000
G3 X181.000 Y101.415 Z8.000 I1.585 J0.000 K0.000 F2000.000
G1 X229.410 Y101.415 Z8.000 F2000.000
G0 Z14.300
G0 Y89.585 Z14.300
G0 Y89.585 Z12.300
G1 X229.410 Y89.585 Z8.000 F2000.000
G1 X181.000 Y89.585 Z8.000 F2000.000
G3 X179.415 Y88.000 Z8.000 I0.000 J-1.585 K0.000 F2000.000
G1 X179.415 Y72.000 Z8.000 F2000.000
G3 X181.000 Y70.415 Z8.000 I1.585 J0.000 K0.000 F2000.000
G1 X231.000 Y70.415 Z8.000 F2000.000
G3 X232.585 Y72.000 Z8.000 I-0.000 J1.585 K0.000 F2000.000
G1 X232.585 Y88.000 Z8.000 F2000.000
G3 X231.000 Y89.585 Z8.000 I-1.585 J0.000 K0.000 F2000.000
G1 X229.410 Y89.585 Z8.000 F2000.000
G0 Z14.300
G0 X229.792 Y70.415 Z14.300
G0 X229.792 Y70.415 Z12.300
G1 X229.792 Y70.415 Z8.000 F2000.000
G1 X217.962 Y58.585 Z8.000 F2000.000
G1 X215.720 Y58.585 Z8.000 F2000.000
G1 X227.550 Y70.415 Z8.000 F2000.000
G1 X225.308 Y70.415 Z8.000 F2000.000
G1 X213.478 Y58.585 Z8.000 F2000.000
G1 X211.237 Y58.585 Z8.000 F2000.000
G1 X223.067 Y70.415 Z8.000 F2000.000
G1 X220.825 Y70.415 Z8.000 F2000.000
G1 X208.995 Y58.585 Z8.000 F2000.000
G1 X206.754 Y58.585 Z8.000 F2000.000
G1 X218.584 Y70.415 Z8.000 F2000.000
G1 X216.342 Y70.415 Z8.000 F2000.000
G1 X204.512 Y58.585 Z8.000 F2000.000
G1 X202.271 Y58.585 Z8.000 F2000.000
G1 X214.101 Y70.415 Z8.000 F2000.000
G1 X211.859 Y70.415 Z8.000 F2000.000
G1 X200.029 Y58.585 Z8.000 F2000.000
G1 X197.788 Y58.585 Z8.000 F2000.000
G1 X209.618 Y70.415 Z8.000 F2000.000
G1 X207.376 Y70.415 Z8.000 F2000.000
G1 X195.546 Y58.585 Z8.000 F2000.000
G1 X193.305 Y58.585 Z8.000 F2000.000
G1 X205.135 Y70.415 Z8.000 F2000.000
G1 X202.893 Y70.415 Z8.000 F2000.000
G1 X191.063 Y58.585 Z8.000 F2000.000
G1 X188.822 Y58.585 Z8.000 F2000.000
G1 X200.652 Y70.415 Z8.000 F2000.000
G1 X198.410 Y70.415 Z8.000 F2000.000
G1 X186.580 Y58.585 Z8.000 F2000.000
G1 X184.339 Y58.585 Z8.000 F2000.000
G1 X196.169 Y70.415 Z8.000 F2000.000
G1 X193.927 Y70.415 Z8.000 F2000.000
G1 X182.097 Y58.585 Z8.000 F2000.000
G1 X181.000 Y58.585 Z8.000 F2000.000
G3 X179.415 Y57.000 Z8.000 I0.000 J-1.585 K0.000 F2000.000
G1 X179.415 Y55.903 Z8.000 F2000.000
G1 X167.585 Y44.073 Z8.000 F2000.000
G1 X167.585 Y46.314 Z8.000 F2000.000
G1 X191.686 Y70.415 Z8.000 F2000.000
G1 X189.444 Y70.415 Z8.000 F2000.000
G1 X167.585 Y48.556 Z8.000 F2000.000
G1 X167.585 Y50.798 Z8.000 F2000.000
G1 X187.202 Y70.415 Z8.000 F2000.000
G1 X184.961 Y70.415 Z8.000 F2000.000
G1 X167.585 Y53.039 Z8.000 F2000.000
G1 X167.585 Y55.281 Z8.000 F2000.000
G1 X182.719 Y70.415 Z8.000 F2000.000
G1 X181.000 Y70.415 Z8.000 F2000.000
G2 X180.551 Y70.488 Z8.000 I-0.064 J1.020 K0.000 F2000.000
G1 X167.512 Y57.449 Z8.000 F2000.000
G3 X166.363 Y58.542 Z8.000 I-1.496 J-0.422 K0.000 F2000.000
G1 X179.458 Y71.637 Z8.000 F2000.000
G2 X179.415 Y72.000 Z8.000 I0.774 J0.276 K0.000 F2000.000
G1 X179.415 Y73.835 Z8.000 F2000.000
G1 X164.165 Y58.585 Z8.000 F2000.000
G1 X161.923 Y58.585 Z8.000 F2000.000
G1 X179.415 Y76.077 Z8.000 F2000.000
G1 X179.415 Y78.318 Z8.000 F2000.000
G1 X172.438 Y71.341 Z8.000 F2000.000
G3 X172.585 Y72.000 Z8.000 I-1.369 J0.651 K0.000 F2000.000
G1 X172.585 Y73.730 Z8.000 F2000.000
G1 X179.415 Y80.560 Z8.000 F2000.000
G1 X179.415 Y82.801 Z8.000 F2000.000
G1 X172.585 Y75.971 Z8.000 F2000.000
G1 X172.585 Y78.213 Z8.000 F2000.000
G1 X179.415 Y85.043 Z8.000 F2000.000
G1 X179.415 Y87.284 Z8.000 F2000.000
G1 X172.585 Y80.454 Z8.000 F2000.000
G0 Z14.300
G0 X171.659 Y70.562 Z14.300
G0 X171.659 Y70.562 Z12.300
G1 X171.659 Y70.562 Z8.000 F2000.000
G1 X159.682 Y58.585 Z8.000 F2000.000
G1 X157.440 Y58.585 Z8.000 F2000.000
G1 X169.270 Y70.415 Z8.000 F2000.000
G1 X167.029 Y70.415 Z8.000 F2000.000
G1 X155.199 Y58.585 Z8.000 F2000.000
G1 X152.957 Y58.585 Z8.000 F2000.000
G1 X164.787 Y70.415 Z8.000 F2000.000
G1 X162.546 Y70.415 Z8.000 F2000.000
G1 X150.716 Y58.585 Z8.000 F2000.000
G1 X148.474 Y58.585 Z8.000 F2000.000
G1 X160.304 Y70.415 Z8.000 F2000.000
G1 X158.063 Y70.415 Z8.000 F2000.000
G1 X146.233 Y58.585 Z8.000 F2000.000
G3 X144.415 Y56.767 Z8.000 I-0.202 J-1.616 K0.000 F2000.000
G1 X137.585 Y49.937 Z8.000 F2000.000
G1 X137.585 Y52.179 Z8.000 F2000.000
G1 X155.821 Y70.415 Z8.000 F2000.000
G1 X153.580 Y70.415 Z8.000 F2000.000
G1 X137.585 Y54.420 Z8.000 F2000.000
G1 X137.585 Y56.662 Z8.000 F2000.000
G1 X151.338 Y70.415 Z8.000 F2000.000
G2 X150.012 Y70.761 Z8.000 I-0.244 J1.780 K0.000 F2000.000
G2 X149.735 Y71.053 Z8.000 I0.502 J0.753 K0.000 F2000.000
G1 X136.947 Y58.265 Z8.000 F2000.000
G3 X136.000 Y58.585 Z8.000 I-0.943 J-1.230 K0.000 F2000.000
G1 X135.025 Y58.585 Z8.000 F2000.000
G1 X149.415 Y72.975 Z8.000 F2000.000
G1 X149.415 Y75.217 Z8.000 F2000.000
G1 X132.783 Y58.585 Z8.000 F2000.000
G1 X130.542 Y58.585 Z8.000 F2000.000
G1 X149.415 Y77.458 Z8.000 F2000.000
G1 X149.415 Y79.700 Z8.000 F2000.000
G1 X128.300 Y58.585 Z8.000 F2000.000
G1 X126.059 Y58.585 Z8.000 F2000.000
G1 X149.415 Y81.941 Z8.000 F2000.000
G1 X149.415 Y84.183 Z8.000 F2000.000
G1 X137.585 Y72.353 Z8.000 F2000.000
G1 X137.585 Y74.594 Z8.000 F2000.000
G1 X149.415 Y86.424 Z8.000 F2000.000
G1 X149.415 Y88.666 Z8.000 F2000.000
G1 X137.585 Y76.836 Z8.000 F2000.000
G1 X137.585 Y79.077 Z8.000 F2000.000
G1 X149.415 Y90.907 Z8.000 F2000.000
G1 X149.415 Y93.149 Z8.000 F2000.000
G1 X137.585 Y81.319 Z8.000 F2000.000
G1 X137.585 Y83.560 Z8.000 F2000.000
G1 X149.415 Y95.390 Z8.000 F2000.000
G1 X149.415 Y97.632 Z8.000 F2000.000
G1 X137.585 Y85.802 Z8.000 F2000.000
G1 X137.585 Y88.043 Z8.000 F2000.000
G1 X149.415 Y99.873 Z8.000 F2000.000
G1 X149.415 Y102.115 Z8.000 F2000.000
G1 X137.585 Y90.285 Z8.000 F2000.000
G1 X137.585 Y92.526 Z8.000 F2000.000
G1 X149.415 Y104.356 Z8.000 F2000.000
G1 X149.415 Y106.598 Z8.000 F2000.000
G1 X137.585 Y94.768 Z8.000 F2000.000
G1 X137.585 Y97.010 Z8.000 F2000.000
G1 X149.415 Y108.840 Z8.000 F2000.000
G1 X149.415 Y111.081 Z8.000 F2000.000
G1 X137.585 Y99.251 Z8.000 F2000.000
G1 X137.585 Y101.493 Z8.000 F2000.000
G1 X149.415 Y113.323 Z8.000 F2000.000
G1 X149.415 Y115.564 Z8.000 F2000.000
G1 X137.585 Y103.734 Z8.000 F2000.000
G1 X137.585 Y105.976 Z8.000 F2000.000
G1 X149.415 Y117.806 Z8.000 F2000.000
G1 X149.415 Y119.000 Z8.000 F2000.000
G2 X151.000 Y120.585 Z8.000 I1.585 J-0.000 K0.000 F2000.000
G1 X152.194 Y120.585 Z8.000 F2000.000
G1 X159.024 Y127.415 Z8.000 F2000.000
G1 X156.783 Y127.415 Z8.000 F2000.000
G1 X137.585 Y108.217 Z8.000 F2000.000
G1 X137.585 Y110.459 Z8.000 F2000.000
G1 X154.541 Y127.415 Z8.000 F2000.000
G1 X152.300 Y127.415 Z8.000 F2000.000
G1 X137.585 Y112.700 Z8.000 F2000.000
G1 X137.585 Y114.942 Z8.000 F2000.000
G1 X150.058 Y127.415 Z8.000 F2000.000
G1 X147.817 Y127.415 Z8.000 F2000.000
G1 X137.585 Y117.183 Z8.000 F2000.000
G1 X137.585 Y119.000 Z8.000 F2000.000
G3 X137.537 Y119.377 Z8.000 I-0.849 J0.083 K0.000 F2000.000
G1 X145.575 Y127.415 Z8.000 F2000.000
G1 X143.334 Y127.415 Z8.000 F2000.000
G1 X136.435 Y120.516 Z8.000 F2000.000
G3 X136.000 Y120.585 Z8.000 I-0.368 J-0.919 K0.000 F2000.000
G1 X134.262 Y120.585 Z8.000 F2000.000
G1 X141.092 Y127.415 Z8.000 F2000.000
G1 X138.851 Y127.415 Z8.000 F2000.000
G1 X132.021 Y120.585 Z8.000 F2000.000
G1 X129.779 Y120.585 Z8.000 F2000.000
G1 X136.609 Y127.415 Z8.000 F2000.000
G1 X134.368 Y127.415 Z8.000 F2000.000
G1 X127.538 Y120.585 Z8.000 F2000.000
G1 X125.296 Y120.585 Z8.000 F2000.000
G1 X132.126 Y127.415 Z8.000 F2000.000
G1 X129.885 Y127.415 Z8.000 F2000.000
G1 X123.055 Y120.585 Z8.000 F2000.000
G1 X120.813 Y120.585 Z8.000 F2000.000
G1 X127.643 Y127.415 Z8.000 F2000.000
G1 X125.401 Y127.415 Z8.000 F2000.000
G1 X118.571 Y120.585 Z8.000 F2000.000
G1 X116.330 Y120.585 Z8.000 F2000.000
G1 X123.316 Y127.571 Z8.000 F2000.000
G0 Z14.300
G0 X75.578 Y123.146 Z14.300
G0 X75.578 Y123.146 Z12.300
G1 X75.578 Y123.146 Z8.000 F2000.000
G3 X74.000 Y124.585 Z8.000 I-1.578 J-0.146 K0.000 F2000.000
G1 X24.000 Y124.585 Z8.000 F2000.000
G3 X22.415 Y123.000 Z8.000 I-0.000 J-1.585 K0.000 F2000.000
G1 X22.415 Y107.000 Z8.000 F2000.000
G3 X24.000 Y105.415 Z8.000 I1.585 J-0.000 K0.000 F2000.000
G1 X74.000 Y105.415 Z8.000 F2000.000
G3 X75.585 Y107.000 Z8.000 I0.000 J1.585 K0.000 F2000.000
G1 X75.585 Y123.000 Z8.000 F2000.000
G3 X75.578 Y123.146 Z8.000 I-1.585 J0.000 K0.000 F2000.000
G0 Z14.300
G0 X75.585 Y108.980 Z14.300
G0 X75.585 Y108.980 Z12.300
G1 X75.585 Y108.980 Z8.000 F2000.000
G1 X84.415 Y117.810 Z8.000 F2000.000
G1 X84.415 Y115.568 Z8.000 F2000.000
G1 X75.552 Y106.705 Z8.000 F2000.000
G0 Z14.300
G0 X74.178 Y94.575 Z14.300
G0 X74.178 Y94.575 Z12.300
G1 X74.178 Y94.575 Z8.000 F2000.000
G3 X74.000 Y94.585 Z8.000 I-0.178 J-1.575 K0.000 F2000.000
G1 X24.000 Y94.585 Z8.000 F2000.000
G3 X22.415 Y93.000 Z8.000 I0.000 J-1.585 K0.000 F2000.000
G1 X22.415 Y77.000 Z8.000 F2000.000
G3 X24.000 Y75.415 Z8.000 I1.585 J0.000 K0.000 F2000.000
G1 X74.000 Y75.415 Z8.000 F2000.000
G3 X75.585 Y77.000 Z8.000 I-0.000 J1.585 K0.000 F2000.000
G1 X75.585 Y93.000 Z8.000 F2000.000
G3 X74.178 Y94.575 Z8.000 I-1.585 J-0.000 K0.000 F2000.000
G0 Z14.300
G0 X73.401 Y75.415 Z14.300
G0 X73.401 Y75.415 Z12.300
G1 X73.401 Y75.415 Z8.000 F2000.000
G1 X56.571 Y58.585 Z8.000 F2000.000
G1 X54.330 Y58.585 Z8.000 F2000.000
G1 X71.160 Y75.415 Z8.000 F2000.000
G0 Z14.300
G0 Y58.585 Z14.300
G0 Y58.585 Z12.300
G1 X71.160 Y58.585 Z8.000 F2000.000
G1 X54.000 Y58.585 Z8.000 F2000.000
G3 X52.415 Y57.000 Z8.000 I0.000 J-1.585 K0.000 F2000.000
G1 X52.415 Y10.000 Z8.000 F2000.000
G3 X54.000 Y8.415 Z8.000 I1.585 J-0.000 K0.000 F2000.000
G1 X74.000 Y8.415 Z8.000 F2000.000
G3 X75.585 Y10.000 Z8.000 I0.000 J1.585 K0.000 F2000.000
G1 X75.585 Y57.000 Z8.000 F2000.000
G3 X74.000 Y58.585 Z8.000 I-1.585 J0.000 K0.000 F2000.000
G1 X71.160 Y58.585 Z8.000 F2000.000
G0 Z14.300
G0 X45.582 Y57.092 Z14.300
G0 X45.582 Y57.092 Z12.300
G1 X45.582 Y57.092 Z8.000 F2000.000
G3 X44.000 Y58.585 Z8.000 I-1.582 J-0.092 K0.000 F2000.000
G1 X24.000 Y58.585 Z8.000 F2000.000
G3 X22.415 Y57.000 Z8.000 I0.000 J-1.585 K0.000 F2000.000
G1 X22.415 Y10.000 Z8.000 F2000.000
G3 X24.000 Y8.415 Z8.000 I1.585 J-0.000 K0.000 F2000.000
G1 X44.000 Y8.415 Z8.000 F2000.000
G3 X45.585 Y10.000 Z8.000 I0.000 J1.585 K0.000 F2000.000
G1 X45.585 Y57.000 Z8.000 F2000.000
G3 X45.582 Y57.092 Z8.000 I-1.585 J0.000 K0.000 F2000.000
G0 Z14.300
G0 X1.585 Y70.844 Z14.300
G0 X1.585 Y70.844 Z12.300
G1 X1.585 Y70.844 Z8.000 F2000.000
G1 X22.415 Y91.674 Z8.000 F2000.000
G1 X22.415 Y89.433 Z8.000 F2000.000
G1 X1.585 Y68.603 Z8.000 F2000.000
G1 X1.585 Y66.361 Z8.000 F2000.000
G1 X22.415 Y87.191 Z8.000 F2000.000
G1 X22.415 Y84.950 Z8.000 F2000.000
G1 X1.585 Y64.120 Z8.000 F2000.000
G1 X1.585 Y61.878 Z8.000 F2000.000
G1 X22.415 Y82.708 Z8.000 F2000.000
G1 X22.415 Y80.467 Z8.000 F2000.000
G1 X1.585 Y59.637 Z8.000 F2000.000
G1 X1.585 Y57.395 Z8.000 F2000.000
G1 X22.415 Y78.225 Z8.000 F2000.000
G1 X22.415 Y77.000 Z8.000 F2000.000
G3 X22.638 Y76.207 Z8.000 I1.478 J-0.012 K0.000 F2000.000
G1 X1.585 Y55.154 Z8.000 F2000.000
G1 X1.585 Y52.912 Z8.000 F2000.000
G1 X24.088 Y75.415 Z8.000 F2000.000
G1 X26.329 Y75.415 Z8.000 F2000.000
G1 X1.585 Y50.671 Z8.000 F2000.000
G1 X1.585 Y48.429 Z8.000 F2000.000
G1 X28.571 Y75.415 Z8.000 F2000.000
G1 X30.812 Y75.415 Z8.000 F2000.000
G1 X1.585 Y46.188 Z8.000 F2000.000
G1 X1.585 Y43.946 Z8.000 F2000.000
G1 X33.054 Y75.415 Z8.000 F2000.000
G1 X35.295 Y75.415 Z8.000 F2000.000
G1 X1.585 Y41.705 Z8.000 F2000.000
G1 X1.585 Y39.463 Z8.000 F2000.000
G1 X37.537 Y75.415 Z8.000 F2000.000
G1 X39.779 Y75.415 Z8.000 F2000.000
G1 X1.585 Y37.221 Z8.000 F2000.000
G1 X1.585 Y34.980 Z8.000 F2000.000
G1 X22.415 Y55.810 Z8.000 F2000.000
G1 X22.415 Y57.000 Z8.000 F2000.000
G2 X24.000 Y58.585 Z8.000 I1.585 J-0.000 K0.000 F2000.000
G1 X25.190 Y58.585 Z8.000 F2000.000
G1 X42.020 Y75.415 Z8.000 F2000.000
G1 X44.262 Y75.415 Z8.000 F2000.000
G1 X27.432 Y58.585 Z8.000 F2000.000
G1 X29.673 Y58.585 Z8.000 F2000.000
G1 X46.503 Y75.415 Z8.000 F2000.000
G1 X48.745 Y75.415 Z8.000 F2000.000
G1 X31.915 Y58.585 Z8.000 F2000.000
G1 X34.156 Y58.585 Z8.000 F2000.000
G1 X50.986 Y75.415 Z8.000 F2000.000
G1 X53.228 Y75.415 Z8.000 F2000.000
G1 X36.398 Y58.585 Z8.000 F2000.000
G1 X38.639 Y58.585 Z8.000 F2000.000
G1 X55.469 Y75.415 Z8.000 F2000.000
G1 X57.711 Y75.415 Z8.000 F2000.000
G1 X40.881 Y58.585 Z8.000 F2000.000
G1 X43.122 Y58.585 Z8.000 F2000.000
G1 X59.952 Y75.415 Z8.000 F2000.000
G1 X62.194 Y75.415 Z8.000 F2000.000
G1 X45.003 Y58.224 Z8.000 F2000.000
G1 X45.239 Y57.988 Z8.000 F2000.000
G2 X45.585 Y56.565 Z8.000 I-1.518 J-1.123 K0.000 F2000.000
G1 X64.435 Y75.415 Z8.000 F2000.000
G1 X66.677 Y75.415 Z8.000 F2000.000
G1 X45.585 Y54.323 Z8.000 F2000.000
G1 X45.585 Y52.082 Z8.000 F2000.000
G1 X68.918 Y75.415 Z8.000 F2000.000
G1 X71.160 Y75.415 Z8.000 F2000.000
G1 X54.330 Y58.585 Z8.000 F2000.000
G3 X53.012 Y58.239 Z8.000 I-0.239 J-1.773 K0.000 F2000.000
G3 X52.415 Y56.670 Z8.000 I1.071 J-1.306 K0.000 F2000.000
G1 X45.585 Y49.840 Z8.000 F2000.000
G1 X45.585 Y47.599 Z8.000 F2000.000
G1 X52.415 Y54.429 Z8.000 F2000.000
G1 X52.415 Y52.187 Z8.000 F2000.000
G1 X45.585 Y45.357 Z8.000 F2000.000
G1 X45.585 Y43.115 Z8.000 F2000.000
G1 X52.415 Y49.945 Z8.000 F2000.000
G1 X52.415 Y47.704 Z8.000 F2000.000
G1 X45.585 Y40.874 Z8.000 F2000.000
G1 X45.585 Y38.632 Z8.000 F2000.000
G1 X52.415 Y45.462 Z8.000 F2000.000
G1 X52.415 Y43.221 Z8.000 F2000.000
G1 X45.585 Y36.391 Z8.000 F2000.000
G1 X45.585 Y34.149 Z8.000 F2000.000
G1 X52.415 Y40.979 Z8.000 F2000.000
G1 X52.415 Y38.738 Z8.000 F2000.000
G1 X45.585 Y31.908 Z8.000 F2000.000
G1 X45.585 Y29.666 Z8.000 F2000.000
G1 X52.415 Y36.496 Z8.000 F2000.000
G1 X52.415 Y34.255 Z8.000 F2000.000
G1 X45.585 Y27.425 Z8.000 F2000.000
G1 X45.585 Y25.183 Z8.000 F2000.000
G1 X52.415 Y32.013 Z8.000 F2000.000
G1 X52.415 Y29.772 Z8.000 F2000.000
G1 X45.585 Y22.942 Z8.000 F2000.000
G1 X45.585 Y20.700 Z8.000 F2000.000
G1 X52.415 Y27.530 Z8.000 F2000.000
G1 X52.415 Y25.289 Z8.000 F2000.000
G1 X45.585 Y18.459 Z8.000 F2000.000
G1 X45.585 Y16.217 Z8.000 F2000.000
G1 X52.415 Y23.047 Z8.000 F2000.000
G1 X52.415 Y20.806 Z8.000 F2000.000
G1 X45.585 Y13.976 Z8.000 F2000.000
G1 X45.585 Y11.734 Z8.000 F2000.000
G1 X52.415 Y18.564 Z8.000 F2000.000
G1 X52.415 Y16.323 Z8.000 F2000.000
G1 X45.441 Y9.348 Z8.000 F2000.000
G0 Z14.300
G0 X73.647 Y8.415 Z14.300
G0 X73.647 Y8.415 Z12.300
G1 X73.647 Y8.415 Z8.000 F2000.000
G1 X66.817 Y1.585 Z8.000 F2000.000
G1 X64.576 Y1.585 Z8.000 F2000.000
G1 X71.406 Y8.415 Z8.000 F2000.000
G1 X69.164 Y8.415 Z8.000 F2000.000
G1 X62.334 Y1.585 Z8.000 F2000.000
G1 X60.093 Y1.585 Z8.000 F2000.000
G1 X66.923 Y8.415 Z8.000 F2000.000
G1 X64.681 Y8.415 Z8.000 F2000.000
G1 X57.851 Y1.585 Z8.000 F2000.000
G1 X55.610 Y1.585 Z8.000 F2000.000
G1 X62.440 Y8.415 Z8.000 F2000.000
G1 X60.198 Y8.415 Z8.000 F2000.000
G1 X53.368 Y1.585 Z8.000 F2000.000
G1 X51.127 Y1.585 Z8.000 F2000.000
G1 X57.957 Y8.415 Z8.000 F2000.000
G1 X55.715 Y8.415 Z8.000 F2000.000
G1 X48.885 Y1.585 Z8.000 F2000.000
G1 X46.644 Y1.585 Z8.000 F2000.000
G1 X53.548 Y8.489 Z8.000 F2000.000
G2 X52.457 Y9.640 Z8.000 I0.425 J1.496 K0.000 F2000.000
G1 X44.402 Y1.585 Z8.000 F2000.000
G1 X42.160 Y1.585 Z8.000 F2000.000
G1 X52.415 Y11.840 Z8.000 F2000.000
G1 X52.415 Y14.081 Z8.000 F2000.000
G1 X39.919 Y1.585 Z8.000 F2000.000
G1 X37.677 Y1.585 Z8.000 F2000.000
G1 X44.652 Y8.559 Z8.000 F2000.000
G2 X44.000 Y8.415 Z8.000 I-0.642 J1.356 K0.000 F2000.000
G1 X42.266 Y8.415 Z8.000 F2000.000
G1 X35.436 Y1.585 Z8.000 F2000.000
G1 X33.194 Y1.585 Z8.000 F2000.000
G1 X40.024 Y8.415 Z8.000 F2000.000
G1 X37.783 Y8.415 Z8.000 F2000.000
G1 X30.953 Y1.585 Z8.000 F2000.000
G1 X28.711 Y1.585 Z8.000 F2000.000
G1 X35.541 Y8.415 Z8.000 F2000.000
G1 X33.300 Y8.415 Z8.000 F2000.000
G1 X26.470 Y1.585 Z8.000 F2000.000
G1 X24.228 Y1.585 Z8.000 F2000.000
G1 X31.058 Y8.415 Z8.000 F2000.000
G1 X28.817 Y8.415 Z8.000 F2000.000
G1 X21.987 Y1.585 Z8.000 F2000.000
G1 X19.745 Y1.585 Z8.000 F2000.000
G1 X26.575 Y8.415 Z8.000 F2000.000
G1 X24.334 Y8.415 Z8.000 F2000.000
G1 X17.504 Y1.585 Z8.000 F2000.000
G1 X15.262 Y1.585 Z8.000 F2000.000
G1 X22.733 Y9.056 Z8.000 F2000.000
G2 X22.415 Y10.000 Z8.000 I1.230 J0.940 K0.000 F2000.000
G1 X22.415 Y10.979 Z8.000 F2000.000
G1 X13.021 Y1.585 Z8.000 F2000.000
G1 X10.779 Y1.585 Z8.000 F2000.000
G1 X22.415 Y13.221 Z8.000 F2000.000
G1 X22.415 Y15.462 Z8.000 F2000.000
G1 X8.538 Y1.585 Z8.000 F2000.000
G1 X6.296 Y1.585 Z8.000 F2000.000
G1 X22.415 Y17.704 Z8.000 F2000.000
G1 X22.415 Y19.945 Z8.000 F2000.000
G1 X4.055 Y1.585 Z8.000 F2000.000
G1 X1.813 Y1.585 Z8.000 F2000.000
G1 X22.415 Y22.187 Z8.000 F2000.000
G1 X22.415 Y24.429 Z8.000 F2000.000
G1 X1.585 Y3.599 Z8.000 F2000.000
G1 X1.585 Y5.840 Z8.000 F2000.000
G1 X22.415 Y26.670 Z8.000 F2000.000
G1 X22.415 Y28.912 Z8.000 F2000.000
G1 X1.585 Y8.082 Z8.000 F2000.000
G1 X1.585 Y10.323 Z8.000 F2000.000
G1 X22.415 Y31.153 Z8.000 F2000.000
G1 X22.415 Y33.395 Z8.000 F2000.000
G1 X1.585 Y12.565 Z8.000 F2000.000
G1 X1.585 Y14.806 Z8.000 F2000.000
G1 X22.415 Y35.636 Z8.000 F2000.000
G1 X22.415 Y37.878 Z8.000 F2000.000
G1 X1.585 Y17.048 Z8.000 F2000.000
G1 X1.585 Y19.289 Z8.000 F2000.000
G1 X22.415 Y40.119 Z8.000 F2000.000
G1 X22.415 Y42.361 Z8.000 F2000.000
G1 X1.585 Y21.531 Z8.000 F2000.000
G1 X1.585 Y23.772 Z8.000 F2000.000
G1 X22.415 Y44.602 Z8.000 F2000.000
G1 X22.415 Y46.844 Z8.000 F2000.000
G1 X1.585 Y26.014 Z8.000 F2000.000
G1 X1.585 Y28.255 Z8.000 F2000.000
G1 X22.415 Y49.085 Z8.000 F2000.000
G1 X22.415 Y51.327 Z8.000 F2000.000
G1 X1.585 Y30.497 Z8.000 F2000.000
G1 X1.585 Y32.738 Z8.000 F2000.000
G1 X22.415 Y53.568 Z8.000 F2000.000
G1 X22.415 Y55.810 Z8.000 F2000.000
G1 X1.585 Y34.980 Z8.000 F2000.000
G0 Z14.300
G0 Y102.226 Z14.300
G0 Y102.226 Z12.300
G1 X1.585 Y102.226 Z8.000 F2000.000
G1 X22.422 Y123.063 Z8.000 F2000.000
G1 X22.415 Y123.000 Z8.000 F2000.000
G1 X22.415 Y120.814 Z8.000 F2000.000
G1 X1.585 Y99.984 Z8.000 F2000.000
G1 X1.585 Y97.743 Z8.000 F2000.000
G1 X22.415 Y118.573 Z8.000 F2000.000
G1 X22.415 Y116.331 Z8.000 F2000.000
G1 X1.585 Y95.501 Z8.000 F2000.000
G1 X1.585 Y93.260 Z8.000 F2000.000
G1 X22.415 Y114.090 Z8.000 F2000.000
G1 X22.415 Y111.848 Z8.000 F2000.000
G1 X1.585 Y91.018 Z8.000 F2000.000
G1 X1.585 Y88.777 Z8.000 F2000.000
G1 X22.415 Y109.607 Z8.000 F2000.000
G1 X22.415 Y107.365 Z8.000 F2000.000
G1 X1.585 Y86.535 Z8.000 F2000.000
G1 X1.585 Y84.294 Z8.000 F2000.000
G1 X23.037 Y105.745 Z8.000 F2000.000
G3 X23.647 Y105.455 Z8.000 I0.942 J1.193 K0.000 F2000.000
G3 X24.948 Y105.415 Z8.000 I0.827 J5.752 K0.000 F2000.000
G1 X1.585 Y82.052 Z8.000 F2000.000
G1 X1.585 Y79.811 Z8.000 F2000.000
G1 X27.189 Y105.415 Z8.000 F2000.000
G1 X29.431 Y105.415 Z8.000 F2000.000
G1 X1.585 Y77.569 Z8.000 F2000.000
G1 X1.585 Y75.327 Z8.000 F2000.000
G1 X31.673 Y105.415 Z8.000 F2000.000
G1 X33.914 Y105.415 Z8.000 F2000.000
G1 X1.585 Y73.086 Z8.000 F2000.000
G1 X1.585 Y70.844 Z8.000 F2000.000
G1 X22.415 Y91.674 Z8.000 F2000.000
G1 X22.415 Y93.000 Z8.000 F2000.000
G2 X24.000 Y94.585 Z8.000 I1.585 J-0.000 K0.000 F2000.000
G1 X25.326 Y94.585 Z8.000 F2000.000
G1 X36.156 Y105.415 Z8.000 F2000.000
G1 X38.397 Y105.415 Z8.000 F2000.000
G1 X27.567 Y94.585 Z8.000 F2000.000
G1 X29.809 Y94.585 Z8.000 F2000.000
G1 X40.639 Y105.415 Z8.000 F2000.000
G1 X42.880 Y105.415 Z8.000 F2000.000
G1 X32.050 Y94.585 Z8.000 F2000.000
G1 X34.292 Y94.585 Z8.000 F2000.000
G1 X45.122 Y105.415 Z8.000 F2000.000
G1 X47.363 Y105.415 Z8.000 F2000.000
G1 X36.533 Y94.585 Z8.000 F2000.000
G1 X38.775 Y94.585 Z8.000 F2000.000
G1 X49.605 Y105.415 Z8.000 F2000.000
G1 X51.846 Y105.415 Z8.000 F2000.000
G1 X41.016 Y94.585 Z8.000 F2000.000
G1 X43.258 Y94.585 Z8.000 F2000.000
G1 X54.088 Y105.415 Z8.000 F2000.000
G1 X56.329 Y105.415 Z8.000 F2000.000
G1 X45.499 Y94.585 Z8.000 F2000.000
G1 X47.741 Y94.585 Z8.000 F2000.000
G1 X58.571 Y105.415 Z8.000 F2000.000
G1 X60.812 Y105.415 Z8.000 F2000.000
G1 X49.982 Y94.585 Z8.000 F2000.000
G1 X52.224 Y94.585 Z8.000 F2000.000
G1 X63.054 Y105.415 Z8.000 F2000.000
G1 X65.295 Y105.415 Z8.000 F2000.000
G1 X54.465 Y94.585 Z8.000 F2000.000
G1 X56.707 Y94.585 Z8.000 F2000.000
G1 X67.537 Y105.415 Z8.000 F2000.000
G1 X69.779 Y105.415 Z8.000 F2000.000
G1 X58.949 Y94.585 Z8.000 F2000.000
G1 X61.190 Y94.585 Z8.000 F2000.000
G1 X72.020 Y105.415 Z8.000 F2000.000
G1 X74.000 Y105.415 Z8.000 F2000.000
G1 X74.295 Y105.448 Z8.000 F2000.000
G1 X63.432 Y94.585 Z8.000 F2000.000
G1 X65.673 Y94.585 Z8.000 F2000.000
G1 X84.415 Y113.327 Z8.000 F2000.000
G1 X84.415 Y111.085 Z8.000 F2000.000
G1 X67.915 Y94.585 Z8.000 F2000.000
G1 X70.156 Y94.585 Z8.000 F2000.000
G1 X84.415 Y108.844 Z8.000 F2000.000
G1 X84.415 Y106.602 Z8.000 F2000.000
G1 X72.398 Y94.585 Z8.000 F2000.000
G1 X74.000 Y94.585 Z8.000 F2000.000
G2 X74.536 Y94.481 Z8.000 I0.041 J-1.225 K0.000 F2000.000
G1 X84.415 Y104.361 Z8.000 F2000.000
G1 X84.415 Y102.119 Z8.000 F2000.000
G1 X75.556 Y93.260 Z8.000 F2000.000
G1 X75.585 Y93.000 Z8.000 F2000.000
G1 X75.585 Y91.048 Z8.000 F2000.000
G1 X84.415 Y99.878 Z8.000 F2000.000
G1 X84.415 Y97.636 Z8.000 F2000.000
G1 X75.585 Y88.806 Z8.000 F2000.000
G1 X75.585 Y86.565 Z8.000 F2000.000
G1 X84.415 Y95.395 Z8.000 F2000.000
G1 X84.415 Y93.153 Z8.000 F2000.000
G1 X75.585 Y84.323 Z8.000 F2000.000
G1 X75.585 Y82.082 Z8.000 F2000.000
G1 X84.415 Y90.912 Z8.000 F2000.000
G1 X84.415 Y88.670 Z8.000 F2000.000
G1 X75.585 Y79.840 Z8.000 F2000.000
G1 X75.585 Y77.599 Z8.000 F2000.000
G1 X84.415 Y86.429 Z8.000 F2000.000
G1 X84.415 Y84.187 Z8.000 F2000.000
G1 X58.813 Y58.585 Z8.000 F2000.000
G1 X61.055 Y58.585 Z8.000 F2000.000
G1 X84.415 Y81.945 Z8.000 F2000.000
G1 X84.415 Y79.704 Z8.000 F2000.000
G1 X63.296 Y58.585 Z8.000 F2000.000
G1 X65.538 Y58.585 Z8.000 F2000.000
G1 X84.415 Y77.462 Z8.000 F2000.000
G1 X84.415 Y75.221 Z8.000 F2000.000
G1 X67.779 Y58.585 Z8.000 F2000.000
G1 X70.021 Y58.585 Z8.000 F2000.000
G1 X84.415 Y72.979 Z8.000 F2000.000
G1 X84.415 Y72.000 Z8.000 F2000.000
G3 X84.733 Y71.056 Z8.000 I1.548 J-0.004 K0.000 F2000.000
G1 X72.262 Y58.585 Z8.000 F2000.000
G1 X74.000 Y58.585 Z8.000 F2000.000
G2 X74.435 Y58.516 Z8.000 I0.067 J-0.987 K0.000 F2000.000
G1 X86.334 Y70.415 Z8.000 F2000.000
G1 X88.575 Y70.415 Z8.000 F2000.000
G1 X75.537 Y57.377 Z8.000 F2000.000
G2 X75.585 Y57.000 Z8.000 I-0.801 J-0.294 K0.000 F2000.000
G1 X75.585 Y55.183 Z8.000 F2000.000
G1 X90.817 Y70.415 Z8.000 F2000.000
G1 X93.058 Y70.415 Z8.000 F2000.000
G1 X75.585 Y52.942 Z8.000 F2000.000
G1 X75.585 Y50.700 Z8.000 F2000.000
G1 X95.300 Y70.415 Z8.000 F2000.000
G1 X97.541 Y70.415 Z8.000 F2000.000
G1 X85.675 Y58.548 Z8.000 F2000.000
G3 X84.452 Y57.325 Z8.000 I0.313 J-1.536 K0.000 F2000.000
G1 X75.585 Y48.459 Z8.000 F2000.000
G1 X75.585 Y46.217 Z8.000 F2000.000
G1 X84.415 Y55.047 Z8.000 F2000.000
G1 X84.415 Y52.806 Z8.000 F2000.000
G1 X75.585 Y43.976 Z8.000 F2000.000
G1 X75.585 Y41.734 Z8.000 F2000.000
G1 X84.415 Y50.564 Z8.000 F2000.000
G1 X84.415 Y48.323 Z8.000 F2000.000
G1 X75.585 Y39.493 Z8.000 F2000.000
G1 X75.585 Y37.251 Z8.000 F2000.000
G1 X84.415 Y46.081 Z8.000 F2000.000
G1 X84.415 Y43.840 Z8.000 F2000.000
G1 X75.585 Y35.010 Z8.000 F2000.000
G1 X75.585 Y32.768 Z8.000 F2000.000
G1 X84.415 Y41.598 Z8.000 F2000.000
G1 X84.415 Y41.000 Z8.000 F2000.000
G3 X84.916 Y39.857 Z8.000 I1.523 J-0.014 K0.000 F2000.000
G1 X75.585 Y30.526 Z8.000 F2000.000
G1 X75.585 Y28.285 Z8.000 F2000.000
G1 X86.715 Y39.415 Z8.000 F2000.000
G1 X88.957 Y39.415 Z8.000 F2000.000
G1 X75.585 Y26.043 Z8.000 F2000.000
G1 X75.585 Y23.802 Z8.000 F2000.000
G1 X91.198 Y39.415 Z8.000 F2000.000
G1 X93.440 Y39.415 Z8.000 F2000.000
G1 X75.585 Y21.560 Z8.000 F2000.000
G1 X75.585 Y19.319 Z8.000 F2000.000
G1 X95.681 Y39.415 Z8.000 F2000.000
G1 X97.923 Y39.415 Z8.000 F2000.000
G1 X86.093 Y27.585 Z8.000 F2000.000
G3 X84.415 Y25.907 Z8.000 I-0.087 J-1.591 K0.000 F2000.000
G1 X75.585 Y17.077 Z8.000 F2000.000
G1 X75.585 Y14.836 Z8.000 F2000.000
G1 X84.415 Y23.666 Z8.000 F2000.000
G1 X84.415 Y21.424 Z8.000 F2000.000
G1 X75.585 Y12.594 Z8.000 F2000.000
G1 X75.585 Y10.353 Z8.000 F2000.000
G1 X84.415 Y19.183 Z8.000 F2000.000
G1 X84.415 Y16.941 Z8.000 F2000.000
G1 X69.059 Y1.585 Z8.000 F2000.000
G1 X71.300 Y1.585 Z8.000 F2000.000
G1 X84.415 Y14.700 Z8.000 F2000.000
G1 X84.415 Y12.458 Z8.000 F2000.000
G1 X73.542 Y1.585 Z8.000 F2000.000
G1 X75.783 Y1.585 Z8.000 F2000.000
G1 X84.415 Y10.217 Z8.000 F2000.000
G3 X85.128 Y8.688 Z8.000 I1.588 J-0.190 K0.000 F2000.000
G1 X78.025 Y1.585 Z8.000 F2000.000
G1 X80.266 Y1.585 Z8.000 F2000.000
G1 X87.096 Y8.415 Z8.000 F2000.000
G1 X89.338 Y8.415 Z8.000 F2000.000
G1 X82.508 Y1.585 Z8.000 F2000.000
G1 X84.750 Y1.585 Z8.000 F2000.000
G1 X91.580 Y8.415 Z8.000 F2000.000
G1 X93.821 Y8.415 Z8.000 F2000.000
G1 X86.991 Y1.585 Z8.000 F2000.000
G1 X89.233 Y1.585 Z8.000 F2000.000
G1 X96.063 Y8.415 Z8.000 F2000.000
G1 X98.304 Y8.415 Z8.000 F2000.000
G1 X91.474 Y1.585 Z8.000 F2000.000
G1 X93.716 Y1.585 Z8.000 F2000.000
G1 X100.546 Y8.415 Z8.000 F2000.000
G1 X102.787 Y8.415 Z8.000 F2000.000
G1 X95.957 Y1.585 Z8.000 F2000.000
G1 X98.199 Y1.585 Z8.000 F2000.000
G1 X105.029 Y8.415 Z8.000 F2000.000
G1 X107.270 Y8.415 Z8.000 F2000.000
G1 X100.440 Y1.585 Z8.000 F2000.000
G1 X102.682 Y1.585 Z8.000 F2000.000
G1 X109.512 Y8.415 Z8.000 F2000.000
G1 X111.753 Y8.415 Z8.000 F2000.000
G1 X104.923 Y1.585 Z8.000 F2000.000
G1 X107.165 Y1.585 Z8.000 F2000.000
G1 X113.995 Y8.415 Z8.000 F2000.000
G1 X116.236 Y8.415 Z8.000 F2000.000
G1 X109.406 Y1.585 Z8.000 F2000.000
G1 X111.648 Y1.585 Z8.000 F2000.000
G1 X118.478 Y8.415 Z8.000 F2000.000
G1 X120.719 Y8.415 Z8.000 F2000.000
G1 X113.889 Y1.585 Z8.000 F2000.000
G1 X116.131 Y1.585 Z8.000 F2000.000
G1 X122.961 Y8.415 Z8.000 F2000.000
G1 X125.202 Y8.415 Z8.000 F2000.000
G1 X118.372 Y1.585 Z8.000 F2000.000
G1 X120.614 Y1.585 Z8.000 F2000.000
G1 X127.444 Y8.415 Z8.000 F2000.000
G1 X129.686 Y8.415 Z8.000 F2000.000
G1 X122.856 Y1.585 Z8.000 F2000.000
G1 X125.097 Y1.585 Z8.000 F2000.000
G1 X131.927 Y8.415 Z8.000 F2000.000
G1 X134.169 Y8.415 Z8.000 F2000.000
G1 X127.339 Y1.585 Z8.000 F2000.000
G1 X129.580 Y1.585 Z8.000 F2000.000
G1 X136.502 Y8.507 Z8.000 F2000.000
G0 Z14.300
G0 X136.505 Y8.498 Z14.300
G0 X136.505 Y8.498 Z12.300
G1 X136.505 Y8.498 Z8.000 F2000.000
G3 X137.585 Y10.000 Z8.000 I-0.505 J1.502 K0.000 F2000.000
G1 X137.585 Y26.000 Z8.000 F2000.000
G3 X136.000 Y27.585 Z8.000 I-1.585 J-0.000 K0.000 F2000.000
G1 X86.000 Y27.585 Z8.000 F2000.000
G3 X84.415 Y26.000 Z8.000 I0.000 J-1.585 K0.000 F2000.000
G1 X84.415 Y10.000 Z8.000 F2000.000
G3 X86.000 Y8.415 Z8.000 I1.585 J0.000 K0.000 F2000.000
G1 X136.000 Y8.415 Z8.000 F2000.000
G3 X136.505 Y8.498 Z8.000 I0.000 J1.585 K0.000 F2000.000
G0 Z14.300
G0 X136.032 Y39.419 Z14.300
G0 X136.032 Y39.419 Z12.300
G1 X136.032 Y39.419 Z8.000 F2000.000
G1 X124.199 Y27.585 Z8.000 F2000.000
G1 X121.957 Y27.585 Z8.000 F2000.000
G1 X133.787 Y39.415 Z8.000 F2000.000
G1 X131.546 Y39.415 Z8.000 F2000.000
G1 X119.716 Y27.585 Z8.000 F2000.000
G1 X117.474 Y27.585 Z8.000 F2000.000
G1 X129.304 Y39.415 Z8.000 F2000.000
G1 X127.063 Y39.415 Z8.000 F2000.000
G1 X115.233 Y27.585 Z8.000 F2000.000
G1 X112.991 Y27.585 Z8.000 F2000.000
G1 X124.821 Y39.415 Z8.000 F2000.000
G1 X122.580 Y39.415 Z8.000 F2000.000
G1 X110.750 Y27.585 Z8.000 F2000.000
G1 X108.508 Y27.585 Z8.000 F2000.000
G1 X120.338 Y39.415 Z8.000 F2000.000
G1 X118.096 Y39.415 Z8.000 F2000.000
G1 X106.266 Y27.585 Z8.000 F2000.000
G1 X104.025 Y27.585 Z8.000 F2000.000
G1 X115.855 Y39.415 Z8.000 F2000.000
G1 X113.613 Y39.415 Z8.000 F2000.000
G1 X101.783 Y27.585 Z8.000 F2000.000
G1 X99.542 Y27.585 Z8.000 F2000.000
G1 X111.372 Y39.415 Z8.000 F2000.000
G1 X109.130 Y39.415 Z8.000 F2000.000
G1 X97.300 Y27.585 Z8.000 F2000.000
G1 X95.059 Y27.585 Z8.000 F2000.000
G1 X106.889 Y39.415 Z8.000 F2000.000
G1 X104.647 Y39.415 Z8.000 F2000.000
G1 X92.817 Y27.585 Z8.000 F2000.000
G1 X90.576 Y27.585 Z8.000 F2000.000
G1 X102.406 Y39.415 Z8.000 F2000.000
G1 X100.164 Y39.415 Z8.000 F2000.000
G1 X88.334 Y27.585 Z8.000 F2000.000
G1 X86.093 Y27.585 Z8.000 F2000.000
G1 X97.923 Y39.415 Z8.000 F2000.000
G0 Z14.300
G0 X167.585 Y44.073 Z14.300
G0 X167.585 Y44.073 Z12.300
G1 X167.585 Y44.073 Z8.000 F2000.000
G1 X179.415 Y55.903 Z8.000 F2000.000
G1 X179.415 Y53.661 Z8.000 F2000.000
G1 X167.585 Y41.831 Z8.000 F2000.000
G1 X167.585 Y39.590 Z8.000 F2000.000
G1 X179.415 Y51.420 Z8.000 F2000.000
G1 X179.415 Y49.178 Z8.000 F2000.000
G1 X167.585 Y37.348 Z8.000 F2000.000
G1 X167.585 Y35.107 Z8.000 F2000.000
G1 X179.415 Y46.937 Z8.000 F2000.000
G1 X179.415 Y44.695 Z8.000 F2000.000
G1 X167.585 Y32.865 Z8.000 F2000.000
G1 X167.585 Y30.624 Z8.000 F2000.000
G1 X179.415 Y42.454 Z8.000 F2000.000
G1 X179.415 Y41.000 Z8.000 F2000.000
G3 X179.557 Y40.354 Z8.000 I1.485 J-0.011 K0.000 F2000.000
G1 X167.585 Y28.382 Z8.000 F2000.000
G1 X167.585 Y26.141 Z8.000 F2000.000
G1 X180.874 Y39.429 Z8.000 F2000.000
G1 X181.000 Y39.415 Z8.000 F2000.000
G1 X183.101 Y39.415 Z8.000 F2000.000
G1 X167.585 Y23.899 Z8.000 F2000.000
G1 X167.585 Y21.658 Z8.000 F2000.000
G1 X185.342 Y39.415 Z8.000 F2000.000
G1 X187.584 Y39.415 Z8.000 F2000.000
G1 X167.585 Y19.416 Z8.000 F2000.000
G1 X167.585 Y17.175 Z8.000 F2000.000
G1 X189.825 Y39.415 Z8.000 F2000.000
G1 X192.067 Y39.415 Z8.000 F2000.000
G1 X167.585 Y14.933 Z8.000 F2000.000
G1 X167.585 Y12.692 Z8.000 F2000.000
G1 X179.415 Y24.522 Z8.000 F2000.000
G1 X179.415 Y26.000 Z8.000 F2000.000
G2 X181.000 Y27.585 Z8.000 I1.585 J0.000 K0.000 F2000.000
G1 X182.478 Y27.585 Z8.000 F2000.000
G1 X194.308 Y39.415 Z8.000 F2000.000
G1 X196.550 Y39.415 Z8.000 F2000.000
G1 X184.720 Y27.585 Z8.000 F2000.000
G1 X186.962 Y27.585 Z8.000 F2000.000
G1 X198.792 Y39.415 Z8.000 F2000.000
G1 X201.033 Y39.415 Z8.000 F2000.000
G1 X189.203 Y27.585 Z8.000 F2000.000
G1 X191.445 Y27.585 Z8.000 F2000.000
G1 X203.275 Y39.415 Z8.000 F2000.000
G1 X205.516 Y39.415 Z8.000 F2000.000
G1 X193.686 Y27.585 Z8.000 F2000.000
G1 X195.928 Y27.585 Z8.000 F2000.000
G1 X207.758 Y39.415 Z8.000 F2000.000
G1 X209.999 Y39.415 Z8.000 F2000.000
G1 X198.169 Y27.585 Z8.000 F2000.000
G1 X200.411 Y27.585 Z8.000 F2000.000
G1 X212.241 Y39.415 Z8.000 F2000.000
G1 X214.482 Y39.415 Z8.000 F2000.000
G1 X202.652 Y27.585 Z8.000 F2000.000
G1 X204.894 Y27.585 Z8.000 F2000.000
G1 X216.724 Y39.415 Z8.000 F2000.000
G1 X218.965 Y39.415 Z8.000 F2000.000
G1 X207.135 Y27.585 Z8.000 F2000.000
G1 X209.377 Y27.585 Z8.000 F2000.000
G1 X221.207 Y39.415 Z8.000 F2000.000
G1 X223.448 Y39.415 Z8.000 F2000.000
G1 X211.618 Y27.585 Z8.000 F2000.000
G1 X213.860 Y27.585 Z8.000 F2000.000
G1 X225.690 Y39.415 Z8.000 F2000.000
G1 X227.931 Y39.415 Z8.000 F2000.000
G1 X216.101 Y27.585 Z8.000 F2000.000
G1 X218.343 Y27.585 Z8.000 F2000.000
G1 X230.173 Y39.415 Z8.000 F2000.000
G1 X230.173 Y39.415 Z8.000 F2000.000
G1 X231.000 Y39.415 Z8.000 F2000.000
G3 X232.585 Y41.000 Z8.000 I-0.000 J1.585 K0.000 F2000.000
G1 X232.585 Y57.000 Z8.000 F2000.000
G3 X231.000 Y58.585 Z8.000 I-1.585 J-0.000 K0.000 F2000.000
G1 X181.000 Y58.585 Z8.000 F2000.000
G3 X179.415 Y57.000 Z8.000 I-0.000 J-1.585 K0.000 F2000.000
G1 X179.415 Y41.000 Z8.000 F2000.000
G3 X181.000 Y39.415 Z8.000 I1.585 J0.000 K0.000 F2000.000
G1 X230.173 Y39.415 Z8.000 F2000.000
G0 Z14.300
G0 X167.585 Y12.692 Z14.300
G0 X167.585 Y12.692 Z12.300
G1 X167.585 Y12.692 Z8.000 F2000.000
G1 X179.415 Y24.522 Z8.000 F2000.000
G1 X179.415 Y22.280 Z8.000 F2000.000
G1 X167.585 Y10.450 Z8.000 F2000.000
G0 Z14.300
G0 X58.585 Y130.086 Z14.300
G0 X58.585 Y130.086 Z12.300
G1 X58.585 Y130.086 Z8.000 F2000.000
G1 X65.415 Y136.916 Z8.000 F2000.000
G1 X65.415 Y139.157 Z8.000 F2000.000
G1 X58.585 Y132.327 Z8.000 F2000.000
G1 X58.585 Y134.569 Z8.000 F2000.000
G1 X65.415 Y141.399 Z8.000 F2000.000
G1 X65.415 Y143.641 Z8.000 F2000.000
G1 X58.585 Y136.811 Z8.000 F2000.000
G1 X58.585 Y139.052 Z8.000 F2000.000
G1 X65.415 Y145.882 Z8.000 F2000.000
G1 X65.415 Y148.124 Z8.000 F2000.000
G1 X58.585 Y141.294 Z8.000 F2000.000
G0 Z14.300
G0 Z14.300
(Finish operation: Pocket_Shape)
(Begin postamble)
M5
G17 G90
M2
