(Exported by FreeCAD)
(Post Processor: grbl_post)
(Output Time:2024-02-11 15:15:38.519179)
(Begin preamble)
G17 G90
G21
(Begin operation: Fixture)
(Path: Fixture)
G54
(Finish operation: Fixture)
(Begin operation: 0.8mm-endmill002)
(Path: 0.8mm-endmill002)
(0.8mm-endmill002)
(Begin toolchange)
( M6 T3 )
M3 S10000
(Finish operation: 0.8mm-endmill002)
(Begin operation: Pocket_Shape001)
(Path: Pocket_Shape001)
(Pocket_Shape001)
G0 Z14.300
G0 X0.000 Y0.000
G0 X30.988 Y32.889
G0 X30.988 Y32.889 Z12.300
G1 X30.988 Y32.889 Z8.600 F1000.000
G1 X31.278 Y32.889 Z8.600 F1000.000
G3 X30.166 Y34.599 Z8.600 I-5.449 J-2.328 K0.000 F1000.000
G2 X30.471 Y35.257 Z8.600 I0.305 J0.259 K0.000 F1000.000
G1 X37.600 Y35.257 Z8.600 F1000.000
G1 X37.600 Y35.638 Z8.600 F1000.000
G1 X28.744 Y35.638 Z8.600 F1000.000
G1 X28.744 Y35.498 Z8.600 F1000.000
G2 X30.988 Y32.889 Z8.600 I-3.180 J-5.006 K0.000 F1000.000
G1 X30.988 Y32.889 Z8.200 F1000.000
G1 X31.278 Y32.889 Z8.200 F1000.000
G3 X30.166 Y34.599 Z8.200 I-5.449 J-2.328 K0.000 F1000.000
G2 X30.471 Y35.257 Z8.200 I0.305 J0.259 K0.000 F1000.000
G1 X37.600 Y35.257 Z8.200 F1000.000
G1 X37.600 Y35.638 Z8.200 F1000.000
G1 X28.744 Y35.638 Z8.200 F1000.000
G1 X28.744 Y35.498 Z8.200 F1000.000
G2 X30.988 Y32.889 Z8.200 I-3.180 J-5.006 K0.000 F1000.000
G0 Z14.300
G0 X29.773 Y35.235 Z14.300
G0 X29.773 Y35.235 Z12.300
G1 X29.773 Y35.235 Z8.600 F1000.000
G1 X29.774 Y35.238 Z8.600 F1000.000
G1 X29.770 Y35.238 Z8.600 F1000.000
G2 X29.773 Y35.235 Z8.600 I-0.015 J-0.019 K0.000 F1000.000
G1 X29.773 Y35.235 Z8.200 F1000.000
G1 X29.774 Y35.238 Z8.200 F1000.000
G1 X29.770 Y35.238 Z8.200 F1000.000
G2 X29.773 Y35.235 Z8.200 I-0.015 J-0.019 K0.000 F1000.000
G0 Z14.300
G0 Z14.300
G0 X29.773 Y35.235
G0 X58.930 Y35.308
G0 X58.930 Y35.308 Z12.300
G1 X58.930 Y35.308 Z8.600 F1000.000
G3 X59.376 Y33.657 Z8.600 I3.309 J0.008 K0.000 F1000.000
G3 X60.967 Y32.640 Z8.600 I1.898 J1.216 K0.000 F1000.000
G1 X61.011 Y33.033 Z8.600 F1000.000
G2 X59.122 Y34.894 Z8.600 I0.199 J2.091 K0.000 F1000.000
G2 X59.947 Y37.088 Z8.600 I2.245 J0.408 K0.000 F1000.000
G2 X61.846 Y37.392 Z8.600 I1.249 J-1.723 K0.000 F1000.000
G2 X63.148 Y36.628 Z8.600 I-1.066 J-3.310 K0.000 F1000.000
G2 X64.773 Y34.900 Z8.600 I-9.530 J-10.589 K0.000 F1000.000
G3 X66.401 Y33.141 Z8.600 I9.794 J7.437 K0.000 F1000.000
G3 X67.800 Y32.397 Z8.600 I2.079 J2.222 K0.000 F1000.000
G1 X67.800 Y37.923 Z8.600 F1000.000
G1 X67.452 Y37.923 Z8.600 F1000.000
G1 X67.452 Y33.593 Z8.600 F1000.000
G2 X66.831 Y33.260 Z8.600 I-0.400 J0.000 K0.000 F1000.000
G2 X65.314 Y34.724 Z8.600 I3.810 J5.467 K0.000 F1000.000
G3 X63.237 Y37.002 Z8.600 I-12.666 J-9.463 K0.000 F1000.000
G3 X61.595 Y37.862 Z8.600 I-2.359 J-2.504 K0.000 F1000.000
G3 X59.033 Y36.134 Z8.600 I-0.392 J-2.182 K0.000 F1000.000
G3 X58.930 Y35.308 Z8.600 I3.207 J-0.818 K0.000 F1000.000
G1 X58.930 Y35.308 Z8.200 F1000.000
G3 X59.376 Y33.657 Z8.200 I3.309 J0.008 K0.000 F1000.000
G3 X60.967 Y32.640 Z8.200 I1.898 J1.216 K0.000 F1000.000
G1 X61.011 Y33.033 Z8.200 F1000.000
G2 X59.122 Y34.894 Z8.200 I0.199 J2.091 K0.000 F1000.000
G2 X59.947 Y37.088 Z8.200 I2.245 J0.408 K0.000 F1000.000
G2 X61.846 Y37.392 Z8.200 I1.249 J-1.723 K0.000 F1000.000
G2 X63.148 Y36.628 Z8.200 I-1.066 J-3.310 K0.000 F1000.000
G2 X64.773 Y34.900 Z8.200 I-9.530 J-10.589 K0.000 F1000.000
G3 X66.401 Y33.141 Z8.200 I9.794 J7.437 K0.000 F1000.000
G3 X67.800 Y32.397 Z8.200 I2.079 J2.222 K0.000 F1000.000
G1 X67.800 Y37.923 Z8.200 F1000.000
G1 X67.452 Y37.923 Z8.200 F1000.000
G1 X67.452 Y33.593 Z8.200 F1000.000
G2 X66.831 Y33.260 Z8.200 I-0.400 J0.000 K0.000 F1000.000
G2 X65.314 Y34.724 Z8.200 I3.810 J5.467 K0.000 F1000.000
G3 X63.237 Y37.002 Z8.200 I-12.666 J-9.463 K0.000 F1000.000
G3 X61.595 Y37.862 Z8.200 I-2.359 J-2.504 K0.000 F1000.000
G3 X59.033 Y36.134 Z8.200 I-0.392 J-2.182 K0.000 F1000.000
G3 X58.930 Y35.308 Z8.200 I3.207 J-0.818 K0.000 F1000.000
G0 Z14.300
G0 X61.044 Y37.679 Z14.300
G0 X61.044 Y37.679 Z12.300
G1 X61.044 Y37.679 Z8.600 F1000.000
G2 X61.653 Y37.641 Z8.600 I0.191 J-1.862 K0.000 F1000.000
G3 X61.044 Y37.679 Z8.600 I-0.393 J-1.407 K0.000 F1000.000
G1 X61.044 Y37.679 Z8.200 F1000.000
G2 X61.653 Y37.641 Z8.200 I0.191 J-1.862 K0.000 F1000.000
G3 X61.044 Y37.679 Z8.200 I-0.393 J-1.407 K0.000 F1000.000
G0 Z14.300
G0 X66.866 Y33.035 Z14.300
G0 X66.866 Y33.035 Z12.300
G1 X66.866 Y33.035 Z8.600 F1000.000
G3 X67.600 Y32.661 Z8.600 I1.495 J2.025 K0.000 F1000.000
G1 X67.600 Y33.360 Z8.600 F1000.000
G2 X66.866 Y33.035 Z8.600 I-0.527 J0.200 K0.000 F1000.000
G1 X66.866 Y33.035 Z8.200 F1000.000
G3 X67.600 Y32.661 Z8.200 I1.495 J2.025 K0.000 F1000.000
G1 X67.600 Y33.360 Z8.200 F1000.000
G2 X66.866 Y33.035 Z8.200 I-0.527 J0.200 K0.000 F1000.000
G0 Z14.300
G0 Z14.300
G0 X66.866 Y33.035
G0 X105.542 Y50.457
G0 X105.542 Y50.457 Z12.300
G1 X105.542 Y50.457 Z8.600 F1000.000
G1 X111.510 Y46.273 Z8.600 F1000.000
G1 X112.075 Y46.273 Z8.600 F1000.000
G1 X112.075 Y50.039 Z8.600 F1000.000
G2 X112.475 Y50.439 Z8.600 I0.400 J-0.000 K0.000 F1000.000
G1 X114.370 Y50.439 Z8.600 F1000.000
G1 X114.370 Y50.820 Z8.600 F1000.000
G1 X112.475 Y50.820 Z8.600 F1000.000
G2 X112.075 Y51.220 Z8.600 I0.000 J0.400 K0.000 F1000.000
G1 X112.075 Y52.118 Z8.600 F1000.000
G1 X111.783 Y52.118 Z8.600 F1000.000
G1 X111.783 Y51.220 Z8.600 F1000.000
G2 X111.383 Y50.820 Z8.600 I-0.400 J0.000 K0.000 F1000.000
G1 X105.542 Y50.820 Z8.600 F1000.000
G1 X105.542 Y50.457 Z8.600 F1000.000
G1 X106.292 Y50.420 Z8.600 F1000.000
G1 X106.332 Y50.391 Z8.600 F1000.000
G1 X106.347 Y50.420 Z8.600 F1000.000
G1 X106.292 Y50.420 Z8.600 F1000.000
G1 X106.681 Y50.216 Z8.600 F1000.000
G3 X106.813 Y49.683 Z8.600 I0.368 J-0.192 K0.000 F1000.000
G1 X111.157 Y46.698 Z8.600 F1000.000
G3 X111.783 Y47.028 Z8.600 I0.227 J0.330 K0.000 F1000.000
G1 X111.783 Y50.039 Z8.600 F1000.000
G3 X111.383 Y50.439 Z8.600 I-0.400 J-0.000 K0.000 F1000.000
G1 X107.040 Y50.439 Z8.600 F1000.000
G3 X106.681 Y50.216 Z8.600 I0.010 J-0.415 K0.000 F1000.000
G1 X106.681 Y50.216 Z8.200 F1000.000
G3 X106.813 Y49.683 Z8.200 I0.368 J-0.192 K0.000 F1000.000
G1 X111.157 Y46.698 Z8.200 F1000.000
G3 X111.783 Y47.028 Z8.200 I0.227 J0.330 K0.000 F1000.000
G1 X111.783 Y50.039 Z8.200 F1000.000
G3 X111.383 Y50.439 Z8.200 I-0.400 J-0.000 K0.000 F1000.000
G1 X107.040 Y50.439 Z8.200 F1000.000
G3 X106.681 Y50.216 Z8.200 I0.010 J-0.415 K0.000 F1000.000
G1 X106.332 Y50.391 Z8.200 F1000.000
G1 X106.347 Y50.420 Z8.200 F1000.000
G1 X106.292 Y50.420 Z8.200 F1000.000
G1 X106.332 Y50.391 Z8.200 F1000.000
G1 X106.103 Y50.064 Z8.200 F1000.000
G1 X111.510 Y46.273 Z8.200 F1000.000
G1 X112.075 Y46.273 Z8.200 F1000.000
G1 X112.075 Y50.039 Z8.200 F1000.000
G2 X112.475 Y50.439 Z8.200 I0.400 J-0.000 K0.000 F1000.000
G1 X114.370 Y50.439 Z8.200 F1000.000
G1 X114.370 Y50.820 Z8.200 F1000.000
G1 X112.475 Y50.820 Z8.200 F1000.000
G2 X112.075 Y51.220 Z8.200 I0.000 J0.400 K0.000 F1000.000
G1 X112.075 Y52.118 Z8.200 F1000.000
G1 X111.783 Y52.118 Z8.200 F1000.000
G1 X111.783 Y51.220 Z8.200 F1000.000
G2 X111.383 Y50.820 Z8.200 I-0.400 J0.000 K0.000 F1000.000
G1 X105.542 Y50.820 Z8.200 F1000.000
G1 X105.542 Y50.457 Z8.200 F1000.000
G1 X106.103 Y50.064 Z8.200 F1000.000
G0 Z14.300
G0 X111.911 Y50.627 Z14.300
G0 X111.911 Y50.627 Z12.300
G1 X111.911 Y50.627 Z8.600 F1000.000
G3 X111.929 Y50.610 Z8.600 I0.019 J0.002 K0.000 F1000.000
G3 X111.929 Y50.648 Z8.600 I0.000 J0.019 K0.000 F1000.000
G3 X111.911 Y50.627 Z8.600 I0.000 J-0.019 K0.000 F1000.000
G1 X111.911 Y50.627 Z8.200 F1000.000
G3 X111.929 Y50.610 Z8.200 I0.019 J0.002 K0.000 F1000.000
G3 X111.929 Y50.648 Z8.200 I0.000 J0.019 K0.000 F1000.000
G3 X111.911 Y50.627 Z8.200 I0.000 J-0.019 K0.000 F1000.000
G0 Z14.300
G0 Z14.300
G0 X111.911 Y50.627
G0 X111.509 Y21.499
G0 X111.509 Y21.499 Z12.300
G1 X111.509 Y21.499 Z8.600 F1000.000
G3 X109.811 Y20.808 Z8.600 I-0.032 J-2.352 K0.000 F1000.000
G3 X109.448 Y19.985 Z8.600 I1.439 J-1.126 K0.000 F1000.000
G2 X108.679 Y19.910 Z8.600 I-0.400 J0.125 K0.000 F1000.000
G3 X106.830 Y20.993 Z8.600 I-1.556 J-0.536 K0.000 F1000.000
G3 X105.024 Y19.100 Z8.600 I0.381 J-2.172 K0.000 F1000.000
G3 X105.583 Y16.903 Z8.600 I2.577 J-0.514 K0.000 F1000.000
G3 X106.766 Y16.207 Z8.600 I1.758 J1.636 K0.000 F1000.000
G1 X106.836 Y16.592 Z8.600 F1000.000
G2 X105.167 Y18.992 Z8.600 I0.341 J2.018 K0.000 F1000.000
G2 X106.574 Y20.550 Z8.600 I1.854 J-0.260 K0.000 F1000.000
G2 X108.923 Y19.216 Z8.600 I0.492 J-1.868 K0.000 F1000.000
G2 X109.049 Y18.403 Z8.600 I-2.074 J-0.738 K0.000 F1000.000
G1 X109.222 Y18.380 Z8.600 F1000.000
G2 X109.864 Y20.411 Z8.600 I2.251 J0.405 K0.000 F1000.000
G2 X113.516 Y17.442 Z8.600 I1.609 J-1.751 K0.000 F1000.000
G2 X111.998 Y16.471 Z8.600 I-2.030 J1.502 K0.000 F1000.000
G1 X112.055 Y16.062 Z8.600 F1000.000
G3 X113.956 Y18.052 Z8.600 I-0.486 J2.367 K0.000 F1000.000
G3 X113.035 Y20.909 Z8.600 I-2.949 J0.627 K0.000 F1000.000
G3 X111.509 Y21.499 Z8.600 I-1.558 J-1.762 K0.000 F1000.000
G1 X111.505 Y21.293 Z8.600 F1000.000
G3 X110.321 Y20.973 Z8.600 I-0.043 J-2.189 K0.000 F1000.000
G2 X112.594 Y20.979 Z8.600 I1.142 J-2.414 K0.000 F1000.000
G3 X111.505 Y21.293 Z8.600 I-1.132 J-1.875 K0.000 F1000.000
G1 X111.505 Y21.293 Z8.200 F1000.000
G3 X110.321 Y20.973 Z8.200 I-0.043 J-2.189 K0.000 F1000.000
G2 X112.594 Y20.979 Z8.200 I1.142 J-2.414 K0.000 F1000.000
G3 X111.505 Y21.293 Z8.200 I-1.132 J-1.875 K0.000 F1000.000
G1 X111.508 Y21.499 Z8.200 F1000.000
G3 X109.811 Y20.808 Z8.200 I-0.031 J-2.352 K0.000 F1000.000
G3 X109.448 Y19.985 Z8.200 I1.439 J-1.126 K0.000 F1000.000
G2 X108.679 Y19.910 Z8.200 I-0.400 J0.125 K0.000 F1000.000
G3 X106.830 Y20.993 Z8.200 I-1.556 J-0.536 K0.000 F1000.000
G3 X105.024 Y19.100 Z8.200 I0.381 J-2.172 K0.000 F1000.000
G3 X105.583 Y16.903 Z8.200 I2.577 J-0.514 K0.000 F1000.000
G3 X106.766 Y16.207 Z8.200 I1.758 J1.636 K0.000 F1000.000
G1 X106.836 Y16.592 Z8.200 F1000.000
G2 X105.167 Y18.992 Z8.200 I0.341 J2.018 K0.000 F1000.000
G2 X106.574 Y20.550 Z8.200 I1.854 J-0.260 K0.000 F1000.000
G2 X108.923 Y19.216 Z8.200 I0.492 J-1.868 K0.000 F1000.000
G2 X109.049 Y18.403 Z8.200 I-2.074 J-0.738 K0.000 F1000.000
G1 X109.222 Y18.380 Z8.200 F1000.000
G2 X109.864 Y20.411 Z8.200 I2.251 J0.405 K0.000 F1000.000
G2 X113.516 Y17.442 Z8.200 I1.609 J-1.751 K0.000 F1000.000
G2 X111.998 Y16.471 Z8.200 I-2.030 J1.502 K0.000 F1000.000
G1 X112.055 Y16.062 Z8.200 F1000.000
G3 X113.956 Y18.052 Z8.200 I-0.486 J2.367 K0.000 F1000.000
G3 X113.035 Y20.909 Z8.200 I-2.949 J0.627 K0.000 F1000.000
G3 X111.508 Y21.499 Z8.200 I-1.558 J-1.762 K0.000 F1000.000
G0 Z14.300
G0 X110.255 Y20.937 Z14.300
G0 X110.255 Y20.937 Z12.300
G1 X110.255 Y20.937 Z8.600 F1000.000
G3 X110.241 Y20.928 Z8.600 I0.027 J-0.060 K0.000 F1000.000
G1 X110.255 Y20.937 Z8.600 F1000.000
G1 X110.255 Y20.937 Z8.200 F1000.000
G3 X110.241 Y20.928 Z8.200 I0.027 J-0.060 K0.000 F1000.000
G1 X110.255 Y20.937 Z8.200 F1000.000
G0 Z14.300
G0 X109.098 Y19.495 Z14.300
G0 X109.098 Y19.495 Z12.300
G1 X109.098 Y19.495 Z8.600 F1000.000
G2 X109.018 Y19.493 Z8.600 I-0.043 J0.155 K0.000 F1000.000
G1 X109.068 Y19.380 Z8.600 F1000.000
G1 X109.098 Y19.495 Z8.600 F1000.000
G1 X109.098 Y19.495 Z8.200 F1000.000
G2 X109.018 Y19.493 Z8.200 I-0.043 J0.155 K0.000 F1000.000
G1 X109.068 Y19.380 Z8.200 F1000.000
G1 X109.098 Y19.495 Z8.200 F1000.000
G0 Z14.300
G0 X107.462 Y20.765 Z14.300
G0 X107.462 Y20.765 Z12.300
G1 X107.462 Y20.765 Z8.600 F1000.000
G3 X106.724 Y20.773 Z8.600 I-0.388 J-1.742 K0.000 F1000.000
G2 X107.462 Y20.765 Z8.600 I0.350 J-1.770 K0.000 F1000.000
G1 X107.462 Y20.765 Z8.200 F1000.000
G3 X106.724 Y20.773 Z8.200 I-0.388 J-1.742 K0.000 F1000.000
G2 X107.462 Y20.765 Z8.200 I0.350 J-1.770 K0.000 F1000.000
G0 Z14.300
G0 X112.221 Y16.321 Z14.300
G0 X112.221 Y16.321 Z12.300
G1 X112.221 Y16.321 Z8.600 F1000.000
G1 X112.222 Y16.317 Z8.600 F1000.000
G3 X112.593 Y16.470 Z8.600 I-0.262 J1.164 K0.000 F1000.000
G2 X112.221 Y16.321 Z8.600 I-0.703 J1.219 K0.000 F1000.000
G1 X112.221 Y16.321 Z8.200 F1000.000
G1 X112.222 Y16.317 Z8.200 F1000.000
G3 X112.593 Y16.470 Z8.200 I-0.262 J1.164 K0.000 F1000.000
G2 X112.221 Y16.321 Z8.200 I-0.703 J1.219 K0.000 F1000.000
G0 Z14.300
G0 Z14.300
G0 X112.221 Y16.321
G0 X150.422 Y32.637
G0 X150.422 Y32.637 Z12.300
G1 X150.422 Y32.637 Z8.600 F1000.000
G1 X154.666 Y31.840 Z8.600 F1000.000
G1 X154.722 Y32.307 Z8.600 F1000.000
G2 X153.821 Y34.259 Z8.600 I1.410 J1.834 K0.000 F1000.000
G2 X155.870 Y36.629 Z8.600 I2.329 J0.057 K0.000 F1000.000
G2 X157.920 Y36.283 Z8.600 I0.523 J-3.151 K0.000 F1000.000
G2 X157.506 Y32.129 Z8.600 I-1.036 J-1.995 K0.000 F1000.000
G1 X157.331 Y32.087 Z8.600 F1000.000
G1 X157.365 Y31.633 Z8.600 F1000.000
G3 X159.211 Y33.572 Z8.600 I-0.481 J2.306 K0.000 F1000.000
G3 X158.933 Y35.680 Z8.600 I-3.018 J0.675 K0.000 F1000.000
G3 X156.241 Y37.133 Z8.600 I-2.590 J-1.580 K0.000 F1000.000
G3 X154.267 Y36.362 Z8.600 I-0.124 J-2.597 K0.000 F1000.000
G3 X154.081 Y32.930 Z8.600 I1.887 J-1.823 K0.000 F1000.000
G2 X153.658 Y32.333 Z8.600 I-0.344 J-0.204 K0.000 F1000.000
G1 X151.090 Y32.851 Z8.600 F1000.000
G2 X150.769 Y33.244 Z8.600 I0.079 J0.392 K0.000 F1000.000
G1 X150.769 Y36.674 Z8.600 F1000.000
G1 X150.422 Y36.674 Z8.600 F1000.000
G1 X150.422 Y32.637 Z8.600 F1000.000
G1 X150.622 Y32.803 Z8.600 F1000.000
G1 X150.817 Y32.767 Z8.600 F1000.000
G2 X150.622 Y33.013 Z8.600 I0.242 J0.391 K0.000 F1000.000
G1 X150.622 Y32.803 Z8.600 F1000.000
G1 X150.622 Y32.803 Z8.200 F1000.000
G1 X150.817 Y32.767 Z8.200 F1000.000
G2 X150.622 Y33.013 Z8.200 I0.242 J0.391 K0.000 F1000.000
G1 X150.622 Y32.803 Z8.200 F1000.000
G1 X150.585 Y32.607 Z8.200 F1000.000
G1 X154.666 Y31.840 Z8.200 F1000.000
G1 X154.722 Y32.307 Z8.200 F1000.000
G2 X153.821 Y34.259 Z8.200 I1.410 J1.834 K0.000 F1000.000
G2 X155.870 Y36.629 Z8.200 I2.329 J0.057 K0.000 F1000.000
G2 X157.920 Y36.283 Z8.200 I0.523 J-3.151 K0.000 F1000.000
G2 X157.506 Y32.129 Z8.200 I-1.036 J-1.995 K0.000 F1000.000
G1 X157.331 Y32.087 Z8.200 F1000.000
G1 X157.365 Y31.633 Z8.200 F1000.000
G3 X159.211 Y33.572 Z8.200 I-0.481 J2.306 K0.000 F1000.000
G3 X158.933 Y35.680 Z8.200 I-3.018 J0.675 K0.000 F1000.000
G3 X156.241 Y37.133 Z8.200 I-2.590 J-1.580 K0.000 F1000.000
G3 X154.267 Y36.362 Z8.200 I-0.124 J-2.597 K0.000 F1000.000
G3 X154.081 Y32.930 Z8.200 I1.887 J-1.823 K0.000 F1000.000
G2 X153.658 Y32.333 Z8.200 I-0.344 J-0.204 K0.000 F1000.000
G1 X151.090 Y32.851 Z8.200 F1000.000
G2 X150.769 Y33.244 Z8.200 I0.079 J0.392 K0.000 F1000.000
G1 X150.769 Y36.674 Z8.200 F1000.000
G1 X150.422 Y36.674 Z8.200 F1000.000
G1 X150.422 Y32.637 Z8.200 F1000.000
G1 X150.585 Y32.607 Z8.200 F1000.000
G0 Z14.300
G0 X153.967 Y32.175 Z14.300
G0 X153.967 Y32.175 Z12.300
G1 X153.967 Y32.175 Z8.600 F1000.000
G1 X154.493 Y32.076 Z8.600 F1000.000
G1 X154.510 Y32.220 Z8.600 F1000.000
G2 X154.269 Y32.457 Z8.600 I0.671 J0.923 K0.000 F1000.000
G2 X153.967 Y32.175 Z8.600 I-0.496 J0.228 K0.000 F1000.000
G1 X153.967 Y32.175 Z8.200 F1000.000
G1 X154.493 Y32.076 Z8.200 F1000.000
G1 X154.510 Y32.220 Z8.200 F1000.000
G2 X154.269 Y32.457 Z8.200 I0.671 J0.923 K0.000 F1000.000
G2 X153.967 Y32.175 Z8.200 I-0.496 J0.228 K0.000 F1000.000
G0 Z14.300
G0 X153.982 Y35.616 Z14.300
G0 X153.982 Y35.616 Z12.300
G1 X153.982 Y35.616 Z8.600 F1000.000
G2 X155.855 Y36.828 Z8.600 I2.178 J-1.311 K0.000 F1000.000
G2 X157.444 Y36.702 Z8.600 I0.541 J-3.243 K0.000 F1000.000
G3 X154.696 Y36.478 Z8.600 I-1.162 J-2.712 K0.000 F1000.000
G3 X153.982 Y35.616 Z8.600 I1.444 J-1.923 K0.000 F1000.000
G1 X153.982 Y35.616 Z8.200 F1000.000
G2 X155.855 Y36.828 Z8.200 I2.178 J-1.311 K0.000 F1000.000
G2 X157.444 Y36.702 Z8.200 I0.541 J-3.243 K0.000 F1000.000
G3 X154.696 Y36.478 Z8.200 I-1.162 J-2.712 K0.000 F1000.000
G3 X153.982 Y35.616 Z8.200 I1.444 J-1.923 K0.000 F1000.000
G0 Z14.300
G0 X157.543 Y31.932 Z14.300
G0 X157.543 Y31.932 Z12.300
G1 X157.543 Y31.932 Z8.600 F1000.000
G1 X157.547 Y31.882 Z8.600 F1000.000
G3 X158.211 Y32.233 Z8.600 I-0.498 J1.744 K0.000 F1000.000
G2 X157.543 Y31.932 Z8.600 I-1.107 J1.565 K0.000 F1000.000
G1 X157.543 Y31.932 Z8.200 F1000.000
G1 X157.547 Y31.882 Z8.200 F1000.000
G3 X158.211 Y32.233 Z8.200 I-0.498 J1.744 K0.000 F1000.000
G2 X157.543 Y31.932 Z8.200 I-1.107 J1.565 K0.000 F1000.000
G0 Z14.300
G0 Z14.300
G0 X157.543 Y31.932
G0 X199.912 Y46.713
G0 X199.912 Y46.713 Z12.300
G1 X199.912 Y46.713 Z8.600 F1000.000
G1 X200.259 Y46.713 Z8.600 F1000.000
G1 X200.259 Y51.016 Z8.600 F1000.000
G2 X200.907 Y51.330 Z8.600 I0.400 J-0.000 K0.000 F1000.000
G3 X208.600 Y48.085 Z8.600 I9.066 J10.751 K0.000 F1000.000
G1 X208.600 Y48.503 Z8.600 F1000.000
G2 X203.045 Y50.242 Z8.600 I1.514 J14.580 K0.000 F1000.000
G2 X200.285 Y52.138 Z8.600 I6.038 J11.744 K0.000 F1000.000
G1 X199.912 Y52.138 Z8.600 F1000.000
G1 X199.912 Y46.713 Z8.600 F1000.000
G1 X199.912 Y46.713 Z8.200 F1000.000
G1 X200.259 Y46.713 Z8.200 F1000.000
G1 X200.259 Y51.016 Z8.200 F1000.000
G2 X200.907 Y51.330 Z8.200 I0.400 J-0.000 K0.000 F1000.000
G3 X208.600 Y48.085 Z8.200 I9.066 J10.751 K0.000 F1000.000
G1 X208.600 Y48.503 Z8.200 F1000.000
G2 X203.045 Y50.242 Z8.200 I1.514 J14.580 K0.000 F1000.000
G2 X200.285 Y52.138 Z8.200 I6.038 J11.744 K0.000 F1000.000
G1 X199.912 Y52.138 Z8.200 F1000.000
G1 X199.912 Y46.713 Z8.200 F1000.000
G0 Z14.300
G0 X200.112 Y51.250 Z14.300
G0 X200.112 Y51.250 Z12.300
G1 X200.112 Y51.250 Z8.600 F1000.000
G2 X200.613 Y51.607 Z8.600 I0.521 J-0.201 K0.000 F1000.000
G1 X200.213 Y51.938 Z8.600 F1000.000
G1 X200.112 Y51.938 Z8.600 F1000.000
G1 X200.112 Y51.250 Z8.600 F1000.000
G1 X200.112 Y51.250 Z8.200 F1000.000
G2 X200.613 Y51.607 Z8.200 I0.521 J-0.201 K0.000 F1000.000
G1 X200.213 Y51.938 Z8.200 F1000.000
G1 X200.112 Y51.938 Z8.200 F1000.000
G1 X200.112 Y51.250 Z8.200 F1000.000
G0 Z14.300
G0 X205.806 Y48.864 Z14.300
G0 X205.806 Y48.864 Z12.300
G1 X205.806 Y48.864 Z8.600 F1000.000
G3 X208.400 Y48.299 Z8.600 I3.427 J9.490 K0.000 F1000.000
G1 X208.400 Y48.322 Z8.600 F1000.000
G2 X205.806 Y48.864 Z8.600 I1.487 J13.582 K0.000 F1000.000
G1 X205.806 Y48.864 Z8.200 F1000.000
G3 X208.400 Y48.299 Z8.200 I3.427 J9.490 K0.000 F1000.000
G1 X208.400 Y48.322 Z8.200 F1000.000
G2 X205.806 Y48.864 Z8.200 I1.487 J13.582 K0.000 F1000.000
G0 Z14.300
G0 Z14.300
G0 X205.806 Y48.864
G0 X202.278 Y73.889
G0 X202.278 Y73.889 Z12.300
G1 X202.278 Y73.889 Z8.600 F1000.000
G3 X201.166 Y75.599 Z8.600 I-5.449 J-2.328 K0.000 F1000.000
G2 X201.471 Y76.257 Z8.600 I0.305 J0.259 K0.000 F1000.000
G1 X208.600 Y76.257 Z8.600 F1000.000
G1 X208.600 Y76.638 Z8.600 F1000.000
G1 X199.744 Y76.638 Z8.600 F1000.000
G1 X199.744 Y76.498 Z8.600 F1000.000
G2 X201.988 Y73.889 Z8.600 I-3.180 J-5.006 K0.000 F1000.000
G1 X202.278 Y73.889 Z8.600 F1000.000
G1 X202.278 Y73.889 Z8.200 F1000.000
G3 X201.166 Y75.599 Z8.200 I-5.449 J-2.328 K0.000 F1000.000
G2 X201.471 Y76.257 Z8.200 I0.305 J0.259 K0.000 F1000.000
G1 X208.600 Y76.257 Z8.200 F1000.000
G1 X208.600 Y76.638 Z8.200 F1000.000
G1 X199.744 Y76.638 Z8.200 F1000.000
G1 X199.744 Y76.498 Z8.200 F1000.000
G2 X201.988 Y73.889 Z8.200 I-3.180 J-5.006 K0.000 F1000.000
G1 X202.278 Y73.889 Z8.200 F1000.000
G0 Z14.300
G0 X200.773 Y76.235 Z14.300
G0 X200.773 Y76.235 Z12.300
G1 X200.773 Y76.235 Z8.600 F1000.000
G1 X200.774 Y76.238 Z8.600 F1000.000
G1 X200.770 Y76.238 Z8.600 F1000.000
G2 X200.773 Y76.235 Z8.600 I-0.015 J-0.019 K0.000 F1000.000
G1 X200.773 Y76.235 Z8.200 F1000.000
G1 X200.774 Y76.238 Z8.200 F1000.000
G1 X200.770 Y76.238 Z8.200 F1000.000
G2 X200.773 Y76.235 Z8.200 I-0.015 J-0.019 K0.000 F1000.000
G0 Z14.300
G0 Z14.300
G0 X200.773 Y76.235
G0 X201.526 Y80.680
G0 X201.526 Y80.680 Z12.300
G1 X201.526 Y80.680 Z8.600 F1000.000
G1 X201.596 Y81.064 Z8.600 F1000.000
G2 X199.927 Y83.465 Z8.600 I0.341 J2.018 K0.000 F1000.000
G2 X201.334 Y85.023 Z8.600 I1.854 J-0.260 K0.000 F1000.000
G2 X203.683 Y83.688 Z8.600 I0.492 J-1.868 K0.000 F1000.000
G2 X203.809 Y82.876 Z8.600 I-2.074 J-0.738 K0.000 F1000.000
G1 X203.982 Y82.853 Z8.600 F1000.000
G2 X204.624 Y84.883 Z8.600 I2.251 J0.405 K0.000 F1000.000
G2 X208.276 Y81.915 Z8.600 I1.609 J-1.751 K0.000 F1000.000
G2 X206.758 Y80.944 Z8.600 I-2.030 J1.502 K0.000 F1000.000
G1 X206.815 Y80.535 Z8.600 F1000.000
G3 X208.716 Y82.525 Z8.600 I-0.486 J2.367 K0.000 F1000.000
G3 X207.795 Y85.382 Z8.600 I-2.949 J0.627 K0.000 F1000.000
G3 X204.571 Y85.281 Z8.600 I-1.558 J-1.762 K0.000 F1000.000
G3 X204.208 Y84.458 Z8.600 I1.439 J-1.126 K0.000 F1000.000
G2 X203.439 Y84.382 Z8.600 I-0.400 J0.125 K0.000 F1000.000
G3 X201.590 Y85.466 Z8.600 I-1.556 J-0.536 K0.000 F1000.000
G3 X199.784 Y83.573 Z8.600 I0.381 J-2.172 K0.000 F1000.000
G3 X200.343 Y81.376 Z8.600 I2.577 J-0.514 K0.000 F1000.000
G3 X201.526 Y80.680 Z8.600 I1.758 J1.636 K0.000 F1000.000
G1 X201.526 Y80.680 Z8.200 F1000.000
G1 X201.596 Y81.064 Z8.200 F1000.000
G2 X199.927 Y83.465 Z8.200 I0.341 J2.018 K0.000 F1000.000
G2 X201.334 Y85.023 Z8.200 I1.854 J-0.260 K0.000 F1000.000
G2 X203.683 Y83.688 Z8.200 I0.492 J-1.868 K0.000 F1000.000
G2 X203.809 Y82.876 Z8.200 I-2.074 J-0.738 K0.000 F1000.000
G1 X203.982 Y82.853 Z8.200 F1000.000
G2 X204.624 Y84.883 Z8.200 I2.251 J0.405 K0.000 F1000.000
G2 X208.276 Y81.915 Z8.200 I1.609 J-1.751 K0.000 F1000.000
G2 X206.758 Y80.944 Z8.200 I-2.030 J1.502 K0.000 F1000.000
G1 X206.815 Y80.535 Z8.200 F1000.000
G3 X208.716 Y82.525 Z8.200 I-0.486 J2.367 K0.000 F1000.000
G3 X207.795 Y85.382 Z8.200 I-2.949 J0.627 K0.000 F1000.000
G3 X204.571 Y85.281 Z8.200 I-1.558 J-1.762 K0.000 F1000.000
G3 X204.208 Y84.458 Z8.200 I1.439 J-1.126 K0.000 F1000.000
G2 X203.439 Y84.382 Z8.200 I-0.400 J0.125 K0.000 F1000.000
G3 X201.590 Y85.466 Z8.200 I-1.556 J-0.536 K0.000 F1000.000
G3 X199.784 Y83.573 Z8.200 I0.381 J-2.172 K0.000 F1000.000
G3 X200.343 Y81.376 Z8.200 I2.577 J-0.514 K0.000 F1000.000
G3 X201.526 Y80.680 Z8.200 I1.758 J1.636 K0.000 F1000.000
G0 Z14.300
G0 X203.828 Y83.853 Z14.300
G0 X203.828 Y83.853 Z12.300
G1 X203.828 Y83.853 Z8.600 F1000.000
G1 X203.858 Y83.968 Z8.600 F1000.000
G2 X203.778 Y83.966 Z8.600 I-0.043 J0.155 K0.000 F1000.000
G1 X203.828 Y83.853 Z8.600 F1000.000
G1 X203.828 Y83.853 Z8.200 F1000.000
G1 X203.858 Y83.968 Z8.200 F1000.000
G2 X203.778 Y83.966 Z8.200 I-0.043 J0.155 K0.000 F1000.000
G1 X203.828 Y83.853 Z8.200 F1000.000
G0 Z14.300
G0 X205.001 Y85.401 Z14.300
G0 X205.001 Y85.401 Z12.300
G1 X205.001 Y85.401 Z8.600 F1000.000
G1 X205.015 Y85.410 Z8.600 F1000.000
G3 X205.001 Y85.401 Z8.600 I0.027 J-0.060 K0.000 F1000.000
G1 X205.081 Y85.446 Z8.600 F1000.000
G2 X207.354 Y85.452 Z8.600 I1.142 J-2.414 K0.000 F1000.000
G3 X205.081 Y85.446 Z8.600 I-1.132 J-1.875 K0.000 F1000.000
G1 X205.081 Y85.446 Z8.200 F1000.000
G2 X207.354 Y85.452 Z8.200 I1.142 J-2.414 K0.000 F1000.000
G3 X205.081 Y85.446 Z8.200 I-1.132 J-1.875 K0.000 F1000.000
G1 X205.015 Y85.410 Z8.200 F1000.000
G3 X205.001 Y85.401 Z8.200 I0.027 J-0.060 K0.000 F1000.000
G1 X205.015 Y85.410 Z8.200 F1000.000
G0 Z14.300
G0 X202.222 Y85.238 Z14.300
G0 X202.222 Y85.238 Z12.300
G1 X202.222 Y85.238 Z8.600 F1000.000
G3 X201.484 Y85.246 Z8.600 I-0.388 J-1.742 K0.000 F1000.000
G2 X202.222 Y85.238 Z8.600 I0.350 J-1.770 K0.000 F1000.000
G1 X202.222 Y85.238 Z8.200 F1000.000
G3 X201.484 Y85.246 Z8.200 I-0.388 J-1.742 K0.000 F1000.000
G2 X202.222 Y85.238 Z8.200 I0.350 J-1.770 K0.000 F1000.000
G0 Z14.300
G0 X206.981 Y80.794 Z14.300
G0 X206.981 Y80.794 Z12.300
G1 X206.981 Y80.794 Z8.600 F1000.000
G1 X206.982 Y80.790 Z8.600 F1000.000
G3 X207.353 Y80.943 Z8.600 I-0.262 J1.164 K0.000 F1000.000
G2 X206.981 Y80.794 Z8.600 I-0.703 J1.219 K0.000 F1000.000
G1 X206.981 Y80.794 Z8.200 F1000.000
G1 X206.982 Y80.790 Z8.200 F1000.000
G3 X207.353 Y80.943 Z8.200 I-0.262 J1.164 K0.000 F1000.000
G2 X206.981 Y80.794 Z8.200 I-0.703 J1.219 K0.000 F1000.000
G0 Z14.300
G0 Z14.300
G0 X206.981 Y80.794
G0 X202.278 Y104.889
G0 X202.278 Y104.889 Z12.300
G1 X202.278 Y104.889 Z8.600 F1000.000
G3 X201.166 Y106.599 Z8.600 I-5.449 J-2.328 K0.000 F1000.000
G2 X201.471 Y107.257 Z8.600 I0.305 J0.259 K0.000 F1000.000
G1 X208.600 Y107.257 Z8.600 F1000.000
G1 X208.600 Y107.638 Z8.600 F1000.000
G1 X199.744 Y107.638 Z8.600 F1000.000
G1 X199.744 Y107.498 Z8.600 F1000.000
G2 X201.988 Y104.889 Z8.600 I-3.180 J-5.006 K0.000 F1000.000
G1 X202.278 Y104.889 Z8.600 F1000.000
G1 X202.278 Y104.889 Z8.200 F1000.000
G3 X201.166 Y106.599 Z8.200 I-5.449 J-2.328 K0.000 F1000.000
G2 X201.471 Y107.257 Z8.200 I0.305 J0.259 K0.000 F1000.000
G1 X208.600 Y107.257 Z8.200 F1000.000
G1 X208.600 Y107.638 Z8.200 F1000.000
G1 X199.744 Y107.638 Z8.200 F1000.000
G1 X199.744 Y107.498 Z8.200 F1000.000
G2 X201.988 Y104.889 Z8.200 I-3.180 J-5.006 K0.000 F1000.000
G1 X202.278 Y104.889 Z8.200 F1000.000
G0 Z14.300
G0 X200.773 Y107.235 Z14.300
G0 X200.773 Y107.235 Z12.300
G1 X200.773 Y107.235 Z8.600 F1000.000
G1 X200.774 Y107.238 Z8.600 F1000.000
G1 X200.770 Y107.238 Z8.600 F1000.000
G2 X200.773 Y107.235 Z8.600 I-0.015 J-0.019 K0.000 F1000.000
G1 X200.773 Y107.235 Z8.200 F1000.000
G1 X200.774 Y107.238 Z8.200 F1000.000
G1 X200.770 Y107.238 Z8.200 F1000.000
G2 X200.773 Y107.235 Z8.200 I-0.015 J-0.019 K0.000 F1000.000
G0 Z14.300
G0 Z14.300
G0 X200.773 Y107.235
G0 X204.215 Y112.145
G0 X204.215 Y112.145 Z12.300
G1 X204.215 Y112.145 Z8.600 F1000.000
G1 X205.740 Y111.076 Z8.600 F1000.000
G1 X206.305 Y111.076 Z8.600 F1000.000
G1 X206.305 Y114.842 Z8.600 F1000.000
G2 X206.705 Y115.242 Z8.600 I0.400 J-0.000 K0.000 F1000.000
G1 X208.600 Y115.242 Z8.600 F1000.000
G1 X208.600 Y115.622 Z8.600 F1000.000
G1 X206.705 Y115.622 Z8.600 F1000.000
G2 X206.305 Y116.022 Z8.600 I0.000 J0.400 K0.000 F1000.000
G1 X206.305 Y116.921 Z8.600 F1000.000
G1 X206.013 Y116.921 Z8.600 F1000.000
G1 X206.013 Y116.022 Z8.600 F1000.000
G2 X205.613 Y115.622 Z8.600 I-0.400 J0.000 K0.000 F1000.000
G1 X199.772 Y115.622 Z8.600 F1000.000
G1 X199.772 Y115.260 Z8.600 F1000.000
G1 X204.215 Y112.145 Z8.600 F1000.000
G1 X204.290 Y112.255 Z8.600 F1000.000
G1 X205.387 Y111.501 Z8.600 F1000.000
G3 X206.013 Y111.831 Z8.600 I0.227 J0.330 K0.000 F1000.000
G1 X206.013 Y114.842 Z8.600 F1000.000
G3 X205.613 Y115.242 Z8.600 I-0.400 J-0.000 K0.000 F1000.000
G1 X201.270 Y115.242 Z8.600 F1000.000
G3 X201.043 Y114.486 Z8.600 I0.010 J-0.415 K0.000 F1000.000
G1 X204.290 Y112.255 Z8.600 F1000.000
G1 X204.290 Y112.255 Z8.200 F1000.000
G1 X205.387 Y111.501 Z8.200 F1000.000
G3 X206.013 Y111.831 Z8.200 I0.227 J0.330 K0.000 F1000.000
G1 X206.013 Y114.842 Z8.200 F1000.000
G3 X205.613 Y115.242 Z8.200 I-0.400 J-0.000 K0.000 F1000.000
G1 X201.270 Y115.242 Z8.200 F1000.000
G3 X201.043 Y114.486 Z8.200 I0.010 J-0.415 K0.000 F1000.000
G1 X204.290 Y112.255 Z8.200 F1000.000
G1 X204.214 Y112.146 Z8.200 F1000.000
G1 X205.740 Y111.076 Z8.200 F1000.000
G1 X206.305 Y111.076 Z8.200 F1000.000
G1 X206.305 Y114.842 Z8.200 F1000.000
G2 X206.705 Y115.242 Z8.200 I0.400 J-0.000 K0.000 F1000.000
G1 X208.600 Y115.242 Z8.200 F1000.000
G1 X208.600 Y115.622 Z8.200 F1000.000
G1 X206.705 Y115.622 Z8.200 F1000.000
G2 X206.305 Y116.022 Z8.200 I0.000 J0.400 K0.000 F1000.000
G1 X206.305 Y116.921 Z8.200 F1000.000
G1 X206.013 Y116.921 Z8.200 F1000.000
G1 X206.013 Y116.022 Z8.200 F1000.000
G2 X205.613 Y115.622 Z8.200 I-0.400 J0.000 K0.000 F1000.000
G1 X199.772 Y115.622 Z8.200 F1000.000
G1 X199.772 Y115.260 Z8.200 F1000.000
G1 X204.214 Y112.146 Z8.200 F1000.000
G0 Z14.300
G0 X206.159 Y115.413 Z14.300
G0 X206.159 Y115.413 Z12.300
G1 X206.159 Y115.413 Z8.600 F1000.000
G3 X206.159 Y115.451 Z8.600 I0.000 J0.019 K0.000 F1000.000
G3 X206.159 Y115.413 Z8.600 I0.000 J-0.019 K0.000 F1000.000
G1 X206.159 Y115.413 Z8.200 F1000.000
G3 X206.159 Y115.451 Z8.200 I0.000 J0.019 K0.000 F1000.000
G3 X206.159 Y115.413 Z8.200 I0.000 J-0.019 K0.000 F1000.000
G0 Z14.300
G0 X200.577 Y115.222 Z14.300
G0 X200.577 Y115.222 Z12.300
G1 X200.577 Y115.222 Z8.600 F1000.000
G1 X200.522 Y115.222 Z8.600 F1000.000
G1 X200.562 Y115.194 Z8.600 F1000.000
G1 X200.577 Y115.222 Z8.600 F1000.000
G1 X200.577 Y115.222 Z8.200 F1000.000
G1 X200.522 Y115.222 Z8.200 F1000.000
G1 X200.562 Y115.194 Z8.200 F1000.000
G1 X200.577 Y115.222 Z8.200 F1000.000
G0 Z14.300
G0 Z14.300
G0 X200.577 Y115.222
G0 X201.988 Y130.779
G0 X201.988 Y130.779 Z12.300
G1 X201.988 Y130.779 Z8.600 F1000.000
G1 X202.278 Y130.779 Z8.600 F1000.000
G3 X201.166 Y132.489 Z8.600 I-5.449 J-2.328 K0.000 F1000.000
G2 X201.471 Y133.147 Z8.600 I0.305 J0.259 K0.000 F1000.000
G1 X208.600 Y133.147 Z8.600 F1000.000
G1 X208.600 Y133.528 Z8.600 F1000.000
G1 X199.744 Y133.528 Z8.600 F1000.000
G1 X199.744 Y133.388 Z8.600 F1000.000
G2 X201.988 Y130.779 Z8.600 I-3.180 J-5.006 K0.000 F1000.000
G1 X201.988 Y130.779 Z8.200 F1000.000
G1 X202.278 Y130.779 Z8.200 F1000.000
G3 X201.166 Y132.489 Z8.200 I-5.449 J-2.328 K0.000 F1000.000
G2 X201.471 Y133.147 Z8.200 I0.305 J0.259 K0.000 F1000.000
G1 X208.600 Y133.147 Z8.200 F1000.000
G1 X208.600 Y133.528 Z8.200 F1000.000
G1 X199.744 Y133.528 Z8.200 F1000.000
G1 X199.744 Y133.388 Z8.200 F1000.000
G2 X201.988 Y130.779 Z8.200 I-3.180 J-5.006 K0.000 F1000.000
G0 Z14.300
G0 X200.773 Y133.125 Z14.300
G0 X200.773 Y133.125 Z12.300
G1 X200.773 Y133.125 Z8.600 F1000.000
G1 X200.774 Y133.128 Z8.600 F1000.000
G1 X200.770 Y133.128 Z8.600 F1000.000
G2 X200.773 Y133.125 Z8.600 I-0.015 J-0.019 K0.000 F1000.000
G1 X200.773 Y133.125 Z8.200 F1000.000
G1 X200.774 Y133.128 Z8.200 F1000.000
G1 X200.770 Y133.128 Z8.200 F1000.000
G2 X200.773 Y133.125 Z8.200 I-0.015 J-0.019 K0.000 F1000.000
G0 Z14.300
G0 Z14.300
G0 X200.773 Y133.125
G0 X201.522 Y137.939
G0 X201.522 Y137.939 Z12.300
G1 X201.522 Y137.939 Z8.600 F1000.000
G3 X202.248 Y137.956 Z8.600 I0.317 J2.037 K0.000 F1000.000
G3 X202.514 Y138.044 Z8.600 I-0.063 J0.636 K0.000 F1000.000
G2 X201.205 Y138.015 Z8.600 I-0.702 J2.050 K0.000 F1000.000
G3 X201.522 Y137.939 Z8.600 I0.633 J1.962 K0.000 F1000.000
G1 X201.553 Y138.142 Z8.600 F1000.000
G3 X203.744 Y140.048 Z8.600 I0.289 J1.880 K0.000 F1000.000
G3 X199.954 Y140.575 Z8.600 I-1.918 J0.097 K0.000 F1000.000
G3 X201.198 Y138.222 Z8.600 I1.878 J-0.513 K0.000 F1000.000
G1 X201.506 Y138.149 Z8.600 F1000.000
G3 X201.553 Y138.142 Z8.600 I0.336 J1.873 K0.000 F1000.000
G1 X201.487 Y137.731 Z8.600 F1000.000
G3 X202.892 Y138.045 Z8.600 I0.308 J1.923 K0.000 F1000.000
G3 X203.411 Y138.913 Z8.600 I-1.226 J1.323 K0.000 F1000.000
G2 X204.195 Y138.849 Z8.600 I0.380 J-0.174 K0.000 F1000.000
G3 X205.225 Y137.537 Z8.600 I1.669 J0.250 K0.000 F1000.000
G3 X206.986 Y137.432 Z8.600 I1.029 J2.429 K0.000 F1000.000
G3 X208.732 Y139.565 Z8.600 I-0.772 J2.412 K0.000 F1000.000
G3 X208.307 Y141.768 Z8.600 I-3.148 J0.536 K0.000 F1000.000
G3 X204.948 Y142.484 Z8.600 I-2.049 J-1.373 K0.000 F1000.000
G3 X204.177 Y141.304 Z8.600 I1.436 J-1.780 K0.000 F1000.000
G2 X203.342 Y141.473 Z8.600 I-0.397 J0.188 K0.000 F1000.000
G3 X201.857 Y142.462 Z8.600 I-1.391 J-0.479 K0.000 F1000.000
G3 X199.780 Y140.567 Z8.600 I0.042 J-2.132 K0.000 F1000.000
G3 X200.348 Y138.350 Z8.600 I2.628 J-0.507 K0.000 F1000.000
G3 X201.487 Y137.731 Z8.600 I1.447 J1.304 K0.000 F1000.000
G1 X201.519 Y137.940 Z8.200 F1000.000
G3 X202.248 Y137.956 Z8.200 I0.319 J2.037 K0.000 F1000.000
G3 X202.514 Y138.044 Z8.200 I-0.063 J0.636 K0.000 F1000.000
G2 X201.205 Y138.015 Z8.200 I-0.702 J2.050 K0.000 F1000.000
G3 X201.519 Y137.940 Z8.200 I0.633 J1.962 K0.000 F1000.000
G1 X201.551 Y138.142 Z8.200 F1000.000
G3 X203.744 Y140.048 Z8.200 I0.291 J1.880 K0.000 F1000.000
G3 X199.954 Y140.575 Z8.200 I-1.918 J0.097 K0.000 F1000.000
G3 X201.198 Y138.222 Z8.200 I1.878 J-0.513 K0.000 F1000.000
G1 X201.506 Y138.149 Z8.200 F1000.000
G3 X201.551 Y138.142 Z8.200 I0.336 J1.873 K0.000 F1000.000
G1 X201.484 Y137.731 Z8.200 F1000.000
G3 X202.892 Y138.045 Z8.200 I0.310 J1.923 K0.000 F1000.000
G3 X203.411 Y138.913 Z8.200 I-1.226 J1.323 K0.000 F1000.000
G2 X204.195 Y138.849 Z8.200 I0.380 J-0.174 K0.000 F1000.000
G3 X205.225 Y137.537 Z8.200 I1.669 J0.250 K0.000 F1000.000
G3 X206.986 Y137.432 Z8.200 I1.029 J2.429 K0.000 F1000.000
G3 X208.732 Y139.565 Z8.200 I-0.772 J2.412 K0.000 F1000.000
G3 X208.307 Y141.768 Z8.200 I-3.148 J0.536 K0.000 F1000.000
G3 X204.948 Y142.484 Z8.200 I-2.049 J-1.373 K0.000 F1000.000
G3 X204.177 Y141.304 Z8.200 I1.436 J-1.780 K0.000 F1000.000
G2 X203.342 Y141.473 Z8.200 I-0.397 J0.188 K0.000 F1000.000
G3 X201.857 Y142.462 Z8.200 I-1.391 J-0.479 K0.000 F1000.000
G3 X199.780 Y140.567 Z8.200 I0.042 J-2.132 K0.000 F1000.000
G3 X200.348 Y138.350 Z8.200 I2.628 J-0.507 K0.000 F1000.000
G3 X201.484 Y137.731 Z8.200 I1.447 J1.304 K0.000 F1000.000
G0 Z14.300
G0 X204.121 Y139.024 Z14.300
G0 X204.121 Y139.024 Z12.300
G1 X204.121 Y139.024 Z8.600 F1000.000
G3 X205.661 Y137.801 Z8.600 I2.057 J1.009 K0.000 F1000.000
G3 X208.615 Y140.066 Z8.600 I0.610 J2.264 K0.000 F1000.000
G3 X206.303 Y142.442 Z8.600 I-2.275 J0.100 K0.000 F1000.000
G3 X203.924 Y140.445 Z8.600 I-0.084 J-2.314 K0.000 F1000.000
G3 X204.121 Y139.024 Z8.600 I2.253 J-0.411 K0.000 F1000.000
G1 X204.121 Y139.024 Z8.200 F1000.000
G3 X205.661 Y137.801 Z8.200 I2.057 J1.009 K0.000 F1000.000
G3 X208.615 Y140.066 Z8.200 I0.610 J2.264 K0.000 F1000.000
G3 X206.303 Y142.442 Z8.200 I-2.275 J0.100 K0.000 F1000.000
G3 X203.924 Y140.445 Z8.200 I-0.084 J-2.314 K0.000 F1000.000
G3 X204.121 Y139.024 Z8.200 I2.253 J-0.411 K0.000 F1000.000
G0 Z14.300
G0 X203.815 Y140.843 Z14.300
G0 X203.815 Y140.843 Z12.300
G1 X203.815 Y140.843 Z8.600 F1000.000
G1 X203.820 Y140.857 Z8.600 F1000.000
G1 X203.810 Y140.854 Z8.600 F1000.000
G1 X203.815 Y140.843 Z8.600 F1000.000
G1 X203.815 Y140.843 Z8.200 F1000.000
G1 X203.820 Y140.857 Z8.200 F1000.000
G1 X203.810 Y140.854 Z8.200 F1000.000
G1 X203.815 Y140.843 Z8.200 F1000.000
G0 Z14.300
G0 X202.295 Y142.209 Z14.300
G0 X202.295 Y142.209 Z12.300
G1 X202.295 Y142.209 Z8.600 F1000.000
G3 X202.191 Y142.231 Z8.600 I-0.123 J-0.317 K0.000 F1000.000
G1 X202.295 Y142.209 Z8.600 F1000.000
G1 X202.187 Y142.232 Z8.600 F1000.000
G3 X201.672 Y142.245 Z8.600 I-0.295 J-1.428 K0.000 F1000.000
G2 X202.187 Y142.232 Z8.600 I0.204 J-2.028 K0.000 F1000.000
G1 X201.532 Y142.233 Z8.600 F1000.000
G3 X201.490 Y142.226 Z8.600 I-0.004 J-0.112 K0.000 F1000.000
G1 X201.532 Y142.233 Z8.600 F1000.000
G1 X201.532 Y142.233 Z8.200 F1000.000
G3 X201.490 Y142.226 Z8.200 I-0.004 J-0.112 K0.000 F1000.000
G1 X201.532 Y142.233 Z8.200 F1000.000
G1 X201.672 Y142.245 Z8.200 F1000.000
G2 X202.187 Y142.232 Z8.200 I0.204 J-2.028 K0.000 F1000.000
G3 X201.672 Y142.245 Z8.200 I-0.295 J-1.428 K0.000 F1000.000
G1 X202.191 Y142.231 Z8.200 F1000.000
G1 X202.295 Y142.209 Z8.200 F1000.000
G3 X202.191 Y142.231 Z8.200 I-0.123 J-0.317 K0.000 F1000.000
G0 Z14.300
G0 X205.390 Y142.501 Z14.300
G0 X205.390 Y142.501 Z12.300
G1 X205.390 Y142.501 Z8.600 F1000.000
G2 X206.770 Y142.598 Z8.600 I0.876 J-2.616 K0.000 F1000.000
G3 X205.390 Y142.501 Z8.600 I-0.529 J-2.353 K0.000 F1000.000
G1 X205.390 Y142.501 Z8.200 F1000.000
G2 X206.770 Y142.598 Z8.200 I0.876 J-2.616 K0.000 F1000.000
G3 X205.390 Y142.501 Z8.200 I-0.529 J-2.353 K0.000 F1000.000
G0 Z14.300
G0 X205.647 Y137.602 Z14.300
G0 X205.647 Y137.602 Z12.300
G1 X205.647 Y137.602 Z8.600 F1000.000
G3 X206.929 Y137.624 Z8.600 I0.599 J2.417 K0.000 F1000.000
G1 X206.963 Y137.637 Z8.600 F1000.000
G2 X205.647 Y137.602 Z8.600 I-0.726 J2.535 K0.000 F1000.000
G1 X205.647 Y137.602 Z8.200 F1000.000
G3 X206.929 Y137.624 Z8.200 I0.599 J2.417 K0.000 F1000.000
G1 X206.963 Y137.637 Z8.200 F1000.000
G2 X205.647 Y137.602 Z8.200 I-0.726 J2.535 K0.000 F1000.000
G0 Z14.300
G0 Z14.300
G0 X205.647 Y137.602
G0 X151.600 Y140.888
G0 X151.600 Y140.888 Z12.300
G1 X151.600 Y140.888 Z8.600 F1000.000
G1 X151.600 Y141.306 Z8.600 F1000.000
G2 X146.045 Y143.044 Z8.600 I1.514 J14.580 K0.000 F1000.000
G2 X143.285 Y144.941 Z8.600 I6.038 J11.744 K0.000 F1000.000
G1 X142.912 Y144.941 Z8.600 F1000.000
G1 X142.912 Y139.516 Z8.600 F1000.000
G1 X143.259 Y139.516 Z8.600 F1000.000
G1 X143.259 Y143.819 Z8.600 F1000.000
G2 X143.907 Y144.133 Z8.600 I0.400 J-0.000 K0.000 F1000.000
G3 X151.600 Y140.888 Z8.600 I9.066 J10.751 K0.000 F1000.000
G1 X151.400 Y141.102 Z8.600 F1000.000
G1 X151.400 Y141.125 Z8.600 F1000.000
G2 X148.806 Y141.667 Z8.600 I1.487 J13.582 K0.000 F1000.000
G3 X151.400 Y141.102 Z8.600 I3.427 J9.490 K0.000 F1000.000
G1 X151.400 Y141.102 Z8.200 F1000.000
G1 X151.400 Y141.125 Z8.200 F1000.000
G2 X148.806 Y141.667 Z8.200 I1.487 J13.582 K0.000 F1000.000
G3 X151.400 Y141.102 Z8.200 I3.427 J9.490 K0.000 F1000.000
G1 X151.378 Y140.912 Z8.200 F1000.000
G3 X151.600 Y140.888 Z8.200 I1.595 J13.973 K0.000 F1000.000
G1 X151.600 Y141.306 Z8.200 F1000.000
G2 X146.045 Y143.044 Z8.200 I1.514 J14.580 K0.000 F1000.000
G2 X143.285 Y144.941 Z8.200 I6.038 J11.744 K0.000 F1000.000
G1 X142.912 Y144.941 Z8.200 F1000.000
G1 X142.912 Y139.516 Z8.200 F1000.000
G1 X143.259 Y139.516 Z8.200 F1000.000
G1 X143.259 Y143.819 Z8.200 F1000.000
G2 X143.907 Y144.133 Z8.200 I0.400 J-0.000 K0.000 F1000.000
G3 X151.378 Y140.912 Z8.200 I9.066 J10.751 K0.000 F1000.000
G0 Z14.300
G0 X143.613 Y144.410 Z14.300
G0 X143.613 Y144.410 Z12.300
G1 X143.613 Y144.410 Z8.600 F1000.000
G1 X143.213 Y144.741 Z8.600 F1000.000
G1 X143.112 Y144.741 Z8.600 F1000.000
G1 X143.112 Y144.053 Z8.600 F1000.000
G2 X143.613 Y144.410 Z8.600 I0.521 J-0.201 K0.000 F1000.000
G1 X143.613 Y144.410 Z8.200 F1000.000
G1 X143.213 Y144.741 Z8.200 F1000.000
G1 X143.112 Y144.741 Z8.200 F1000.000
G1 X143.112 Y144.053 Z8.200 F1000.000
G2 X143.613 Y144.410 Z8.200 I0.521 J-0.201 K0.000 F1000.000
G0 Z14.300
G0 Z14.300
G0 X143.613 Y144.410
G0 Y135.638
G0 Y135.638 Z12.300
G1 X143.613 Y135.638 Z8.600 F1000.000
G1 X142.744 Y135.638 Z8.600 F1000.000
G1 X142.744 Y135.498 Z8.600 F1000.000
G2 X144.988 Y132.889 Z8.600 I-3.180 J-5.006 K0.000 F1000.000
G1 X145.278 Y132.889 Z8.600 F1000.000
G3 X144.166 Y134.599 Z8.600 I-5.449 J-2.328 K0.000 F1000.000
G2 X144.471 Y135.257 Z8.600 I0.305 J0.259 K0.000 F1000.000
G1 X151.600 Y135.257 Z8.600 F1000.000
G1 X151.600 Y135.638 Z8.600 F1000.000
G1 X143.613 Y135.638 Z8.600 F1000.000
G1 X143.770 Y135.238 Z8.600 F1000.000
G2 X143.773 Y135.235 Z8.600 I-0.015 J-0.019 K0.000 F1000.000
G1 X143.774 Y135.238 Z8.600 F1000.000
G1 X143.770 Y135.238 Z8.600 F1000.000
G1 X143.770 Y135.238 Z8.200 F1000.000
G2 X143.773 Y135.235 Z8.200 I-0.015 J-0.019 K0.000 F1000.000
G1 X143.774 Y135.238 Z8.200 F1000.000
G1 X143.770 Y135.238 Z8.200 F1000.000
G1 X144.120 Y135.048 Z8.200 F1000.000
G2 X144.471 Y135.257 Z8.200 I0.352 J-0.191 K0.000 F1000.000
G1 X151.600 Y135.257 Z8.200 F1000.000
G1 X151.600 Y135.638 Z8.200 F1000.000
G1 X142.744 Y135.638 Z8.200 F1000.000
G1 X142.744 Y135.498 Z8.200 F1000.000
G2 X144.988 Y132.889 Z8.200 I-3.180 J-5.006 K0.000 F1000.000
G1 X145.278 Y132.889 Z8.200 F1000.000
G3 X144.166 Y134.599 Z8.200 I-5.449 J-2.328 K0.000 F1000.000
G2 X144.120 Y135.048 Z8.200 I0.305 J0.259 K0.000 F1000.000
G0 Z14.300
G0 Z14.300
G0 X144.120 Y135.048
G0 X157.175 Y102.630
G0 X157.175 Y102.630 Z12.300
G1 X157.175 Y102.630 Z8.600 F1000.000
G3 X155.833 Y101.027 Z8.600 I0.828 J-2.057 K0.000 F1000.000
G3 X156.176 Y98.550 Z8.600 I3.207 J-0.818 K0.000 F1000.000
G3 X157.767 Y97.533 Z8.600 I1.898 J1.216 K0.000 F1000.000
G1 X157.811 Y97.926 Z8.600 F1000.000
G2 X155.922 Y99.787 Z8.600 I0.199 J2.091 K0.000 F1000.000
G2 X156.747 Y101.981 Z8.600 I2.245 J0.408 K0.000 F1000.000
G2 X158.646 Y102.285 Z8.600 I1.249 J-1.723 K0.000 F1000.000
G2 X159.948 Y101.521 Z8.600 I-1.066 J-3.310 K0.000 F1000.000
G2 X161.573 Y99.792 Z8.600 I-9.530 J-10.589 K0.000 F1000.000
G3 X163.201 Y98.034 Z8.600 I9.794 J7.437 K0.000 F1000.000
G3 X164.600 Y97.290 Z8.600 I2.079 J2.222 K0.000 F1000.000
G1 X164.600 Y102.816 Z8.600 F1000.000
G1 X164.252 Y102.816 Z8.600 F1000.000
G1 X164.252 Y98.486 Z8.600 F1000.000
G2 X163.631 Y98.153 Z8.600 I-0.400 J0.000 K0.000 F1000.000
G2 X162.114 Y99.617 Z8.600 I3.810 J5.467 K0.000 F1000.000
G3 X160.037 Y101.895 Z8.600 I-12.666 J-9.463 K0.000 F1000.000
G3 X158.395 Y102.755 Z8.600 I-2.359 J-2.504 K0.000 F1000.000
G3 X157.175 Y102.630 Z8.600 I-0.392 J-2.182 K0.000 F1000.000
G1 X157.844 Y102.572 Z8.600 F1000.000
G2 X158.453 Y102.534 Z8.600 I0.191 J-1.862 K0.000 F1000.000
G3 X157.844 Y102.572 Z8.600 I-0.393 J-1.407 K0.000 F1000.000
G1 X157.844 Y102.572 Z8.200 F1000.000
G2 X158.453 Y102.534 Z8.200 I0.191 J-1.862 K0.000 F1000.000
G3 X157.844 Y102.572 Z8.200 I-0.393 J-1.407 K0.000 F1000.000
G1 X157.856 Y102.381 Z8.200 F1000.000
G2 X158.646 Y102.285 Z8.200 I0.140 J-2.124 K0.000 F1000.000
G2 X159.948 Y101.521 Z8.200 I-1.066 J-3.310 K0.000 F1000.000
G2 X161.573 Y99.792 Z8.200 I-9.530 J-10.589 K0.000 F1000.000
G3 X163.201 Y98.034 Z8.200 I9.794 J7.437 K0.000 F1000.000
G3 X164.600 Y97.290 Z8.200 I2.079 J2.222 K0.000 F1000.000
G1 X164.600 Y102.816 Z8.200 F1000.000
G1 X164.252 Y102.816 Z8.200 F1000.000
G1 X164.252 Y98.486 Z8.200 F1000.000
G2 X163.631 Y98.153 Z8.200 I-0.400 J0.000 K0.000 F1000.000
G2 X162.114 Y99.617 Z8.200 I3.810 J5.467 K0.000 F1000.000
G3 X160.037 Y101.895 Z8.200 I-12.666 J-9.463 K0.000 F1000.000
G3 X158.395 Y102.755 Z8.200 I-2.359 J-2.504 K0.000 F1000.000
G3 X155.833 Y101.027 Z8.200 I-0.392 J-2.182 K0.000 F1000.000
G3 X156.176 Y98.550 Z8.200 I3.207 J-0.818 K0.000 F1000.000
G3 X157.767 Y97.533 Z8.200 I1.898 J1.216 K0.000 F1000.000
G1 X157.811 Y97.926 Z8.200 F1000.000
G2 X155.922 Y99.787 Z8.200 I0.199 J2.091 K0.000 F1000.000
G2 X156.747 Y101.981 Z8.200 I2.245 J0.408 K0.000 F1000.000
G2 X157.856 Y102.381 Z8.200 I1.249 J-1.723 K0.000 F1000.000
G0 Z14.300
G0 X163.666 Y97.928 Z14.300
G0 X163.666 Y97.928 Z12.300
G1 X163.666 Y97.928 Z8.600 F1000.000
G3 X164.400 Y97.554 Z8.600 I1.495 J2.025 K0.000 F1000.000
G1 X164.400 Y98.253 Z8.600 F1000.000
G2 X163.666 Y97.928 Z8.600 I-0.527 J0.200 K0.000 F1000.000
G1 X163.666 Y97.928 Z8.200 F1000.000
G3 X164.400 Y97.554 Z8.200 I1.495 J2.025 K0.000 F1000.000
G1 X164.400 Y98.253 Z8.200 F1000.000
G2 X163.666 Y97.928 Z8.200 I-0.527 J0.200 K0.000 F1000.000
G0 Z14.300
G0 Z14.300
G0 X163.666 Y97.928
G0 Y93.598
G0 Y93.598 Z12.300
G1 X163.666 Y93.598 Z8.600 F1000.000
G1 X155.744 Y93.598 Z8.600 F1000.000
G1 X155.744 Y93.458 Z8.600 F1000.000
G2 X157.988 Y90.849 Z8.600 I-3.180 J-5.006 K0.000 F1000.000
G1 X158.278 Y90.849 Z8.600 F1000.000
G3 X157.166 Y92.559 Z8.600 I-5.449 J-2.328 K0.000 F1000.000
G2 X157.471 Y93.217 Z8.600 I0.305 J0.259 K0.000 F1000.000
G1 X164.600 Y93.217 Z8.600 F1000.000
G1 X164.600 Y93.598 Z8.600 F1000.000
G1 X163.666 Y93.598 Z8.600 F1000.000
G1 X163.666 Y93.598 Z8.200 F1000.000
G1 X155.744 Y93.598 Z8.200 F1000.000
G1 X155.744 Y93.458 Z8.200 F1000.000
G2 X157.988 Y90.849 Z8.200 I-3.180 J-5.006 K0.000 F1000.000
G1 X158.278 Y90.849 Z8.200 F1000.000
G3 X157.166 Y92.559 Z8.200 I-5.449 J-2.328 K0.000 F1000.000
G2 X157.471 Y93.217 Z8.200 I0.305 J0.259 K0.000 F1000.000
G1 X164.600 Y93.217 Z8.200 F1000.000
G1 X164.600 Y93.598 Z8.200 F1000.000
G1 X163.666 Y93.598 Z8.200 F1000.000
G0 Z14.300
G0 X156.774 Y93.198 Z14.300
G0 X156.774 Y93.198 Z12.300
G1 X156.774 Y93.198 Z8.600 F1000.000
G1 X156.770 Y93.198 Z8.600 F1000.000
G2 X156.773 Y93.195 Z8.600 I-0.015 J-0.019 K0.000 F1000.000
G1 X156.774 Y93.198 Z8.600 F1000.000
G1 X156.774 Y93.198 Z8.200 F1000.000
G1 X156.770 Y93.198 Z8.200 F1000.000
G2 X156.773 Y93.195 Z8.200 I-0.015 J-0.019 K0.000 F1000.000
G1 X156.774 Y93.198 Z8.200 F1000.000
G0 Z14.300
G0 Z14.300
G0 X156.774 Y93.198
G0 X129.600 Y92.678
G0 X129.600 Y92.678 Z12.300
G1 X129.600 Y92.678 Z8.600 F1000.000
G1 X120.744 Y92.678 Z8.600 F1000.000
G1 X120.744 Y92.538 Z8.600 F1000.000
G2 X122.988 Y89.929 Z8.600 I-3.180 J-5.006 K0.000 F1000.000
G1 X123.278 Y89.929 Z8.600 F1000.000
G3 X122.166 Y91.639 Z8.600 I-5.449 J-2.328 K0.000 F1000.000
G2 X122.471 Y92.297 Z8.600 I0.305 J0.259 K0.000 F1000.000
G1 X129.600 Y92.297 Z8.600 F1000.000
G1 X129.600 Y92.678 Z8.600 F1000.000
G1 X129.600 Y92.678 Z8.200 F1000.000
G1 X120.744 Y92.678 Z8.200 F1000.000
G1 X120.744 Y92.538 Z8.200 F1000.000
G2 X122.988 Y89.929 Z8.200 I-3.180 J-5.006 K0.000 F1000.000
G1 X123.278 Y89.929 Z8.200 F1000.000
G3 X122.166 Y91.639 Z8.200 I-5.449 J-2.328 K0.000 F1000.000
G2 X122.471 Y92.297 Z8.200 I0.305 J0.259 K0.000 F1000.000
G1 X129.600 Y92.297 Z8.200 F1000.000
G1 X129.600 Y92.678 Z8.200 F1000.000
G0 Z14.300
G0 X121.774 Y92.278 Z14.300
G0 X121.774 Y92.278 Z12.300
G1 X121.774 Y92.278 Z8.600 F1000.000
G1 X121.770 Y92.278 Z8.600 F1000.000
G2 X121.773 Y92.275 Z8.600 I-0.015 J-0.019 K0.000 F1000.000
G1 X121.774 Y92.278 Z8.600 F1000.000
G1 X121.774 Y92.278 Z8.200 F1000.000
G1 X121.770 Y92.278 Z8.200 F1000.000
G2 X121.773 Y92.275 Z8.200 I-0.015 J-0.019 K0.000 F1000.000
G1 X121.774 Y92.278 Z8.200 F1000.000
G0 Z14.300
G0 Z14.300
G0 X121.774 Y92.278
G0 X122.988 Y97.402
G0 X122.988 Y97.402 Z12.300
G1 X122.988 Y97.402 Z8.600 F1000.000
G1 X123.278 Y97.402 Z8.600 F1000.000
G3 X122.166 Y99.111 Z8.600 I-5.449 J-2.328 K0.000 F1000.000
G2 X122.471 Y99.770 Z8.600 I0.305 J0.259 K0.000 F1000.000
G1 X129.600 Y99.770 Z8.600 F1000.000
G1 X129.600 Y100.151 Z8.600 F1000.000
G1 X120.744 Y100.151 Z8.600 F1000.000
G1 X120.744 Y100.011 Z8.600 F1000.000
G2 X122.988 Y97.402 Z8.600 I-3.180 J-5.006 K0.000 F1000.000
G1 X122.988 Y97.402 Z8.200 F1000.000
G1 X123.278 Y97.402 Z8.200 F1000.000
G3 X122.166 Y99.111 Z8.200 I-5.449 J-2.328 K0.000 F1000.000
G2 X122.471 Y99.770 Z8.200 I0.305 J0.259 K0.000 F1000.000
G1 X129.600 Y99.770 Z8.200 F1000.000
G1 X129.600 Y100.151 Z8.200 F1000.000
G1 X120.744 Y100.151 Z8.200 F1000.000
G1 X120.744 Y100.011 Z8.200 F1000.000
G2 X122.988 Y97.402 Z8.200 I-3.180 J-5.006 K0.000 F1000.000
G0 Z14.300
G0 X121.773 Y99.748 Z14.300
G0 X121.773 Y99.748 Z12.300
G1 X121.773 Y99.748 Z8.600 F1000.000
G1 X121.774 Y99.751 Z8.600 F1000.000
G1 X121.770 Y99.751 Z8.600 F1000.000
G2 X121.773 Y99.748 Z8.600 I-0.015 J-0.019 K0.000 F1000.000
G1 X121.773 Y99.748 Z8.200 F1000.000
G1 X121.774 Y99.751 Z8.200 F1000.000
G1 X121.770 Y99.751 Z8.200 F1000.000
G2 X121.773 Y99.748 Z8.200 I-0.015 J-0.019 K0.000 F1000.000
G0 Z14.300
G0 Z14.300
G0 X121.773 Y99.748
G0 X99.776 Y99.447
G0 X99.776 Y99.447 Z12.300
G1 X99.776 Y99.447 Z8.600 F1000.000
G3 X99.460 Y100.670 Z8.600 I-2.658 J-0.036 K0.000 F1000.000
G3 X97.892 Y101.818 Z8.600 I-2.319 J-1.522 K0.000 F1000.000
G3 X94.595 Y102.145 Z8.600 I-2.629 J-9.714 K0.000 F1000.000
G3 X92.493 Y101.778 Z8.600 I0.187 J-7.268 K0.000 F1000.000
G3 X91.009 Y100.615 Z8.600 I0.674 J-2.389 K0.000 F1000.000
G3 X91.043 Y98.206 Z8.600 I2.372 J-1.171 K0.000 F1000.000
G3 X92.624 Y97.041 Z8.600 I2.338 J1.519 K0.000 F1000.000
G3 X95.922 Y96.712 Z8.600 I2.637 J9.732 K0.000 F1000.000
G3 X98.019 Y97.077 Z8.600 I-0.184 J7.266 K0.000 F1000.000
G3 X99.504 Y98.238 Z8.600 I-0.669 J2.385 K0.000 F1000.000
G3 X99.776 Y99.447 Z8.600 I-2.385 J1.173 K0.000 F1000.000
G1 X99.620 Y99.445 Z8.600 F1000.000
G3 X99.122 Y100.734 Z8.600 I-1.964 J-0.019 K0.000 F1000.000
G3 X97.851 Y101.463 Z8.600 I-1.985 J-1.987 K0.000 F1000.000
G3 X93.758 Y101.676 Z8.600 I-2.680 J-12.059 K0.000 F1000.000
G3 X91.972 Y101.183 Z8.600 I0.373 J-4.839 K0.000 F1000.000
G3 X91.390 Y98.115 Z8.600 I0.889 J-1.758 K0.000 F1000.000
G3 X93.396 Y97.229 Z8.600 I2.371 J2.656 K0.000 F1000.000
G3 X96.749 Y97.176 Z8.600 I1.908 J14.410 K0.000 F1000.000
G3 X98.532 Y97.669 Z8.600 I-0.392 J4.891 K0.000 F1000.000
G3 X99.620 Y99.445 Z8.600 I-0.877 J1.758 K0.000 F1000.000
G1 X99.620 Y99.445 Z8.200 F1000.000
G3 X99.122 Y100.734 Z8.200 I-1.964 J-0.019 K0.000 F1000.000
G3 X97.851 Y101.463 Z8.200 I-1.985 J-1.987 K0.000 F1000.000
G3 X93.758 Y101.676 Z8.200 I-2.680 J-12.059 K0.000 F1000.000
G3 X91.972 Y101.183 Z8.200 I0.373 J-4.839 K0.000 F1000.000
G3 X91.390 Y98.115 Z8.200 I0.889 J-1.758 K0.000 F1000.000
G3 X93.396 Y97.229 Z8.200 I2.371 J2.656 K0.000 F1000.000
G3 X96.749 Y97.176 Z8.200 I1.908 J14.410 K0.000 F1000.000
G3 X98.532 Y97.669 Z8.200 I-0.392 J4.891 K0.000 F1000.000
G3 X99.620 Y99.445 Z8.200 I-0.877 J1.758 K0.000 F1000.000
G1 X99.776 Y99.448 Z8.200 F1000.000
G3 X99.460 Y100.670 Z8.200 I-2.658 J-0.037 K0.000 F1000.000
G3 X97.892 Y101.818 Z8.200 I-2.319 J-1.522 K0.000 F1000.000
G3 X94.595 Y102.145 Z8.200 I-2.629 J-9.714 K0.000 F1000.000
G3 X92.493 Y101.778 Z8.200 I0.187 J-7.268 K0.000 F1000.000
G3 X91.009 Y100.615 Z8.200 I0.674 J-2.389 K0.000 F1000.000
G3 X91.043 Y98.206 Z8.200 I2.372 J-1.171 K0.000 F1000.000
G3 X92.624 Y97.041 Z8.200 I2.338 J1.519 K0.000 F1000.000
G3 X95.922 Y96.712 Z8.200 I2.637 J9.732 K0.000 F1000.000
G3 X98.019 Y97.077 Z8.200 I-0.184 J7.266 K0.000 F1000.000
G3 X99.504 Y98.238 Z8.200 I-0.669 J2.385 K0.000 F1000.000
G3 X99.776 Y99.448 Z8.200 I-2.385 J1.173 K0.000 F1000.000
G0 Z14.300
G0 X96.505 Y96.959 Z14.300
G0 X96.505 Y96.959 Z12.300
G1 X96.505 Y96.959 Z8.600 F1000.000
G2 X94.230 Y96.943 Z8.600 I-1.227 J13.384 K0.000 F1000.000
G3 X95.910 Y96.912 Z8.600 I1.071 J12.177 K0.000 F1000.000
G3 X96.505 Y96.959 Z8.600 I-0.044 J4.340 K0.000 F1000.000
G1 X96.505 Y96.959 Z8.200 F1000.000
G2 X94.230 Y96.943 Z8.200 I-1.227 J13.384 K0.000 F1000.000
G3 X95.910 Y96.912 Z8.200 I1.071 J12.177 K0.000 F1000.000
G3 X96.505 Y96.959 Z8.200 I-0.044 J4.340 K0.000 F1000.000
G0 Z14.300
G0 X96.474 Y101.899 Z14.300
G0 X96.474 Y101.899 Z12.300
G1 X96.474 Y101.899 Z8.600 F1000.000
G3 X93.949 Y101.889 Z8.600 I-1.217 J-11.406 K0.000 F1000.000
G2 X96.474 Y101.899 Z8.600 I1.321 J-14.903 K0.000 F1000.000
G1 X96.474 Y101.899 Z8.200 F1000.000
G3 X93.949 Y101.889 Z8.200 I-1.217 J-11.406 K0.000 F1000.000
G2 X96.474 Y101.899 Z8.200 I1.321 J-14.903 K0.000 F1000.000
G0 Z14.300
G0 Z14.300
G0 X96.474 Y101.899
G0 Y92.858
G0 Y92.858 Z12.300
G1 X96.474 Y92.858 Z8.600 F1000.000
G1 X90.744 Y92.858 Z8.600 F1000.000
G1 X90.744 Y92.718 Z8.600 F1000.000
G2 X92.988 Y90.109 Z8.600 I-3.180 J-5.006 K0.000 F1000.000
G1 X93.278 Y90.109 Z8.600 F1000.000
G3 X92.166 Y91.819 Z8.600 I-5.449 J-2.328 K0.000 F1000.000
G2 X92.471 Y92.477 Z8.600 I0.305 J0.259 K0.000 F1000.000
G1 X99.600 Y92.477 Z8.600 F1000.000
G1 X99.600 Y92.858 Z8.600 F1000.000
G1 X96.474 Y92.858 Z8.600 F1000.000
G1 X96.474 Y92.858 Z8.200 F1000.000
G1 X90.744 Y92.858 Z8.200 F1000.000
G1 X90.744 Y92.718 Z8.200 F1000.000
G2 X92.988 Y90.109 Z8.200 I-3.180 J-5.006 K0.000 F1000.000
G1 X93.278 Y90.109 Z8.200 F1000.000
G3 X92.166 Y91.819 Z8.200 I-5.449 J-2.328 K0.000 F1000.000
G2 X92.471 Y92.477 Z8.200 I0.305 J0.259 K0.000 F1000.000
G1 X99.600 Y92.477 Z8.200 F1000.000
G1 X99.600 Y92.858 Z8.200 F1000.000
G1 X96.474 Y92.858 Z8.200 F1000.000
G0 Z14.300
G0 X91.774 Y92.458 Z14.300
G0 X91.774 Y92.458 Z12.300
G1 X91.774 Y92.458 Z8.600 F1000.000
G1 X91.770 Y92.458 Z8.600 F1000.000
G2 X91.773 Y92.455 Z8.600 I-0.015 J-0.019 K0.000 F1000.000
G1 X91.774 Y92.458 Z8.600 F1000.000
G1 X91.774 Y92.458 Z8.200 F1000.000
G1 X91.770 Y92.458 Z8.200 F1000.000
G2 X91.773 Y92.455 Z8.200 I-0.015 J-0.019 K0.000 F1000.000
G1 X91.774 Y92.458 Z8.200 F1000.000
G0 Z14.300
G0 Z14.300
G0 X91.774 Y92.458
G0 X88.278 Y132.889
G0 X88.278 Y132.889 Z12.300
G1 X88.278 Y132.889 Z8.600 F1000.000
G3 X87.166 Y134.599 Z8.600 I-5.449 J-2.328 K0.000 F1000.000
G2 X87.471 Y135.257 Z8.600 I0.305 J0.259 K0.000 F1000.000
G1 X94.600 Y135.257 Z8.600 F1000.000
G1 X94.600 Y135.638 Z8.600 F1000.000
G1 X85.744 Y135.638 Z8.600 F1000.000
G1 X85.744 Y135.498 Z8.600 F1000.000
G2 X87.988 Y132.889 Z8.600 I-3.180 J-5.006 K0.000 F1000.000
G1 X88.278 Y132.889 Z8.600 F1000.000
G1 X88.278 Y132.889 Z8.200 F1000.000
G3 X87.166 Y134.599 Z8.200 I-5.449 J-2.328 K0.000 F1000.000
G2 X87.471 Y135.257 Z8.200 I0.305 J0.259 K0.000 F1000.000
G1 X94.600 Y135.257 Z8.200 F1000.000
G1 X94.600 Y135.638 Z8.200 F1000.000
G1 X85.744 Y135.638 Z8.200 F1000.000
G1 X85.744 Y135.498 Z8.200 F1000.000
G2 X87.988 Y132.889 Z8.200 I-3.180 J-5.006 K0.000 F1000.000
G1 X88.278 Y132.889 Z8.200 F1000.000
G0 Z14.300
G0 X86.773 Y135.235 Z14.300
G0 X86.773 Y135.235 Z12.300
G1 X86.773 Y135.235 Z8.600 F1000.000
G1 X86.774 Y135.238 Z8.600 F1000.000
G1 X86.770 Y135.238 Z8.600 F1000.000
G2 X86.773 Y135.235 Z8.600 I-0.015 J-0.019 K0.000 F1000.000
G1 X86.773 Y135.235 Z8.200 F1000.000
G1 X86.774 Y135.238 Z8.200 F1000.000
G1 X86.770 Y135.238 Z8.200 F1000.000
G2 X86.773 Y135.235 Z8.200 I-0.015 J-0.019 K0.000 F1000.000
G0 Z14.300
G0 Z14.300
G0 X86.773 Y135.235
G0 X88.088 Y139.698
G0 X88.088 Y139.698 Z12.300
G1 X88.088 Y139.698 Z8.600 F1000.000
G3 X89.029 Y139.526 Z8.600 I1.283 J4.353 K0.000 F1000.000
G3 X91.572 Y139.486 Z8.600 I1.463 J11.990 K0.000 F1000.000
G3 X93.871 Y140.304 Z8.600 I-0.100 J3.918 K0.000 F1000.000
G3 X94.233 Y143.964 Z8.600 I-1.855 J2.031 K0.000 F1000.000
G3 X91.581 Y144.968 Z8.600 I-2.299 J-2.070 K0.000 F1000.000
G3 X89.205 Y142.853 Z8.600 I0.094 J-2.498 K0.000 F1000.000
G3 X89.742 Y141.009 Z8.600 I2.239 J-0.348 K0.000 F1000.000
G3 X90.075 Y140.718 Z8.600 I1.238 J1.080 K0.000 F1000.000
G2 X90.909 Y144.388 Z8.600 I1.552 J1.577 K0.000 F1000.000
G2 X93.473 Y144.197 Z8.600 I1.063 J-3.035 K0.000 F1000.000
G2 X93.760 Y140.614 Z8.600 I-0.977 J-1.881 K0.000 F1000.000
G2 X90.445 Y140.407 Z8.600 I-1.811 J2.344 K0.000 F1000.000
G1 X90.363 Y140.475 Z8.600 F1000.000
G2 X90.042 Y139.805 Z8.600 I-0.311 J-0.263 K0.000 F1000.000
G2 X87.338 Y140.306 Z8.600 I-0.298 J5.931 K0.000 F1000.000
G2 X85.970 Y141.855 Z8.600 I1.104 J2.355 K0.000 F1000.000
G2 X86.932 Y144.144 Z8.600 I1.848 J0.570 K0.000 F1000.000
G2 X87.407 Y144.334 Z8.600 I0.942 J-1.660 K0.000 F1000.000
G1 X87.372 Y144.730 Z8.600 F1000.000
G3 X85.784 Y142.970 Z8.600 I0.444 J-1.997 K0.000 F1000.000
G3 X86.564 Y140.485 Z8.600 I2.617 J-0.543 K0.000 F1000.000
G3 X88.088 Y139.698 Z8.600 I2.807 J3.566 K0.000 F1000.000
G1 X88.088 Y139.698 Z8.200 F1000.000
G3 X89.029 Y139.526 Z8.200 I1.283 J4.353 K0.000 F1000.000
G3 X91.572 Y139.486 Z8.200 I1.463 J11.990 K0.000 F1000.000
G3 X93.871 Y140.304 Z8.200 I-0.100 J3.918 K0.000 F1000.000
G3 X94.233 Y143.964 Z8.200 I-1.855 J2.031 K0.000 F1000.000
G3 X91.581 Y144.968 Z8.200 I-2.299 J-2.070 K0.000 F1000.000
G3 X89.205 Y142.853 Z8.200 I0.094 J-2.498 K0.000 F1000.000
G3 X89.742 Y141.009 Z8.200 I2.239 J-0.348 K0.000 F1000.000
G3 X90.075 Y140.718 Z8.200 I1.238 J1.080 K0.000 F1000.000
G2 X90.909 Y144.388 Z8.200 I1.552 J1.577 K0.000 F1000.000
G2 X93.473 Y144.197 Z8.200 I1.063 J-3.035 K0.000 F1000.000
G2 X93.760 Y140.614 Z8.200 I-0.977 J-1.881 K0.000 F1000.000
G2 X90.445 Y140.407 Z8.200 I-1.811 J2.344 K0.000 F1000.000
G1 X90.363 Y140.475 Z8.200 F1000.000
G2 X90.042 Y139.805 Z8.200 I-0.311 J-0.263 K0.000 F1000.000
G2 X87.338 Y140.306 Z8.200 I-0.298 J5.931 K0.000 F1000.000
G2 X85.970 Y141.855 Z8.200 I1.104 J2.355 K0.000 F1000.000
G2 X86.932 Y144.144 Z8.200 I1.848 J0.570 K0.000 F1000.000
G2 X87.407 Y144.334 Z8.200 I0.942 J-1.660 K0.000 F1000.000
G1 X87.372 Y144.730 Z8.200 F1000.000
G3 X85.784 Y142.970 Z8.200 I0.444 J-1.997 K0.000 F1000.000
G3 X86.564 Y140.485 Z8.200 I2.617 J-0.543 K0.000 F1000.000
G3 X88.088 Y139.698 Z8.200 I2.807 J3.566 K0.000 F1000.000
G0 Z14.300
G0 X90.245 Y139.644 Z14.300
G0 X90.245 Y139.644 Z12.300
G1 X90.245 Y139.644 Z8.600 F1000.000
G3 X91.552 Y139.685 Z8.600 I0.345 J10.074 K0.000 F1000.000
G3 X92.455 Y139.838 Z8.600 I-0.227 J4.077 K0.000 F1000.000
G2 X90.634 Y140.077 Z8.600 I-0.547 J2.891 K0.000 F1000.000
G2 X90.245 Y139.644 Z8.600 I-0.532 J0.087 K0.000 F1000.000
G1 X90.245 Y139.644 Z8.200 F1000.000
G3 X91.552 Y139.685 Z8.200 I0.345 J10.074 K0.000 F1000.000
G3 X92.455 Y139.838 Z8.200 I-0.227 J4.077 K0.000 F1000.000
G2 X90.634 Y140.077 Z8.200 I-0.547 J2.891 K0.000 F1000.000
G2 X90.245 Y139.644 Z8.200 I-0.532 J0.087 K0.000 F1000.000
G0 Z14.300
G0 X90.285 Y144.290 Z14.300
G0 X90.285 Y144.290 Z12.300
G1 X90.285 Y144.290 Z8.600 F1000.000
G2 X92.401 Y144.741 Z8.600 I1.672 J-2.648 K0.000 F1000.000
G3 X90.285 Y144.290 Z8.600 I-0.520 J-2.751 K0.000 F1000.000
G1 X90.285 Y144.290 Z8.200 F1000.000
G2 X92.401 Y144.741 Z8.200 I1.672 J-2.648 K0.000 F1000.000
G3 X90.285 Y144.290 Z8.200 I-0.520 J-2.751 K0.000 F1000.000
G0 Z14.300
G0 Z14.300
G0 X90.285 Y144.290
G0 X52.295 Y117.627
G0 X52.295 Y117.627 Z12.300
G1 X52.295 Y117.627 Z8.600 F1000.000
G3 X51.956 Y118.022 Z8.600 I-2.202 J-1.546 K0.000 F1000.000
G3 X49.446 Y119.000 Z8.600 I-2.828 J-3.553 K0.000 F1000.000
G3 X45.995 Y118.874 Z8.600 I-1.354 J-10.282 K0.000 F1000.000
G3 X43.882 Y115.292 Z8.600 I0.489 J-2.702 K0.000 F1000.000
G3 X46.051 Y113.604 Z8.600 I2.445 J0.903 K0.000 F1000.000
G3 X47.268 Y113.628 Z8.600 I0.531 J3.805 K0.000 F1000.000
G3 X49.325 Y116.014 Z8.600 I-0.371 J2.400 K0.000 F1000.000
G3 X48.685 Y117.587 Z8.600 I-2.219 J0.014 K0.000 F1000.000
G2 X47.104 Y114.013 Z8.600 I-1.884 J-1.303 K0.000 F1000.000
G2 X44.695 Y114.652 Z8.600 I-0.517 J2.911 K0.000 F1000.000
G2 X45.229 Y118.309 Z8.600 I1.342 J1.672 K0.000 F1000.000
G2 X48.106 Y118.144 Z8.600 I1.283 J-2.797 K0.000 F1000.000
G2 X48.479 Y118.710 Z8.600 I0.361 J0.168 K0.000 F1000.000
G2 X50.964 Y118.299 Z8.600 I0.151 J-6.801 K0.000 F1000.000
G2 X52.169 Y117.435 Z8.600 I-0.912 J-2.545 K0.000 F1000.000
G2 X52.157 Y114.771 Z8.600 I-1.737 J-1.324 K0.000 F1000.000
G2 X51.104 Y114.162 Z8.600 I-1.589 J1.530 K0.000 F1000.000
G1 X51.131 Y113.823 Z8.600 F1000.000
G3 X52.723 Y115.513 Z8.600 I-0.375 J1.947 K0.000 F1000.000
G3 X52.295 Y117.627 Z8.600 I-2.630 J0.569 K0.000 F1000.000
G1 X52.295 Y117.627 Z8.200 F1000.000
G3 X51.956 Y118.022 Z8.200 I-2.202 J-1.546 K0.000 F1000.000
G3 X49.446 Y119.000 Z8.200 I-2.828 J-3.553 K0.000 F1000.000
G3 X45.995 Y118.874 Z8.200 I-1.354 J-10.282 K0.000 F1000.000
G3 X43.882 Y115.292 Z8.200 I0.489 J-2.702 K0.000 F1000.000
G3 X46.051 Y113.604 Z8.200 I2.445 J0.903 K0.000 F1000.000
G3 X47.268 Y113.628 Z8.200 I0.531 J3.805 K0.000 F1000.000
G3 X49.325 Y116.014 Z8.200 I-0.371 J2.400 K0.000 F1000.000
G3 X48.685 Y117.587 Z8.200 I-2.219 J0.014 K0.000 F1000.000
G2 X47.104 Y114.013 Z8.200 I-1.884 J-1.303 K0.000 F1000.000
G2 X44.695 Y114.652 Z8.200 I-0.517 J2.911 K0.000 F1000.000
G2 X45.229 Y118.309 Z8.200 I1.342 J1.672 K0.000 F1000.000
G2 X48.106 Y118.144 Z8.200 I1.283 J-2.797 K0.000 F1000.000
G2 X48.479 Y118.710 Z8.200 I0.361 J0.168 K0.000 F1000.000
G2 X50.964 Y118.299 Z8.200 I0.151 J-6.801 K0.000 F1000.000
G2 X52.169 Y117.435 Z8.200 I-0.912 J-2.545 K0.000 F1000.000
G2 X52.157 Y114.771 Z8.200 I-1.737 J-1.324 K0.000 F1000.000
G2 X51.104 Y114.162 Z8.200 I-1.589 J1.530 K0.000 F1000.000
G1 X51.131 Y113.823 Z8.200 F1000.000
G3 X52.723 Y115.513 Z8.200 I-0.375 J1.947 K0.000 F1000.000
G3 X52.295 Y117.627 Z8.200 I-2.630 J0.569 K0.000 F1000.000
G0 Z14.300
G0 X48.296 Y118.876 Z14.300
G0 X48.296 Y118.876 Z12.300
G1 X48.296 Y118.876 Z8.600 F1000.000
G3 X46.497 Y118.771 Z8.600 I-0.401 J-8.626 K0.000 F1000.000
G2 X47.898 Y118.477 Z8.600 I0.125 J-2.883 K0.000 F1000.000
G2 X48.296 Y118.876 Z8.600 I0.531 J-0.132 K0.000 F1000.000
G1 X48.296 Y118.876 Z8.200 F1000.000
G3 X46.497 Y118.771 Z8.200 I-0.401 J-8.626 K0.000 F1000.000
G2 X47.898 Y118.477 Z8.200 I0.125 J-2.883 K0.000 F1000.000
G2 X48.296 Y118.876 Z8.200 I0.531 J-0.132 K0.000 F1000.000
G0 Z14.300
G0 X48.239 Y114.272 Z14.300
G0 X48.239 Y114.272 Z12.300
G1 X48.239 Y114.272 Z8.600 F1000.000
G2 X46.574 Y113.776 Z8.600 I-1.542 J2.129 K0.000 F1000.000
G2 X45.185 Y114.095 Z8.600 I-0.021 J3.089 K0.000 F1000.000
G3 X47.228 Y113.825 Z8.600 I1.407 J2.775 K0.000 F1000.000
G3 X48.239 Y114.272 Z8.600 I-0.333 J2.118 K0.000 F1000.000
G1 X48.239 Y114.272 Z8.200 F1000.000
G2 X46.574 Y113.776 Z8.200 I-1.542 J2.129 K0.000 F1000.000
G2 X45.185 Y114.095 Z8.200 I-0.021 J3.089 K0.000 F1000.000
G3 X47.228 Y113.825 Z8.200 I1.407 J2.775 K0.000 F1000.000
G3 X48.239 Y114.272 Z8.200 I-0.333 J2.118 K0.000 F1000.000
G0 Z14.300
G0 X45.100 Y114.136 Z14.300
G0 X45.100 Y114.136 Z12.300
G1 X45.100 Y114.136 Z8.600 F1000.000
G1 X45.004 Y114.190 Z8.600 F1000.000
G3 X45.100 Y114.136 Z8.600 I0.230 J0.295 K0.000 F1000.000
G1 X44.914 Y114.252 Z8.600 F1000.000
G1 X44.835 Y114.308 Z8.600 F1000.000
G3 X44.914 Y114.252 Z8.600 I0.319 J0.361 K0.000 F1000.000
G1 X44.914 Y114.252 Z8.200 F1000.000
G1 X44.835 Y114.308 Z8.200 F1000.000
G3 X44.914 Y114.252 Z8.200 I0.319 J0.361 K0.000 F1000.000
G1 X45.004 Y114.190 Z8.200 F1000.000
G3 X45.100 Y114.136 Z8.200 I0.230 J0.295 K0.000 F1000.000
G1 X45.004 Y114.190 Z8.200 F1000.000
G0 Z14.300
G0 Z14.300
G0 X45.004 Y114.190
G0 X39.600 Y135.257
G0 X39.600 Y135.257 Z12.300
G1 X39.600 Y135.257 Z8.600 F1000.000
G1 X39.600 Y135.638 Z8.600 F1000.000
G1 X30.744 Y135.638 Z8.600 F1000.000
G1 X30.744 Y135.498 Z8.600 F1000.000
G2 X32.988 Y132.889 Z8.600 I-3.180 J-5.006 K0.000 F1000.000
G1 X33.278 Y132.889 Z8.600 F1000.000
G3 X32.166 Y134.599 Z8.600 I-5.449 J-2.328 K0.000 F1000.000
G2 X32.471 Y135.257 Z8.600 I0.305 J0.259 K0.000 F1000.000
G1 X39.600 Y135.257 Z8.600 F1000.000
G1 X39.600 Y135.257 Z8.200 F1000.000
G1 X39.600 Y135.638 Z8.200 F1000.000
G1 X30.744 Y135.638 Z8.200 F1000.000
G1 X30.744 Y135.498 Z8.200 F1000.000
G2 X32.988 Y132.889 Z8.200 I-3.180 J-5.006 K0.000 F1000.000
G1 X33.278 Y132.889 Z8.200 F1000.000
G3 X32.166 Y134.599 Z8.200 I-5.449 J-2.328 K0.000 F1000.000
G2 X32.471 Y135.257 Z8.200 I0.305 J0.259 K0.000 F1000.000
G1 X39.600 Y135.257 Z8.200 F1000.000
G0 Z14.300
G0 X31.774 Y135.238 Z14.300
G0 X31.774 Y135.238 Z12.300
G1 X31.774 Y135.238 Z8.600 F1000.000
G1 X31.770 Y135.238 Z8.600 F1000.000
G2 X31.773 Y135.235 Z8.600 I-0.015 J-0.019 K0.000 F1000.000
G1 X31.774 Y135.238 Z8.600 F1000.000
G1 X31.774 Y135.238 Z8.200 F1000.000
G1 X31.770 Y135.238 Z8.200 F1000.000
G2 X31.773 Y135.235 Z8.200 I-0.015 J-0.019 K0.000 F1000.000
G1 X31.774 Y135.238 Z8.200 F1000.000
G0 Z14.300
G0 Z14.300
G0 X31.774 Y135.238
G0 X32.702 Y140.174
G0 X32.702 Y140.174 Z12.300
G1 X32.702 Y140.174 Z8.600 F1000.000
G1 X35.156 Y139.713 Z8.600 F1000.000
G1 X35.212 Y140.180 Z8.600 F1000.000
G2 X34.311 Y142.132 Z8.600 I1.410 J1.834 K0.000 F1000.000
G2 X36.360 Y144.502 Z8.600 I2.329 J0.057 K0.000 F1000.000
G2 X38.410 Y144.156 Z8.600 I0.523 J-3.151 K0.000 F1000.000
G2 X37.996 Y140.002 Z8.600 I-1.036 J-1.995 K0.000 F1000.000
G1 X37.821 Y139.960 Z8.600 F1000.000
G1 X37.855 Y139.506 Z8.600 F1000.000
G3 X39.701 Y141.445 Z8.600 I-0.481 J2.306 K0.000 F1000.000
G3 X39.423 Y143.553 Z8.600 I-3.018 J0.675 K0.000 F1000.000
G3 X36.731 Y145.006 Z8.600 I-2.590 J-1.580 K0.000 F1000.000
G3 X34.757 Y144.235 Z8.600 I-0.124 J-2.597 K0.000 F1000.000
G3 X34.571 Y140.802 Z8.600 I1.887 J-1.823 K0.000 F1000.000
G2 X34.148 Y140.206 Z8.600 I-0.344 J-0.204 K0.000 F1000.000
G1 X31.580 Y140.724 Z8.600 F1000.000
G2 X31.259 Y141.116 Z8.600 I0.079 J0.392 K0.000 F1000.000
G1 X31.259 Y144.547 Z8.600 F1000.000
G1 X30.912 Y144.547 Z8.600 F1000.000
G1 X30.912 Y140.510 Z8.600 F1000.000
G1 X32.702 Y140.174 Z8.600 F1000.000
G1 X32.702 Y140.174 Z8.200 F1000.000
G1 X35.156 Y139.713 Z8.200 F1000.000
G1 X35.212 Y140.180 Z8.200 F1000.000
G2 X34.311 Y142.132 Z8.200 I1.410 J1.834 K0.000 F1000.000
G2 X36.360 Y144.502 Z8.200 I2.329 J0.057 K0.000 F1000.000
G2 X38.410 Y144.156 Z8.200 I0.523 J-3.151 K0.000 F1000.000
G2 X37.996 Y140.002 Z8.200 I-1.036 J-1.995 K0.000 F1000.000
G1 X37.821 Y139.960 Z8.200 F1000.000
G1 X37.855 Y139.506 Z8.200 F1000.000
G3 X39.701 Y141.445 Z8.200 I-0.481 J2.306 K0.000 F1000.000
G3 X39.423 Y143.553 Z8.200 I-3.018 J0.675 K0.000 F1000.000
G3 X36.731 Y145.006 Z8.200 I-2.590 J-1.580 K0.000 F1000.000
G3 X34.757 Y144.235 Z8.200 I-0.124 J-2.597 K0.000 F1000.000
G3 X34.571 Y140.802 Z8.200 I1.887 J-1.823 K0.000 F1000.000
G2 X34.148 Y140.206 Z8.200 I-0.344 J-0.204 K0.000 F1000.000
G1 X31.580 Y140.724 Z8.200 F1000.000
G2 X31.259 Y141.116 Z8.200 I0.079 J0.392 K0.000 F1000.000
G1 X31.259 Y144.547 Z8.200 F1000.000
G1 X30.912 Y144.547 Z8.200 F1000.000
G1 X30.912 Y140.510 Z8.200 F1000.000
G1 X32.702 Y140.174 Z8.200 F1000.000
G0 Z14.300
G0 X31.307 Y140.640 Z14.300
G0 X31.307 Y140.640 Z12.300
G1 X31.307 Y140.640 Z8.600 F1000.000
G2 X31.112 Y140.886 Z8.600 I0.242 J0.391 K0.000 F1000.000
G1 X31.112 Y140.676 Z8.600 F1000.000
G1 X31.307 Y140.640 Z8.600 F1000.000
G1 X31.307 Y140.640 Z8.200 F1000.000
G2 X31.112 Y140.886 Z8.200 I0.242 J0.391 K0.000 F1000.000
G1 X31.112 Y140.676 Z8.200 F1000.000
G1 X31.307 Y140.640 Z8.200 F1000.000
G0 Z14.300
G0 X34.457 Y140.047 Z14.300
G0 X34.457 Y140.047 Z12.300
G1 X34.457 Y140.047 Z8.600 F1000.000
G1 X34.983 Y139.949 Z8.600 F1000.000
G1 X35.000 Y140.093 Z8.600 F1000.000
G2 X34.759 Y140.330 Z8.600 I0.671 J0.923 K0.000 F1000.000
G2 X34.457 Y140.047 Z8.600 I-0.496 J0.228 K0.000 F1000.000
G1 X34.457 Y140.047 Z8.200 F1000.000
G1 X34.983 Y139.949 Z8.200 F1000.000
G1 X35.000 Y140.093 Z8.200 F1000.000
G2 X34.759 Y140.330 Z8.200 I0.671 J0.923 K0.000 F1000.000
G2 X34.457 Y140.047 Z8.200 I-0.496 J0.228 K0.000 F1000.000
G0 Z14.300
G0 X34.472 Y143.489 Z14.300
G0 X34.472 Y143.489 Z12.300
G1 X34.472 Y143.489 Z8.600 F1000.000
G2 X36.345 Y144.701 Z8.600 I2.178 J-1.311 K0.000 F1000.000
G2 X37.934 Y144.575 Z8.600 I0.541 J-3.243 K0.000 F1000.000
G3 X35.186 Y144.351 Z8.600 I-1.162 J-2.712 K0.000 F1000.000
G3 X34.472 Y143.489 Z8.600 I1.444 J-1.923 K0.000 F1000.000
G1 X34.472 Y143.489 Z8.200 F1000.000
G2 X36.345 Y144.701 Z8.200 I2.178 J-1.311 K0.000 F1000.000
G2 X37.934 Y144.575 Z8.200 I0.541 J-3.243 K0.000 F1000.000
G3 X35.186 Y144.351 Z8.200 I-1.162 J-2.712 K0.000 F1000.000
G3 X34.472 Y143.489 Z8.200 I1.444 J-1.923 K0.000 F1000.000
G0 Z14.300
G0 X38.033 Y139.805 Z14.300
G0 X38.033 Y139.805 Z12.300
G1 X38.033 Y139.805 Z8.600 F1000.000
G1 X38.037 Y139.755 Z8.600 F1000.000
G3 X38.701 Y140.106 Z8.600 I-0.498 J1.744 K0.000 F1000.000
G2 X38.033 Y139.805 Z8.600 I-1.107 J1.565 K0.000 F1000.000
G1 X38.033 Y139.805 Z8.200 F1000.000
G1 X38.037 Y139.755 Z8.200 F1000.000
G3 X38.701 Y140.106 Z8.200 I-0.498 J1.744 K0.000 F1000.000
G2 X38.033 Y139.805 Z8.200 I-1.107 J1.565 K0.000 F1000.000
G0 Z14.300
G0 Z14.300
G0 X38.033 Y139.805
G0 X45.590 Y88.187
G0 X45.590 Y88.187 Z12.300
G1 X45.590 Y88.187 Z8.600 F1000.000
G3 X43.780 Y86.314 Z8.600 I0.309 J-2.110 K0.000 F1000.000
G3 X44.348 Y84.097 Z8.600 I2.628 J-0.507 K0.000 F1000.000
G3 X46.892 Y83.792 Z8.600 I1.447 J1.304 K0.000 F1000.000
G3 X47.411 Y84.660 Z8.600 I-1.226 J1.323 K0.000 F1000.000
G2 X48.195 Y84.596 Z8.600 I0.380 J-0.174 K0.000 F1000.000
G3 X49.225 Y83.284 Z8.600 I1.669 J0.250 K0.000 F1000.000
G3 X50.986 Y83.179 Z8.600 I1.029 J2.429 K0.000 F1000.000
G3 X52.732 Y85.312 Z8.600 I-0.772 J2.412 K0.000 F1000.000
G3 X52.307 Y87.515 Z8.600 I-3.148 J0.536 K0.000 F1000.000
G3 X48.948 Y88.232 Z8.600 I-2.049 J-1.373 K0.000 F1000.000
G3 X48.177 Y87.051 Z8.600 I1.436 J-1.780 K0.000 F1000.000
G2 X47.342 Y87.220 Z8.600 I-0.397 J0.188 K0.000 F1000.000
G3 X45.857 Y88.209 Z8.600 I-1.391 J-0.479 K0.000 F1000.000
G3 X45.590 Y88.187 Z8.600 I0.042 J-2.132 K0.000 F1000.000
G1 X45.672 Y87.992 Z8.600 F1000.000
G2 X46.187 Y87.979 Z8.600 I0.204 J-2.028 K0.000 F1000.000
G3 X45.672 Y87.992 Z8.600 I-0.295 J-1.428 K0.000 F1000.000
G1 X45.532 Y87.980 Z8.600 F1000.000
G3 X45.490 Y87.973 Z8.600 I-0.004 J-0.112 K0.000 F1000.000
G1 X45.532 Y87.980 Z8.600 F1000.000
G1 X45.558 Y87.794 Z8.600 F1000.000
G3 X43.954 Y86.322 Z8.600 I0.268 J-1.902 K0.000 F1000.000
G3 X45.198 Y83.969 Z8.600 I1.878 J-0.513 K0.000 F1000.000
G1 X45.506 Y83.896 Z8.600 F1000.000
G3 X47.744 Y85.795 Z8.600 I0.336 J1.873 K0.000 F1000.000
G3 X45.558 Y87.794 Z8.600 I-1.918 J0.097 K0.000 F1000.000
G1 X46.191 Y87.978 Z8.600 F1000.000
G1 X46.295 Y87.956 Z8.600 F1000.000
G3 X46.191 Y87.978 Z8.600 I-0.123 J-0.317 K0.000 F1000.000
G1 X46.191 Y87.978 Z8.200 F1000.000
G1 X46.295 Y87.956 Z8.200 F1000.000
G3 X46.191 Y87.978 Z8.200 I-0.123 J-0.317 K0.000 F1000.000
G1 X46.187 Y87.979 Z8.200 F1000.000
G3 X45.672 Y87.992 Z8.200 I-0.295 J-1.428 K0.000 F1000.000
G2 X46.187 Y87.979 Z8.200 I0.204 J-2.028 K0.000 F1000.000
G1 X46.154 Y87.785 Z8.200 F1000.000
G3 X43.954 Y86.322 Z8.200 I-0.328 J-1.892 K0.000 F1000.000
G3 X45.198 Y83.969 Z8.200 I1.878 J-0.513 K0.000 F1000.000
G1 X45.506 Y83.896 Z8.200 F1000.000
G3 X47.744 Y85.795 Z8.200 I0.336 J1.873 K0.000 F1000.000
G3 X46.154 Y87.785 Z8.200 I-1.918 J0.097 K0.000 F1000.000
G1 X46.231 Y88.185 Z8.200 F1000.000
G3 X45.857 Y88.209 Z8.200 I-0.280 J-1.444 K0.000 F1000.000
G3 X43.780 Y86.314 Z8.200 I0.042 J-2.132 K0.000 F1000.000
G3 X44.348 Y84.097 Z8.200 I2.628 J-0.507 K0.000 F1000.000
G3 X46.892 Y83.792 Z8.200 I1.447 J1.304 K0.000 F1000.000
G3 X47.411 Y84.660 Z8.200 I-1.226 J1.323 K0.000 F1000.000
G2 X48.195 Y84.596 Z8.200 I0.380 J-0.174 K0.000 F1000.000
G3 X49.225 Y83.284 Z8.200 I1.669 J0.250 K0.000 F1000.000
G3 X50.986 Y83.179 Z8.200 I1.029 J2.429 K0.000 F1000.000
G3 X52.732 Y85.312 Z8.200 I-0.772 J2.412 K0.000 F1000.000
G3 X52.307 Y87.515 Z8.200 I-3.148 J0.536 K0.000 F1000.000
G3 X48.948 Y88.232 Z8.200 I-2.049 J-1.373 K0.000 F1000.000
G3 X48.177 Y87.051 Z8.200 I1.436 J-1.780 K0.000 F1000.000
G2 X47.342 Y87.220 Z8.200 I-0.397 J0.188 K0.000 F1000.000
G3 X46.231 Y88.185 Z8.200 I-1.391 J-0.479 K0.000 F1000.000
G1 X45.532 Y87.980 Z8.200 F1000.000
G3 X45.490 Y87.973 Z8.200 I-0.004 J-0.112 K0.000 F1000.000
G1 X45.532 Y87.980 Z8.200 F1000.000
G0 Z14.300
G0 X47.810 Y86.601 Z14.300
G0 X47.810 Y86.601 Z12.300
G1 X47.810 Y86.601 Z8.600 F1000.000
G1 X47.815 Y86.590 Z8.600 F1000.000
G1 X47.820 Y86.604 Z8.600 F1000.000
G1 X47.810 Y86.601 Z8.600 F1000.000
G1 X48.001 Y86.544 Z8.600 F1000.000
G3 X47.924 Y86.192 Z8.600 I2.217 J-0.669 K0.000 F1000.000
G3 X49.661 Y83.548 Z8.600 I2.253 J-0.411 K0.000 F1000.000
G3 X52.615 Y85.813 Z8.600 I0.610 J2.264 K0.000 F1000.000
G3 X50.303 Y88.189 Z8.600 I-2.275 J0.100 K0.000 F1000.000
G3 X48.001 Y86.544 Z8.600 I-0.084 J-2.314 K0.000 F1000.000
G1 X47.820 Y86.604 Z8.200 F1000.000
G1 X47.810 Y86.601 Z8.200 F1000.000
G1 X47.815 Y86.590 Z8.200 F1000.000
G1 X47.820 Y86.604 Z8.200 F1000.000
G1 X48.003 Y86.548 Z8.200 F1000.000
G3 X47.924 Y86.192 Z8.200 I2.216 J-0.673 K0.000 F1000.000
G3 X49.661 Y83.548 Z8.200 I2.253 J-0.411 K0.000 F1000.000
G3 X52.615 Y85.813 Z8.200 I0.610 J2.264 K0.000 F1000.000
G3 X50.303 Y88.189 Z8.200 I-2.275 J0.100 K0.000 F1000.000
G3 X48.003 Y86.548 Z8.200 I-0.084 J-2.314 K0.000 F1000.000
G0 Z14.300
G0 X49.390 Y88.249 Z14.300
G0 X49.390 Y88.249 Z12.300
G1 X49.390 Y88.249 Z8.600 F1000.000
G2 X50.770 Y88.345 Z8.600 I0.876 J-2.616 K0.000 F1000.000
G3 X49.390 Y88.249 Z8.600 I-0.529 J-2.353 K0.000 F1000.000
G1 X49.390 Y88.249 Z8.200 F1000.000
G2 X50.770 Y88.345 Z8.200 I0.876 J-2.616 K0.000 F1000.000
G3 X49.390 Y88.249 Z8.200 I-0.529 J-2.353 K0.000 F1000.000
G0 Z14.300
G0 X49.647 Y83.349 Z14.300
G0 X49.647 Y83.349 Z12.300
G1 X49.647 Y83.349 Z8.600 F1000.000
G3 X50.929 Y83.371 Z8.600 I0.599 J2.417 K0.000 F1000.000
G1 X50.963 Y83.384 Z8.600 F1000.000
G2 X49.647 Y83.349 Z8.600 I-0.726 J2.535 K0.000 F1000.000
G1 X49.647 Y83.349 Z8.200 F1000.000
G3 X50.929 Y83.371 Z8.200 I0.599 J2.417 K0.000 F1000.000
G1 X50.963 Y83.384 Z8.200 F1000.000
G2 X49.647 Y83.349 Z8.200 I-0.726 J2.535 K0.000 F1000.000
G0 Z14.300
G0 X46.514 Y83.792 Z14.300
G0 X46.514 Y83.792 Z12.300
G1 X46.514 Y83.792 Z8.600 F1000.000
G2 X45.205 Y83.762 Z8.600 I-0.702 J2.050 K0.000 F1000.000
G3 X46.248 Y83.703 Z8.600 I0.633 J1.962 K0.000 F1000.000
G3 X46.514 Y83.792 Z8.600 I-0.063 J0.636 K0.000 F1000.000
G1 X46.514 Y83.792 Z8.200 F1000.000
G2 X45.205 Y83.762 Z8.200 I-0.702 J2.050 K0.000 F1000.000
G3 X46.248 Y83.703 Z8.200 I0.633 J1.962 K0.000 F1000.000
G3 X46.514 Y83.792 Z8.200 I-0.063 J0.636 K0.000 F1000.000
G0 Z14.300
G0 Z14.300
G0 X46.514 Y83.792
G0 X199.927 Y20.045
G0 X199.927 Y20.045 Z12.300
G1 X199.927 Y20.045 Z8.600 F1000.000
G3 X199.784 Y19.498 Z8.600 I1.889 J-0.785 K0.000 F1000.000
G3 X200.564 Y17.012 Z8.600 I2.617 J-0.543 K0.000 F1000.000
G3 X203.029 Y16.053 Z8.600 I2.807 J3.566 K0.000 F1000.000
G3 X205.572 Y16.013 Z8.600 I1.463 J11.990 K0.000 F1000.000
G3 X207.871 Y16.831 Z8.600 I-0.100 J3.918 K0.000 F1000.000
G3 X208.233 Y20.491 Z8.600 I-1.855 J2.031 K0.000 F1000.000
G3 X205.581 Y21.495 Z8.600 I-2.299 J-2.070 K0.000 F1000.000
G3 X203.205 Y19.380 Z8.600 I0.094 J-2.498 K0.000 F1000.000
G3 X203.742 Y17.537 Z8.600 I2.239 J-0.348 K0.000 F1000.000
G3 X204.075 Y17.245 Z8.600 I1.238 J1.080 K0.000 F1000.000
G2 X204.909 Y20.915 Z8.600 I1.552 J1.577 K0.000 F1000.000
G2 X207.473 Y20.724 Z8.600 I1.063 J-3.035 K0.000 F1000.000
G2 X207.760 Y17.142 Z8.600 I-0.977 J-1.881 K0.000 F1000.000
G2 X204.445 Y16.934 Z8.600 I-1.811 J2.344 K0.000 F1000.000
G1 X204.363 Y17.002 Z8.600 F1000.000
G2 X204.042 Y16.332 Z8.600 I-0.311 J-0.263 K0.000 F1000.000
G2 X201.338 Y16.834 Z8.600 I-0.298 J5.931 K0.000 F1000.000
G2 X199.970 Y18.382 Z8.600 I1.104 J2.355 K0.000 F1000.000
G2 X200.932 Y20.671 Z8.600 I1.848 J0.570 K0.000 F1000.000
G2 X201.407 Y20.862 Z8.600 I0.942 J-1.660 K0.000 F1000.000
G1 X201.372 Y21.257 Z8.600 F1000.000
G3 X199.927 Y20.045 Z8.600 I0.444 J-1.997 K0.000 F1000.000
G1 X199.927 Y20.045 Z8.200 F1000.000
G3 X199.784 Y19.498 Z8.200 I1.889 J-0.785 K0.000 F1000.000
G3 X200.564 Y17.012 Z8.200 I2.617 J-0.543 K0.000 F1000.000
G3 X203.029 Y16.053 Z8.200 I2.807 J3.566 K0.000 F1000.000
G3 X205.572 Y16.013 Z8.200 I1.463 J11.990 K0.000 F1000.000
G3 X207.871 Y16.831 Z8.200 I-0.100 J3.918 K0.000 F1000.000
G3 X208.233 Y20.491 Z8.200 I-1.855 J2.031 K0.000 F1000.000
G3 X205.581 Y21.495 Z8.200 I-2.299 J-2.070 K0.000 F1000.000
G3 X203.205 Y19.380 Z8.200 I0.094 J-2.498 K0.000 F1000.000
G3 X203.742 Y17.537 Z8.200 I2.239 J-0.348 K0.000 F1000.000
G3 X204.075 Y17.245 Z8.200 I1.238 J1.080 K0.000 F1000.000
G2 X204.909 Y20.915 Z8.200 I1.552 J1.577 K0.000 F1000.000
G2 X207.473 Y20.724 Z8.200 I1.063 J-3.035 K0.000 F1000.000
G2 X207.760 Y17.142 Z8.200 I-0.977 J-1.881 K0.000 F1000.000
G2 X204.445 Y16.934 Z8.200 I-1.811 J2.344 K0.000 F1000.000
G1 X204.363 Y17.002 Z8.200 F1000.000
G2 X204.042 Y16.332 Z8.200 I-0.311 J-0.263 K0.000 F1000.000
G2 X201.338 Y16.834 Z8.200 I-0.298 J5.931 K0.000 F1000.000
G2 X199.970 Y18.382 Z8.200 I1.104 J2.355 K0.000 F1000.000
G2 X200.932 Y20.671 Z8.200 I1.848 J0.570 K0.000 F1000.000
G2 X201.407 Y20.862 Z8.200 I0.942 J-1.660 K0.000 F1000.000
G1 X201.372 Y21.257 Z8.200 F1000.000
G3 X199.927 Y20.045 Z8.200 I0.444 J-1.997 K0.000 F1000.000
G0 Z14.300
G0 X204.285 Y20.817 Z14.300
G0 X204.285 Y20.817 Z12.300
G1 X204.285 Y20.817 Z8.600 F1000.000
G2 X206.401 Y21.268 Z8.600 I1.672 J-2.648 K0.000 F1000.000
G3 X204.285 Y20.817 Z8.600 I-0.520 J-2.751 K0.000 F1000.000
G1 X204.285 Y20.817 Z8.200 F1000.000
G2 X206.401 Y21.268 Z8.200 I1.672 J-2.648 K0.000 F1000.000
G3 X204.285 Y20.817 Z8.200 I-0.520 J-2.751 K0.000 F1000.000
G0 Z14.300
G0 X204.634 Y16.604 Z14.300
G0 X204.634 Y16.604 Z12.300
G1 X204.634 Y16.604 Z8.600 F1000.000
G2 X204.245 Y16.172 Z8.600 I-0.532 J0.087 K0.000 F1000.000
G3 X205.552 Y16.212 Z8.600 I0.345 J10.074 K0.000 F1000.000
G3 X206.455 Y16.365 Z8.600 I-0.227 J4.077 K0.000 F1000.000
G2 X204.634 Y16.604 Z8.600 I-0.547 J2.891 K0.000 F1000.000
G1 X204.634 Y16.604 Z8.200 F1000.000
G2 X204.245 Y16.172 Z8.200 I-0.532 J0.087 K0.000 F1000.000
G3 X205.552 Y16.212 Z8.200 I0.345 J10.074 K0.000 F1000.000
G3 X206.455 Y16.365 Z8.200 I-0.227 J4.077 K0.000 F1000.000
G2 X204.634 Y16.604 Z8.200 I-0.547 J2.891 K0.000 F1000.000
G0 Z14.300
G0 Z14.300
(Finish operation: Pocket_Shape001)
(Begin postamble)
M5
G17 G90
M2
