(Exported by FreeCAD)
(Post Processor: grbl_post)
(Output Time:2024-01-16 19:33:33.018434)
(Begin preamble)
G17 G90
G21
(Begin operation: Fixture)
(Path: Fixture)
G54
(Finish operation: Fixture)
(Begin operation: Endmill004)
(Path: Endmill004)
(Endmill004)
(Begin toolchange)
( M6 T2 )
(Finish operation: Endmill004)
(Begin operation: Pocket_Shape)
(Path: Pocket_Shape)
(Pocket_Shape)
G0 Z15.400
G0 X0.000 Y0.000
G0 X20.617 Y14.324
G0 X20.617 Y14.324 Z13.400
G1 X20.617 Y14.324 Z9.225
G3 X21.683 Y16.762 Z9.225 I-3.451 J2.960 K0.000
G3 X21.786 Y17.738 Z9.225 I-5.895 J1.119 K0.000
G1 X17.642 Y13.594 Z9.225
G2 X15.599 Y13.593 Z9.225 I-1.046 J69.262 K0.000
G1 X15.599 Y13.796 Z9.225
G1 X21.728 Y19.925 Z9.225
G3 X21.226 Y21.668 Z9.225 I-4.358 J-0.313 K0.000
G1 X15.599 Y16.041 Z9.225
G1 X15.599 Y18.286 Z9.225
G1 X20.158 Y22.845 Z9.225
G3 X19.248 Y23.135 Z9.225 I-1.086 J-1.837 K0.000
G3 X18.282 Y23.215 Z9.225 I-1.049 J-6.859 K0.000
G1 X15.599 Y20.531 Z9.225
G1 X15.599 Y22.776 Z9.225
G1 X15.599 Y23.234 Z9.225
G1 X16.057 Y23.234 Z9.225
G1 X15.599 Y22.776 Z9.225
G1 X15.599 Y22.776 Z9.050
G1 X16.057 Y23.234 Z9.050
G1 X15.599 Y23.234 Z9.050
G1 X15.599 Y22.776 Z9.050
G1 X15.599 Y20.531 Z9.050
G1 X18.282 Y23.215 Z9.050
G2 X19.248 Y23.135 Z9.050 I-0.084 J-6.939 K0.000
G2 X20.158 Y22.845 Z9.050 I-0.175 J-2.127 K0.000
G1 X15.599 Y18.286 Z9.050
G1 X15.599 Y16.041 Z9.050
G1 X21.226 Y21.668 Z9.050
G2 X21.728 Y19.925 Z9.050 I-3.856 J-2.055 K0.000
G1 X15.599 Y13.796 Z9.050
G1 X15.599 Y13.593 Z9.050
G3 X17.642 Y13.594 Z9.050 I0.997 J69.263 K0.000
G1 X21.786 Y17.738 Z9.050
G2 X21.683 Y16.762 Z9.050 I-5.999 J0.144 K0.000
G2 X20.617 Y14.324 Z9.050 I-4.516 J0.522 K0.000
G1 X20.617 Y14.324 Z8.875
G3 X21.683 Y16.762 Z8.875 I-3.451 J2.960 K0.000
G3 X21.786 Y17.738 Z8.875 I-5.895 J1.119 K0.000
G1 X17.642 Y13.594 Z8.875
G2 X15.599 Y13.593 Z8.875 I-1.046 J69.262 K0.000
G1 X15.599 Y13.796 Z8.875
G1 X21.728 Y19.925 Z8.875
G3 X21.226 Y21.668 Z8.875 I-4.358 J-0.313 K0.000
G1 X15.599 Y16.041 Z8.875
G1 X15.599 Y18.286 Z8.875
G1 X20.158 Y22.845 Z8.875
G3 X19.248 Y23.135 Z8.875 I-1.086 J-1.837 K0.000
G3 X18.282 Y23.215 Z8.875 I-1.049 J-6.859 K0.000
G1 X15.599 Y20.531 Z8.875
G1 X15.599 Y22.776 Z8.875
G1 X15.599 Y23.234 Z8.875
G1 X16.057 Y23.234 Z8.875
G1 X15.599 Y22.776 Z8.875
G1 X15.599 Y22.776 Z8.700
G1 X16.057 Y23.234 Z8.700
G1 X15.599 Y23.234 Z8.700
G1 X15.599 Y22.776 Z8.700
G1 X15.599 Y20.531 Z8.700
G1 X18.282 Y23.215 Z8.700
G2 X19.248 Y23.135 Z8.700 I-0.084 J-6.939 K0.000
G2 X20.158 Y22.845 Z8.700 I-0.175 J-2.127 K0.000
G1 X15.599 Y18.286 Z8.700
G1 X15.599 Y16.041 Z8.700
G1 X21.226 Y21.668 Z8.700
G2 X21.728 Y19.925 Z8.700 I-3.856 J-2.055 K0.000
G1 X15.599 Y13.796 Z8.700
G1 X15.599 Y13.593 Z8.700
G3 X17.642 Y13.594 Z8.700 I0.997 J69.263 K0.000
G1 X21.786 Y17.738 Z8.700
G2 X21.683 Y16.762 Z8.700 I-5.999 J0.144 K0.000
G2 X20.617 Y14.324 Z8.700 I-4.516 J0.522 K0.000
G1 X20.617 Y14.324 Z8.525
G3 X21.683 Y16.762 Z8.525 I-3.451 J2.960 K0.000
G3 X21.786 Y17.738 Z8.525 I-5.895 J1.119 K0.000
G1 X17.642 Y13.594 Z8.525
G2 X15.599 Y13.593 Z8.525 I-1.046 J69.262 K0.000
G1 X15.599 Y13.796 Z8.525
G1 X21.728 Y19.925 Z8.525
G3 X21.226 Y21.668 Z8.525 I-4.358 J-0.313 K0.000
G1 X15.599 Y16.041 Z8.525
G1 X15.599 Y18.286 Z8.525
G1 X20.158 Y22.845 Z8.525
G3 X19.248 Y23.135 Z8.525 I-1.086 J-1.837 K0.000
G3 X18.282 Y23.215 Z8.525 I-1.049 J-6.859 K0.000
G1 X15.599 Y20.531 Z8.525
G1 X15.599 Y22.776 Z8.525
G1 X15.599 Y23.234 Z8.525
G1 X16.057 Y23.234 Z8.525
G1 X15.599 Y22.776 Z8.525
G1 X15.599 Y22.776 Z8.350
G1 X16.057 Y23.234 Z8.350
G1 X15.599 Y23.234 Z8.350
G1 X15.599 Y22.776 Z8.350
G1 X15.599 Y20.531 Z8.350
G1 X18.282 Y23.215 Z8.350
G2 X19.248 Y23.135 Z8.350 I-0.084 J-6.939 K0.000
G2 X20.158 Y22.845 Z8.350 I-0.175 J-2.127 K0.000
G1 X15.599 Y18.286 Z8.350
G1 X15.599 Y16.041 Z8.350
G1 X21.226 Y21.668 Z8.350
G2 X21.728 Y19.925 Z8.350 I-3.856 J-2.055 K0.000
G1 X15.599 Y13.796 Z8.350
G1 X15.599 Y13.593 Z8.350
G3 X17.642 Y13.594 Z8.350 I0.997 J69.263 K0.000
G1 X21.786 Y17.738 Z8.350
G2 X21.683 Y16.762 Z8.350 I-5.999 J0.144 K0.000
G2 X20.617 Y14.324 Z8.350 I-4.516 J0.522 K0.000
G1 X20.617 Y14.324 Z8.175
G3 X21.683 Y16.762 Z8.175 I-3.451 J2.960 K0.000
G3 X21.786 Y17.738 Z8.175 I-5.895 J1.119 K0.000
G1 X17.642 Y13.594 Z8.175
G2 X15.599 Y13.593 Z8.175 I-1.046 J69.262 K0.000
G1 X15.599 Y13.796 Z8.175
G1 X21.728 Y19.925 Z8.175
G3 X21.226 Y21.668 Z8.175 I-4.358 J-0.313 K0.000
G1 X15.599 Y16.041 Z8.175
G1 X15.599 Y18.286 Z8.175
G1 X20.158 Y22.845 Z8.175
G3 X19.248 Y23.135 Z8.175 I-1.086 J-1.837 K0.000
G3 X18.282 Y23.215 Z8.175 I-1.049 J-6.859 K0.000
G1 X15.599 Y20.531 Z8.175
G1 X15.599 Y22.776 Z8.175
G1 X15.599 Y23.234 Z8.175
G1 X16.057 Y23.234 Z8.175
G1 X15.599 Y22.776 Z8.175
G1 X15.599 Y22.776 Z8.000
G1 X16.057 Y23.234 Z8.000
G1 X15.599 Y23.234 Z8.000
G1 X15.599 Y22.776 Z8.000
G1 X15.599 Y20.531 Z8.000
G1 X18.282 Y23.215 Z8.000
G2 X19.248 Y23.135 Z8.000 I-0.084 J-6.939 K0.000
G2 X20.158 Y22.845 Z8.000 I-0.175 J-2.127 K0.000
G1 X15.599 Y18.286 Z8.000
G1 X15.599 Y16.041 Z8.000
G1 X21.226 Y21.668 Z8.000
G2 X21.728 Y19.925 Z8.000 I-3.856 J-2.055 K0.000
G1 X15.599 Y13.796 Z8.000
G1 X15.599 Y13.593 Z8.000
G3 X17.642 Y13.594 Z8.000 I0.997 J69.263 K0.000
G1 X21.786 Y17.738 Z8.000
G2 X21.683 Y16.762 Z8.000 I-5.999 J0.144 K0.000
G2 X20.617 Y14.324 Z8.000 I-4.516 J0.522 K0.000
G1 X20.617 Y14.324 Z7.825
G3 X21.683 Y16.762 Z7.825 I-3.451 J2.960 K0.000
G3 X21.786 Y17.738 Z7.825 I-5.895 J1.119 K0.000
G1 X17.642 Y13.594 Z7.825
G2 X15.599 Y13.593 Z7.825 I-1.046 J69.262 K0.000
G1 X15.599 Y13.796 Z7.825
G1 X21.728 Y19.925 Z7.825
G3 X21.226 Y21.668 Z7.825 I-4.358 J-0.313 K0.000
G1 X15.599 Y16.041 Z7.825
G1 X15.599 Y18.286 Z7.825
G1 X20.158 Y22.845 Z7.825
G3 X19.248 Y23.135 Z7.825 I-1.086 J-1.837 K0.000
G3 X18.282 Y23.215 Z7.825 I-1.049 J-6.859 K0.000
G1 X15.599 Y20.531 Z7.825
G1 X15.599 Y22.776 Z7.825
G1 X15.599 Y23.234 Z7.825
G1 X16.057 Y23.234 Z7.825
G1 X15.599 Y22.776 Z7.825
G1 X15.599 Y22.776 Z7.650
G1 X16.057 Y23.234 Z7.650
G1 X15.599 Y23.234 Z7.650
G1 X15.599 Y22.776 Z7.650
G1 X15.599 Y20.531 Z7.650
G1 X18.282 Y23.215 Z7.650
G2 X19.248 Y23.135 Z7.650 I-0.084 J-6.939 K0.000
G2 X20.158 Y22.845 Z7.650 I-0.175 J-2.127 K0.000
G1 X15.599 Y18.286 Z7.650
G1 X15.599 Y16.041 Z7.650
G1 X21.226 Y21.668 Z7.650
G2 X21.728 Y19.925 Z7.650 I-3.856 J-2.055 K0.000
G1 X15.599 Y13.796 Z7.650
G1 X15.599 Y13.593 Z7.650
G3 X17.642 Y13.594 Z7.650 I0.997 J69.263 K0.000
G1 X21.786 Y17.738 Z7.650
G2 X21.683 Y16.762 Z7.650 I-5.999 J0.144 K0.000
G2 X20.617 Y14.324 Z7.650 I-4.516 J0.522 K0.000
G1 X20.617 Y14.324 Z7.475
G3 X21.683 Y16.762 Z7.475 I-3.451 J2.960 K0.000
G3 X21.786 Y17.738 Z7.475 I-5.895 J1.119 K0.000
G1 X17.642 Y13.594 Z7.475
G2 X15.599 Y13.593 Z7.475 I-1.046 J69.262 K0.000
G1 X15.599 Y13.796 Z7.475
G1 X21.728 Y19.925 Z7.475
G3 X21.226 Y21.668 Z7.475 I-4.358 J-0.313 K0.000
G1 X15.599 Y16.041 Z7.475
G1 X15.599 Y18.286 Z7.475
G1 X20.158 Y22.845 Z7.475
G3 X19.248 Y23.135 Z7.475 I-1.086 J-1.837 K0.000
G3 X18.282 Y23.215 Z7.475 I-1.049 J-6.859 K0.000
G1 X15.599 Y20.531 Z7.475
G1 X15.599 Y22.776 Z7.475
G1 X15.599 Y23.234 Z7.475
G1 X16.057 Y23.234 Z7.475
G1 X15.599 Y22.776 Z7.475
G1 X15.599 Y22.776 Z7.300
G1 X16.057 Y23.234 Z7.300
G1 X15.599 Y23.234 Z7.300
G1 X15.599 Y22.776 Z7.300
G1 X15.599 Y20.531 Z7.300
G1 X18.282 Y23.215 Z7.300
G2 X19.248 Y23.135 Z7.300 I-0.084 J-6.939 K0.000
G2 X20.158 Y22.845 Z7.300 I-0.175 J-2.127 K0.000
G1 X15.599 Y18.286 Z7.300
G1 X15.599 Y16.041 Z7.300
G1 X21.226 Y21.668 Z7.300
G2 X21.728 Y19.925 Z7.300 I-3.856 J-2.055 K0.000
G1 X15.599 Y13.796 Z7.300
G1 X15.599 Y13.593 Z7.300
G3 X17.642 Y13.594 Z7.300 I0.997 J69.263 K0.000
G1 X21.786 Y17.738 Z7.300
G2 X21.683 Y16.762 Z7.300 I-5.999 J0.144 K0.000
G2 X20.617 Y14.324 Z7.300 I-4.516 J0.522 K0.000
G1 X20.617 Y14.324 Z7.125
G3 X21.683 Y16.762 Z7.125 I-3.451 J2.960 K0.000
G3 X21.786 Y17.738 Z7.125 I-5.895 J1.119 K0.000
G1 X17.642 Y13.594 Z7.125
G2 X15.599 Y13.593 Z7.125 I-1.046 J69.262 K0.000
G1 X15.599 Y13.796 Z7.125
G1 X21.728 Y19.925 Z7.125
G3 X21.226 Y21.668 Z7.125 I-4.358 J-0.313 K0.000
G1 X15.599 Y16.041 Z7.125
G1 X15.599 Y18.286 Z7.125
G1 X20.158 Y22.845 Z7.125
G3 X19.248 Y23.135 Z7.125 I-1.086 J-1.837 K0.000
G3 X18.282 Y23.215 Z7.125 I-1.049 J-6.859 K0.000
G1 X15.599 Y20.531 Z7.125
G1 X15.599 Y22.776 Z7.125
G1 X15.599 Y23.234 Z7.125
G1 X16.057 Y23.234 Z7.125
G1 X15.599 Y22.776 Z7.125
G1 X15.599 Y22.776 Z6.950
G1 X16.057 Y23.234 Z6.950
G1 X15.599 Y23.234 Z6.950
G1 X15.599 Y22.776 Z6.950
G1 X15.599 Y20.531 Z6.950
G1 X18.282 Y23.215 Z6.950
G2 X19.248 Y23.135 Z6.950 I-0.084 J-6.939 K0.000
G2 X20.158 Y22.845 Z6.950 I-0.175 J-2.127 K0.000
G1 X15.599 Y18.286 Z6.950
G1 X15.599 Y16.041 Z6.950
G1 X21.226 Y21.668 Z6.950
G2 X21.728 Y19.925 Z6.950 I-3.856 J-2.055 K0.000
G1 X15.599 Y13.796 Z6.950
G1 X15.599 Y13.593 Z6.950
G3 X17.642 Y13.594 Z6.950 I0.997 J69.263 K0.000
G1 X21.786 Y17.738 Z6.950
G2 X21.683 Y16.762 Z6.950 I-5.999 J0.144 K0.000
G2 X20.617 Y14.324 Z6.950 I-4.516 J0.522 K0.000
G1 X20.617 Y14.324 Z6.775
G3 X21.683 Y16.762 Z6.775 I-3.451 J2.960 K0.000
G3 X21.786 Y17.738 Z6.775 I-5.895 J1.119 K0.000
G1 X17.642 Y13.594 Z6.775
G2 X15.599 Y13.593 Z6.775 I-1.046 J69.262 K0.000
G1 X15.599 Y13.796 Z6.775
G1 X21.728 Y19.925 Z6.775
G3 X21.226 Y21.668 Z6.775 I-4.358 J-0.313 K0.000
G1 X15.599 Y16.041 Z6.775
G1 X15.599 Y18.286 Z6.775
G1 X20.158 Y22.845 Z6.775
G3 X19.248 Y23.135 Z6.775 I-1.086 J-1.837 K0.000
G3 X18.282 Y23.215 Z6.775 I-1.049 J-6.859 K0.000
G1 X15.599 Y20.531 Z6.775
G1 X15.599 Y22.776 Z6.775
G1 X15.599 Y23.234 Z6.775
G1 X16.057 Y23.234 Z6.775
G1 X15.599 Y22.776 Z6.775
G1 X15.599 Y22.776 Z6.600
G1 X16.057 Y23.234 Z6.600
G1 X15.599 Y23.234 Z6.600
G1 X15.599 Y22.776 Z6.600
G1 X15.599 Y20.531 Z6.600
G1 X18.282 Y23.215 Z6.600
G2 X19.248 Y23.135 Z6.600 I-0.084 J-6.939 K0.000
G2 X20.158 Y22.845 Z6.600 I-0.175 J-2.127 K0.000
G1 X15.599 Y18.286 Z6.600
G1 X15.599 Y16.041 Z6.600
G1 X21.226 Y21.668 Z6.600
G2 X21.728 Y19.925 Z6.600 I-3.856 J-2.055 K0.000
G1 X15.599 Y13.796 Z6.600
G1 X15.599 Y13.593 Z6.600
G3 X17.642 Y13.594 Z6.600 I0.997 J69.263 K0.000
G1 X21.786 Y17.738 Z6.600
G2 X21.683 Y16.762 Z6.600 I-5.999 J0.144 K0.000
G2 X20.617 Y14.324 Z6.600 I-4.516 J0.522 K0.000
G1 X20.617 Y14.324 Z6.425
G3 X21.683 Y16.762 Z6.425 I-3.451 J2.960 K0.000
G3 X21.786 Y17.738 Z6.425 I-5.895 J1.119 K0.000
G1 X17.642 Y13.594 Z6.425
G2 X15.599 Y13.593 Z6.425 I-1.046 J69.262 K0.000
G1 X15.599 Y13.796 Z6.425
G1 X21.728 Y19.925 Z6.425
G3 X21.226 Y21.668 Z6.425 I-4.358 J-0.313 K0.000
G1 X15.599 Y16.041 Z6.425
G1 X15.599 Y18.286 Z6.425
G1 X20.158 Y22.845 Z6.425
G3 X19.248 Y23.135 Z6.425 I-1.086 J-1.837 K0.000
G3 X18.282 Y23.215 Z6.425 I-1.049 J-6.859 K0.000
G1 X15.599 Y20.531 Z6.425
G1 X15.599 Y22.776 Z6.425
G1 X15.599 Y23.234 Z6.425
G1 X16.057 Y23.234 Z6.425
G1 X15.599 Y22.776 Z6.425
G1 X15.599 Y22.776 Z6.250
G1 X16.057 Y23.234 Z6.250
G1 X15.599 Y23.234 Z6.250
G1 X15.599 Y22.776 Z6.250
G1 X15.599 Y20.531 Z6.250
G1 X18.282 Y23.215 Z6.250
G2 X19.248 Y23.135 Z6.250 I-0.084 J-6.939 K0.000
G2 X20.158 Y22.845 Z6.250 I-0.175 J-2.127 K0.000
G1 X15.599 Y18.286 Z6.250
G1 X15.599 Y16.041 Z6.250
G1 X21.226 Y21.668 Z6.250
G2 X21.728 Y19.925 Z6.250 I-3.856 J-2.055 K0.000
G1 X15.599 Y13.796 Z6.250
G1 X15.599 Y13.593 Z6.250
G3 X17.642 Y13.594 Z6.250 I0.997 J69.263 K0.000
G1 X21.786 Y17.738 Z6.250
G2 X21.683 Y16.762 Z6.250 I-5.999 J0.144 K0.000
G2 X20.617 Y14.324 Z6.250 I-4.516 J0.522 K0.000
G1 X20.617 Y14.324 Z6.075
G3 X21.683 Y16.762 Z6.075 I-3.451 J2.960 K0.000
G3 X21.786 Y17.738 Z6.075 I-5.895 J1.119 K0.000
G1 X17.642 Y13.594 Z6.075
G2 X15.599 Y13.593 Z6.075 I-1.046 J69.262 K0.000
G1 X15.599 Y13.796 Z6.075
G1 X21.728 Y19.925 Z6.075
G3 X21.226 Y21.668 Z6.075 I-4.358 J-0.313 K0.000
G1 X15.599 Y16.041 Z6.075
G1 X15.599 Y18.286 Z6.075
G1 X20.158 Y22.845 Z6.075
G3 X19.248 Y23.135 Z6.075 I-1.086 J-1.837 K0.000
G3 X18.282 Y23.215 Z6.075 I-1.049 J-6.859 K0.000
G1 X15.599 Y20.531 Z6.075
G1 X15.599 Y22.776 Z6.075
G1 X15.599 Y23.234 Z6.075
G1 X16.057 Y23.234 Z6.075
G1 X15.599 Y22.776 Z6.075
G1 X15.599 Y22.776 Z5.900
G1 X16.057 Y23.234 Z5.900
G1 X15.599 Y23.234 Z5.900
G1 X15.599 Y22.776 Z5.900
G1 X15.599 Y20.531 Z5.900
G1 X18.282 Y23.215 Z5.900
G2 X19.248 Y23.135 Z5.900 I-0.084 J-6.939 K0.000
G2 X20.158 Y22.845 Z5.900 I-0.175 J-2.127 K0.000
G1 X15.599 Y18.286 Z5.900
G1 X15.599 Y16.041 Z5.900
G1 X21.226 Y21.668 Z5.900
G2 X21.728 Y19.925 Z5.900 I-3.856 J-2.055 K0.000
G1 X15.599 Y13.796 Z5.900
G1 X15.599 Y13.593 Z5.900
G3 X17.642 Y13.594 Z5.900 I0.997 J69.263 K0.000
G1 X21.786 Y17.738 Z5.900
G2 X21.683 Y16.762 Z5.900 I-5.999 J0.144 K0.000
G2 X20.617 Y14.324 Z5.900 I-4.516 J0.522 K0.000
G1 X20.617 Y14.324 Z5.725
G3 X21.683 Y16.762 Z5.725 I-3.451 J2.960 K0.000
G3 X21.786 Y17.738 Z5.725 I-5.895 J1.119 K0.000
G1 X17.642 Y13.594 Z5.725
G2 X15.599 Y13.593 Z5.725 I-1.046 J69.262 K0.000
G1 X15.599 Y13.796 Z5.725
G1 X21.728 Y19.925 Z5.725
G3 X21.226 Y21.668 Z5.725 I-4.358 J-0.313 K0.000
G1 X15.599 Y16.041 Z5.725
G1 X15.599 Y18.286 Z5.725
G1 X20.158 Y22.845 Z5.725
G3 X19.248 Y23.135 Z5.725 I-1.086 J-1.837 K0.000
G3 X18.282 Y23.215 Z5.725 I-1.049 J-6.859 K0.000
G1 X15.599 Y20.531 Z5.725
G1 X15.599 Y22.776 Z5.725
G1 X15.599 Y23.234 Z5.725
G1 X16.057 Y23.234 Z5.725
G1 X15.599 Y22.776 Z5.725
G1 X15.599 Y22.776 Z5.550
G1 X16.057 Y23.234 Z5.550
G1 X15.599 Y23.234 Z5.550
G1 X15.599 Y22.776 Z5.550
G1 X15.599 Y20.531 Z5.550
G1 X18.282 Y23.215 Z5.550
G2 X19.248 Y23.135 Z5.550 I-0.084 J-6.939 K0.000
G2 X20.158 Y22.845 Z5.550 I-0.175 J-2.127 K0.000
G1 X15.599 Y18.286 Z5.550
G1 X15.599 Y16.041 Z5.550
G1 X21.226 Y21.668 Z5.550
G2 X21.728 Y19.925 Z5.550 I-3.856 J-2.055 K0.000
G1 X15.599 Y13.796 Z5.550
G1 X15.599 Y13.593 Z5.550
G3 X17.642 Y13.594 Z5.550 I0.997 J69.263 K0.000
G1 X21.786 Y17.738 Z5.550
G2 X21.683 Y16.762 Z5.550 I-5.999 J0.144 K0.000
G2 X20.617 Y14.324 Z5.550 I-4.516 J0.522 K0.000
G1 X20.617 Y14.324 Z5.400
G3 X21.683 Y16.762 Z5.400 I-3.451 J2.960 K0.000
G3 X21.786 Y17.738 Z5.400 I-5.895 J1.119 K0.000
G1 X17.642 Y13.594 Z5.400
G2 X15.599 Y13.593 Z5.400 I-1.046 J69.262 K0.000
G1 X15.599 Y13.796 Z5.400
G1 X21.728 Y19.925 Z5.400
G3 X21.226 Y21.668 Z5.400 I-4.358 J-0.313 K0.000
G1 X15.599 Y16.041 Z5.400
G1 X15.599 Y18.286 Z5.400
G1 X20.158 Y22.845 Z5.400
G3 X19.248 Y23.135 Z5.400 I-1.086 J-1.837 K0.000
G3 X18.282 Y23.215 Z5.400 I-1.049 J-6.859 K0.000
G1 X15.599 Y20.531 Z5.400
G1 X15.599 Y22.776 Z5.400
G1 X15.599 Y23.234 Z5.400
G1 X16.057 Y23.234 Z5.400
G1 X15.599 Y22.776 Z5.400
G0 Z15.400
G0 Z15.400
G0 X15.599 Y22.776
G0 X26.704 Y22.515
G0 X26.704 Y22.515 Z13.400
G1 X26.704 Y22.515 Z9.225
G1 X34.712 Y14.507 Z9.225
G1 X34.712 Y12.262 Z9.225
G1 X27.241 Y19.734 Z9.225
G2 X27.249 Y17.481 Z9.225 I-14.329 J-1.176 K0.000
G1 X34.712 Y10.017 Z9.225
G1 X34.712 Y7.772 Z9.225
G1 X26.992 Y15.493 Z9.225
G2 X26.466 Y13.773 Z9.225 I-10.002 J2.117 K0.000
G1 X34.712 Y5.527 Z9.225
G1 X34.712 Y3.282 Z9.225
G1 X25.738 Y12.256 Z9.225
G2 X24.777 Y10.972 Z9.225 I-6.222 J3.655 K0.000
G1 X34.162 Y1.588 Z9.225
G1 X31.916 Y1.588 Z9.225
G1 X23.595 Y9.909 Z9.225
G2 X22.137 Y9.122 Z9.225 I-3.811 J5.314 K0.000
G1 X29.671 Y1.588 Z9.225
G1 X27.426 Y1.588 Z9.225
G1 X20.389 Y8.625 Z9.225
G2 X18.341 Y8.428 Z9.225 I-2.153 J11.656 K0.000
G1 X25.181 Y1.588 Z9.225
G1 X22.936 Y1.588 Z9.225
G1 X16.111 Y8.413 Z9.225
G1 X13.866 Y8.413 Z9.225
G1 X20.691 Y1.588 Z9.225
G1 X18.446 Y1.588 Z9.225
G1 X11.597 Y8.436 Z9.225
G2 X10.246 Y9.787 Z9.225 I0.180 J1.530 K0.000
G1 X1.588 Y18.446 Z9.225
G1 X1.588 Y16.201 Z9.225
G1 X16.201 Y1.588 Z9.225
G1 X13.956 Y1.588 Z9.225
G1 X1.588 Y13.956 Z9.225
G1 X1.588 Y11.711 Z9.225
G1 X11.711 Y1.588 Z9.225
G1 X9.466 Y1.588 Z9.225
G1 X1.588 Y9.466 Z9.225
G1 X1.588 Y7.221 Z9.225
G1 X7.221 Y1.588 Z9.225
G1 X4.976 Y1.588 Z9.225
G1 X1.588 Y4.976 Z9.225
G1 X1.588 Y2.731 Z9.225
G1 X1.588 Y1.588 Z9.225
G1 X2.731 Y1.588 Z9.225
G1 X1.588 Y2.731 Z9.225
G0 Z15.400
G0 Y18.446 Z15.400
G0 Y18.446 Z13.400
G1 X1.588 Y18.446 Z9.225
G1 X10.246 Y9.787 Z9.225
G1 X10.222 Y10.000 Z9.225
G1 X10.222 Y12.056 Z9.225
G1 X1.588 Y20.691 Z9.225
G1 X1.588 Y22.936 Z9.225
G1 X10.222 Y14.301 Z9.225
G1 X10.222 Y16.546 Z9.225
G1 X1.588 Y25.181 Z9.225
G1 X1.588 Y27.426 Z9.225
G1 X10.222 Y18.791 Z9.225
G1 X10.222 Y21.036 Z9.225
G1 X1.588 Y29.671 Z9.225
G1 X1.588 Y31.916 Z9.225
G1 X10.222 Y23.282 Z9.225
G1 X10.222 Y25.527 Z9.225
G1 X1.588 Y34.162 Z9.225
G1 X1.588 Y34.712 Z9.225
G1 X3.282 Y34.712 Z9.225
G1 X10.418 Y27.577 Z9.225
G2 X11.824 Y28.415 Z9.225 I1.388 J-0.730 K0.000
G1 X5.527 Y34.712 Z9.225
G1 X7.772 Y34.712 Z9.225
G1 X14.069 Y28.415 Z9.225
G1 X16.314 Y28.415 Z9.225
G1 X10.017 Y34.712 Z9.225
G1 X12.262 Y34.712 Z9.225
G1 X18.576 Y28.399 Z9.225
G2 X21.138 Y28.082 Z9.225 I-0.138 J-11.634 K0.000
G1 X14.507 Y34.712 Z9.225
G1 X16.752 Y34.712 Z9.225
G1 X34.712 Y16.752 Z9.225
G1 X34.712 Y18.997 Z9.225
G1 X18.997 Y34.712 Z9.225
G1 X21.242 Y34.712 Z9.225
G1 X34.712 Y21.242 Z9.225
G1 X34.712 Y23.487 Z9.225
G1 X23.487 Y34.712 Z9.225
G1 X25.732 Y34.712 Z9.225
G1 X34.712 Y25.732 Z9.225
G1 X34.712 Y27.977 Z9.225
G1 X27.977 Y34.712 Z9.225
G1 X30.222 Y34.712 Z9.225
G1 X34.712 Y30.222 Z9.225
G1 X34.712 Y32.467 Z9.225
G1 X32.467 Y34.712 Z9.225
G1 X34.712 Y34.712 Z9.225
G1 X34.712 Y34.712 Z9.050
G1 X32.467 Y34.712 Z9.050
G1 X34.712 Y32.467 Z9.050
G1 X34.712 Y30.222 Z9.050
G1 X30.222 Y34.712 Z9.050
G1 X27.977 Y34.712 Z9.050
G1 X34.712 Y27.977 Z9.050
G1 X34.712 Y25.732 Z9.050
G1 X25.732 Y34.712 Z9.050
G1 X23.487 Y34.712 Z9.050
G1 X34.712 Y23.487 Z9.050
G1 X34.712 Y21.242 Z9.050
G1 X21.242 Y34.712 Z9.050
G1 X18.997 Y34.712 Z9.050
G1 X34.712 Y18.997 Z9.050
G1 X34.712 Y16.752 Z9.050
G1 X16.752 Y34.712 Z9.050
G1 X14.507 Y34.712 Z9.050
G1 X21.138 Y28.082 Z9.050
G3 X18.576 Y28.399 Z9.050 I-2.699 J-11.317 K0.000
G1 X12.262 Y34.712 Z9.050
G1 X10.017 Y34.712 Z9.050
G1 X16.314 Y28.415 Z9.050
G1 X14.069 Y28.415 Z9.050
G1 X7.772 Y34.712 Z9.050
G1 X5.527 Y34.712 Z9.050
G1 X11.824 Y28.415 Z9.050
G3 X10.418 Y27.577 Z9.050 I-0.018 J-1.568 K0.000
G1 X3.282 Y34.712 Z9.050
G1 X1.588 Y34.712 Z9.050
G1 X1.588 Y34.162 Z9.050
G1 X10.222 Y25.527 Z9.050
G1 X10.222 Y23.282 Z9.050
G1 X1.588 Y31.916 Z9.050
G1 X1.588 Y29.671 Z9.050
G1 X10.222 Y21.036 Z9.050
G1 X10.222 Y18.791 Z9.050
G1 X1.588 Y27.426 Z9.050
G1 X1.588 Y25.181 Z9.050
G1 X10.222 Y16.546 Z9.050
G1 X10.222 Y14.301 Z9.050
G1 X1.588 Y22.936 Z9.050
G1 X1.588 Y20.691 Z9.050
G1 X10.222 Y12.056 Z9.050
G1 X10.222 Y10.000 Z9.050
G1 X10.246 Y9.787 Z9.050
G1 X1.588 Y18.446 Z9.050
G0 Z15.400
G0 Y2.731 Z15.400
G0 Y2.731 Z13.400
G1 X1.588 Y2.731 Z9.050
G1 X2.731 Y1.588 Z9.050
G1 X1.588 Y1.588 Z9.050
G1 X1.588 Y2.731 Z9.050
G1 X1.588 Y4.976 Z9.050
G1 X4.976 Y1.588 Z9.050
G1 X7.221 Y1.588 Z9.050
G1 X1.588 Y7.221 Z9.050
G1 X1.588 Y9.466 Z9.050
G1 X9.466 Y1.588 Z9.050
G1 X11.711 Y1.588 Z9.050
G1 X1.588 Y11.711 Z9.050
G1 X1.588 Y13.956 Z9.050
G1 X13.956 Y1.588 Z9.050
G1 X16.201 Y1.588 Z9.050
G1 X1.588 Y16.201 Z9.050
G1 X1.588 Y18.446 Z9.050
G1 X10.246 Y9.787 Z9.050
G3 X11.597 Y8.436 Z9.050 I1.530 J0.180 K0.000
G1 X18.446 Y1.588 Z9.050
G1 X20.691 Y1.588 Z9.050
G1 X13.866 Y8.413 Z9.050
G1 X16.111 Y8.413 Z9.050
G1 X22.936 Y1.588 Z9.050
G1 X25.181 Y1.588 Z9.050
G1 X18.341 Y8.428 Z9.050
G3 X20.389 Y8.625 Z9.050 I-0.105 J11.853 K0.000
G1 X27.426 Y1.588 Z9.050
G1 X29.671 Y1.588 Z9.050
G1 X22.137 Y9.122 Z9.050
G3 X23.595 Y9.909 Z9.050 I-2.353 J6.102 K0.000
G1 X31.916 Y1.588 Z9.050
G1 X34.162 Y1.588 Z9.050
G1 X24.777 Y10.972 Z9.050
G3 X25.738 Y12.256 Z9.050 I-5.261 J4.939 K0.000
G1 X34.712 Y3.282 Z9.050
G1 X34.712 Y5.527 Z9.050
G1 X26.466 Y13.773 Z9.050
G3 X26.992 Y15.493 Z9.050 I-9.477 J3.837 K0.000
G1 X34.712 Y7.772 Z9.050
G1 X34.712 Y10.017 Z9.050
G1 X27.249 Y17.481 Z9.050
G3 X27.241 Y19.734 Z9.050 I-14.336 J1.077 K0.000
G1 X34.712 Y12.262 Z9.050
G1 X34.712 Y14.507 Z9.050
G1 X26.704 Y22.515 Z9.050
G1 X26.704 Y22.515 Z8.875
G1 X34.712 Y14.507 Z8.875
G1 X34.712 Y12.262 Z8.875
G1 X27.241 Y19.734 Z8.875
G2 X27.249 Y17.481 Z8.875 I-14.329 J-1.176 K0.000
G1 X34.712 Y10.017 Z8.875
G1 X34.712 Y7.772 Z8.875
G1 X26.992 Y15.493 Z8.875
G2 X26.466 Y13.773 Z8.875 I-10.002 J2.117 K0.000
G1 X34.712 Y5.527 Z8.875
G1 X34.712 Y3.282 Z8.875
G1 X25.738 Y12.256 Z8.875
G2 X24.777 Y10.972 Z8.875 I-6.222 J3.655 K0.000
G1 X34.162 Y1.588 Z8.875
G1 X31.916 Y1.588 Z8.875
G1 X23.595 Y9.909 Z8.875
G2 X22.137 Y9.122 Z8.875 I-3.811 J5.314 K0.000
G1 X29.671 Y1.588 Z8.875
G1 X27.426 Y1.588 Z8.875
G1 X20.389 Y8.625 Z8.875
G2 X18.341 Y8.428 Z8.875 I-2.153 J11.656 K0.000
G1 X25.181 Y1.588 Z8.875
G1 X22.936 Y1.588 Z8.875
G1 X16.111 Y8.413 Z8.875
G1 X13.866 Y8.413 Z8.875
G1 X20.691 Y1.588 Z8.875
G1 X18.446 Y1.588 Z8.875
G1 X11.597 Y8.436 Z8.875
G2 X10.246 Y9.787 Z8.875 I0.180 J1.530 K0.000
G1 X1.588 Y18.446 Z8.875
G1 X1.588 Y16.201 Z8.875
G1 X16.201 Y1.588 Z8.875
G1 X13.956 Y1.588 Z8.875
G1 X1.588 Y13.956 Z8.875
G1 X1.588 Y11.711 Z8.875
G1 X11.711 Y1.588 Z8.875
G1 X9.466 Y1.588 Z8.875
G1 X1.588 Y9.466 Z8.875
G1 X1.588 Y7.221 Z8.875
G1 X7.221 Y1.588 Z8.875
G1 X4.976 Y1.588 Z8.875
G1 X1.588 Y4.976 Z8.875
G1 X1.588 Y2.731 Z8.875
G1 X1.588 Y1.588 Z8.875
G1 X2.731 Y1.588 Z8.875
G1 X1.588 Y2.731 Z8.875
G0 Z15.400
G0 Y18.446 Z15.400
G0 Y18.446 Z13.400
G1 X1.588 Y18.446 Z8.875
G1 X10.246 Y9.787 Z8.875
G1 X10.222 Y10.000 Z8.875
G1 X10.222 Y12.056 Z8.875
G1 X1.588 Y20.691 Z8.875
G1 X1.588 Y22.936 Z8.875
G1 X10.222 Y14.301 Z8.875
G1 X10.222 Y16.546 Z8.875
G1 X1.588 Y25.181 Z8.875
G1 X1.588 Y27.426 Z8.875
G1 X10.222 Y18.791 Z8.875
G1 X10.222 Y21.036 Z8.875
G1 X1.588 Y29.671 Z8.875
G1 X1.588 Y31.916 Z8.875
G1 X10.222 Y23.282 Z8.875
G1 X10.222 Y25.527 Z8.875
G1 X1.588 Y34.162 Z8.875
G1 X1.588 Y34.712 Z8.875
G1 X3.282 Y34.712 Z8.875
G1 X10.418 Y27.577 Z8.875
G2 X11.824 Y28.415 Z8.875 I1.388 J-0.730 K0.000
G1 X5.527 Y34.712 Z8.875
G1 X7.772 Y34.712 Z8.875
G1 X14.069 Y28.415 Z8.875
G1 X16.314 Y28.415 Z8.875
G1 X10.017 Y34.712 Z8.875
G1 X12.262 Y34.712 Z8.875
G1 X18.576 Y28.399 Z8.875
G2 X21.138 Y28.082 Z8.875 I-0.138 J-11.634 K0.000
G1 X14.507 Y34.712 Z8.875
G1 X16.752 Y34.712 Z8.875
G1 X34.712 Y16.752 Z8.875
G1 X34.712 Y18.997 Z8.875
G1 X18.997 Y34.712 Z8.875
G1 X21.242 Y34.712 Z8.875
G1 X34.712 Y21.242 Z8.875
G1 X34.712 Y23.487 Z8.875
G1 X23.487 Y34.712 Z8.875
G1 X25.732 Y34.712 Z8.875
G1 X34.712 Y25.732 Z8.875
G1 X34.712 Y27.977 Z8.875
G1 X27.977 Y34.712 Z8.875
G1 X30.222 Y34.712 Z8.875
G1 X34.712 Y30.222 Z8.875
G1 X34.712 Y32.467 Z8.875
G1 X32.467 Y34.712 Z8.875
G1 X34.712 Y34.712 Z8.875
G1 X34.712 Y34.712 Z8.700
G1 X32.467 Y34.712 Z8.700
G1 X34.712 Y32.467 Z8.700
G1 X34.712 Y30.222 Z8.700
G1 X30.222 Y34.712 Z8.700
G1 X27.977 Y34.712 Z8.700
G1 X34.712 Y27.977 Z8.700
G1 X34.712 Y25.732 Z8.700
G1 X25.732 Y34.712 Z8.700
G1 X23.487 Y34.712 Z8.700
G1 X34.712 Y23.487 Z8.700
G1 X34.712 Y21.242 Z8.700
G1 X21.242 Y34.712 Z8.700
G1 X18.997 Y34.712 Z8.700
G1 X34.712 Y18.997 Z8.700
G1 X34.712 Y16.752 Z8.700
G1 X16.752 Y34.712 Z8.700
G1 X14.507 Y34.712 Z8.700
G1 X21.138 Y28.082 Z8.700
G3 X18.576 Y28.399 Z8.700 I-2.699 J-11.317 K0.000
G1 X12.262 Y34.712 Z8.700
G1 X10.017 Y34.712 Z8.700
G1 X16.314 Y28.415 Z8.700
G1 X14.069 Y28.415 Z8.700
G1 X7.772 Y34.712 Z8.700
G1 X5.527 Y34.712 Z8.700
G1 X11.824 Y28.415 Z8.700
G3 X10.418 Y27.577 Z8.700 I-0.018 J-1.568 K0.000
G1 X3.282 Y34.712 Z8.700
G1 X1.588 Y34.712 Z8.700
G1 X1.588 Y34.162 Z8.700
G1 X10.222 Y25.527 Z8.700
G1 X10.222 Y23.282 Z8.700
G1 X1.588 Y31.916 Z8.700
G1 X1.588 Y29.671 Z8.700
G1 X10.222 Y21.036 Z8.700
G1 X10.222 Y18.791 Z8.700
G1 X1.588 Y27.426 Z8.700
G1 X1.588 Y25.181 Z8.700
G1 X10.222 Y16.546 Z8.700
G1 X10.222 Y14.301 Z8.700
G1 X1.588 Y22.936 Z8.700
G1 X1.588 Y20.691 Z8.700
G1 X10.222 Y12.056 Z8.700
G1 X10.222 Y10.000 Z8.700
G1 X10.246 Y9.787 Z8.700
G1 X1.588 Y18.446 Z8.700
G0 Z15.400
G0 Y2.731 Z15.400
G0 Y2.731 Z13.400
G1 X1.588 Y2.731 Z8.700
G1 X2.731 Y1.588 Z8.700
G1 X1.588 Y1.588 Z8.700
G1 X1.588 Y2.731 Z8.700
G1 X1.588 Y4.976 Z8.700
G1 X4.976 Y1.588 Z8.700
G1 X7.221 Y1.588 Z8.700
G1 X1.588 Y7.221 Z8.700
G1 X1.588 Y9.466 Z8.700
G1 X9.466 Y1.588 Z8.700
G1 X11.711 Y1.588 Z8.700
G1 X1.588 Y11.711 Z8.700
G1 X1.588 Y13.956 Z8.700
G1 X13.956 Y1.588 Z8.700
G1 X16.201 Y1.588 Z8.700
G1 X1.588 Y16.201 Z8.700
G1 X1.588 Y18.446 Z8.700
G1 X10.246 Y9.787 Z8.700
G3 X11.597 Y8.436 Z8.700 I1.530 J0.180 K0.000
G1 X18.446 Y1.588 Z8.700
G1 X20.691 Y1.588 Z8.700
G1 X13.866 Y8.413 Z8.700
G1 X16.111 Y8.413 Z8.700
G1 X22.936 Y1.588 Z8.700
G1 X25.181 Y1.588 Z8.700
G1 X18.341 Y8.428 Z8.700
G3 X20.389 Y8.625 Z8.700 I-0.105 J11.853 K0.000
G1 X27.426 Y1.588 Z8.700
G1 X29.671 Y1.588 Z8.700
G1 X22.137 Y9.122 Z8.700
G3 X23.595 Y9.909 Z8.700 I-2.353 J6.102 K0.000
G1 X31.916 Y1.588 Z8.700
G1 X34.162 Y1.588 Z8.700
G1 X24.777 Y10.972 Z8.700
G3 X25.738 Y12.256 Z8.700 I-5.261 J4.939 K0.000
G1 X34.712 Y3.282 Z8.700
G1 X34.712 Y5.527 Z8.700
G1 X26.466 Y13.773 Z8.700
G3 X26.992 Y15.493 Z8.700 I-9.477 J3.837 K0.000
G1 X34.712 Y7.772 Z8.700
G1 X34.712 Y10.017 Z8.700
G1 X27.249 Y17.481 Z8.700
G3 X27.241 Y19.734 Z8.700 I-14.336 J1.077 K0.000
G1 X34.712 Y12.262 Z8.700
G1 X34.712 Y14.507 Z8.700
G1 X26.704 Y22.515 Z8.700
G1 X26.704 Y22.515 Z8.525
G1 X34.712 Y14.507 Z8.525
G1 X34.712 Y12.262 Z8.525
G1 X27.241 Y19.734 Z8.525
G2 X27.249 Y17.481 Z8.525 I-14.329 J-1.176 K0.000
G1 X34.712 Y10.017 Z8.525
G1 X34.712 Y7.772 Z8.525
G1 X26.992 Y15.493 Z8.525
G2 X26.466 Y13.773 Z8.525 I-10.002 J2.117 K0.000
G1 X34.712 Y5.527 Z8.525
G1 X34.712 Y3.282 Z8.525
G1 X25.738 Y12.256 Z8.525
G2 X24.777 Y10.972 Z8.525 I-6.222 J3.655 K0.000
G1 X34.162 Y1.588 Z8.525
G1 X31.916 Y1.588 Z8.525
G1 X23.595 Y9.909 Z8.525
G2 X22.137 Y9.122 Z8.525 I-3.811 J5.314 K0.000
G1 X29.671 Y1.588 Z8.525
G1 X27.426 Y1.588 Z8.525
G1 X20.389 Y8.625 Z8.525
G2 X18.341 Y8.428 Z8.525 I-2.153 J11.656 K0.000
G1 X25.181 Y1.588 Z8.525
G1 X22.936 Y1.588 Z8.525
G1 X16.111 Y8.413 Z8.525
G1 X13.866 Y8.413 Z8.525
G1 X20.691 Y1.588 Z8.525
G1 X18.446 Y1.588 Z8.525
G1 X11.597 Y8.436 Z8.525
G2 X10.246 Y9.787 Z8.525 I0.180 J1.530 K0.000
G1 X1.588 Y18.446 Z8.525
G1 X1.588 Y16.201 Z8.525
G1 X16.201 Y1.588 Z8.525
G1 X13.956 Y1.588 Z8.525
G1 X1.588 Y13.956 Z8.525
G1 X1.588 Y11.711 Z8.525
G1 X11.711 Y1.588 Z8.525
G1 X9.466 Y1.588 Z8.525
G1 X1.588 Y9.466 Z8.525
G1 X1.588 Y7.221 Z8.525
G1 X7.221 Y1.588 Z8.525
G1 X4.976 Y1.588 Z8.525
G1 X1.588 Y4.976 Z8.525
G1 X1.588 Y2.731 Z8.525
G1 X1.588 Y1.588 Z8.525
G1 X2.731 Y1.588 Z8.525
G1 X1.588 Y2.731 Z8.525
G0 Z15.400
G0 Y18.446 Z15.400
G0 Y18.446 Z13.400
G1 X1.588 Y18.446 Z8.525
G1 X10.246 Y9.787 Z8.525
G1 X10.222 Y10.000 Z8.525
G1 X10.222 Y12.056 Z8.525
G1 X1.588 Y20.691 Z8.525
G1 X1.588 Y22.936 Z8.525
G1 X10.222 Y14.301 Z8.525
G1 X10.222 Y16.546 Z8.525
G1 X1.588 Y25.181 Z8.525
G1 X1.588 Y27.426 Z8.525
G1 X10.222 Y18.791 Z8.525
G1 X10.222 Y21.036 Z8.525
G1 X1.588 Y29.671 Z8.525
G1 X1.588 Y31.916 Z8.525
G1 X10.222 Y23.282 Z8.525
G1 X10.222 Y25.527 Z8.525
G1 X1.588 Y34.162 Z8.525
G1 X1.588 Y34.712 Z8.525
G1 X3.282 Y34.712 Z8.525
G1 X10.418 Y27.577 Z8.525
G2 X11.824 Y28.415 Z8.525 I1.388 J-0.730 K0.000
G1 X5.527 Y34.712 Z8.525
G1 X7.772 Y34.712 Z8.525
G1 X14.069 Y28.415 Z8.525
G1 X16.314 Y28.415 Z8.525
G1 X10.017 Y34.712 Z8.525
G1 X12.262 Y34.712 Z8.525
G1 X18.576 Y28.399 Z8.525
G2 X21.138 Y28.082 Z8.525 I-0.138 J-11.634 K0.000
G1 X14.507 Y34.712 Z8.525
G1 X16.752 Y34.712 Z8.525
G1 X34.712 Y16.752 Z8.525
G1 X34.712 Y18.997 Z8.525
G1 X18.997 Y34.712 Z8.525
G1 X21.242 Y34.712 Z8.525
G1 X34.712 Y21.242 Z8.525
G1 X34.712 Y23.487 Z8.525
G1 X23.487 Y34.712 Z8.525
G1 X25.732 Y34.712 Z8.525
G1 X34.712 Y25.732 Z8.525
G1 X34.712 Y27.977 Z8.525
G1 X27.977 Y34.712 Z8.525
G1 X30.222 Y34.712 Z8.525
G1 X34.712 Y30.222 Z8.525
G1 X34.712 Y32.467 Z8.525
G1 X32.467 Y34.712 Z8.525
G1 X34.712 Y34.712 Z8.525
G1 X34.712 Y34.712 Z8.350
G1 X32.467 Y34.712 Z8.350
G1 X34.712 Y32.467 Z8.350
G1 X34.712 Y30.222 Z8.350
G1 X30.222 Y34.712 Z8.350
G1 X27.977 Y34.712 Z8.350
G1 X34.712 Y27.977 Z8.350
G1 X34.712 Y25.732 Z8.350
G1 X25.732 Y34.712 Z8.350
G1 X23.487 Y34.712 Z8.350
G1 X34.712 Y23.487 Z8.350
G1 X34.712 Y21.242 Z8.350
G1 X21.242 Y34.712 Z8.350
G1 X18.997 Y34.712 Z8.350
G1 X34.712 Y18.997 Z8.350
G1 X34.712 Y16.752 Z8.350
G1 X16.752 Y34.712 Z8.350
G1 X14.507 Y34.712 Z8.350
G1 X21.138 Y28.082 Z8.350
G3 X18.576 Y28.399 Z8.350 I-2.699 J-11.317 K0.000
G1 X12.262 Y34.712 Z8.350
G1 X10.017 Y34.712 Z8.350
G1 X16.314 Y28.415 Z8.350
G1 X14.069 Y28.415 Z8.350
G1 X7.772 Y34.712 Z8.350
G1 X5.527 Y34.712 Z8.350
G1 X11.824 Y28.415 Z8.350
G3 X10.418 Y27.577 Z8.350 I-0.018 J-1.568 K0.000
G1 X3.282 Y34.712 Z8.350
G1 X1.588 Y34.712 Z8.350
G1 X1.588 Y34.162 Z8.350
G1 X10.222 Y25.527 Z8.350
G1 X10.222 Y23.282 Z8.350
G1 X1.588 Y31.916 Z8.350
G1 X1.588 Y29.671 Z8.350
G1 X10.222 Y21.036 Z8.350
G1 X10.222 Y18.791 Z8.350
G1 X1.588 Y27.426 Z8.350
G1 X1.588 Y25.181 Z8.350
G1 X10.222 Y16.546 Z8.350
G1 X10.222 Y14.301 Z8.350
G1 X1.588 Y22.936 Z8.350
G1 X1.588 Y20.691 Z8.350
G1 X10.222 Y12.056 Z8.350
G1 X10.222 Y10.000 Z8.350
G1 X10.246 Y9.787 Z8.350
G1 X1.588 Y18.446 Z8.350
G0 Z15.400
G0 Y2.731 Z15.400
G0 Y2.731 Z13.400
G1 X1.588 Y2.731 Z8.350
G1 X2.731 Y1.588 Z8.350
G1 X1.588 Y1.588 Z8.350
G1 X1.588 Y2.731 Z8.350
G1 X1.588 Y4.976 Z8.350
G1 X4.976 Y1.588 Z8.350
G1 X7.221 Y1.588 Z8.350
G1 X1.588 Y7.221 Z8.350
G1 X1.588 Y9.466 Z8.350
G1 X9.466 Y1.588 Z8.350
G1 X11.711 Y1.588 Z8.350
G1 X1.588 Y11.711 Z8.350
G1 X1.588 Y13.956 Z8.350
G1 X13.956 Y1.588 Z8.350
G1 X16.201 Y1.588 Z8.350
G1 X1.588 Y16.201 Z8.350
G1 X1.588 Y18.446 Z8.350
G1 X10.246 Y9.787 Z8.350
G3 X11.597 Y8.436 Z8.350 I1.530 J0.180 K0.000
G1 X18.446 Y1.588 Z8.350
G1 X20.691 Y1.588 Z8.350
G1 X13.866 Y8.413 Z8.350
G1 X16.111 Y8.413 Z8.350
G1 X22.936 Y1.588 Z8.350
G1 X25.181 Y1.588 Z8.350
G1 X18.341 Y8.428 Z8.350
G3 X20.389 Y8.625 Z8.350 I-0.105 J11.853 K0.000
G1 X27.426 Y1.588 Z8.350
G1 X29.671 Y1.588 Z8.350
G1 X22.137 Y9.122 Z8.350
G3 X23.595 Y9.909 Z8.350 I-2.353 J6.102 K0.000
G1 X31.916 Y1.588 Z8.350
G1 X34.162 Y1.588 Z8.350
G1 X24.777 Y10.972 Z8.350
G3 X25.738 Y12.256 Z8.350 I-5.261 J4.939 K0.000
G1 X34.712 Y3.282 Z8.350
G1 X34.712 Y5.527 Z8.350
G1 X26.466 Y13.773 Z8.350
G3 X26.992 Y15.493 Z8.350 I-9.477 J3.837 K0.000
G1 X34.712 Y7.772 Z8.350
G1 X34.712 Y10.017 Z8.350
G1 X27.249 Y17.481 Z8.350
G3 X27.241 Y19.734 Z8.350 I-14.336 J1.077 K0.000
G1 X34.712 Y12.262 Z8.350
G1 X34.712 Y14.507 Z8.350
G1 X26.704 Y22.515 Z8.350
G1 X26.704 Y22.515 Z8.175
G1 X34.712 Y14.507 Z8.175
G1 X34.712 Y12.262 Z8.175
G1 X27.241 Y19.734 Z8.175
G2 X27.249 Y17.481 Z8.175 I-14.329 J-1.176 K0.000
G1 X34.712 Y10.017 Z8.175
G1 X34.712 Y7.772 Z8.175
G1 X26.992 Y15.493 Z8.175
G2 X26.466 Y13.773 Z8.175 I-10.002 J2.117 K0.000
G1 X34.712 Y5.527 Z8.175
G1 X34.712 Y3.282 Z8.175
G1 X25.738 Y12.256 Z8.175
G2 X24.777 Y10.972 Z8.175 I-6.222 J3.655 K0.000
G1 X34.162 Y1.588 Z8.175
G1 X31.916 Y1.588 Z8.175
G1 X23.595 Y9.909 Z8.175
G2 X22.137 Y9.122 Z8.175 I-3.811 J5.314 K0.000
G1 X29.671 Y1.588 Z8.175
G1 X27.426 Y1.588 Z8.175
G1 X20.389 Y8.625 Z8.175
G2 X18.341 Y8.428 Z8.175 I-2.153 J11.656 K0.000
G1 X25.181 Y1.588 Z8.175
G1 X22.936 Y1.588 Z8.175
G1 X16.111 Y8.413 Z8.175
G1 X13.866 Y8.413 Z8.175
G1 X20.691 Y1.588 Z8.175
G1 X18.446 Y1.588 Z8.175
G1 X11.597 Y8.436 Z8.175
G2 X10.246 Y9.787 Z8.175 I0.180 J1.530 K0.000
G1 X1.588 Y18.446 Z8.175
G1 X1.588 Y16.201 Z8.175
G1 X16.201 Y1.588 Z8.175
G1 X13.956 Y1.588 Z8.175
G1 X1.588 Y13.956 Z8.175
G1 X1.588 Y11.711 Z8.175
G1 X11.711 Y1.588 Z8.175
G1 X9.466 Y1.588 Z8.175
G1 X1.588 Y9.466 Z8.175
G1 X1.588 Y7.221 Z8.175
G1 X7.221 Y1.588 Z8.175
G1 X4.976 Y1.588 Z8.175
G1 X1.588 Y4.976 Z8.175
G1 X1.588 Y2.731 Z8.175
G1 X1.588 Y1.588 Z8.175
G1 X2.731 Y1.588 Z8.175
G1 X1.588 Y2.731 Z8.175
G0 Z15.400
G0 Y18.446 Z15.400
G0 Y18.446 Z13.400
G1 X1.588 Y18.446 Z8.175
G1 X10.246 Y9.787 Z8.175
G1 X10.222 Y10.000 Z8.175
G1 X10.222 Y12.056 Z8.175
G1 X1.588 Y20.691 Z8.175
G1 X1.588 Y22.936 Z8.175
G1 X10.222 Y14.301 Z8.175
G1 X10.222 Y16.546 Z8.175
G1 X1.588 Y25.181 Z8.175
G1 X1.588 Y27.426 Z8.175
G1 X10.222 Y18.791 Z8.175
G1 X10.222 Y21.036 Z8.175
G1 X1.588 Y29.671 Z8.175
G1 X1.588 Y31.916 Z8.175
G1 X10.222 Y23.282 Z8.175
G1 X10.222 Y25.527 Z8.175
G1 X1.588 Y34.162 Z8.175
G1 X1.588 Y34.712 Z8.175
G1 X3.282 Y34.712 Z8.175
G1 X10.418 Y27.577 Z8.175
G2 X11.824 Y28.415 Z8.175 I1.388 J-0.730 K0.000
G1 X5.527 Y34.712 Z8.175
G1 X7.772 Y34.712 Z8.175
G1 X14.069 Y28.415 Z8.175
G1 X16.314 Y28.415 Z8.175
G1 X10.017 Y34.712 Z8.175
G1 X12.262 Y34.712 Z8.175
G1 X18.576 Y28.399 Z8.175
G2 X21.138 Y28.082 Z8.175 I-0.138 J-11.634 K0.000
G1 X14.507 Y34.712 Z8.175
G1 X16.752 Y34.712 Z8.175
G1 X34.712 Y16.752 Z8.175
G1 X34.712 Y18.997 Z8.175
G1 X18.997 Y34.712 Z8.175
G1 X21.242 Y34.712 Z8.175
G1 X34.712 Y21.242 Z8.175
G1 X34.712 Y23.487 Z8.175
G1 X23.487 Y34.712 Z8.175
G1 X25.732 Y34.712 Z8.175
G1 X34.712 Y25.732 Z8.175
G1 X34.712 Y27.977 Z8.175
G1 X27.977 Y34.712 Z8.175
G1 X30.222 Y34.712 Z8.175
G1 X34.712 Y30.222 Z8.175
G1 X34.712 Y32.467 Z8.175
G1 X32.467 Y34.712 Z8.175
G1 X34.712 Y34.712 Z8.175
G1 X34.712 Y34.712 Z8.000
G1 X32.467 Y34.712 Z8.000
G1 X34.712 Y32.467 Z8.000
G1 X34.712 Y30.222 Z8.000
G1 X30.222 Y34.712 Z8.000
G1 X27.977 Y34.712 Z8.000
G1 X34.712 Y27.977 Z8.000
G1 X34.712 Y25.732 Z8.000
G1 X25.732 Y34.712 Z8.000
G1 X23.487 Y34.712 Z8.000
G1 X34.712 Y23.487 Z8.000
G1 X34.712 Y21.242 Z8.000
G1 X21.242 Y34.712 Z8.000
G1 X18.997 Y34.712 Z8.000
G1 X34.712 Y18.997 Z8.000
G1 X34.712 Y16.752 Z8.000
G1 X16.752 Y34.712 Z8.000
G1 X14.507 Y34.712 Z8.000
G1 X21.138 Y28.082 Z8.000
G3 X18.576 Y28.399 Z8.000 I-2.699 J-11.317 K0.000
G1 X12.262 Y34.712 Z8.000
G1 X10.017 Y34.712 Z8.000
G1 X16.314 Y28.415 Z8.000
G1 X14.069 Y28.415 Z8.000
G1 X7.772 Y34.712 Z8.000
G1 X5.527 Y34.712 Z8.000
G1 X11.824 Y28.415 Z8.000
G3 X10.418 Y27.577 Z8.000 I-0.018 J-1.568 K0.000
G1 X3.282 Y34.712 Z8.000
G1 X1.588 Y34.712 Z8.000
G1 X1.588 Y34.162 Z8.000
G1 X10.222 Y25.527 Z8.000
G1 X10.222 Y23.282 Z8.000
G1 X1.588 Y31.916 Z8.000
G1 X1.588 Y29.671 Z8.000
G1 X10.222 Y21.036 Z8.000
G1 X10.222 Y18.791 Z8.000
G1 X1.588 Y27.426 Z8.000
G1 X1.588 Y25.181 Z8.000
G1 X10.222 Y16.546 Z8.000
G1 X10.222 Y14.301 Z8.000
G1 X1.588 Y22.936 Z8.000
G1 X1.588 Y20.691 Z8.000
G1 X10.222 Y12.056 Z8.000
G1 X10.222 Y10.000 Z8.000
G1 X10.246 Y9.787 Z8.000
G1 X1.588 Y18.446 Z8.000
G0 Z15.400
G0 Y2.731 Z15.400
G0 Y2.731 Z13.400
G1 X1.588 Y2.731 Z8.000
G1 X2.731 Y1.588 Z8.000
G1 X1.588 Y1.588 Z8.000
G1 X1.588 Y2.731 Z8.000
G1 X1.588 Y4.976 Z8.000
G1 X4.976 Y1.588 Z8.000
G1 X7.221 Y1.588 Z8.000
G1 X1.588 Y7.221 Z8.000
G1 X1.588 Y9.466 Z8.000
G1 X9.466 Y1.588 Z8.000
G1 X11.711 Y1.588 Z8.000
G1 X1.588 Y11.711 Z8.000
G1 X1.588 Y13.956 Z8.000
G1 X13.956 Y1.588 Z8.000
G1 X16.201 Y1.588 Z8.000
G1 X1.588 Y16.201 Z8.000
G1 X1.588 Y18.446 Z8.000
G1 X10.246 Y9.787 Z8.000
G3 X11.597 Y8.436 Z8.000 I1.530 J0.180 K0.000
G1 X18.446 Y1.588 Z8.000
G1 X20.691 Y1.588 Z8.000
G1 X13.866 Y8.413 Z8.000
G1 X16.111 Y8.413 Z8.000
G1 X22.936 Y1.588 Z8.000
G1 X25.181 Y1.588 Z8.000
G1 X18.341 Y8.428 Z8.000
G3 X20.389 Y8.625 Z8.000 I-0.105 J11.853 K0.000
G1 X27.426 Y1.588 Z8.000
G1 X29.671 Y1.588 Z8.000
G1 X22.137 Y9.122 Z8.000
G3 X23.595 Y9.909 Z8.000 I-2.353 J6.102 K0.000
G1 X31.916 Y1.588 Z8.000
G1 X34.162 Y1.588 Z8.000
G1 X24.777 Y10.972 Z8.000
G3 X25.738 Y12.256 Z8.000 I-5.261 J4.939 K0.000
G1 X34.712 Y3.282 Z8.000
G1 X34.712 Y5.527 Z8.000
G1 X26.466 Y13.773 Z8.000
G3 X26.992 Y15.493 Z8.000 I-9.477 J3.837 K0.000
G1 X34.712 Y7.772 Z8.000
G1 X34.712 Y10.017 Z8.000
G1 X27.249 Y17.481 Z8.000
G3 X27.241 Y19.734 Z8.000 I-14.336 J1.077 K0.000
G1 X34.712 Y12.262 Z8.000
G1 X34.712 Y14.507 Z8.000
G1 X26.704 Y22.515 Z8.000
G1 X26.704 Y22.515 Z7.825
G1 X34.712 Y14.507 Z7.825
G1 X34.712 Y12.262 Z7.825
G1 X27.241 Y19.734 Z7.825
G2 X27.249 Y17.481 Z7.825 I-14.329 J-1.176 K0.000
G1 X34.712 Y10.017 Z7.825
G1 X34.712 Y7.772 Z7.825
G1 X26.992 Y15.493 Z7.825
G2 X26.466 Y13.773 Z7.825 I-10.002 J2.117 K0.000
G1 X34.712 Y5.527 Z7.825
G1 X34.712 Y3.282 Z7.825
G1 X25.738 Y12.256 Z7.825
G2 X24.777 Y10.972 Z7.825 I-6.222 J3.655 K0.000
G1 X34.162 Y1.588 Z7.825
G1 X31.916 Y1.588 Z7.825
G1 X23.595 Y9.909 Z7.825
G2 X22.137 Y9.122 Z7.825 I-3.811 J5.314 K0.000
G1 X29.671 Y1.588 Z7.825
G1 X27.426 Y1.588 Z7.825
G1 X20.389 Y8.625 Z7.825
G2 X18.341 Y8.428 Z7.825 I-2.153 J11.656 K0.000
G1 X25.181 Y1.588 Z7.825
G1 X22.936 Y1.588 Z7.825
G1 X16.111 Y8.413 Z7.825
G1 X13.866 Y8.413 Z7.825
G1 X20.691 Y1.588 Z7.825
G1 X18.446 Y1.588 Z7.825
G1 X11.597 Y8.436 Z7.825
G2 X10.246 Y9.787 Z7.825 I0.180 J1.530 K0.000
G1 X1.588 Y18.446 Z7.825
G1 X1.588 Y16.201 Z7.825
G1 X16.201 Y1.588 Z7.825
G1 X13.956 Y1.588 Z7.825
G1 X1.588 Y13.956 Z7.825
G1 X1.588 Y11.711 Z7.825
G1 X11.711 Y1.588 Z7.825
G1 X9.466 Y1.588 Z7.825
G1 X1.588 Y9.466 Z7.825
G1 X1.588 Y7.221 Z7.825
G1 X7.221 Y1.588 Z7.825
G1 X4.976 Y1.588 Z7.825
G1 X1.588 Y4.976 Z7.825
G1 X1.588 Y2.731 Z7.825
G1 X1.588 Y1.588 Z7.825
G1 X2.731 Y1.588 Z7.825
G1 X1.588 Y2.731 Z7.825
G0 Z15.400
G0 Y18.446 Z15.400
G0 Y18.446 Z13.400
G1 X1.588 Y18.446 Z7.825
G1 X10.246 Y9.787 Z7.825
G1 X10.222 Y10.000 Z7.825
G1 X10.222 Y12.056 Z7.825
G1 X1.588 Y20.691 Z7.825
G1 X1.588 Y22.936 Z7.825
G1 X10.222 Y14.301 Z7.825
G1 X10.222 Y16.546 Z7.825
G1 X1.588 Y25.181 Z7.825
G1 X1.588 Y27.426 Z7.825
G1 X10.222 Y18.791 Z7.825
G1 X10.222 Y21.036 Z7.825
G1 X1.588 Y29.671 Z7.825
G1 X1.588 Y31.916 Z7.825
G1 X10.222 Y23.282 Z7.825
G1 X10.222 Y25.527 Z7.825
G1 X1.588 Y34.162 Z7.825
G1 X1.588 Y34.712 Z7.825
G1 X3.282 Y34.712 Z7.825
G1 X10.418 Y27.577 Z7.825
G2 X11.824 Y28.415 Z7.825 I1.388 J-0.730 K0.000
G1 X5.527 Y34.712 Z7.825
G1 X7.772 Y34.712 Z7.825
G1 X14.069 Y28.415 Z7.825
G1 X16.314 Y28.415 Z7.825
G1 X10.017 Y34.712 Z7.825
G1 X12.262 Y34.712 Z7.825
G1 X18.576 Y28.399 Z7.825
G2 X21.138 Y28.082 Z7.825 I-0.138 J-11.634 K0.000
G1 X14.507 Y34.712 Z7.825
G1 X16.752 Y34.712 Z7.825
G1 X34.712 Y16.752 Z7.825
G1 X34.712 Y18.997 Z7.825
G1 X18.997 Y34.712 Z7.825
G1 X21.242 Y34.712 Z7.825
G1 X34.712 Y21.242 Z7.825
G1 X34.712 Y23.487 Z7.825
G1 X23.487 Y34.712 Z7.825
G1 X25.732 Y34.712 Z7.825
G1 X34.712 Y25.732 Z7.825
G1 X34.712 Y27.977 Z7.825
G1 X27.977 Y34.712 Z7.825
G1 X30.222 Y34.712 Z7.825
G1 X34.712 Y30.222 Z7.825
G1 X34.712 Y32.467 Z7.825
G1 X32.467 Y34.712 Z7.825
G1 X34.712 Y34.712 Z7.825
G1 X34.712 Y34.712 Z7.650
G1 X32.467 Y34.712 Z7.650
G1 X34.712 Y32.467 Z7.650
G1 X34.712 Y30.222 Z7.650
G1 X30.222 Y34.712 Z7.650
G1 X27.977 Y34.712 Z7.650
G1 X34.712 Y27.977 Z7.650
G1 X34.712 Y25.732 Z7.650
G1 X25.732 Y34.712 Z7.650
G1 X23.487 Y34.712 Z7.650
G1 X34.712 Y23.487 Z7.650
G1 X34.712 Y21.242 Z7.650
G1 X21.242 Y34.712 Z7.650
G1 X18.997 Y34.712 Z7.650
G1 X34.712 Y18.997 Z7.650
G1 X34.712 Y16.752 Z7.650
G1 X16.752 Y34.712 Z7.650
G1 X14.507 Y34.712 Z7.650
G1 X21.138 Y28.082 Z7.650
G3 X18.576 Y28.399 Z7.650 I-2.699 J-11.317 K0.000
G1 X12.262 Y34.712 Z7.650
G1 X10.017 Y34.712 Z7.650
G1 X16.314 Y28.415 Z7.650
G1 X14.069 Y28.415 Z7.650
G1 X7.772 Y34.712 Z7.650
G1 X5.527 Y34.712 Z7.650
G1 X11.824 Y28.415 Z7.650
G3 X10.418 Y27.577 Z7.650 I-0.018 J-1.568 K0.000
G1 X3.282 Y34.712 Z7.650
G1 X1.588 Y34.712 Z7.650
G1 X1.588 Y34.162 Z7.650
G1 X10.222 Y25.527 Z7.650
G1 X10.222 Y23.282 Z7.650
G1 X1.588 Y31.916 Z7.650
G1 X1.588 Y29.671 Z7.650
G1 X10.222 Y21.036 Z7.650
G1 X10.222 Y18.791 Z7.650
G1 X1.588 Y27.426 Z7.650
G1 X1.588 Y25.181 Z7.650
G1 X10.222 Y16.546 Z7.650
G1 X10.222 Y14.301 Z7.650
G1 X1.588 Y22.936 Z7.650
G1 X1.588 Y20.691 Z7.650
G1 X10.222 Y12.056 Z7.650
G1 X10.222 Y10.000 Z7.650
G1 X10.246 Y9.787 Z7.650
G1 X1.588 Y18.446 Z7.650
G0 Z15.400
G0 Y2.731 Z15.400
G0 Y2.731 Z13.400
G1 X1.588 Y2.731 Z7.650
G1 X2.731 Y1.588 Z7.650
G1 X1.588 Y1.588 Z7.650
G1 X1.588 Y2.731 Z7.650
G1 X1.588 Y4.976 Z7.650
G1 X4.976 Y1.588 Z7.650
G1 X7.221 Y1.588 Z7.650
G1 X1.588 Y7.221 Z7.650
G1 X1.588 Y9.466 Z7.650
G1 X9.466 Y1.588 Z7.650
G1 X11.711 Y1.588 Z7.650
G1 X1.588 Y11.711 Z7.650
G1 X1.588 Y13.956 Z7.650
G1 X13.956 Y1.588 Z7.650
G1 X16.201 Y1.588 Z7.650
G1 X1.588 Y16.201 Z7.650
G1 X1.588 Y18.446 Z7.650
G1 X10.246 Y9.787 Z7.650
G3 X11.597 Y8.436 Z7.650 I1.530 J0.180 K0.000
G1 X18.446 Y1.588 Z7.650
G1 X20.691 Y1.588 Z7.650
G1 X13.866 Y8.413 Z7.650
G1 X16.111 Y8.413 Z7.650
G1 X22.936 Y1.588 Z7.650
G1 X25.181 Y1.588 Z7.650
G1 X18.341 Y8.428 Z7.650
G3 X20.389 Y8.625 Z7.650 I-0.105 J11.853 K0.000
G1 X27.426 Y1.588 Z7.650
G1 X29.671 Y1.588 Z7.650
G1 X22.137 Y9.122 Z7.650
G3 X23.595 Y9.909 Z7.650 I-2.353 J6.102 K0.000
G1 X31.916 Y1.588 Z7.650
G1 X34.162 Y1.588 Z7.650
G1 X24.777 Y10.972 Z7.650
G3 X25.738 Y12.256 Z7.650 I-5.261 J4.939 K0.000
G1 X34.712 Y3.282 Z7.650
G1 X34.712 Y5.527 Z7.650
G1 X26.466 Y13.773 Z7.650
G3 X26.992 Y15.493 Z7.650 I-9.477 J3.837 K0.000
G1 X34.712 Y7.772 Z7.650
G1 X34.712 Y10.017 Z7.650
G1 X27.249 Y17.481 Z7.650
G3 X27.241 Y19.734 Z7.650 I-14.336 J1.077 K0.000
G1 X34.712 Y12.262 Z7.650
G1 X34.712 Y14.507 Z7.650
G1 X26.704 Y22.515 Z7.650
G1 X26.704 Y22.515 Z7.475
G1 X34.712 Y14.507 Z7.475
G1 X34.712 Y12.262 Z7.475
G1 X27.241 Y19.734 Z7.475
G2 X27.249 Y17.481 Z7.475 I-14.329 J-1.176 K0.000
G1 X34.712 Y10.017 Z7.475
G1 X34.712 Y7.772 Z7.475
G1 X26.992 Y15.493 Z7.475
G2 X26.466 Y13.773 Z7.475 I-10.002 J2.117 K0.000
G1 X34.712 Y5.527 Z7.475
G1 X34.712 Y3.282 Z7.475
G1 X25.738 Y12.256 Z7.475
G2 X24.777 Y10.972 Z7.475 I-6.222 J3.655 K0.000
G1 X34.162 Y1.588 Z7.475
G1 X31.916 Y1.588 Z7.475
G1 X23.595 Y9.909 Z7.475
G2 X22.137 Y9.122 Z7.475 I-3.811 J5.314 K0.000
G1 X29.671 Y1.588 Z7.475
G1 X27.426 Y1.588 Z7.475
G1 X20.389 Y8.625 Z7.475
G2 X18.341 Y8.428 Z7.475 I-2.153 J11.656 K0.000
G1 X25.181 Y1.588 Z7.475
G1 X22.936 Y1.588 Z7.475
G1 X16.111 Y8.413 Z7.475
G1 X13.866 Y8.413 Z7.475
G1 X20.691 Y1.588 Z7.475
G1 X18.446 Y1.588 Z7.475
G1 X11.597 Y8.436 Z7.475
G2 X10.246 Y9.787 Z7.475 I0.180 J1.530 K0.000
G1 X1.588 Y18.446 Z7.475
G1 X1.588 Y16.201 Z7.475
G1 X16.201 Y1.588 Z7.475
G1 X13.956 Y1.588 Z7.475
G1 X1.588 Y13.956 Z7.475
G1 X1.588 Y11.711 Z7.475
G1 X11.711 Y1.588 Z7.475
G1 X9.466 Y1.588 Z7.475
G1 X1.588 Y9.466 Z7.475
G1 X1.588 Y7.221 Z7.475
G1 X7.221 Y1.588 Z7.475
G1 X4.976 Y1.588 Z7.475
G1 X1.588 Y4.976 Z7.475
G1 X1.588 Y2.731 Z7.475
G1 X1.588 Y1.588 Z7.475
G1 X2.731 Y1.588 Z7.475
G1 X1.588 Y2.731 Z7.475
G0 Z15.400
G0 Y18.446 Z15.400
G0 Y18.446 Z13.400
G1 X1.588 Y18.446 Z7.475
G1 X10.246 Y9.787 Z7.475
G1 X10.222 Y10.000 Z7.475
G1 X10.222 Y12.056 Z7.475
G1 X1.588 Y20.691 Z7.475
G1 X1.588 Y22.936 Z7.475
G1 X10.222 Y14.301 Z7.475
G1 X10.222 Y16.546 Z7.475
G1 X1.588 Y25.181 Z7.475
G1 X1.588 Y27.426 Z7.475
G1 X10.222 Y18.791 Z7.475
G1 X10.222 Y21.036 Z7.475
G1 X1.588 Y29.671 Z7.475
G1 X1.588 Y31.916 Z7.475
G1 X10.222 Y23.282 Z7.475
G1 X10.222 Y25.527 Z7.475
G1 X1.588 Y34.162 Z7.475
G1 X1.588 Y34.712 Z7.475
G1 X3.282 Y34.712 Z7.475
G1 X10.418 Y27.577 Z7.475
G2 X11.824 Y28.415 Z7.475 I1.388 J-0.730 K0.000
G1 X5.527 Y34.712 Z7.475
G1 X7.772 Y34.712 Z7.475
G1 X14.069 Y28.415 Z7.475
G1 X16.314 Y28.415 Z7.475
G1 X10.017 Y34.712 Z7.475
G1 X12.262 Y34.712 Z7.475
G1 X18.576 Y28.399 Z7.475
G2 X21.138 Y28.082 Z7.475 I-0.138 J-11.634 K0.000
G1 X14.507 Y34.712 Z7.475
G1 X16.752 Y34.712 Z7.475
G1 X34.712 Y16.752 Z7.475
G1 X34.712 Y18.997 Z7.475
G1 X18.997 Y34.712 Z7.475
G1 X21.242 Y34.712 Z7.475
G1 X34.712 Y21.242 Z7.475
G1 X34.712 Y23.487 Z7.475
G1 X23.487 Y34.712 Z7.475
G1 X25.732 Y34.712 Z7.475
G1 X34.712 Y25.732 Z7.475
G1 X34.712 Y27.977 Z7.475
G1 X27.977 Y34.712 Z7.475
G1 X30.222 Y34.712 Z7.475
G1 X34.712 Y30.222 Z7.475
G1 X34.712 Y32.467 Z7.475
G1 X32.467 Y34.712 Z7.475
G1 X34.712 Y34.712 Z7.475
G1 X34.712 Y34.712 Z7.300
G1 X32.467 Y34.712 Z7.300
G1 X34.712 Y32.467 Z7.300
G1 X34.712 Y30.222 Z7.300
G1 X30.222 Y34.712 Z7.300
G1 X27.977 Y34.712 Z7.300
G1 X34.712 Y27.977 Z7.300
G1 X34.712 Y25.732 Z7.300
G1 X25.732 Y34.712 Z7.300
G1 X23.487 Y34.712 Z7.300
G1 X34.712 Y23.487 Z7.300
G1 X34.712 Y21.242 Z7.300
G1 X21.242 Y34.712 Z7.300
G1 X18.997 Y34.712 Z7.300
G1 X34.712 Y18.997 Z7.300
G1 X34.712 Y16.752 Z7.300
G1 X16.752 Y34.712 Z7.300
G1 X14.507 Y34.712 Z7.300
G1 X21.138 Y28.082 Z7.300
G3 X18.576 Y28.399 Z7.300 I-2.699 J-11.317 K0.000
G1 X12.262 Y34.712 Z7.300
G1 X10.017 Y34.712 Z7.300
G1 X16.314 Y28.415 Z7.300
G1 X14.069 Y28.415 Z7.300
G1 X7.772 Y34.712 Z7.300
G1 X5.527 Y34.712 Z7.300
G1 X11.824 Y28.415 Z7.300
G3 X10.418 Y27.577 Z7.300 I-0.018 J-1.568 K0.000
G1 X3.282 Y34.712 Z7.300
G1 X1.588 Y34.712 Z7.300
G1 X1.588 Y34.162 Z7.300
G1 X10.222 Y25.527 Z7.300
G1 X10.222 Y23.282 Z7.300
G1 X1.588 Y31.916 Z7.300
G1 X1.588 Y29.671 Z7.300
G1 X10.222 Y21.036 Z7.300
G1 X10.222 Y18.791 Z7.300
G1 X1.588 Y27.426 Z7.300
G1 X1.588 Y25.181 Z7.300
G1 X10.222 Y16.546 Z7.300
G1 X10.222 Y14.301 Z7.300
G1 X1.588 Y22.936 Z7.300
G1 X1.588 Y20.691 Z7.300
G1 X10.222 Y12.056 Z7.300
G1 X10.222 Y10.000 Z7.300
G1 X10.246 Y9.787 Z7.300
G1 X1.588 Y18.446 Z7.300
G0 Z15.400
G0 Y2.731 Z15.400
G0 Y2.731 Z13.400
G1 X1.588 Y2.731 Z7.300
G1 X2.731 Y1.588 Z7.300
G1 X1.588 Y1.588 Z7.300
G1 X1.588 Y2.731 Z7.300
G1 X1.588 Y4.976 Z7.300
G1 X4.976 Y1.588 Z7.300
G1 X7.221 Y1.588 Z7.300
G1 X1.588 Y7.221 Z7.300
G1 X1.588 Y9.466 Z7.300
G1 X9.466 Y1.588 Z7.300
G1 X11.711 Y1.588 Z7.300
G1 X1.588 Y11.711 Z7.300
G1 X1.588 Y13.956 Z7.300
G1 X13.956 Y1.588 Z7.300
G1 X16.201 Y1.588 Z7.300
G1 X1.588 Y16.201 Z7.300
G1 X1.588 Y18.446 Z7.300
G1 X10.246 Y9.787 Z7.300
G3 X11.597 Y8.436 Z7.300 I1.530 J0.180 K0.000
G1 X18.446 Y1.588 Z7.300
G1 X20.691 Y1.588 Z7.300
G1 X13.866 Y8.413 Z7.300
G1 X16.111 Y8.413 Z7.300
G1 X22.936 Y1.588 Z7.300
G1 X25.181 Y1.588 Z7.300
G1 X18.341 Y8.428 Z7.300
G3 X20.389 Y8.625 Z7.300 I-0.105 J11.853 K0.000
G1 X27.426 Y1.588 Z7.300
G1 X29.671 Y1.588 Z7.300
G1 X22.137 Y9.122 Z7.300
G3 X23.595 Y9.909 Z7.300 I-2.353 J6.102 K0.000
G1 X31.916 Y1.588 Z7.300
G1 X34.162 Y1.588 Z7.300
G1 X24.777 Y10.972 Z7.300
G3 X25.738 Y12.256 Z7.300 I-5.261 J4.939 K0.000
G1 X34.712 Y3.282 Z7.300
G1 X34.712 Y5.527 Z7.300
G1 X26.466 Y13.773 Z7.300
G3 X26.992 Y15.493 Z7.300 I-9.477 J3.837 K0.000
G1 X34.712 Y7.772 Z7.300
G1 X34.712 Y10.017 Z7.300
G1 X27.249 Y17.481 Z7.300
G3 X27.241 Y19.734 Z7.300 I-14.336 J1.077 K0.000
G1 X34.712 Y12.262 Z7.300
G1 X34.712 Y14.507 Z7.300
G1 X26.704 Y22.515 Z7.300
G1 X26.704 Y22.515 Z7.125
G1 X34.712 Y14.507 Z7.125
G1 X34.712 Y12.262 Z7.125
G1 X27.241 Y19.734 Z7.125
G2 X27.249 Y17.481 Z7.125 I-14.329 J-1.176 K0.000
G1 X34.712 Y10.017 Z7.125
G1 X34.712 Y7.772 Z7.125
G1 X26.992 Y15.493 Z7.125
G2 X26.466 Y13.773 Z7.125 I-10.002 J2.117 K0.000
G1 X34.712 Y5.527 Z7.125
G1 X34.712 Y3.282 Z7.125
G1 X25.738 Y12.256 Z7.125
G2 X24.777 Y10.972 Z7.125 I-6.222 J3.655 K0.000
G1 X34.162 Y1.588 Z7.125
G1 X31.916 Y1.588 Z7.125
G1 X23.595 Y9.909 Z7.125
G2 X22.137 Y9.122 Z7.125 I-3.811 J5.314 K0.000
G1 X29.671 Y1.588 Z7.125
G1 X27.426 Y1.588 Z7.125
G1 X20.389 Y8.625 Z7.125
G2 X18.341 Y8.428 Z7.125 I-2.153 J11.656 K0.000
G1 X25.181 Y1.588 Z7.125
G1 X22.936 Y1.588 Z7.125
G1 X16.111 Y8.413 Z7.125
G1 X13.866 Y8.413 Z7.125
G1 X20.691 Y1.588 Z7.125
G1 X18.446 Y1.588 Z7.125
G1 X11.597 Y8.436 Z7.125
G2 X10.246 Y9.787 Z7.125 I0.180 J1.530 K0.000
G1 X1.588 Y18.446 Z7.125
G1 X1.588 Y16.201 Z7.125
G1 X16.201 Y1.588 Z7.125
G1 X13.956 Y1.588 Z7.125
G1 X1.588 Y13.956 Z7.125
G1 X1.588 Y11.711 Z7.125
G1 X11.711 Y1.588 Z7.125
G1 X9.466 Y1.588 Z7.125
G1 X1.588 Y9.466 Z7.125
G1 X1.588 Y7.221 Z7.125
G1 X7.221 Y1.588 Z7.125
G1 X4.976 Y1.588 Z7.125
G1 X1.588 Y4.976 Z7.125
G1 X1.588 Y2.731 Z7.125
G1 X1.588 Y1.588 Z7.125
G1 X2.731 Y1.588 Z7.125
G1 X1.588 Y2.731 Z7.125
G0 Z15.400
G0 Y18.446 Z15.400
G0 Y18.446 Z13.400
G1 X1.588 Y18.446 Z7.125
G1 X10.246 Y9.787 Z7.125
G1 X10.222 Y10.000 Z7.125
G1 X10.222 Y12.056 Z7.125
G1 X1.588 Y20.691 Z7.125
G1 X1.588 Y22.936 Z7.125
G1 X10.222 Y14.301 Z7.125
G1 X10.222 Y16.546 Z7.125
G1 X1.588 Y25.181 Z7.125
G1 X1.588 Y27.426 Z7.125
G1 X10.222 Y18.791 Z7.125
G1 X10.222 Y21.036 Z7.125
G1 X1.588 Y29.671 Z7.125
G1 X1.588 Y31.916 Z7.125
G1 X10.222 Y23.282 Z7.125
G1 X10.222 Y25.527 Z7.125
G1 X1.588 Y34.162 Z7.125
G1 X1.588 Y34.712 Z7.125
G1 X3.282 Y34.712 Z7.125
G1 X10.418 Y27.577 Z7.125
G2 X11.824 Y28.415 Z7.125 I1.388 J-0.730 K0.000
G1 X5.527 Y34.712 Z7.125
G1 X7.772 Y34.712 Z7.125
G1 X14.069 Y28.415 Z7.125
G1 X16.314 Y28.415 Z7.125
G1 X10.017 Y34.712 Z7.125
G1 X12.262 Y34.712 Z7.125
G1 X18.576 Y28.399 Z7.125
G2 X21.138 Y28.082 Z7.125 I-0.138 J-11.634 K0.000
G1 X14.507 Y34.712 Z7.125
G1 X16.752 Y34.712 Z7.125
G1 X34.712 Y16.752 Z7.125
G1 X34.712 Y18.997 Z7.125
G1 X18.997 Y34.712 Z7.125
G1 X21.242 Y34.712 Z7.125
G1 X34.712 Y21.242 Z7.125
G1 X34.712 Y23.487 Z7.125
G1 X23.487 Y34.712 Z7.125
G1 X25.732 Y34.712 Z7.125
G1 X34.712 Y25.732 Z7.125
G1 X34.712 Y27.977 Z7.125
G1 X27.977 Y34.712 Z7.125
G1 X30.222 Y34.712 Z7.125
G1 X34.712 Y30.222 Z7.125
G1 X34.712 Y32.467 Z7.125
G1 X32.467 Y34.712 Z7.125
G1 X34.712 Y34.712 Z7.125
G1 X34.712 Y34.712 Z6.950
G1 X32.467 Y34.712 Z6.950
G1 X34.712 Y32.467 Z6.950
G1 X34.712 Y30.222 Z6.950
G1 X30.222 Y34.712 Z6.950
G1 X27.977 Y34.712 Z6.950
G1 X34.712 Y27.977 Z6.950
G1 X34.712 Y25.732 Z6.950
G1 X25.732 Y34.712 Z6.950
G1 X23.487 Y34.712 Z6.950
G1 X34.712 Y23.487 Z6.950
G1 X34.712 Y21.242 Z6.950
G1 X21.242 Y34.712 Z6.950
G1 X18.997 Y34.712 Z6.950
G1 X34.712 Y18.997 Z6.950
G1 X34.712 Y16.752 Z6.950
G1 X16.752 Y34.712 Z6.950
G1 X14.507 Y34.712 Z6.950
G1 X21.138 Y28.082 Z6.950
G3 X18.576 Y28.399 Z6.950 I-2.699 J-11.317 K0.000
G1 X12.262 Y34.712 Z6.950
G1 X10.017 Y34.712 Z6.950
G1 X16.314 Y28.415 Z6.950
G1 X14.069 Y28.415 Z6.950
G1 X7.772 Y34.712 Z6.950
G1 X5.527 Y34.712 Z6.950
G1 X11.824 Y28.415 Z6.950
G3 X10.418 Y27.577 Z6.950 I-0.018 J-1.568 K0.000
G1 X3.282 Y34.712 Z6.950
G1 X1.588 Y34.712 Z6.950
G1 X1.588 Y34.162 Z6.950
G1 X10.222 Y25.527 Z6.950
G1 X10.222 Y23.282 Z6.950
G1 X1.588 Y31.916 Z6.950
G1 X1.588 Y29.671 Z6.950
G1 X10.222 Y21.036 Z6.950
G1 X10.222 Y18.791 Z6.950
G1 X1.588 Y27.426 Z6.950
G1 X1.588 Y25.181 Z6.950
G1 X10.222 Y16.546 Z6.950
G1 X10.222 Y14.301 Z6.950
G1 X1.588 Y22.936 Z6.950
G1 X1.588 Y20.691 Z6.950
G1 X10.222 Y12.056 Z6.950
G1 X10.222 Y10.000 Z6.950
G1 X10.246 Y9.787 Z6.950
G1 X1.588 Y18.446 Z6.950
G0 Z15.400
G0 Y2.731 Z15.400
G0 Y2.731 Z13.400
G1 X1.588 Y2.731 Z6.950
G1 X2.731 Y1.588 Z6.950
G1 X1.588 Y1.588 Z6.950
G1 X1.588 Y2.731 Z6.950
G1 X1.588 Y4.976 Z6.950
G1 X4.976 Y1.588 Z6.950
G1 X7.221 Y1.588 Z6.950
G1 X1.588 Y7.221 Z6.950
G1 X1.588 Y9.466 Z6.950
G1 X9.466 Y1.588 Z6.950
G1 X11.711 Y1.588 Z6.950
G1 X1.588 Y11.711 Z6.950
G1 X1.588 Y13.956 Z6.950
G1 X13.956 Y1.588 Z6.950
G1 X16.201 Y1.588 Z6.950
G1 X1.588 Y16.201 Z6.950
G1 X1.588 Y18.446 Z6.950
G1 X10.246 Y9.787 Z6.950
G3 X11.597 Y8.436 Z6.950 I1.530 J0.180 K0.000
G1 X18.446 Y1.588 Z6.950
G1 X20.691 Y1.588 Z6.950
G1 X13.866 Y8.413 Z6.950
G1 X16.111 Y8.413 Z6.950
G1 X22.936 Y1.588 Z6.950
G1 X25.181 Y1.588 Z6.950
G1 X18.341 Y8.428 Z6.950
G3 X20.389 Y8.625 Z6.950 I-0.105 J11.853 K0.000
G1 X27.426 Y1.588 Z6.950
G1 X29.671 Y1.588 Z6.950
G1 X22.137 Y9.122 Z6.950
G3 X23.595 Y9.909 Z6.950 I-2.353 J6.102 K0.000
G1 X31.916 Y1.588 Z6.950
G1 X34.162 Y1.588 Z6.950
G1 X24.777 Y10.972 Z6.950
G3 X25.738 Y12.256 Z6.950 I-5.261 J4.939 K0.000
G1 X34.712 Y3.282 Z6.950
G1 X34.712 Y5.527 Z6.950
G1 X26.466 Y13.773 Z6.950
G3 X26.992 Y15.493 Z6.950 I-9.477 J3.837 K0.000
G1 X34.712 Y7.772 Z6.950
G1 X34.712 Y10.017 Z6.950
G1 X27.249 Y17.481 Z6.950
G3 X27.241 Y19.734 Z6.950 I-14.336 J1.077 K0.000
G1 X34.712 Y12.262 Z6.950
G1 X34.712 Y14.507 Z6.950
G1 X26.704 Y22.515 Z6.950
G1 X26.704 Y22.515 Z6.775
G1 X34.712 Y14.507 Z6.775
G1 X34.712 Y12.262 Z6.775
G1 X27.241 Y19.734 Z6.775
G2 X27.249 Y17.481 Z6.775 I-14.329 J-1.176 K0.000
G1 X34.712 Y10.017 Z6.775
G1 X34.712 Y7.772 Z6.775
G1 X26.992 Y15.493 Z6.775
G2 X26.466 Y13.773 Z6.775 I-10.002 J2.117 K0.000
G1 X34.712 Y5.527 Z6.775
G1 X34.712 Y3.282 Z6.775
G1 X25.738 Y12.256 Z6.775
G2 X24.777 Y10.972 Z6.775 I-6.222 J3.655 K0.000
G1 X34.162 Y1.588 Z6.775
G1 X31.916 Y1.588 Z6.775
G1 X23.595 Y9.909 Z6.775
G2 X22.137 Y9.122 Z6.775 I-3.811 J5.314 K0.000
G1 X29.671 Y1.588 Z6.775
G1 X27.426 Y1.588 Z6.775
G1 X20.389 Y8.625 Z6.775
G2 X18.341 Y8.428 Z6.775 I-2.153 J11.656 K0.000
G1 X25.181 Y1.588 Z6.775
G1 X22.936 Y1.588 Z6.775
G1 X16.111 Y8.413 Z6.775
G1 X13.866 Y8.413 Z6.775
G1 X20.691 Y1.588 Z6.775
G1 X18.446 Y1.588 Z6.775
G1 X11.597 Y8.436 Z6.775
G2 X10.246 Y9.787 Z6.775 I0.180 J1.530 K0.000
G1 X1.588 Y18.446 Z6.775
G1 X1.588 Y16.201 Z6.775
G1 X16.201 Y1.588 Z6.775
G1 X13.956 Y1.588 Z6.775
G1 X1.588 Y13.956 Z6.775
G1 X1.588 Y11.711 Z6.775
G1 X11.711 Y1.588 Z6.775
G1 X9.466 Y1.588 Z6.775
G1 X1.588 Y9.466 Z6.775
G1 X1.588 Y7.221 Z6.775
G1 X7.221 Y1.588 Z6.775
G1 X4.976 Y1.588 Z6.775
G1 X1.588 Y4.976 Z6.775
G1 X1.588 Y2.731 Z6.775
G1 X1.588 Y1.588 Z6.775
G1 X2.731 Y1.588 Z6.775
G1 X1.588 Y2.731 Z6.775
G0 Z15.400
G0 Y18.446 Z15.400
G0 Y18.446 Z13.400
G1 X1.588 Y18.446 Z6.775
G1 X10.246 Y9.787 Z6.775
G1 X10.222 Y10.000 Z6.775
G1 X10.222 Y12.056 Z6.775
G1 X1.588 Y20.691 Z6.775
G1 X1.588 Y22.936 Z6.775
G1 X10.222 Y14.301 Z6.775
G1 X10.222 Y16.546 Z6.775
G1 X1.588 Y25.181 Z6.775
G1 X1.588 Y27.426 Z6.775
G1 X10.222 Y18.791 Z6.775
G1 X10.222 Y21.036 Z6.775
G1 X1.588 Y29.671 Z6.775
G1 X1.588 Y31.916 Z6.775
G1 X10.222 Y23.282 Z6.775
G1 X10.222 Y25.527 Z6.775
G1 X1.588 Y34.162 Z6.775
G1 X1.588 Y34.712 Z6.775
G1 X3.282 Y34.712 Z6.775
G1 X10.418 Y27.577 Z6.775
G2 X11.824 Y28.415 Z6.775 I1.388 J-0.730 K0.000
G1 X5.527 Y34.712 Z6.775
G1 X7.772 Y34.712 Z6.775
G1 X14.069 Y28.415 Z6.775
G1 X16.314 Y28.415 Z6.775
G1 X10.017 Y34.712 Z6.775
G1 X12.262 Y34.712 Z6.775
G1 X18.576 Y28.399 Z6.775
G2 X21.138 Y28.082 Z6.775 I-0.138 J-11.634 K0.000
G1 X14.507 Y34.712 Z6.775
G1 X16.752 Y34.712 Z6.775
G1 X34.712 Y16.752 Z6.775
G1 X34.712 Y18.997 Z6.775
G1 X18.997 Y34.712 Z6.775
G1 X21.242 Y34.712 Z6.775
G1 X34.712 Y21.242 Z6.775
G1 X34.712 Y23.487 Z6.775
G1 X23.487 Y34.712 Z6.775
G1 X25.732 Y34.712 Z6.775
G1 X34.712 Y25.732 Z6.775
G1 X34.712 Y27.977 Z6.775
G1 X27.977 Y34.712 Z6.775
G1 X30.222 Y34.712 Z6.775
G1 X34.712 Y30.222 Z6.775
G1 X34.712 Y32.467 Z6.775
G1 X32.467 Y34.712 Z6.775
G1 X34.712 Y34.712 Z6.775
G1 X34.712 Y34.712 Z6.600
G1 X32.467 Y34.712 Z6.600
G1 X34.712 Y32.467 Z6.600
G1 X34.712 Y30.222 Z6.600
G1 X30.222 Y34.712 Z6.600
G1 X27.977 Y34.712 Z6.600
G1 X34.712 Y27.977 Z6.600
G1 X34.712 Y25.732 Z6.600
G1 X25.732 Y34.712 Z6.600
G1 X23.487 Y34.712 Z6.600
G1 X34.712 Y23.487 Z6.600
G1 X34.712 Y21.242 Z6.600
G1 X21.242 Y34.712 Z6.600
G1 X18.997 Y34.712 Z6.600
G1 X34.712 Y18.997 Z6.600
G1 X34.712 Y16.752 Z6.600
G1 X16.752 Y34.712 Z6.600
G1 X14.507 Y34.712 Z6.600
G1 X21.138 Y28.082 Z6.600
G3 X18.576 Y28.399 Z6.600 I-2.699 J-11.317 K0.000
G1 X12.262 Y34.712 Z6.600
G1 X10.017 Y34.712 Z6.600
G1 X16.314 Y28.415 Z6.600
G1 X14.069 Y28.415 Z6.600
G1 X7.772 Y34.712 Z6.600
G1 X5.527 Y34.712 Z6.600
G1 X11.824 Y28.415 Z6.600
G3 X10.418 Y27.577 Z6.600 I-0.018 J-1.568 K0.000
G1 X3.282 Y34.712 Z6.600
G1 X1.588 Y34.712 Z6.600
G1 X1.588 Y34.162 Z6.600
G1 X10.222 Y25.527 Z6.600
G1 X10.222 Y23.282 Z6.600
G1 X1.588 Y31.916 Z6.600
G1 X1.588 Y29.671 Z6.600
G1 X10.222 Y21.036 Z6.600
G1 X10.222 Y18.791 Z6.600
G1 X1.588 Y27.426 Z6.600
G1 X1.588 Y25.181 Z6.600
G1 X10.222 Y16.546 Z6.600
G1 X10.222 Y14.301 Z6.600
G1 X1.588 Y22.936 Z6.600
G1 X1.588 Y20.691 Z6.600
G1 X10.222 Y12.056 Z6.600
G1 X10.222 Y10.000 Z6.600
G1 X10.246 Y9.787 Z6.600
G1 X1.588 Y18.446 Z6.600
G0 Z15.400
G0 Y2.731 Z15.400
G0 Y2.731 Z13.400
G1 X1.588 Y2.731 Z6.600
G1 X2.731 Y1.588 Z6.600
G1 X1.588 Y1.588 Z6.600
G1 X1.588 Y2.731 Z6.600
G1 X1.588 Y4.976 Z6.600
G1 X4.976 Y1.588 Z6.600
G1 X7.221 Y1.588 Z6.600
G1 X1.588 Y7.221 Z6.600
G1 X1.588 Y9.466 Z6.600
G1 X9.466 Y1.588 Z6.600
G1 X11.711 Y1.588 Z6.600
G1 X1.588 Y11.711 Z6.600
G1 X1.588 Y13.956 Z6.600
G1 X13.956 Y1.588 Z6.600
G1 X16.201 Y1.588 Z6.600
G1 X1.588 Y16.201 Z6.600
G1 X1.588 Y18.446 Z6.600
G1 X10.246 Y9.787 Z6.600
G3 X11.597 Y8.436 Z6.600 I1.530 J0.180 K0.000
G1 X18.446 Y1.588 Z6.600
G1 X20.691 Y1.588 Z6.600
G1 X13.866 Y8.413 Z6.600
G1 X16.111 Y8.413 Z6.600
G1 X22.936 Y1.588 Z6.600
G1 X25.181 Y1.588 Z6.600
G1 X18.341 Y8.428 Z6.600
G3 X20.389 Y8.625 Z6.600 I-0.105 J11.853 K0.000
G1 X27.426 Y1.588 Z6.600
G1 X29.671 Y1.588 Z6.600
G1 X22.137 Y9.122 Z6.600
G3 X23.595 Y9.909 Z6.600 I-2.353 J6.102 K0.000
G1 X31.916 Y1.588 Z6.600
G1 X34.162 Y1.588 Z6.600
G1 X24.777 Y10.972 Z6.600
G3 X25.738 Y12.256 Z6.600 I-5.261 J4.939 K0.000
G1 X34.712 Y3.282 Z6.600
G1 X34.712 Y5.527 Z6.600
G1 X26.466 Y13.773 Z6.600
G3 X26.992 Y15.493 Z6.600 I-9.477 J3.837 K0.000
G1 X34.712 Y7.772 Z6.600
G1 X34.712 Y10.017 Z6.600
G1 X27.249 Y17.481 Z6.600
G3 X27.241 Y19.734 Z6.600 I-14.336 J1.077 K0.000
G1 X34.712 Y12.262 Z6.600
G1 X34.712 Y14.507 Z6.600
G1 X26.704 Y22.515 Z6.600
G1 X26.704 Y22.515 Z6.425
G1 X34.712 Y14.507 Z6.425
G1 X34.712 Y12.262 Z6.425
G1 X27.241 Y19.734 Z6.425
G2 X27.249 Y17.481 Z6.425 I-14.329 J-1.176 K0.000
G1 X34.712 Y10.017 Z6.425
G1 X34.712 Y7.772 Z6.425
G1 X26.992 Y15.493 Z6.425
G2 X26.466 Y13.773 Z6.425 I-10.002 J2.117 K0.000
G1 X34.712 Y5.527 Z6.425
G1 X34.712 Y3.282 Z6.425
G1 X25.738 Y12.256 Z6.425
G2 X24.777 Y10.972 Z6.425 I-6.222 J3.655 K0.000
G1 X34.162 Y1.588 Z6.425
G1 X31.916 Y1.588 Z6.425
G1 X23.595 Y9.909 Z6.425
G2 X22.137 Y9.122 Z6.425 I-3.811 J5.314 K0.000
G1 X29.671 Y1.588 Z6.425
G1 X27.426 Y1.588 Z6.425
G1 X20.389 Y8.625 Z6.425
G2 X18.341 Y8.428 Z6.425 I-2.153 J11.656 K0.000
G1 X25.181 Y1.588 Z6.425
G1 X22.936 Y1.588 Z6.425
G1 X16.111 Y8.413 Z6.425
G1 X13.866 Y8.413 Z6.425
G1 X20.691 Y1.588 Z6.425
G1 X18.446 Y1.588 Z6.425
G1 X11.597 Y8.436 Z6.425
G2 X10.246 Y9.787 Z6.425 I0.180 J1.530 K0.000
G1 X1.588 Y18.446 Z6.425
G1 X1.588 Y16.201 Z6.425
G1 X16.201 Y1.588 Z6.425
G1 X13.956 Y1.588 Z6.425
G1 X1.588 Y13.956 Z6.425
G1 X1.588 Y11.711 Z6.425
G1 X11.711 Y1.588 Z6.425
G1 X9.466 Y1.588 Z6.425
G1 X1.588 Y9.466 Z6.425
G1 X1.588 Y7.221 Z6.425
G1 X7.221 Y1.588 Z6.425
G1 X4.976 Y1.588 Z6.425
G1 X1.588 Y4.976 Z6.425
G1 X1.588 Y2.731 Z6.425
G1 X1.588 Y1.588 Z6.425
G1 X2.731 Y1.588 Z6.425
G1 X1.588 Y2.731 Z6.425
G0 Z15.400
G0 Y18.446 Z15.400
G0 Y18.446 Z13.400
G1 X1.588 Y18.446 Z6.425
G1 X10.246 Y9.787 Z6.425
G1 X10.222 Y10.000 Z6.425
G1 X10.222 Y12.056 Z6.425
G1 X1.588 Y20.691 Z6.425
G1 X1.588 Y22.936 Z6.425
G1 X10.222 Y14.301 Z6.425
G1 X10.222 Y16.546 Z6.425
G1 X1.588 Y25.181 Z6.425
G1 X1.588 Y27.426 Z6.425
G1 X10.222 Y18.791 Z6.425
G1 X10.222 Y21.036 Z6.425
G1 X1.588 Y29.671 Z6.425
G1 X1.588 Y31.916 Z6.425
G1 X10.222 Y23.282 Z6.425
G1 X10.222 Y25.527 Z6.425
G1 X1.588 Y34.162 Z6.425
G1 X1.588 Y34.712 Z6.425
G1 X3.282 Y34.712 Z6.425
G1 X10.418 Y27.577 Z6.425
G2 X11.824 Y28.415 Z6.425 I1.388 J-0.730 K0.000
G1 X5.527 Y34.712 Z6.425
G1 X7.772 Y34.712 Z6.425
G1 X14.069 Y28.415 Z6.425
G1 X16.314 Y28.415 Z6.425
G1 X10.017 Y34.712 Z6.425
G1 X12.262 Y34.712 Z6.425
G1 X18.576 Y28.399 Z6.425
G2 X21.138 Y28.082 Z6.425 I-0.138 J-11.634 K0.000
G1 X14.507 Y34.712 Z6.425
G1 X16.752 Y34.712 Z6.425
G1 X34.712 Y16.752 Z6.425
G1 X34.712 Y18.997 Z6.425
G1 X18.997 Y34.712 Z6.425
G1 X21.242 Y34.712 Z6.425
G1 X34.712 Y21.242 Z6.425
G1 X34.712 Y23.487 Z6.425
G1 X23.487 Y34.712 Z6.425
G1 X25.732 Y34.712 Z6.425
G1 X34.712 Y25.732 Z6.425
G1 X34.712 Y27.977 Z6.425
G1 X27.977 Y34.712 Z6.425
G1 X30.222 Y34.712 Z6.425
G1 X34.712 Y30.222 Z6.425
G1 X34.712 Y32.467 Z6.425
G1 X32.467 Y34.712 Z6.425
G1 X34.712 Y34.712 Z6.425
G1 X34.712 Y34.712 Z6.250
G1 X32.467 Y34.712 Z6.250
G1 X34.712 Y32.467 Z6.250
G1 X34.712 Y30.222 Z6.250
G1 X30.222 Y34.712 Z6.250
G1 X27.977 Y34.712 Z6.250
G1 X34.712 Y27.977 Z6.250
G1 X34.712 Y25.732 Z6.250
G1 X25.732 Y34.712 Z6.250
G1 X23.487 Y34.712 Z6.250
G1 X34.712 Y23.487 Z6.250
G1 X34.712 Y21.242 Z6.250
G1 X21.242 Y34.712 Z6.250
G1 X18.997 Y34.712 Z6.250
G1 X34.712 Y18.997 Z6.250
G1 X34.712 Y16.752 Z6.250
G1 X16.752 Y34.712 Z6.250
G1 X14.507 Y34.712 Z6.250
G1 X21.138 Y28.082 Z6.250
G3 X18.576 Y28.399 Z6.250 I-2.699 J-11.317 K0.000
G1 X12.262 Y34.712 Z6.250
G1 X10.017 Y34.712 Z6.250
G1 X16.314 Y28.415 Z6.250
G1 X14.069 Y28.415 Z6.250
G1 X7.772 Y34.712 Z6.250
G1 X5.527 Y34.712 Z6.250
G1 X11.824 Y28.415 Z6.250
G3 X10.418 Y27.577 Z6.250 I-0.018 J-1.568 K0.000
G1 X3.282 Y34.712 Z6.250
G1 X1.588 Y34.712 Z6.250
G1 X1.588 Y34.162 Z6.250
G1 X10.222 Y25.527 Z6.250
G1 X10.222 Y23.282 Z6.250
G1 X1.588 Y31.916 Z6.250
G1 X1.588 Y29.671 Z6.250
G1 X10.222 Y21.036 Z6.250
G1 X10.222 Y18.791 Z6.250
G1 X1.588 Y27.426 Z6.250
G1 X1.588 Y25.181 Z6.250
G1 X10.222 Y16.546 Z6.250
G1 X10.222 Y14.301 Z6.250
G1 X1.588 Y22.936 Z6.250
G1 X1.588 Y20.691 Z6.250
G1 X10.222 Y12.056 Z6.250
G1 X10.222 Y10.000 Z6.250
G1 X10.246 Y9.787 Z6.250
G1 X1.588 Y18.446 Z6.250
G0 Z15.400
G0 Y2.731 Z15.400
G0 Y2.731 Z13.400
G1 X1.588 Y2.731 Z6.250
G1 X2.731 Y1.588 Z6.250
G1 X1.588 Y1.588 Z6.250
G1 X1.588 Y2.731 Z6.250
G1 X1.588 Y4.976 Z6.250
G1 X4.976 Y1.588 Z6.250
G1 X7.221 Y1.588 Z6.250
G1 X1.588 Y7.221 Z6.250
G1 X1.588 Y9.466 Z6.250
G1 X9.466 Y1.588 Z6.250
G1 X11.711 Y1.588 Z6.250
G1 X1.588 Y11.711 Z6.250
G1 X1.588 Y13.956 Z6.250
G1 X13.956 Y1.588 Z6.250
G1 X16.201 Y1.588 Z6.250
G1 X1.588 Y16.201 Z6.250
G1 X1.588 Y18.446 Z6.250
G1 X10.246 Y9.787 Z6.250
G3 X11.597 Y8.436 Z6.250 I1.530 J0.180 K0.000
G1 X18.446 Y1.588 Z6.250
G1 X20.691 Y1.588 Z6.250
G1 X13.866 Y8.413 Z6.250
G1 X16.111 Y8.413 Z6.250
G1 X22.936 Y1.588 Z6.250
G1 X25.181 Y1.588 Z6.250
G1 X18.341 Y8.428 Z6.250
G3 X20.389 Y8.625 Z6.250 I-0.105 J11.853 K0.000
G1 X27.426 Y1.588 Z6.250
G1 X29.671 Y1.588 Z6.250
G1 X22.137 Y9.122 Z6.250
G3 X23.595 Y9.909 Z6.250 I-2.353 J6.102 K0.000
G1 X31.916 Y1.588 Z6.250
G1 X34.162 Y1.588 Z6.250
G1 X24.777 Y10.972 Z6.250
G3 X25.738 Y12.256 Z6.250 I-5.261 J4.939 K0.000
G1 X34.712 Y3.282 Z6.250
G1 X34.712 Y5.527 Z6.250
G1 X26.466 Y13.773 Z6.250
G3 X26.992 Y15.493 Z6.250 I-9.477 J3.837 K0.000
G1 X34.712 Y7.772 Z6.250
G1 X34.712 Y10.017 Z6.250
G1 X27.249 Y17.481 Z6.250
G3 X27.241 Y19.734 Z6.250 I-14.336 J1.077 K0.000
G1 X34.712 Y12.262 Z6.250
G1 X34.712 Y14.507 Z6.250
G1 X26.704 Y22.515 Z6.250
G1 X26.704 Y22.515 Z6.075
G1 X34.712 Y14.507 Z6.075
G1 X34.712 Y12.262 Z6.075
G1 X27.241 Y19.734 Z6.075
G2 X27.249 Y17.481 Z6.075 I-14.329 J-1.176 K0.000
G1 X34.712 Y10.017 Z6.075
G1 X34.712 Y7.772 Z6.075
G1 X26.992 Y15.493 Z6.075
G2 X26.466 Y13.773 Z6.075 I-10.002 J2.117 K0.000
G1 X34.712 Y5.527 Z6.075
G1 X34.712 Y3.282 Z6.075
G1 X25.738 Y12.256 Z6.075
G2 X24.777 Y10.972 Z6.075 I-6.222 J3.655 K0.000
G1 X34.162 Y1.588 Z6.075
G1 X31.916 Y1.588 Z6.075
G1 X23.595 Y9.909 Z6.075
G2 X22.137 Y9.122 Z6.075 I-3.811 J5.314 K0.000
G1 X29.671 Y1.588 Z6.075
G1 X27.426 Y1.588 Z6.075
G1 X20.389 Y8.625 Z6.075
G2 X18.341 Y8.428 Z6.075 I-2.153 J11.656 K0.000
G1 X25.181 Y1.588 Z6.075
G1 X22.936 Y1.588 Z6.075
G1 X16.111 Y8.413 Z6.075
G1 X13.866 Y8.413 Z6.075
G1 X20.691 Y1.588 Z6.075
G1 X18.446 Y1.588 Z6.075
G1 X11.597 Y8.436 Z6.075
G2 X10.246 Y9.787 Z6.075 I0.180 J1.530 K0.000
G1 X1.588 Y18.446 Z6.075
G1 X1.588 Y16.201 Z6.075
G1 X16.201 Y1.588 Z6.075
G1 X13.956 Y1.588 Z6.075
G1 X1.588 Y13.956 Z6.075
G1 X1.588 Y11.711 Z6.075
G1 X11.711 Y1.588 Z6.075
G1 X9.466 Y1.588 Z6.075
G1 X1.588 Y9.466 Z6.075
G1 X1.588 Y7.221 Z6.075
G1 X7.221 Y1.588 Z6.075
G1 X4.976 Y1.588 Z6.075
G1 X1.588 Y4.976 Z6.075
G1 X1.588 Y2.731 Z6.075
G1 X1.588 Y1.588 Z6.075
G1 X2.731 Y1.588 Z6.075
G1 X1.588 Y2.731 Z6.075
G0 Z15.400
G0 Y18.446 Z15.400
G0 Y18.446 Z13.400
G1 X1.588 Y18.446 Z6.075
G1 X10.246 Y9.787 Z6.075
G1 X10.222 Y10.000 Z6.075
G1 X10.222 Y12.056 Z6.075
G1 X1.588 Y20.691 Z6.075
G1 X1.588 Y22.936 Z6.075
G1 X10.222 Y14.301 Z6.075
G1 X10.222 Y16.546 Z6.075
G1 X1.588 Y25.181 Z6.075
G1 X1.588 Y27.426 Z6.075
G1 X10.222 Y18.791 Z6.075
G1 X10.222 Y21.036 Z6.075
G1 X1.588 Y29.671 Z6.075
G1 X1.588 Y31.916 Z6.075
G1 X10.222 Y23.282 Z6.075
G1 X10.222 Y25.527 Z6.075
G1 X1.588 Y34.162 Z6.075
G1 X1.588 Y34.712 Z6.075
G1 X3.282 Y34.712 Z6.075
G1 X10.418 Y27.577 Z6.075
G2 X11.824 Y28.415 Z6.075 I1.388 J-0.730 K0.000
G1 X5.527 Y34.712 Z6.075
G1 X7.772 Y34.712 Z6.075
G1 X14.069 Y28.415 Z6.075
G1 X16.314 Y28.415 Z6.075
G1 X10.017 Y34.712 Z6.075
G1 X12.262 Y34.712 Z6.075
G1 X18.576 Y28.399 Z6.075
G2 X21.138 Y28.082 Z6.075 I-0.138 J-11.634 K0.000
G1 X14.507 Y34.712 Z6.075
G1 X16.752 Y34.712 Z6.075
G1 X34.712 Y16.752 Z6.075
G1 X34.712 Y18.997 Z6.075
G1 X18.997 Y34.712 Z6.075
G1 X21.242 Y34.712 Z6.075
G1 X34.712 Y21.242 Z6.075
G1 X34.712 Y23.487 Z6.075
G1 X23.487 Y34.712 Z6.075
G1 X25.732 Y34.712 Z6.075
G1 X34.712 Y25.732 Z6.075
G1 X34.712 Y27.977 Z6.075
G1 X27.977 Y34.712 Z6.075
G1 X30.222 Y34.712 Z6.075
G1 X34.712 Y30.222 Z6.075
G1 X34.712 Y32.467 Z6.075
G1 X32.467 Y34.712 Z6.075
G1 X34.712 Y34.712 Z6.075
G1 X34.712 Y34.712 Z5.900
G1 X32.467 Y34.712 Z5.900
G1 X34.712 Y32.467 Z5.900
G1 X34.712 Y30.222 Z5.900
G1 X30.222 Y34.712 Z5.900
G1 X27.977 Y34.712 Z5.900
G1 X34.712 Y27.977 Z5.900
G1 X34.712 Y25.732 Z5.900
G1 X25.732 Y34.712 Z5.900
G1 X23.487 Y34.712 Z5.900
G1 X34.712 Y23.487 Z5.900
G1 X34.712 Y21.242 Z5.900
G1 X21.242 Y34.712 Z5.900
G1 X18.997 Y34.712 Z5.900
G1 X34.712 Y18.997 Z5.900
G1 X34.712 Y16.752 Z5.900
G1 X16.752 Y34.712 Z5.900
G1 X14.507 Y34.712 Z5.900
G1 X21.138 Y28.082 Z5.900
G3 X18.576 Y28.399 Z5.900 I-2.699 J-11.317 K0.000
G1 X12.262 Y34.712 Z5.900
G1 X10.017 Y34.712 Z5.900
G1 X16.314 Y28.415 Z5.900
G1 X14.069 Y28.415 Z5.900
G1 X7.772 Y34.712 Z5.900
G1 X5.527 Y34.712 Z5.900
G1 X11.824 Y28.415 Z5.900
G3 X10.418 Y27.577 Z5.900 I-0.018 J-1.568 K0.000
G1 X3.282 Y34.712 Z5.900
G1 X1.588 Y34.712 Z5.900
G1 X1.588 Y34.162 Z5.900
G1 X10.222 Y25.527 Z5.900
G1 X10.222 Y23.282 Z5.900
G1 X1.588 Y31.916 Z5.900
G1 X1.588 Y29.671 Z5.900
G1 X10.222 Y21.036 Z5.900
G1 X10.222 Y18.791 Z5.900
G1 X1.588 Y27.426 Z5.900
G1 X1.588 Y25.181 Z5.900
G1 X10.222 Y16.546 Z5.900
G1 X10.222 Y14.301 Z5.900
G1 X1.588 Y22.936 Z5.900
G1 X1.588 Y20.691 Z5.900
G1 X10.222 Y12.056 Z5.900
G1 X10.222 Y10.000 Z5.900
G1 X10.246 Y9.787 Z5.900
G1 X1.588 Y18.446 Z5.900
G0 Z15.400
G0 Y2.731 Z15.400
G0 Y2.731 Z13.400
G1 X1.588 Y2.731 Z5.900
G1 X2.731 Y1.588 Z5.900
G1 X1.588 Y1.588 Z5.900
G1 X1.588 Y2.731 Z5.900
G1 X1.588 Y4.976 Z5.900
G1 X4.976 Y1.588 Z5.900
G1 X7.221 Y1.588 Z5.900
G1 X1.588 Y7.221 Z5.900
G1 X1.588 Y9.466 Z5.900
G1 X9.466 Y1.588 Z5.900
G1 X11.711 Y1.588 Z5.900
G1 X1.588 Y11.711 Z5.900
G1 X1.588 Y13.956 Z5.900
G1 X13.956 Y1.588 Z5.900
G1 X16.201 Y1.588 Z5.900
G1 X1.588 Y16.201 Z5.900
G1 X1.588 Y18.446 Z5.900
G1 X10.246 Y9.787 Z5.900
G3 X11.597 Y8.436 Z5.900 I1.530 J0.180 K0.000
G1 X18.446 Y1.588 Z5.900
G1 X20.691 Y1.588 Z5.900
G1 X13.866 Y8.413 Z5.900
G1 X16.111 Y8.413 Z5.900
G1 X22.936 Y1.588 Z5.900
G1 X25.181 Y1.588 Z5.900
G1 X18.341 Y8.428 Z5.900
G3 X20.389 Y8.625 Z5.900 I-0.105 J11.853 K0.000
G1 X27.426 Y1.588 Z5.900
G1 X29.671 Y1.588 Z5.900
G1 X22.137 Y9.122 Z5.900
G3 X23.595 Y9.909 Z5.900 I-2.353 J6.102 K0.000
G1 X31.916 Y1.588 Z5.900
G1 X34.162 Y1.588 Z5.900
G1 X24.777 Y10.972 Z5.900
G3 X25.738 Y12.256 Z5.900 I-5.261 J4.939 K0.000
G1 X34.712 Y3.282 Z5.900
G1 X34.712 Y5.527 Z5.900
G1 X26.466 Y13.773 Z5.900
G3 X26.992 Y15.493 Z5.900 I-9.477 J3.837 K0.000
G1 X34.712 Y7.772 Z5.900
G1 X34.712 Y10.017 Z5.900
G1 X27.249 Y17.481 Z5.900
G3 X27.241 Y19.734 Z5.900 I-14.336 J1.077 K0.000
G1 X34.712 Y12.262 Z5.900
G1 X34.712 Y14.507 Z5.900
G1 X26.704 Y22.515 Z5.900
G1 X26.704 Y22.515 Z5.725
G1 X34.712 Y14.507 Z5.725
G1 X34.712 Y12.262 Z5.725
G1 X27.241 Y19.734 Z5.725
G2 X27.249 Y17.481 Z5.725 I-14.329 J-1.176 K0.000
G1 X34.712 Y10.017 Z5.725
G1 X34.712 Y7.772 Z5.725
G1 X26.992 Y15.493 Z5.725
G2 X26.466 Y13.773 Z5.725 I-10.002 J2.117 K0.000
G1 X34.712 Y5.527 Z5.725
G1 X34.712 Y3.282 Z5.725
G1 X25.738 Y12.256 Z5.725
G2 X24.777 Y10.972 Z5.725 I-6.222 J3.655 K0.000
G1 X34.162 Y1.588 Z5.725
G1 X31.916 Y1.588 Z5.725
G1 X23.595 Y9.909 Z5.725
G2 X22.137 Y9.122 Z5.725 I-3.811 J5.314 K0.000
G1 X29.671 Y1.588 Z5.725
G1 X27.426 Y1.588 Z5.725
G1 X20.389 Y8.625 Z5.725
G2 X18.341 Y8.428 Z5.725 I-2.153 J11.656 K0.000
G1 X25.181 Y1.588 Z5.725
G1 X22.936 Y1.588 Z5.725
G1 X16.111 Y8.413 Z5.725
G1 X13.866 Y8.413 Z5.725
G1 X20.691 Y1.588 Z5.725
G1 X18.446 Y1.588 Z5.725
G1 X11.597 Y8.436 Z5.725
G2 X10.246 Y9.787 Z5.725 I0.180 J1.530 K0.000
G1 X1.588 Y18.446 Z5.725
G1 X1.588 Y16.201 Z5.725
G1 X16.201 Y1.588 Z5.725
G1 X13.956 Y1.588 Z5.725
G1 X1.588 Y13.956 Z5.725
G1 X1.588 Y11.711 Z5.725
G1 X11.711 Y1.588 Z5.725
G1 X9.466 Y1.588 Z5.725
G1 X1.588 Y9.466 Z5.725
G1 X1.588 Y7.221 Z5.725
G1 X7.221 Y1.588 Z5.725
G1 X4.976 Y1.588 Z5.725
G1 X1.588 Y4.976 Z5.725
G1 X1.588 Y2.731 Z5.725
G1 X1.588 Y1.588 Z5.725
G1 X2.731 Y1.588 Z5.725
G1 X1.588 Y2.731 Z5.725
G0 Z15.400
G0 Y18.446 Z15.400
G0 Y18.446 Z13.400
G1 X1.588 Y18.446 Z5.725
G1 X10.246 Y9.787 Z5.725
G1 X10.222 Y10.000 Z5.725
G1 X10.222 Y12.056 Z5.725
G1 X1.588 Y20.691 Z5.725
G1 X1.588 Y22.936 Z5.725
G1 X10.222 Y14.301 Z5.725
G1 X10.222 Y16.546 Z5.725
G1 X1.588 Y25.181 Z5.725
G1 X1.588 Y27.426 Z5.725
G1 X10.222 Y18.791 Z5.725
G1 X10.222 Y21.036 Z5.725
G1 X1.588 Y29.671 Z5.725
G1 X1.588 Y31.916 Z5.725
G1 X10.222 Y23.282 Z5.725
G1 X10.222 Y25.527 Z5.725
G1 X1.588 Y34.162 Z5.725
G1 X1.588 Y34.712 Z5.725
G1 X3.282 Y34.712 Z5.725
G1 X10.418 Y27.577 Z5.725
G2 X11.824 Y28.415 Z5.725 I1.388 J-0.730 K0.000
G1 X5.527 Y34.712 Z5.725
G1 X7.772 Y34.712 Z5.725
G1 X14.069 Y28.415 Z5.725
G1 X16.314 Y28.415 Z5.725
G1 X10.017 Y34.712 Z5.725
G1 X12.262 Y34.712 Z5.725
G1 X18.576 Y28.399 Z5.725
G2 X21.138 Y28.082 Z5.725 I-0.138 J-11.634 K0.000
G1 X14.507 Y34.712 Z5.725
G1 X16.752 Y34.712 Z5.725
G1 X34.712 Y16.752 Z5.725
G1 X34.712 Y18.997 Z5.725
G1 X18.997 Y34.712 Z5.725
G1 X21.242 Y34.712 Z5.725
G1 X34.712 Y21.242 Z5.725
G1 X34.712 Y23.487 Z5.725
G1 X23.487 Y34.712 Z5.725
G1 X25.732 Y34.712 Z5.725
G1 X34.712 Y25.732 Z5.725
G1 X34.712 Y27.977 Z5.725
G1 X27.977 Y34.712 Z5.725
G1 X30.222 Y34.712 Z5.725
G1 X34.712 Y30.222 Z5.725
G1 X34.712 Y32.467 Z5.725
G1 X32.467 Y34.712 Z5.725
G1 X34.712 Y34.712 Z5.725
G1 X34.712 Y34.712 Z5.550
G1 X32.467 Y34.712 Z5.550
G1 X34.712 Y32.467 Z5.550
G1 X34.712 Y30.222 Z5.550
G1 X30.222 Y34.712 Z5.550
G1 X27.977 Y34.712 Z5.550
G1 X34.712 Y27.977 Z5.550
G1 X34.712 Y25.732 Z5.550
G1 X25.732 Y34.712 Z5.550
G1 X23.487 Y34.712 Z5.550
G1 X34.712 Y23.487 Z5.550
G1 X34.712 Y21.242 Z5.550
G1 X21.242 Y34.712 Z5.550
G1 X18.997 Y34.712 Z5.550
G1 X34.712 Y18.997 Z5.550
G1 X34.712 Y16.752 Z5.550
G1 X16.752 Y34.712 Z5.550
G1 X14.507 Y34.712 Z5.550
G1 X21.138 Y28.082 Z5.550
G3 X18.576 Y28.399 Z5.550 I-2.699 J-11.317 K0.000
G1 X12.262 Y34.712 Z5.550
G1 X10.017 Y34.712 Z5.550
G1 X16.314 Y28.415 Z5.550
G1 X14.069 Y28.415 Z5.550
G1 X7.772 Y34.712 Z5.550
G1 X5.527 Y34.712 Z5.550
G1 X11.824 Y28.415 Z5.550
G3 X10.418 Y27.577 Z5.550 I-0.018 J-1.568 K0.000
G1 X3.282 Y34.712 Z5.550
G1 X1.588 Y34.712 Z5.550
G1 X1.588 Y34.162 Z5.550
G1 X10.222 Y25.527 Z5.550
G1 X10.222 Y23.282 Z5.550
G1 X1.588 Y31.916 Z5.550
G1 X1.588 Y29.671 Z5.550
G1 X10.222 Y21.036 Z5.550
G1 X10.222 Y18.791 Z5.550
G1 X1.588 Y27.426 Z5.550
G1 X1.588 Y25.181 Z5.550
G1 X10.222 Y16.546 Z5.550
G1 X10.222 Y14.301 Z5.550
G1 X1.588 Y22.936 Z5.550
G1 X1.588 Y20.691 Z5.550
G1 X10.222 Y12.056 Z5.550
G1 X10.222 Y10.000 Z5.550
G1 X10.246 Y9.787 Z5.550
G1 X1.588 Y18.446 Z5.550
G0 Z15.400
G0 Y2.731 Z15.400
G0 Y2.731 Z13.400
G1 X1.588 Y2.731 Z5.550
G1 X2.731 Y1.588 Z5.550
G1 X1.588 Y1.588 Z5.550
G1 X1.588 Y2.731 Z5.550
G1 X1.588 Y4.976 Z5.550
G1 X4.976 Y1.588 Z5.550
G1 X7.221 Y1.588 Z5.550
G1 X1.588 Y7.221 Z5.550
G1 X1.588 Y9.466 Z5.550
G1 X9.466 Y1.588 Z5.550
G1 X11.711 Y1.588 Z5.550
G1 X1.588 Y11.711 Z5.550
G1 X1.588 Y13.956 Z5.550
G1 X13.956 Y1.588 Z5.550
G1 X16.201 Y1.588 Z5.550
G1 X1.588 Y16.201 Z5.550
G1 X1.588 Y18.446 Z5.550
G1 X10.246 Y9.787 Z5.550
G3 X11.597 Y8.436 Z5.550 I1.530 J0.180 K0.000
G1 X18.446 Y1.588 Z5.550
G1 X20.691 Y1.588 Z5.550
G1 X13.866 Y8.413 Z5.550
G1 X16.111 Y8.413 Z5.550
G1 X22.936 Y1.588 Z5.550
G1 X25.181 Y1.588 Z5.550
G1 X18.341 Y8.428 Z5.550
G3 X20.389 Y8.625 Z5.550 I-0.105 J11.853 K0.000
G1 X27.426 Y1.588 Z5.550
G1 X29.671 Y1.588 Z5.550
G1 X22.137 Y9.122 Z5.550
G3 X23.595 Y9.909 Z5.550 I-2.353 J6.102 K0.000
G1 X31.916 Y1.588 Z5.550
G1 X34.162 Y1.588 Z5.550
G1 X24.777 Y10.972 Z5.550
G3 X25.738 Y12.256 Z5.550 I-5.261 J4.939 K0.000
G1 X34.712 Y3.282 Z5.550
G1 X34.712 Y5.527 Z5.550
G1 X26.466 Y13.773 Z5.550
G3 X26.992 Y15.493 Z5.550 I-9.477 J3.837 K0.000
G1 X34.712 Y7.772 Z5.550
G1 X34.712 Y10.017 Z5.550
G1 X27.249 Y17.481 Z5.550
G3 X27.241 Y19.734 Z5.550 I-14.336 J1.077 K0.000
G1 X34.712 Y12.262 Z5.550
G1 X34.712 Y14.507 Z5.550
G1 X26.704 Y22.515 Z5.550
G1 X26.704 Y22.515 Z5.400
G1 X34.712 Y14.507 Z5.400
G1 X34.712 Y12.262 Z5.400
G1 X27.241 Y19.734 Z5.400
G2 X27.249 Y17.481 Z5.400 I-14.329 J-1.176 K0.000
G1 X34.712 Y10.017 Z5.400
G1 X34.712 Y7.772 Z5.400
G1 X26.992 Y15.493 Z5.400
G2 X26.466 Y13.773 Z5.400 I-10.002 J2.117 K0.000
G1 X34.712 Y5.527 Z5.400
G1 X34.712 Y3.282 Z5.400
G1 X25.738 Y12.256 Z5.400
G2 X24.777 Y10.972 Z5.400 I-6.222 J3.655 K0.000
G1 X34.162 Y1.588 Z5.400
G1 X31.916 Y1.588 Z5.400
G1 X23.595 Y9.909 Z5.400
G2 X22.137 Y9.122 Z5.400 I-3.811 J5.314 K0.000
G1 X29.671 Y1.588 Z5.400
G1 X27.426 Y1.588 Z5.400
G1 X20.389 Y8.625 Z5.400
G2 X18.341 Y8.428 Z5.400 I-2.153 J11.656 K0.000
G1 X25.181 Y1.588 Z5.400
G1 X22.936 Y1.588 Z5.400
G1 X16.111 Y8.413 Z5.400
G1 X13.866 Y8.413 Z5.400
G1 X20.691 Y1.588 Z5.400
G1 X18.446 Y1.588 Z5.400
G1 X11.597 Y8.436 Z5.400
G2 X10.246 Y9.787 Z5.400 I0.180 J1.530 K0.000
G1 X1.588 Y18.446 Z5.400
G1 X1.588 Y16.201 Z5.400
G1 X16.201 Y1.588 Z5.400
G1 X13.956 Y1.588 Z5.400
G1 X1.588 Y13.956 Z5.400
G1 X1.588 Y11.711 Z5.400
G1 X11.711 Y1.588 Z5.400
G1 X9.466 Y1.588 Z5.400
G1 X1.588 Y9.466 Z5.400
G1 X1.588 Y7.221 Z5.400
G1 X7.221 Y1.588 Z5.400
G1 X4.976 Y1.588 Z5.400
G1 X1.588 Y4.976 Z5.400
G1 X1.588 Y2.731 Z5.400
G1 X1.588 Y1.588 Z5.400
G1 X2.731 Y1.588 Z5.400
G1 X1.588 Y2.731 Z5.400
G0 Z15.400
G0 Y18.446 Z15.400
G0 Y18.446 Z13.400
G1 X1.588 Y18.446 Z5.400
G1 X10.246 Y9.787 Z5.400
G1 X10.222 Y10.000 Z5.400
G1 X10.222 Y12.056 Z5.400
G1 X1.588 Y20.691 Z5.400
G1 X1.588 Y22.936 Z5.400
G1 X10.222 Y14.301 Z5.400
G1 X10.222 Y16.546 Z5.400
G1 X1.588 Y25.181 Z5.400
G1 X1.588 Y27.426 Z5.400
G1 X10.222 Y18.791 Z5.400
G1 X10.222 Y21.036 Z5.400
G1 X1.588 Y29.671 Z5.400
G1 X1.588 Y31.916 Z5.400
G1 X10.222 Y23.282 Z5.400
G1 X10.222 Y25.527 Z5.400
G1 X1.588 Y34.162 Z5.400
G1 X1.588 Y34.712 Z5.400
G1 X3.282 Y34.712 Z5.400
G1 X10.418 Y27.577 Z5.400
G2 X11.824 Y28.415 Z5.400 I1.388 J-0.730 K0.000
G1 X5.527 Y34.712 Z5.400
G1 X7.772 Y34.712 Z5.400
G1 X14.069 Y28.415 Z5.400
G1 X16.314 Y28.415 Z5.400
G1 X10.017 Y34.712 Z5.400
G1 X12.262 Y34.712 Z5.400
G1 X18.576 Y28.399 Z5.400
G2 X21.138 Y28.082 Z5.400 I-0.138 J-11.634 K0.000
G1 X14.507 Y34.712 Z5.400
G1 X16.752 Y34.712 Z5.400
G1 X34.712 Y16.752 Z5.400
G1 X34.712 Y18.997 Z5.400
G1 X18.997 Y34.712 Z5.400
G1 X21.242 Y34.712 Z5.400
G1 X34.712 Y21.242 Z5.400
G1 X34.712 Y23.487 Z5.400
G1 X23.487 Y34.712 Z5.400
G1 X25.732 Y34.712 Z5.400
G1 X34.712 Y25.732 Z5.400
G1 X34.712 Y27.977 Z5.400
G1 X27.977 Y34.712 Z5.400
G1 X30.222 Y34.712 Z5.400
G1 X34.712 Y30.222 Z5.400
G1 X34.712 Y32.467 Z5.400
G1 X32.467 Y34.712 Z5.400
G1 X34.712 Y34.712 Z5.400
G0 Z15.400
G0 Z15.400
(Finish operation: Pocket_Shape)
(Begin postamble)
M5
G17 G90
M2
