; generated by PrusaSlicer 2.6.0+MacOS-x64 on 2023-08-21 at 01:00:45 UTC

; 

; external perimeters extrusion width = 0.45mm
; perimeters extrusion width = 0.40mm
; infill extrusion width = 0.45mm
; solid infill extrusion width = 0.50mm
; top infill extrusion width = 0.45mm
; first layer extrusion width = 0.56mm

; external perimeters extrusion width = 0.45mm
; perimeters extrusion width = 0.40mm
; infill extrusion width = 0.45mm
; solid infill extrusion width = 0.50mm
; top infill extrusion width = 0.45mm
; first layer extrusion width = 0.56mm

M201 X2500 Y2500 Z800 E2500 ; sets maximum accelerations, mm/sec^2
M203 X300 Y250 Z8 E80 ; sets maximum feedrates, mm / sec
M204 S2500 T2500 ; sets acceleration (S) and retract acceleration (R), mm/sec^2
M205 X15.00 Y10.00 Z2.00 E10.00 ; sets the jerk limits, mm/sec
M205 S0 T0 ; sets the minimum extruding and travel feed rate, mm/sec
;TYPE:Custom
G90 ; use absolute coordinates
M83 ; extruder relative mode
M104 S215 ; set extruder temp
M140 S65 ; set bed temp
M190 S65 ; wait for bed temp
M109 S215 ; wait for extruder temp
G28                                        ; move X/Y/Z to min endstops
G1 Z0.28                                   ; lift nozzle a bit
 
G0 Y235      ; move to max Y (within soft-limit)


G92 E0 
G1 Y6 F1800                                    ; zero the extruded length 
G1 Y1  E25 F500                       ; Extrude 25mm of filament in a 5cm line. 
G92 E0                                     ; zero the extruded length again 
G1 E-2 F500                                ; Retract a little 
G1 X70 F4000                              ; Quickly wipe away from the filament line

M211 S0      ; disable software endstop
G0 Y245 X80       ; push forward past the endstop to the nozzle wiper

G0 X90       ; move X to the nozzle wiper
G0 X80       ; move X to wipe the nozzle

M211 S1      ; enable software endstop
M117

;G28          ; home all
G21 ; set units to millimeters
G90 ; use absolute coordinates
M82 ; use absolute distances for extrusion
G92 E0
M107
;LAYER_CHANGE
;Z:0.28
;HEIGHT:0.28
; BEFORE_LAYER_CHANGE 0 @ 0.28mm
G1 E-2 F4800
G92 E0
G1 Z.28 F7200
; AFTER_LAYER_CHANGE 0 @ 0.28mm
G1 X154.6 Y154.6
G1 E2 F4800
M204 S2000
;TYPE:External perimeter
;WIDTH:0.56
G1 F3000
G1 X75.4 Y154.6 E6.60904
G1 X75.4 Y75.4 E11.21808
G1 X154.6 Y75.4 E15.82712
G1 X154.6 Y154.54 E20.43267
M204 S2500
G1 X154.214 Y154.496 F7200
G1 X154.1 Y154.1
M204 S2000
;TYPE:Perimeter
G1 F3000
G1 X75.9 Y154.1 E24.98351
G1 X75.9 Y75.9 E29.53435
G1 X154.1 Y75.9 E34.08519
G1 X154.1 Y154.04 E38.63254
M204 S2500
G1 X153.6 Y153.6 F7200
M204 S2000
G1 F3000
G1 X76.4 Y153.6 E43.12519
G1 X76.4 Y76.4 E47.61784
G1 X153.6 Y76.4 E52.11049
G1 X153.6 Y153.54 E56.59965
M204 S2500
G1 E55.19965 F4800
;WIPE_START
G1 F5760
G1 X152.842 Y153.541 E54.59965
;WIPE_END
G92 E0
G1 X83.491 Y112.399 F7200
G1 E2 F4800
M204 S2000
;TYPE:External perimeter
G1 F3000
G1 X83.934 Y112.518 E2.02669
G1 X84.4 Y112.748 E2.05693
G1 X84.813 Y113.064 E2.08719
G1 X85.156 Y113.455 E2.11746
G1 X85.416 Y113.905 E2.1477
G1 X85.583 Y114.398 E2.17799
G1 X85.651 Y114.913 E2.20822
G1 X85.617 Y115.432 E2.23849
G1 X85.482 Y115.934 E2.26874
G1 X85.252 Y116.4 E2.29898
G1 X84.936 Y116.813 E2.32924
G1 X84.545 Y117.156 E2.35951
G1 X84.094 Y117.416 E2.3898
G1 X83.602 Y117.583 E2.42004
G1 X83.087 Y117.651 E2.45027
G1 X82.568 Y117.617 E2.48054
G1 X82.066 Y117.482 E2.51079
G1 X81.6 Y117.252 E2.54103
G1 X81.187 Y116.936 E2.57129
G1 X80.844 Y116.545 E2.60156
G1 X80.584 Y116.094 E2.63185
G1 X80.417 Y115.602 E2.66209
G1 X80.349 Y115.087 E2.69232
G1 X80.383 Y114.568 E2.72259
G1 X80.518 Y114.066 E2.75284
G1 X80.748 Y113.6 E2.78308
G1 X81.064 Y113.187 E2.81334
G1 X81.455 Y112.844 E2.84361
G1 X81.906 Y112.584 E2.8739
G1 X82.398 Y112.417 E2.90414
G1 X82.913 Y112.349 E2.93437
G1 X83.433 Y112.384 E2.9647
M204 S2500
G1 X83.746 Y112.091 F7200
G1 X83.553 Y111.898
M204 S2000
;TYPE:Perimeter
G1 F3000
G1 X84.111 Y112.048 E2.99833
G1 X84.666 Y112.321 E3.03432
G1 X85.156 Y112.698 E3.0703
G1 X85.564 Y113.163 E3.1063
G1 X85.873 Y113.698 E3.14225
G1 X86.072 Y114.284 E3.17826
G1 X86.153 Y114.897 E3.21424
G1 X86.112 Y115.514 E3.25023
G1 X85.952 Y116.111 E3.2862
G1 X85.679 Y116.666 E3.32219
G1 X85.302 Y117.156 E3.35817
G1 X84.837 Y117.564 E3.39417
G1 X84.302 Y117.873 E3.43012
G1 X83.716 Y118.072 E3.46613
G1 X83.103 Y118.153 E3.50211
G1 X82.486 Y118.112 E3.5381
G1 X81.889 Y117.952 E3.57407
G1 X81.334 Y117.679 E3.61006
G1 X80.844 Y117.302 E3.64604
G1 X80.436 Y116.837 E3.68204
G1 X80.127 Y116.302 E3.71799
G1 X79.928 Y115.716 E3.754
G1 X79.847 Y115.103 E3.78998
G1 X79.888 Y114.486 E3.82597
G1 X80.048 Y113.889 E3.86194
G1 X80.321 Y113.334 E3.89793
G1 X80.698 Y112.844 E3.93391
G1 X81.163 Y112.436 E3.96991
G1 X81.698 Y112.127 E4.00586
G1 X82.284 Y111.928 E4.04187
G1 X82.897 Y111.847 E4.07785
G1 X83.495 Y111.887 E4.11273
M204 S2500
G1 X83.676 Y111.414 F7200
M204 S2000
G1 F3000
G1 X84.288 Y111.578 E4.1496
G1 X84.931 Y111.895 E4.19132
G1 X85.5 Y112.331 E4.23304
G1 X85.972 Y112.87 E4.27473
G1 X86.331 Y113.491 E4.31647
G1 X86.561 Y114.17 E4.35819
G1 X86.655 Y114.88 E4.39987
G1 X86.608 Y115.596 E4.44163
G1 X86.422 Y116.288 E4.48333
G1 X86.105 Y116.931 E4.52505
G1 X85.669 Y117.5 E4.56677
G1 X85.13 Y117.972 E4.60846
G1 X84.509 Y118.331 E4.6502
G1 X83.83 Y118.561 E4.69192
G1 X83.12 Y118.655 E4.7336
G1 X82.404 Y118.608 E4.77536
G1 X81.712 Y118.422 E4.81706
G1 X81.069 Y118.105 E4.85878
G1 X80.5 Y117.669 E4.9005
G1 X80.028 Y117.13 E4.94219
G1 X79.669 Y116.509 E4.98393
G1 X79.439 Y115.83 E5.02565
G1 X79.345 Y115.12 E5.06733
G1 X79.392 Y114.404 E5.10909
G1 X79.578 Y113.712 E5.15079
G1 X79.895 Y113.069 E5.19251
G1 X80.331 Y112.5 E5.23423
G1 X80.87 Y112.028 E5.27592
G1 X81.491 Y111.669 E5.31766
G1 X82.17 Y111.439 E5.35938
G1 X82.88 Y111.345 E5.40106
G1 X83.618 Y111.398 E5.44412
M204 S2500
G1 E4.04412 F4800
;WIPE_START
G1 F5760
G1 X84.288 Y111.578 E3.4949
G1 X84.346 Y111.606 E3.44412
;WIPE_END
G92 E0
G1 X147.485 Y112.398 F7200
G1 E2 F4800
M204 S2000
;TYPE:External perimeter
G1 F3000
G1 X147.934 Y112.518 E2.02705
G1 X148.4 Y112.748 E2.05729
G1 X148.813 Y113.064 E2.08755
G1 X149.156 Y113.455 E2.11782
G1 X149.416 Y113.905 E2.14806
G1 X149.583 Y114.398 E2.17835
G1 X149.651 Y114.913 E2.20858
G1 X149.617 Y115.432 E2.23885
G1 X149.482 Y115.934 E2.2691
G1 X149.252 Y116.4 E2.29934
G1 X148.936 Y116.813 E2.3296
G1 X148.545 Y117.156 E2.35987
G1 X148.094 Y117.416 E2.39016
G1 X147.602 Y117.583 E2.4204
G1 X147.087 Y117.651 E2.45063
G1 X146.568 Y117.617 E2.4809
G1 X146.066 Y117.482 E2.51115
G1 X145.6 Y117.252 E2.54139
G1 X145.187 Y116.936 E2.57165
G1 X144.844 Y116.545 E2.60192
G1 X144.584 Y116.094 E2.63221
G1 X144.417 Y115.602 E2.66245
G1 X144.349 Y115.087 E2.69268
G1 X144.383 Y114.568 E2.72295
G1 X144.518 Y114.066 E2.7532
G1 X144.748 Y113.6 E2.78344
G1 X145.064 Y113.187 E2.8137
G1 X145.455 Y112.844 E2.84397
G1 X145.906 Y112.584 E2.87426
G1 X146.398 Y112.417 E2.9045
G1 X146.913 Y112.349 E2.93473
G1 X147.427 Y112.383 E2.96471
M204 S2500
G1 X147.741 Y112.09 F7200
G1 X147.473 Y111.885
M204 S2000
;TYPE:Perimeter
G1 F3000
G1 X148.111 Y112.048 E3.00303
G1 X148.666 Y112.321 E3.03902
G1 X149.156 Y112.698 E3.075
G1 X149.564 Y113.163 E3.111
G1 X149.873 Y113.698 E3.14695
G1 X150.072 Y114.284 E3.18296
G1 X150.153 Y114.897 E3.21894
G1 X150.112 Y115.514 E3.25493
G1 X149.952 Y116.111 E3.2909
G1 X149.679 Y116.666 E3.32689
G1 X149.302 Y117.156 E3.36287
G1 X148.837 Y117.564 E3.39887
G1 X148.302 Y117.873 E3.43482
G1 X147.716 Y118.072 E3.47083
G1 X147.103 Y118.153 E3.50681
G1 X146.486 Y118.112 E3.5428
G1 X145.889 Y117.952 E3.57877
G1 X145.334 Y117.679 E3.61476
G1 X144.844 Y117.302 E3.65074
G1 X144.436 Y116.837 E3.68674
G1 X144.127 Y116.302 E3.72269
G1 X143.928 Y115.716 E3.7587
G1 X143.847 Y115.103 E3.79468
G1 X143.888 Y114.486 E3.83067
G1 X144.048 Y113.889 E3.86664
G1 X144.321 Y113.334 E3.90263
G1 X144.698 Y112.844 E3.93861
G1 X145.163 Y112.436 E3.97461
G1 X145.698 Y112.127 E4.01056
G1 X146.284 Y111.928 E4.04657
G1 X146.897 Y111.847 E4.08255
G1 X147.413 Y111.881 E4.11264
M204 S2500
G1 X147.676 Y111.414 F7200
M204 S2000
G1 F3000
G1 X148.288 Y111.578 E4.14951
G1 X148.931 Y111.895 E4.19123
G1 X149.5 Y112.331 E4.23295
G1 X149.972 Y112.87 E4.27464
G1 X150.331 Y113.491 E4.31638
G1 X150.561 Y114.17 E4.3581
G1 X150.655 Y114.88 E4.39978
G1 X150.608 Y115.596 E4.44154
G1 X150.422 Y116.288 E4.48324
G1 X150.105 Y116.931 E4.52496
G1 X149.669 Y117.5 E4.56668
G1 X149.13 Y117.972 E4.60837
G1 X148.509 Y118.331 E4.65011
G1 X147.83 Y118.561 E4.69183
G1 X147.12 Y118.655 E4.73351
G1 X146.404 Y118.608 E4.77527
G1 X145.712 Y118.422 E4.81697
G1 X145.069 Y118.105 E4.85869
G1 X144.5 Y117.669 E4.90041
G1 X144.028 Y117.13 E4.9421
G1 X143.669 Y116.509 E4.98384
G1 X143.439 Y115.83 E5.02556
G1 X143.345 Y115.12 E5.06724
G1 X143.392 Y114.404 E5.109
G1 X143.578 Y113.712 E5.1507
G1 X143.895 Y113.069 E5.19242
G1 X144.331 Y112.5 E5.23414
G1 X144.87 Y112.028 E5.27583
G1 X145.491 Y111.669 E5.31757
G1 X146.17 Y111.439 E5.35929
G1 X146.88 Y111.345 E5.40097
G1 X147.618 Y111.398 E5.44403
M204 S2500
G1 E4.04403 F4800
;WIPE_START
G1 F5760
G1 X148.288 Y111.578 E3.49481
G1 X148.346 Y111.606 E3.44403
;WIPE_END
G92 E0
G1 X152.388 Y76.6 F7200
G1 E2 F4800
M204 S2000
;TYPE:Solid infill
;WIDTH:0.56093
G1 F3000
G1 X153.175 Y77.387 E2.06489
G1 X153.175 Y78.096 E2.10623
G1 X151.904 Y76.825 E2.21103
G1 X151.196 Y76.825 E2.25231
G1 X153.175 Y78.804 E2.41548
G1 X153.175 Y79.512 E2.45676
G1 X150.488 Y76.825 E2.67831
G1 X149.779 Y76.825 E2.71965
G1 X153.175 Y80.221 E2.99966
G1 X153.175 Y80.929 E3.04094
G1 X149.071 Y76.825 E3.37933
G1 X148.363 Y76.825 E3.42061
G1 X153.175 Y81.637 E3.81738
G1 X153.175 Y82.345 E3.85866
G1 X147.655 Y76.825 E4.3138
G1 X146.946 Y76.825 E4.35514
G1 X153.175 Y83.054 E4.86874
G1 X153.175 Y83.762 E4.91002
G1 X146.238 Y76.825 E5.482
G1 X145.53 Y76.825 E5.52328
G1 X153.175 Y84.47 E6.15364
G1 X153.175 Y85.179 E6.19498
G1 X144.821 Y76.825 E6.88379
G1 X144.113 Y76.825 E6.92507
G1 X153.175 Y85.887 E7.67226
G1 X153.175 Y86.595 E7.71354
G1 X143.405 Y76.825 E8.51911
G1 X142.696 Y76.825 E8.56045
G1 X153.175 Y87.304 E9.42448
G1 X153.175 Y88.012 E9.46576
G1 X141.988 Y76.825 E10.38816
G1 X141.28 Y76.825 E10.42944
G1 X153.175 Y88.72 E11.41022
G1 X153.175 Y89.428 E11.4515
G1 X140.572 Y76.825 E12.49066
G1 X139.863 Y76.825 E12.532
G1 X153.175 Y90.137 E13.62962
G1 X153.175 Y90.845 E13.6709
G1 X139.155 Y76.825 E14.82689
G1 X138.447 Y76.825 E14.86817
G1 X153.175 Y91.553 E16.08254
G1 X153.175 Y92.262 E16.12388
G1 X137.738 Y76.825 E17.39671
G1 X137.03 Y76.825 E17.43799
G1 X153.175 Y92.97 E18.7692
G1 X153.175 Y93.678 E18.81048
G1 X136.322 Y76.825 E20.20006
G1 X135.614 Y76.825 E20.24134
G1 X153.175 Y94.386 E21.6893
G1 X153.175 Y95.095 E21.73064
G1 X134.905 Y76.825 E23.23706
G1 X134.197 Y76.825 E23.27834
G1 X153.175 Y95.803 E24.84314
G1 X153.175 Y96.511 E24.88442
G1 X133.489 Y76.825 E26.50759
G1 X132.78 Y76.825 E26.54893
G1 X153.175 Y97.22 E28.23056
G1 X153.175 Y97.928 E28.27184
G1 X132.072 Y76.825 E30.01185
G1 X131.364 Y76.825 E30.05313
G1 X153.175 Y98.636 E31.85152
G1 X153.175 Y99.345 E31.89286
G1 X130.655 Y76.825 E33.74971
G1 X129.947 Y76.825 E33.79099
G1 X153.175 Y100.053 E35.70621
G1 X153.175 Y100.761 E35.74749
G1 X129.239 Y76.825 E37.72109
G1 X128.531 Y76.825 E37.76237
G1 X153.175 Y101.469 E39.79435
G1 X153.175 Y102.178 E39.83569
G1 X127.822 Y76.825 E41.92613
G1 X127.114 Y76.825 E41.96741
G1 X153.175 Y102.886 E44.11622
G1 X153.175 Y103.594 E44.1575
G1 X126.406 Y76.825 E46.36469
G1 X125.697 Y76.825 E46.40603
G1 X153.175 Y104.303 E48.67168
G1 X153.175 Y105.011 E48.71296
G1 X124.989 Y76.825 E51.03699
G1 X124.281 Y76.825 E51.07827
G1 X153.175 Y105.719 E53.46067
G1 X153.175 Y106.428 E53.50201
G1 X123.572 Y76.825 E55.94287
G1 X122.864 Y76.825 E55.98415
G1 X153.175 Y107.136 E58.48339
G1 X153.175 Y107.844 E58.52467
G1 X122.156 Y76.825 E61.08229
G1 X121.448 Y76.825 E61.12357
G1 X153.175 Y108.552 E63.73956
G1 X153.175 Y109.261 E63.7809
G1 X120.739 Y76.825 E66.45535
G1 X120.031 Y76.825 E66.49663
G1 X153.175 Y109.969 E69.22946
G1 X153.175 Y110.677 E69.27074
G1 X119.323 Y76.825 E72.06195
G1 X118.614 Y76.825 E72.10329
G1 X153.175 Y111.386 E74.95296
G1 X153.175 Y112.094 E74.99424
G1 X117.906 Y76.825 E77.90228
G1 X117.198 Y76.825 E77.94356
G1 X153.175 Y112.802 E80.90998
G1 X153.175 Y113.511 E80.95132
G1 X116.489 Y76.825 E83.9762
G1 X115.781 Y76.825 E84.01748
G1 X153.175 Y114.219 E87.10074
G1 X153.175 Y114.927 E87.14202
G1 X115.073 Y76.825 E90.28365
G1 X114.365 Y76.825 E90.32493
G1 X153.175 Y115.635 E93.52494
G1 X153.175 Y116.344 E93.56628
G1 X150.988 Y114.156 E93.74665
G1 X151.081 Y114.866 E93.7884
G1 X151.076 Y114.953 E93.79348
G1 X153.175 Y117.052 E93.96655
G1 X153.175 Y117.76 E94.00783
G1 X151.032 Y115.617 E94.18453
G1 X150.89 Y116.184 E94.21861
G1 X153.175 Y118.469 E94.40702
G1 X153.175 Y119.177 E94.4483
G1 X150.695 Y116.696 E94.65283
G1 X150.459 Y117.168 E94.6836
G1 X153.175 Y119.885 E94.90758
G1 X153.175 Y120.594 E94.94892
G1 X150.151 Y117.569 E95.1983
G1 X149.98 Y117.791 E95.21464
G1 X149.812 Y117.939 E95.22769
G1 X153.175 Y121.302 E95.50498
G1 X153.175 Y122.01 E95.54626
G1 X149.435 Y118.27 E95.85464
G1 X149.379 Y118.319 E95.85898
G1 X148.997 Y118.54 E95.88471
G1 X153.175 Y122.718 E96.2292
G1 X153.175 Y123.427 E96.27054
G1 X148.523 Y118.775 E96.65411
G1 X147.994 Y118.954 E96.68667
G1 X153.175 Y124.135 E97.11386
G1 X153.175 Y124.843 E97.15514
G1 X147.381 Y119.049 E97.63287
G1 X147.134 Y119.081 E97.64739
G1 X146.675 Y119.051 E97.67421
G1 X153.4 Y125.777 E98.22875
M204 S2500
G1 E96.82875 F4800
;WIPE_START
G1 F5760
G1 X152.864 Y125.241 E96.22875
;WIPE_END
G92 E0
G1 X148.171 Y111.339 F7200
G1 E2 F4800
M204 S2000
G1 F3000
G1 X113.656 Y76.825 E4.84583
G1 X112.948 Y76.825 E4.88711
G1 X147.054 Y110.931 E7.69926
G1 X146.866 Y110.919 E7.71024
G1 X146.396 Y110.981 E7.73788
G1 X112.24 Y76.825 E10.55415
G1 X111.531 Y76.825 E10.59549
G1 X145.817 Y111.11 E13.42244
G1 X145.292 Y111.294 E13.45487
G1 X110.823 Y76.825 E16.29695
G1 X110.115 Y76.825 E16.33823
G1 X144.843 Y111.553 E19.20167
G1 X144.621 Y111.681 E19.21661
G1 X144.43 Y111.848 E19.2314
G1 X109.406 Y76.825 E22.1192
G1 X108.698 Y76.825 E22.16048
G1 X144.053 Y112.179 E25.07557
G1 X143.739 Y112.574 E25.10499
G1 X107.99 Y76.825 E28.05261
G1 X107.282 Y76.825 E28.09389
G1 X143.456 Y112.999 E31.07655
G1 X143.222 Y113.473 E31.10737
G1 X106.573 Y76.825 E34.12916
G1 X105.865 Y76.825 E34.17044
G1 X143.056 Y114.016 E37.23696
G1 X142.971 Y114.335 E37.25621
G1 X142.952 Y114.62 E37.27286
G1 X105.157 Y76.825 E40.38918
G1 X104.448 Y76.825 E40.43052
G1 X143.204 Y115.581 E43.62608
M204 S2500
G1 E42.22608 F4800
;WIPE_START
G1 F5760
G1 X142.668 Y115.045 E41.62608
;WIPE_END
G92 E0
G1 X153.4 Y126.485 F7200
G1 E2 F4800
M204 S2000
G1 F3000
G1 X145.802 Y118.886 E2.62652
G1 X145.562 Y118.822 E2.641
G1 X144.844 Y118.468 E2.68767
G1 X144.209 Y117.98 E2.73436
G1 X143.681 Y117.379 E2.781
G1 X143.28 Y116.685 E2.82773
G1 X143.116 Y116.2 E2.85758
G1 X103.74 Y76.825 E6.10422
G1 X103.032 Y76.825 E6.1455
G1 X153.175 Y126.968 E10.27995
G1 X153.175 Y127.676 E10.32123
G1 X102.324 Y76.825 E14.51406
G1 X101.615 Y76.825 E14.5554
G1 X153.175 Y128.385 E18.80669
G1 X153.175 Y129.093 E18.84797
G1 X100.907 Y76.825 E23.15764
G1 X100.199 Y76.825 E23.19892
G1 X153.175 Y129.801 E27.56696
G1 X153.175 Y130.51 E27.6083
G1 X99.49 Y76.825 E32.0348
G1 X98.782 Y76.825 E32.07608
G1 X153.175 Y131.218 E36.56096
G1 X153.175 Y131.926 E36.60224
G1 X98.074 Y76.825 E41.1455
G1 X97.365 Y76.825 E41.18684
G1 X153.175 Y132.635 E45.78856
G1 X153.175 Y133.343 E45.82984
G1 X96.657 Y76.825 E50.48993
G1 X95.949 Y76.825 E50.53121
G1 X153.175 Y134.051 E55.24968
G1 X153.175 Y134.759 E55.29096
G1 X95.241 Y76.825 E60.06781
G1 X94.532 Y76.825 E60.10915
G1 X153.175 Y135.468 E64.94446
G1 X153.175 Y136.176 E64.98574
G1 X93.824 Y76.825 E69.87942
G1 X93.116 Y76.825 E69.9207
G1 X153.175 Y136.884 E74.87276
G1 X153.175 Y137.593 E74.9141
G1 X92.407 Y76.825 E79.92462
G1 X91.699 Y76.825 E79.9659
G1 X153.175 Y138.301 E85.0348
G1 X153.175 Y139.009 E85.07608
G1 X90.991 Y76.825 E90.20335
G1 X90.282 Y76.825 E90.24469
