; generated by PrusaSlicer 2.6.0+MacOS-x64 on 2023-08-22 at 01:39:24 UTC

; 

; external perimeters extrusion width = 0.45mm
; perimeters extrusion width = 0.40mm
; infill extrusion width = 0.45mm
; solid infill extrusion width = 0.50mm
; top infill extrusion width = 0.45mm
; first layer extrusion width = 0.56mm

M201 X2500 Y2500 Z800 E2500 ; sets maximum accelerations, mm/sec^2
M203 X300 Y250 Z8 E80 ; sets maximum feedrates, mm / sec
M204 S2500 T2500 ; sets acceleration (S) and retract acceleration (R), mm/sec^2
M205 X15.00 Y10.00 Z2.00 E10.00 ; sets the jerk limits, mm/sec
M205 S0 T0 ; sets the minimum extruding and travel feed rate, mm/sec
;TYPE:Custom
G90 ; use absolute coordinates
M83 ; extruder relative mode
M104 S215 ; set extruder temp
M140 S65 ; set bed temp
M190 S65 ; wait for bed temp
M109 S215 ; wait for extruder temp
G28                                        ; move X/Y/Z to min endstops
G1 Z0.28                                   ; lift nozzle a bit
 
G0 Y235      ; move to max Y (within soft-limit)


G92 E0 
G1 Y6 F1800                                    ; zero the extruded length 
G1 Y1  E25 F500                       ; Extrude 25mm of filament in a 5cm line. 
G92 E0                                     ; zero the extruded length again 
G1 E-2 F500                                ; Retract a little 
G1 X70 F4000                              ; Quickly wipe away from the filament line

M211 S0      ; disable software endstop
G0 Y245 X80       ; push forward past the endstop to the nozzle wiper

G0 X90       ; move X to the nozzle wiper
G0 X80       ; move X to wipe the nozzle

M211 S1      ; enable software endstop
M117

;G28          ; home all
G21 ; set units to millimeters
G90 ; use absolute coordinates
M82 ; use absolute distances for extrusion
G92 E0
M107
;LAYER_CHANGE
;Z:0.28
;HEIGHT:0.28
; BEFORE_LAYER_CHANGE 0 @ 0.28mm
G1 E-2 F4800
G92 E0
G1 Z.28 F7200
; AFTER_LAYER_CHANGE 0 @ 0.28mm
G1 X96.878 Y106.472
G1 E2 F4800
M204 S2000
;TYPE:Skirt/Brim
;WIDTH:0.56
G1 F3000
G1 X97.772 Y105.834 E2.06392
G1 X98.711 Y105.44 E2.12318
G1 X99.751 Y105.251 E2.18469
G1 X103.361 Y105.246 E2.39477
G1 X104.378 Y105.157 E2.45418
G1 X111.042 Y105.151 E2.84199
G1 X111.771 Y105.172 E2.88443
G1 X112.654 Y105.247 E2.936
G1 X113.51 Y105.251 E2.98582
G1 X117.354 Y105.246 E3.20952
G1 X118.229 Y105.172 E3.26062
G1 X118.963 Y105.151 E3.30335
G1 X125.004 Y105.151 E3.65491
G1 X125.719 Y105.162 E3.69652
G1 X126.644 Y105.246 E3.75057
G1 X130.38 Y105.263 E3.96799
G1 X131.369 Y105.464 E4.02672
G1 X132.026 Y105.73 E4.06797
G1 X132.641 Y106.084 E4.10927
G1 X133.523 Y106.873 E4.17814
G1 X134.095 Y107.648 E4.2342
G1 X134.496 Y108.51 E4.28953
G1 X134.749 Y109.752 E4.36329
G1 X134.714 Y120.581 E4.99349
G1 X134.506 Y121.462 E5.04617
G1 X134.247 Y122.074 E5.08484
G1 X133.914 Y122.644 E5.12326
G1 X133.122 Y123.528 E5.19233
G1 X132.228 Y124.166 E5.25625
G1 X131.34 Y124.544 E5.31241
G1 X130.34 Y124.74 E5.37171
G1 X126.64 Y124.754 E5.58703
G1 X125.653 Y124.841 E5.64469
G1 X118.963 Y124.849 E6.03401
G1 X118.229 Y124.828 E6.07674
G1 X117.354 Y124.754 E6.12784
G1 X113.068 Y124.75 E6.37726
G1 X112.335 Y124.77 E6.41993
G1 X111.732 Y124.83 E6.45519
G1 X111.034 Y124.849 E6.49583
G1 X104.378 Y124.843 E6.88318
G1 X103.359 Y124.754 E6.94271
G1 X99.68 Y124.744 E7.15681
G1 X98.533 Y124.504 E7.22501
G1 X97.923 Y124.246 E7.26355
G1 X97.355 Y123.913 E7.30187
G1 X96.471 Y123.121 E7.37094
G1 X95.833 Y122.225 E7.43495
G1 X95.439 Y121.285 E7.49426
G1 X95.251 Y120.242 E7.55594
G1 X95.272 Y109.544 E8.17851
G1 X95.491 Y108.545 E8.23803
G1 X95.753 Y107.926 E8.27715
G1 X96.086 Y107.356 E8.31557
G1 X96.838 Y106.516 E8.38118
M204 S2500
G1 X97.209 Y106.851 F7200
M204 S2000
G1 F3000
G1 X98.036 Y106.26 E8.44033
G1 X98.876 Y105.913 E8.49322
G1 X99.774 Y105.751 E8.54632
G1 X103.383 Y105.746 E8.75635
G1 X104.389 Y105.657 E8.81512
G1 X111.038 Y105.651 E9.20206
G1 X111.736 Y105.671 E9.2427
G1 X112.632 Y105.747 E9.29503
G1 X113.509 Y105.751 E9.34607
G1 X117.376 Y105.746 E9.57111
G1 X118.264 Y105.671 E9.62297
G1 X118.966 Y105.651 E9.66384
G1 X125.002 Y105.651 E10.0151
G1 X125.683 Y105.661 E10.05474
G1 X126.621 Y105.746 E10.10955
G1 X130.353 Y105.763 E10.32674
G1 X131.204 Y105.937 E10.37729
G1 X131.792 Y106.172 E10.41414
G1 X132.368 Y106.504 E10.45283
G1 X133.168 Y107.226 E10.51554
G1 X133.676 Y107.921 E10.56564
G1 X134.029 Y108.692 E10.61499
G1 X134.249 Y109.776 E10.67936
G1 X134.221 Y120.495 E11.30315
G1 X134.036 Y121.289 E11.35059
G1 X133.807 Y121.837 E11.38515
G1 X133.496 Y122.369 E11.42101
G1 X132.771 Y123.172 E11.48397
G1 X131.963 Y123.741 E11.54148
G1 X131.172 Y124.073 E11.5914
G1 X130.27 Y124.245 E11.64484
G1 X126.617 Y124.254 E11.85743
G1 X125.642 Y124.341 E11.9144
G1 X118.966 Y124.349 E12.30291
G1 X118.264 Y124.329 E12.34378
G1 X117.376 Y124.254 E12.39564
G1 X113.061 Y124.25 E12.64675
G1 X112.303 Y124.271 E12.69088
G1 X111.709 Y124.331 E12.72562
G1 X111.031 Y124.349 E12.76509
G1 X104.389 Y124.343 E13.15162
G1 X103.382 Y124.254 E13.21045
G1 X99.707 Y124.244 E13.42432
G1 X98.704 Y124.034 E13.48396
G1 X98.161 Y123.806 E13.51823
G1 X97.63 Y123.495 E13.55404
G1 X96.828 Y122.77 E13.61696
G1 X96.259 Y121.962 E13.67447
G1 X95.912 Y121.12 E13.72747
G1 X95.751 Y120.22 E13.78068
G1 X95.766 Y109.623 E14.39737
G1 X95.961 Y108.717 E14.4513
G1 X96.193 Y108.163 E14.48625
G1 X96.504 Y107.631 E14.52211
G1 X97.168 Y106.896 E14.57975
M204 S2500
G1 X97.537 Y107.232 F7200
M204 S2000
G1 F3000
G1 X97.579 Y107.187 E14.58333
G1 X98.299 Y106.686 E14.63438
G1 X98.993 Y106.4 E14.67806
G1 X99.797 Y106.251 E14.72565
G1 X103.406 Y106.246 E14.93568
G1 X104.401 Y106.157 E14.99382
G1 X111.035 Y106.151 E15.37989
G1 X111.701 Y106.169 E15.41866
G1 X112.609 Y106.246 E15.47169
G1 X113.509 Y106.251 E15.52407
G1 X117.397 Y106.246 E15.75033
G1 X118.299 Y106.169 E15.80301
G1 X118.969 Y106.151 E15.84201
G1 X125.001 Y106.151 E16.19304
G1 X125.648 Y106.159 E16.2307
G1 X126.597 Y106.246 E16.28616
G1 X130.325 Y106.262 E16.50311
G1 X131.039 Y106.409 E16.54553
G1 X131.59 Y106.629 E16.58006
G1 X132.093 Y106.922 E16.61394
G1 X132.811 Y107.577 E16.6705
G1 X133.255 Y108.192 E16.71464
G1 X133.562 Y108.871 E16.75801
G1 X133.749 Y109.8 E16.81316
G1 X133.727 Y120.412 E17.43073
G1 X133.567 Y121.116 E17.47274
G1 X133.352 Y121.628 E17.50506
G1 X133.079 Y122.092 E17.53639
G1 X132.421 Y122.813 E17.5932
G1 X131.701 Y123.314 E17.64425
G1 X131.007 Y123.6 E17.68793
G1 X130.203 Y123.749 E17.73552
G1 X126.594 Y123.754 E17.94555
G1 X125.63 Y123.842 E18.00188
G1 X118.969 Y123.849 E18.38952
G1 X118.299 Y123.831 E18.42852
G1 X117.397 Y123.754 E18.4812
G1 X113.054 Y123.75 E18.73394
G1 X112.27 Y123.772 E18.77958
G1 X111.686 Y123.832 E18.81374
G1 X111.028 Y123.849 E18.85205
G1 X104.401 Y123.843 E19.23771
G1 X103.405 Y123.754 E19.2959
G1 X99.734 Y123.744 E19.50953
G1 X98.876 Y123.563 E19.56056
G1 X98.37 Y123.351 E19.59249
G1 X97.907 Y123.078 E19.62377
G1 X97.186 Y122.421 E19.68054
G1 X96.685 Y121.699 E19.73168
G1 X96.398 Y121.003 E19.77549
G1 X96.251 Y120.198 E19.82311
G1 X96.261 Y109.7 E20.43404
G1 X96.432 Y108.887 E20.48239
G1 X96.648 Y108.372 E20.51489
G1 X96.921 Y107.908 E20.54622
G1 X97.497 Y107.277 E20.59594
M204 S2500
G1 X97.864 Y107.615 F7200
M204 S2000
G1 F3000
G1 X97.926 Y107.547 E20.6013
G1 X98.558 Y107.115 E20.64585
G1 X99.156 Y106.873 E20.68339
G1 X99.821 Y106.751 E20.72274
G1 X103.429 Y106.746 E20.93271
G1 X104.413 Y106.657 E20.99021
G1 X111.032 Y106.651 E21.3754
G1 X111.666 Y106.668 E21.41231
G1 X112.587 Y106.746 E21.4661
G1 X113.508 Y106.751 E21.5197
G1 X117.419 Y106.746 E21.7473
G1 X118.335 Y106.668 E21.8008
G1 X118.973 Y106.651 E21.83794
G1 X124.999 Y106.651 E22.18862
G1 X125.612 Y106.658 E22.2243
G1 X126.573 Y106.746 E22.28046
G1 X130.298 Y106.762 E22.49724
G1 X130.874 Y106.882 E22.53148
G1 X131.386 Y107.086 E22.56355
G1 X131.816 Y107.339 E22.59258
G1 X132.452 Y107.926 E22.64295
G1 X132.833 Y108.46 E22.68113
G1 X133.094 Y109.048 E22.71857
G1 X133.249 Y109.824 E22.76462
G1 X133.234 Y120.33 E23.37602
G1 X133.096 Y120.946 E23.41276
G1 X132.913 Y121.389 E23.44065
G1 X132.662 Y121.815 E23.46942
G1 X132.074 Y122.453 E23.51991
G1 X131.442 Y122.885 E23.56446
G1 X130.844 Y123.127 E23.602
G1 X130.179 Y123.249 E23.64135
G1 X126.571 Y123.254 E23.85132
G1 X125.612 Y123.342 E23.90736
G1 X125.015 Y123.349 E23.9421
G1 X118.973 Y123.349 E24.29371
G1 X118.335 Y123.332 E24.33085
G1 X117.419 Y123.254 E24.38435
G1 X113.047 Y123.25 E24.63878
G1 X112.237 Y123.273 E24.68594
G1 X111.663 Y123.332 E24.71952
G1 X111.025 Y123.349 E24.75666
G1 X104.413 Y123.343 E25.14145
G1 X103.428 Y123.254 E25.19901
G1 X99.761 Y123.244 E25.41241
G1 X99.045 Y123.093 E25.45499
G1 X98.609 Y122.912 E25.48246
G1 X98.184 Y122.661 E25.51118
G1 X97.547 Y122.073 E25.56163
G1 X97.114 Y121.441 E25.60621
G1 X96.872 Y120.841 E25.64386
G1 X96.751 Y120.175 E25.68325
G1 X96.755 Y109.775 E26.28848
G1 X96.903 Y109.056 E26.3312
G1 X97.087 Y108.611 E26.35922
G1 X97.338 Y108.185 E26.38799
G1 X97.823 Y107.659 E26.42963
M204 S2500
G1 X98.188 Y108 F7200
M204 S2000
G1 F3000
G1 X98.271 Y107.91 E26.43675
G1 X98.813 Y107.545 E26.47478
G1 X99.316 Y107.347 E26.50624
G1 X99.843 Y107.251 E26.53741
G1 X103.438 Y107.246 E26.74662
G1 X103.771 Y107.228 E26.76603
G1 X104.429 Y107.157 E26.80454
G1 X111.029 Y107.151 E27.18863
G1 X111.64 Y107.167 E27.2242
G1 X112.231 Y107.23 E27.25879
G1 X112.579 Y107.246 E27.27906
G1 X113.507 Y107.25 E27.33307
G1 X117.426 Y107.246 E27.56114
G1 X117.769 Y107.23 E27.58112
G1 X118.361 Y107.167 E27.61577
G1 X118.976 Y107.15 E27.65157
G1 X124.998 Y107.151 E28.00202
G1 X125.591 Y107.158 E28.03653
G1 X126.23 Y107.228 E28.07394
G1 X126.564 Y107.246 E28.09341
G1 X130.27 Y107.262 E28.30908
G1 X130.708 Y107.354 E28.33513
G1 X131.181 Y107.543 E28.36477
G1 X131.536 Y107.754 E28.3888
G1 X132.091 Y108.272 E28.43298
G1 X132.408 Y108.725 E28.46516
G1 X132.625 Y109.222 E28.49672
G1 X132.749 Y109.848 E28.53386
G1 X132.739 Y120.251 E29.13926
G1 X132.626 Y120.776 E29.17051
G1 X132.458 Y121.181 E29.19603
G1 X132.247 Y121.535 E29.22001
G1 X131.729 Y122.09 E29.26419
G1 X131.187 Y122.455 E29.30222
G1 X130.685 Y122.653 E29.33362
G1 X130.157 Y122.749 E29.36485
G1 X126.562 Y122.754 E29.57406
G1 X126.23 Y122.772 E29.59341
G1 X125.592 Y122.842 E29.63076
G1 X125.01 Y122.849 E29.66463
G1 X118.976 Y122.85 E30.01578
G1 X118.361 Y122.833 E30.05158
G1 X117.769 Y122.77 E30.08623
G1 X117.426 Y122.754 E30.10621
G1 X113.04 Y122.75 E30.36145
G1 X112.204 Y122.773 E30.41012
G1 X111.639 Y122.833 E30.44319
G1 X111.022 Y122.85 E30.47911
G1 X104.429 Y122.843 E30.86279
G1 X103.771 Y122.772 E30.9013
G1 X103.437 Y122.754 E30.92077
G1 X99.789 Y122.744 E31.13307
G1 X99.216 Y122.622 E31.16716
G1 X98.818 Y122.457 E31.19223
G1 X98.464 Y122.246 E31.21621
G1 X97.91 Y121.729 E31.26031
G1 X97.545 Y121.186 E31.29839
G1 X97.346 Y120.682 E31.32992
G1 X97.25 Y120.153 E31.36121
G1 X97.25 Y109.848 E31.96091
G1 X97.375 Y109.223 E31.998
G1 X97.542 Y108.819 E32.02344
G1 X97.753 Y108.465 E32.04742
G1 X98.147 Y108.043 E32.08102
M204 S2500
G1 X98.509 Y108.386 F7200
M204 S2000
G1 F3000
G1 X98.614 Y108.275 E32.08991
G1 X99.025 Y107.999 E32.11872
G1 X99.435 Y107.833 E32.14446
G1 X99.868 Y107.751 E32.17011
G1 X103.451 Y107.745 E32.37862
G1 X103.812 Y107.727 E32.39965
G1 X104.443 Y107.657 E32.4366
G1 X111.026 Y107.65 E32.8197
G1 X111.616 Y107.667 E32.85405
G1 X112.192 Y107.728 E32.88776
G1 X112.566 Y107.746 E32.90955
G1 X113.506 Y107.75 E32.96425
G1 X117.438 Y107.746 E33.19307
G1 X117.808 Y107.728 E33.21463
G1 X118.384 Y107.667 E33.24834
G1 X118.98 Y107.65 E33.28304
G1 X124.996 Y107.65 E33.63314
G1 X125.573 Y107.657 E33.66672
G1 X126.189 Y107.727 E33.7028
G1 X126.549 Y107.745 E33.72378
G1 X130.24 Y107.762 E33.93858
G1 X130.578 Y107.837 E33.95873
G1 X130.973 Y107.998 E33.98355
G1 X131.253 Y108.166 E34.00255
G1 X131.726 Y108.615 E34.0405
G1 X131.981 Y108.986 E34.0667
G1 X132.154 Y109.393 E34.09244
G1 X132.25 Y109.873 E34.12093
G1 X132.245 Y120.175 E34.72045
G1 X132.155 Y120.607 E34.74613
G1 X132.003 Y120.971 E34.76909
G1 X131.834 Y121.252 E34.78817
G1 X131.386 Y121.725 E34.82608
G1 X130.975 Y122.001 E34.85489
G1 X130.565 Y122.167 E34.88063
G1 X130.132 Y122.249 E34.90628
G1 X126.549 Y122.255 E35.11479
G1 X126.189 Y122.273 E35.13577
G1 X125.573 Y122.343 E35.17185
G1 X125.005 Y122.35 E35.20491
G1 X118.98 Y122.35 E35.55553
G1 X118.384 Y122.333 E35.59023
G1 X117.808 Y122.272 E35.62394
G1 X117.439 Y122.254 E35.64544
G1 X113.034 Y122.25 E35.90179
G1 X112.17 Y122.274 E35.95209
G1 X111.616 Y122.333 E35.98451
G1 X111.019 Y122.35 E36.01927
G1 X104.443 Y122.343 E36.40196
G1 X103.812 Y122.273 E36.43891
G1 X103.451 Y122.255 E36.45994
G1 X99.817 Y122.244 E36.67142
G1 X99.387 Y122.152 E36.69701
G1 X99.027 Y122.003 E36.71968
G1 X98.747 Y121.834 E36.73871
G1 X98.275 Y121.386 E36.77658
G1 X97.998 Y120.974 E36.80547
G1 X97.832 Y120.563 E36.83127
G1 X97.75 Y120.129 E36.85697
G1 X97.75 Y109.873 E37.45382
G1 X97.846 Y109.392 E37.48236
G1 X97.997 Y109.029 E37.50524
G1 X98.166 Y108.748 E37.52432
G1 X98.467 Y108.43 E37.5498
M204 S2500
G1 X98.826 Y108.775 F7200
M204 S2000
G1 F3000
G1 X98.955 Y108.642 E37.56058
G1 X99.24 Y108.45 E37.58058
G1 X99.559 Y108.318 E37.60067
G1 X99.895 Y108.251 E37.62061
G1 X103.465 Y108.245 E37.82837
G1 X103.853 Y108.225 E37.85098
G1 X104.458 Y108.157 E37.88641
G1 X111.023 Y108.15 E38.26846
G1 X111.592 Y108.166 E38.30159
G1 X112.153 Y108.227 E38.33443
G1 X112.553 Y108.246 E38.35773
G1 X113.505 Y108.25 E38.41313
G1 X117.451 Y108.246 E38.64277
G1 X117.847 Y108.227 E38.66584
G1 X118.408 Y108.166 E38.69868
G1 X118.983 Y108.15 E38.73216
G1 X124.995 Y108.15 E39.08203
G1 X125.554 Y108.157 E39.11456
G1 X126.147 Y108.225 E39.1493
G1 X126.535 Y108.245 E39.17191
G1 X130.207 Y108.262 E39.3856
G1 X130.439 Y108.317 E39.39948
G1 X130.762 Y108.451 E39.41983
G1 X130.966 Y108.577 E39.43378
G1 X131.359 Y108.955 E39.46551
G1 X131.55 Y109.241 E39.48552
G1 X131.683 Y109.561 E39.50569
G1 X131.75 Y109.897 E39.52563
G1 X131.75 Y120.103 E40.11957
G1 X131.683 Y120.439 E40.13951
G1 X131.55 Y120.761 E40.15978
G1 X131.424 Y120.966 E40.17378
G1 X131.045 Y121.358 E40.20551
G1 X130.76 Y121.55 E40.22551
G1 X130.441 Y121.682 E40.2456
G1 X130.105 Y121.749 E40.26554
G1 X126.535 Y121.755 E40.4733
G1 X126.147 Y121.775 E40.49591
G1 X125.554 Y121.843 E40.53065
G1 X125.001 Y121.85 E40.56283
G1 X118.983 Y121.85 E40.91305
G1 X118.408 Y121.834 E40.94653
G1 X117.847 Y121.773 E40.97937
G1 X117.451 Y121.754 E41.00244
G1 X113.027 Y121.75 E41.25989
G1 X112.136 Y121.775 E41.31176
G1 X111.592 Y121.834 E41.3436
G1 X111.016 Y121.85 E41.37713
G1 X104.458 Y121.843 E41.75877
G1 X103.853 Y121.775 E41.7942
G1 X103.465 Y121.755 E41.81681
G1 X99.845 Y121.745 E42.02748
G1 X99.558 Y121.682 E42.04458
G1 X99.238 Y121.549 E42.06475
G1 X99.034 Y121.423 E42.0787
G1 X98.641 Y121.045 E42.11043
G1 X98.45 Y120.759 E42.13044
G1 X98.317 Y120.439 E42.15061
G1 X98.25 Y120.103 E42.17055
G1 X98.25 Y109.897 E42.76449
G1 X98.317 Y109.561 E42.78443
G1 X98.45 Y109.239 E42.8047
G1 X98.576 Y109.034 E42.8187
G1 X98.785 Y108.818 E42.83619
M204 S2500
G1 X99.14 Y109.167 F7200
M204 S2000
G1 F3000
G1 X99.292 Y109.011 E42.84887
G1 X99.454 Y108.903 E42.8602
G1 X99.728 Y108.789 E42.87747
G1 X99.92 Y108.75 E42.88887
G1 X103.478 Y108.745 E43.09593
G1 X103.895 Y108.723 E43.12023
G1 X104.473 Y108.657 E43.15409
G1 X111.02 Y108.65 E43.53509
G1 X111.568 Y108.666 E43.56699
G1 X112.114 Y108.725 E43.59895
G1 X112.539 Y108.746 E43.62371
G1 X113.504 Y108.75 E43.67987
G1 X117.463 Y108.746 E43.91026
G1 X117.886 Y108.725 E43.93491
G1 X118.433 Y108.666 E43.96693
G1 X118.987 Y108.65 E43.99918
G1 X124.993 Y108.65 E44.3487
G1 X125.534 Y108.657 E44.38019
G1 X126.105 Y108.723 E44.41364
G1 X126.522 Y108.745 E44.43794
G1 X130.125 Y108.755 E44.64762
G1 X130.269 Y108.788 E44.65622
G1 X130.549 Y108.904 E44.67386
G1 X130.674 Y108.983 E44.68247
G1 X130.989 Y109.293 E44.70819
G1 X131.098 Y109.455 E44.71955
G1 X131.212 Y109.729 E44.73682
G1 X131.25 Y109.922 E44.74827
G1 X131.25 Y120.078 E45.3393
G1 X131.212 Y120.271 E45.35075
G1 X131.097 Y120.548 E45.3682
G1 X131.017 Y120.674 E45.37689
G1 X130.708 Y120.989 E45.40257
G1 X130.546 Y121.097 E45.4139
