; generated by PrusaSlicer 2.6.0+MacOS-x64 on 2023-08-22 at 15:01:14 UTC

; 

; external perimeters extrusion width = 0.45mm
; perimeters extrusion width = 0.40mm
; infill extrusion width = 0.45mm
; solid infill extrusion width = 0.50mm
; top infill extrusion width = 0.45mm
; first layer extrusion width = 0.56mm

M201 X2500 Y2500 Z800 E2500 ; sets maximum accelerations, mm/sec^2
M203 X300 Y250 Z8 E80 ; sets maximum feedrates, mm / sec
M204 S2500 T2500 ; sets acceleration (S) and retract acceleration (R), mm/sec^2
M205 X15.00 Y10.00 Z2.00 E10.00 ; sets the jerk limits, mm/sec
M205 S0 T0 ; sets the minimum extruding and travel feed rate, mm/sec
;TYPE:Custom
G90 ; use absolute coordinates
M83 ; extruder relative mode
M104 S215 ; set extruder temp
M140 S65 ; set bed temp
M190 S65 ; wait for bed temp
M109 S215 ; wait for extruder temp
G28                                        ; move X/Y/Z to min endstops
G1 Z0.28                                   ; lift nozzle a bit
 
G0 Y235      ; move to max Y (within soft-limit)


G92 E0 
G1 Y3 F1800                                    ; zero the extruded length 
G1 X60  E25 F500                       ; Extrude 25mm of filament in a 5cm line. 
G92 E0                                     ; zero the extruded length again 
G1 E-2 F500                                ; Retract a little 
G1 X70 F4000                              ; Quickly wipe away from the filament line

M211 S0      ; disable software endstop
G0 Y245 X80       ; push forward past the endstop to the nozzle wiper

G0 X90       ; move X to the nozzle wiper
G0 X80       ; move X to wipe the nozzle
M211 S1      ; enable software endstop

M117

;G28          ; home all
G21 ; set units to millimeters
G90 ; use absolute coordinates
M82 ; use absolute distances for extrusion
G92 E0
M107
;LAYER_CHANGE
;Z:0.28
;HEIGHT:0.28
; BEFORE_LAYER_CHANGE 0 @ 0.28mm
G1 E-2 F4800
G92 E0
G1 Z.28 F7200
; AFTER_LAYER_CHANGE 0 @ 0.28mm
G1 X154.6 Y154.6
G1 E2 F4800
M204 S2000
;TYPE:External perimeter
;WIDTH:0.56
G1 F3000
G1 X75.4 Y154.6 E6.60904
G1 X75.4 Y75.4 E11.21808
G1 X154.6 Y75.4 E15.82712
G1 X154.6 Y154.54 E20.43267
M204 S2500
G1 X154.214 Y154.496 F7200
G1 X154.1 Y154.1
M204 S2000
;TYPE:Perimeter
G1 F3000
G1 X75.9 Y154.1 E24.98351
G1 X75.9 Y75.9 E29.53435
G1 X154.1 Y75.9 E34.08519
G1 X154.1 Y154.04 E38.63254
M204 S2500
G1 X153.6 Y153.6 F7200
M204 S2000
G1 F3000
G1 X76.4 Y153.6 E43.12519
G1 X76.4 Y76.4 E47.61784
G1 X153.6 Y76.4 E52.11049
G1 X153.6 Y153.54 E56.59965
M204 S2500
G1 E55.19965 F4800
;WIPE_START
G1 F5760
G1 X152.842 Y153.541 E54.59965
;WIPE_END
G92 E0
G1 X83.645 Y111.665 F7200
G1 E2 F4800
M204 S2000
;TYPE:External perimeter
G1 F3000
G1 X83.88 Y111.715 E2.01398
G1 X84.198 Y111.817 E2.03341
G1 X84.504 Y111.95 E2.05283
G1 X84.796 Y112.112 E2.07226
G1 X85.07 Y112.302 E2.09166
G1 X85.325 Y112.518 E2.11111
G1 X85.557 Y112.758 E2.13054
G1 X85.764 Y113.019 E2.14993
G1 X85.945 Y113.3 E2.16938
G1 X86.097 Y113.597 E2.1888
G1 X86.22 Y113.907 E2.20821
G1 X86.312 Y114.228 E2.22764
G1 X86.371 Y114.556 E2.24703
G1 X86.399 Y114.889 E2.26648
G1 X86.393 Y115.222 E2.28586
G1 X86.355 Y115.554 E2.30531
G1 X86.285 Y115.88 E2.32471
G1 X86.183 Y116.198 E2.34414
G1 X86.05 Y116.504 E2.36356
G1 X85.888 Y116.796 E2.38299
G1 X85.698 Y117.07 E2.40239
G1 X85.482 Y117.325 E2.42184
G1 X85.242 Y117.557 E2.44127
G1 X84.981 Y117.764 E2.46066
G1 X84.7 Y117.945 E2.48011
G1 X84.403 Y118.097 E2.49953
G1 X84.093 Y118.22 E2.51894
G1 X83.772 Y118.312 E2.53837
G1 X83.444 Y118.371 E2.55776
G1 X83.111 Y118.399 E2.57721
G1 X82.778 Y118.393 E2.59659
G1 X82.446 Y118.355 E2.61604
G1 X82.12 Y118.285 E2.63544
G1 X81.802 Y118.183 E2.65487
G1 X81.496 Y118.05 E2.67429
G1 X81.204 Y117.888 E2.69372
G1 X80.93 Y117.698 E2.71312
G1 X80.675 Y117.482 E2.73257
G1 X80.443 Y117.242 E2.752
G1 X80.236 Y116.981 E2.77139
G1 X80.055 Y116.7 E2.79084
G1 X79.903 Y116.403 E2.81026
G1 X79.78 Y116.093 E2.82967
G1 X79.688 Y115.772 E2.8491
G1 X79.629 Y115.444 E2.86849
G1 X79.601 Y115.111 E2.88794
G1 X79.607 Y114.778 E2.90732
G1 X79.645 Y114.446 E2.92677
G1 X79.715 Y114.12 E2.94617
G1 X79.817 Y113.802 E2.9656
G1 X79.95 Y113.496 E2.98502
G1 X80.112 Y113.204 E3.00445
G1 X80.302 Y112.93 E3.02385
G1 X80.518 Y112.675 E3.0433
G1 X80.758 Y112.443 E3.06273
G1 X81.019 Y112.236 E3.08212
G1 X81.3 Y112.055 E3.10157
G1 X81.597 Y111.903 E3.12099
G1 X81.907 Y111.78 E3.1404
G1 X82.228 Y111.688 E3.15983
G1 X82.556 Y111.629 E3.17922
G1 X82.889 Y111.601 E3.19867
G1 X83.222 Y111.607 E3.21805
G1 X83.586 Y111.652 E3.23939
M204 S2500
G1 X83.799 Y111.479 F7200
G1 X83.657 Y111.156
M204 S2000
;TYPE:Perimeter
G1 F3000
G1 X84.01 Y111.232 E3.2604
G1 X84.374 Y111.349 E3.28265
G1 X84.725 Y111.501 E3.30491
G1 X85.06 Y111.687 E3.32721
G1 X85.375 Y111.905 E3.3495
G1 X85.667 Y112.153 E3.37179
G1 X85.933 Y112.428 E3.39406
G1 X86.171 Y112.728 E3.41635
G1 X86.378 Y113.05 E3.43863
G1 X86.553 Y113.39 E3.46088
G1 X86.694 Y113.746 E3.48316
G1 X86.799 Y114.114 E3.50543
G1 X86.868 Y114.491 E3.52773
G1 X86.899 Y114.872 E3.54998
G1 X86.893 Y115.255 E3.57227
G1 X86.849 Y115.635 E3.59453
G1 X86.768 Y116.01 E3.61686
G1 X86.651 Y116.374 E3.63911
G1 X86.499 Y116.725 E3.66137
G1 X86.313 Y117.06 E3.68367
G1 X86.095 Y117.375 E3.70596
G1 X85.847 Y117.667 E3.72825
G1 X85.572 Y117.933 E3.75052
G1 X85.272 Y118.171 E3.77281
G1 X84.95 Y118.378 E3.79509
G1 X84.61 Y118.553 E3.81734
G1 X84.254 Y118.694 E3.83962
G1 X83.886 Y118.799 E3.86189
G1 X83.509 Y118.868 E3.88419
G1 X83.128 Y118.899 E3.90644
G1 X82.745 Y118.893 E3.92873
G1 X82.365 Y118.849 E3.95099
G1 X81.99 Y118.768 E3.97332
G1 X81.626 Y118.651 E3.99557
G1 X81.275 Y118.499 E4.01783
G1 X80.94 Y118.313 E4.04013
G1 X80.625 Y118.095 E4.06242
G1 X80.333 Y117.847 E4.08471
G1 X80.067 Y117.572 E4.10698
G1 X79.829 Y117.272 E4.12927
G1 X79.622 Y116.95 E4.15155
G1 X79.447 Y116.61 E4.1738
G1 X79.306 Y116.254 E4.19608
G1 X79.201 Y115.886 E4.21835
G1 X79.132 Y115.509 E4.24065
G1 X79.101 Y115.128 E4.2629
G1 X79.107 Y114.745 E4.28519
G1 X79.151 Y114.365 E4.30745
G1 X79.232 Y113.99 E4.32978
G1 X79.349 Y113.626 E4.35203
G1 X79.501 Y113.275 E4.37429
G1 X79.687 Y112.94 E4.39659
G1 X79.905 Y112.625 E4.41888
G1 X80.153 Y112.333 E4.44117
G1 X80.428 Y112.067 E4.46344
G1 X80.728 Y111.829 E4.48573
G1 X81.049 Y111.622 E4.50796
G1 X81.39 Y111.447 E4.53027
G1 X81.746 Y111.306 E4.55255
G1 X82.114 Y111.201 E4.57482
G1 X82.491 Y111.132 E4.59712
G1 X82.872 Y111.101 E4.61937
G1 X83.255 Y111.107 E4.64166
G1 X83.598 Y111.147 E4.66176
M204 S2500
G1 X83.761 Y110.667 F7200
M204 S2000
G1 F3000
G1 X84.139 Y110.748 E4.68426
G1 X84.55 Y110.881 E4.7094
G1 X84.947 Y111.052 E4.73456
G1 X85.324 Y111.262 E4.75967
G1 X85.679 Y111.508 E4.7848
G1 X86.009 Y111.788 E4.80999
G1 X86.309 Y112.098 E4.83509
G1 X86.578 Y112.436 E4.86023
G1 X86.812 Y112.799 E4.88536
G1 X87.009 Y113.183 E4.91048
G1 X87.168 Y113.585 E4.93564
G1 X87.287 Y114.001 E4.96082
G1 X87.364 Y114.425 E4.9859
G1 X87.399 Y114.856 E5.01106
G1 X87.392 Y115.288 E5.0362
G1 X87.343 Y115.717 E5.06133
G1 X87.252 Y116.139 E5.08645
G1 X87.119 Y116.55 E5.11159
G1 X86.948 Y116.947 E5.13675
G1 X86.738 Y117.324 E5.16186
G1 X86.492 Y117.679 E5.18699
G1 X86.213 Y118.009 E5.21214
G1 X85.902 Y118.309 E5.23729
G1 X85.564 Y118.578 E5.26243
G1 X85.201 Y118.812 E5.28756
G1 X84.817 Y119.009 E5.31268
G1 X84.415 Y119.168 E5.33784
G1 X84 Y119.287 E5.36296
G1 X83.575 Y119.364 E5.3881
G1 X83.144 Y119.399 E5.41326
G1 X82.712 Y119.392 E5.4384
G1 X82.283 Y119.343 E5.46353
G1 X81.861 Y119.252 E5.48865
G1 X81.45 Y119.119 E5.51379
G1 X81.053 Y118.948 E5.53895
G1 X80.676 Y118.738 E5.56406
G1 X80.321 Y118.492 E5.58919
G1 X79.991 Y118.213 E5.61434
G1 X79.691 Y117.902 E5.63949
G1 X79.422 Y117.564 E5.66463
G1 X79.188 Y117.201 E5.68976
G1 X78.991 Y116.817 E5.71488
G1 X78.832 Y116.415 E5.74004
G1 X78.713 Y115.999 E5.76522
G1 X78.636 Y115.574 E5.79036
G1 X78.601 Y115.144 E5.81547
G1 X78.608 Y114.712 E5.84061
G1 X78.657 Y114.283 E5.86574
G1 X78.748 Y113.861 E5.89086
G1 X78.881 Y113.45 E5.916
G1 X79.052 Y113.053 E5.94116
G1 X79.262 Y112.676 E5.96627
G1 X79.508 Y112.32 E5.99145
G1 X79.788 Y111.991 E6.01659
G1 X80.098 Y111.691 E6.04169
G1 X80.436 Y111.422 E6.06683
G1 X80.799 Y111.188 E6.09196
G1 X81.183 Y110.991 E6.11708
G1 X81.585 Y110.832 E6.14224
G1 X82 Y110.713 E6.16736
G1 X82.425 Y110.636 E6.1925
G1 X82.856 Y110.601 E6.21766
G1 X83.288 Y110.608 E6.2428
G1 X83.702 Y110.656 E6.26705
M204 S2500
G1 E4.86705 F4800
;WIPE_START
G1 F5760
G1 X84.139 Y110.748 E4.51351
G1 X84.435 Y110.844 E4.26705
;WIPE_END
G92 E0
G1 X147.645 Y111.665 F7200
G1 E2 F4800
M204 S2000
;TYPE:External perimeter
G1 F3000
G1 X147.88 Y111.715 E2.01398
G1 X148.198 Y111.817 E2.03341
G1 X148.504 Y111.95 E2.05283
G1 X148.796 Y112.112 E2.07226
G1 X149.07 Y112.302 E2.09166
G1 X149.325 Y112.518 E2.11111
G1 X149.557 Y112.758 E2.13054
G1 X149.764 Y113.019 E2.14993
G1 X149.945 Y113.3 E2.16938
G1 X150.097 Y113.597 E2.1888
G1 X150.22 Y113.907 E2.20821
G1 X150.312 Y114.228 E2.22764
G1 X150.371 Y114.556 E2.24703
G1 X150.399 Y114.889 E2.26648
G1 X150.393 Y115.222 E2.28586
G1 X150.355 Y115.554 E2.30531
G1 X150.285 Y115.88 E2.32471
G1 X150.183 Y116.198 E2.34414
G1 X150.05 Y116.504 E2.36356
G1 X149.888 Y116.796 E2.38299
G1 X149.698 Y117.07 E2.40239
G1 X149.482 Y117.325 E2.42184
G1 X149.242 Y117.557 E2.44127
G1 X148.981 Y117.764 E2.46066
G1 X148.7 Y117.945 E2.48011
G1 X148.403 Y118.097 E2.49953
G1 X148.093 Y118.22 E2.51894
G1 X147.772 Y118.312 E2.53837
G1 X147.444 Y118.371 E2.55776
G1 X147.111 Y118.399 E2.57721
G1 X146.778 Y118.393 E2.59659
G1 X146.446 Y118.355 E2.61604
G1 X146.12 Y118.285 E2.63544
G1 X145.802 Y118.183 E2.65487
G1 X145.496 Y118.05 E2.67429
G1 X145.204 Y117.888 E2.69372
G1 X144.93 Y117.698 E2.71312
G1 X144.675 Y117.482 E2.73257
G1 X144.443 Y117.242 E2.752
G1 X144.236 Y116.981 E2.77139
G1 X144.055 Y116.7 E2.79084
G1 X143.903 Y116.403 E2.81026
G1 X143.78 Y116.093 E2.82967
G1 X143.688 Y115.772 E2.8491
G1 X143.629 Y115.444 E2.86849
G1 X143.601 Y115.111 E2.88794
G1 X143.607 Y114.778 E2.90732
G1 X143.645 Y114.446 E2.92677
G1 X143.715 Y114.12 E2.94617
G1 X143.817 Y113.802 E2.9656
G1 X143.95 Y113.496 E2.98502
G1 X144.112 Y113.204 E3.00445
G1 X144.302 Y112.93 E3.02385
G1 X144.518 Y112.675 E3.0433
G1 X144.758 Y112.443 E3.06273
G1 X145.019 Y112.236 E3.08212
G1 X145.3 Y112.055 E3.10157
G1 X145.597 Y111.903 E3.12099
G1 X145.907 Y111.78 E3.1404
G1 X146.228 Y111.688 E3.15983
G1 X146.556 Y111.629 E3.17922
G1 X146.889 Y111.601 E3.19867
G1 X147.222 Y111.607 E3.21805
G1 X147.586 Y111.652 E3.23939
M204 S2500
G1 X147.799 Y111.479 F7200
G1 X147.657 Y111.156
M204 S2000
;TYPE:Perimeter
G1 F3000
G1 X148.01 Y111.232 E3.2604
G1 X148.374 Y111.349 E3.28265
G1 X148.725 Y111.501 E3.30491
G1 X149.06 Y111.687 E3.32721
G1 X149.375 Y111.905 E3.3495
G1 X149.667 Y112.153 E3.37179
G1 X149.933 Y112.428 E3.39406
G1 X150.171 Y112.728 E3.41635
G1 X150.378 Y113.05 E3.43863
G1 X150.553 Y113.39 E3.46088
G1 X150.694 Y113.746 E3.48316
G1 X150.799 Y114.114 E3.50543
G1 X150.868 Y114.491 E3.52773
G1 X150.899 Y114.872 E3.54998
G1 X150.893 Y115.255 E3.57227
G1 X150.849 Y115.635 E3.59453
G1 X150.768 Y116.01 E3.61686
G1 X150.651 Y116.374 E3.63911
G1 X150.499 Y116.725 E3.66137
G1 X150.313 Y117.06 E3.68367
G1 X150.095 Y117.375 E3.70596
G1 X149.847 Y117.667 E3.72825
G1 X149.572 Y117.933 E3.75052
G1 X149.272 Y118.171 E3.77281
G1 X148.951 Y118.378 E3.79504
G1 X148.61 Y118.553 E3.81735
G1 X148.254 Y118.694 E3.83963
G1 X147.886 Y118.799 E3.8619
G1 X147.509 Y118.868 E3.8842
G1 X147.128 Y118.899 E3.90645
G1 X146.745 Y118.893 E3.92874
G1 X146.365 Y118.849 E3.951
G1 X145.99 Y118.768 E3.97333
G1 X145.626 Y118.651 E3.99558
G1 X145.275 Y118.499 E4.01784
G1 X144.94 Y118.313 E4.04014
G1 X144.625 Y118.095 E4.06243
G1 X144.333 Y117.847 E4.08472
G1 X144.067 Y117.572 E4.10699
G1 X143.829 Y117.272 E4.12928
G1 X143.622 Y116.951 E4.15151
G1 X143.447 Y116.61 E4.17382
G1 X143.306 Y116.254 E4.1961
G1 X143.201 Y115.886 E4.21837
G1 X143.132 Y115.509 E4.24067
G1 X143.101 Y115.128 E4.26292
G1 X143.107 Y114.745 E4.28521
G1 X143.151 Y114.365 E4.30747
G1 X143.232 Y113.99 E4.3298
G1 X143.349 Y113.626 E4.35205
G1 X143.501 Y113.275 E4.37431
G1 X143.687 Y112.94 E4.39661
G1 X143.905 Y112.625 E4.4189
G1 X144.153 Y112.333 E4.44119
G1 X144.428 Y112.067 E4.46346
G1 X144.728 Y111.829 E4.48575
G1 X145.05 Y111.622 E4.50803
G1 X145.39 Y111.447 E4.53028
G1 X145.746 Y111.306 E4.55256
G1 X146.114 Y111.201 E4.57483
G1 X146.491 Y111.132 E4.59713
G1 X146.872 Y111.101 E4.61938
G1 X147.255 Y111.107 E4.64167
G1 X147.598 Y111.147 E4.66177
M204 S2500
G1 X147.761 Y110.667 F7200
M204 S2000
G1 F3000
G1 X148.139 Y110.748 E4.68427
G1 X148.55 Y110.881 E4.70941
G1 X148.947 Y111.052 E4.73457
G1 X149.324 Y111.262 E4.75968
G1 X149.679 Y111.508 E4.78481
G1 X150.009 Y111.787 E4.80996
G1 X150.309 Y112.098 E4.83511
G1 X150.578 Y112.436 E4.86025
G1 X150.812 Y112.799 E4.88538
G1 X151.009 Y113.184 E4.91055
G1 X151.168 Y113.585 E4.93565
G1 X151.287 Y114 E4.96077
G1 X151.364 Y114.425 E4.98591
G1 X151.399 Y114.856 E5.01107
G1 X151.392 Y115.288 E5.03621
G1 X151.343 Y115.717 E5.06134
G1 X151.252 Y116.139 E5.08646
G1 X151.119 Y116.55 E5.1116
G1 X150.948 Y116.947 E5.13676
G1 X150.738 Y117.324 E5.16187
G1 X150.492 Y117.679 E5.187
G1 X150.213 Y118.009 E5.21215
G1 X149.902 Y118.309 E5.2373
G1 X149.564 Y118.578 E5.26244
G1 X149.201 Y118.812 E5.28757
G1 X148.817 Y119.009 E5.31269
G1 X148.415 Y119.168 E5.33785
G1 X147.999 Y119.287 E5.36303
G1 X147.575 Y119.364 E5.38811
G1 X147.144 Y119.399 E5.41327
G1 X146.712 Y119.392 E5.43841
G1 X146.283 Y119.343 E5.46354
G1 X145.861 Y119.252 E5.48866
G1 X145.45 Y119.119 E5.5138
G1 X145.053 Y118.948 E5.53896
G1 X144.676 Y118.738 E5.56407
G1 X144.321 Y118.492 E5.5892
G1 X143.991 Y118.213 E5.61435
G1 X143.691 Y117.902 E5.6395
G1 X143.422 Y117.564 E5.66464
G1 X143.188 Y117.201 E5.68977
G1 X142.991 Y116.817 E5.71489
G1 X142.832 Y116.415 E5.74005
G1 X142.713 Y115.999 E5.76523
G1 X142.636 Y115.574 E5.79037
G1 X142.601 Y115.144 E5.81548
G1 X142.608 Y114.712 E5.84062
G1 X142.657 Y114.283 E5.86575
G1 X142.748 Y113.861 E5.89087
G1 X142.881 Y113.45 E5.91601
G1 X143.052 Y113.053 E5.94117
G1 X143.262 Y112.676 E5.96628
G1 X143.508 Y112.321 E5.99141
G1 X143.787 Y111.991 E6.01656
G1 X144.098 Y111.691 E6.04171
G1 X144.436 Y111.422 E6.06685
G1 X144.799 Y111.188 E6.09198
G1 X145.183 Y110.991 E6.1171
G1 X145.585 Y110.832 E6.14226
G1 X146 Y110.713 E6.16738
G1 X146.425 Y110.636 E6.19252
G1 X146.856 Y110.601 E6.21768
G1 X147.288 Y110.608 E6.24282
G1 X147.702 Y110.656 E6.26707
M204 S2500
G1 E4.86707 F4800
;WIPE_START
G1 F5760
G1 X148.139 Y110.748 E4.51353
G1 X148.435 Y110.844 E4.26707
;WIPE_END
G92 E0
G1 X153.4 Y77.612 F7200
G1 E2 F4800
M204 S2000
;TYPE:Solid infill
;WIDTH:0.56093
G1 F3000
G1 X152.613 Y76.825 E2.06489
G1 X151.904 Y76.825 E2.10623
G1 X153.175 Y78.096 E2.21103
G1 X153.175 Y78.804 E2.25231
G1 X151.196 Y76.825 E2.41548
G1 X150.488 Y76.825 E2.45676
G1 X153.175 Y79.512 E2.67831
G1 X153.175 Y80.221 E2.71965
G1 X149.779 Y76.825 E2.99966
G1 X149.071 Y76.825 E3.04094
G1 X153.175 Y80.929 E3.37933
G1 X153.175 Y81.637 E3.42061
G1 X148.363 Y76.825 E3.81738
G1 X147.655 Y76.825 E3.85866
G1 X153.175 Y82.345 E4.3138
G1 X153.175 Y83.054 E4.35514
G1 X146.946 Y76.825 E4.86874
G1 X146.238 Y76.825 E4.91002
G1 X153.175 Y83.762 E5.482
G1 X153.175 Y84.47 E5.52328
G1 X145.53 Y76.825 E6.15364
G1 X144.821 Y76.825 E6.19498
G1 X153.175 Y85.179 E6.88379
G1 X153.175 Y85.887 E6.92507
G1 X144.113 Y76.825 E7.67226
G1 X143.405 Y76.825 E7.71354
G1 X153.175 Y86.595 E8.51911
G1 X153.175 Y87.304 E8.56045
G1 X142.696 Y76.825 E9.42448
G1 X141.988 Y76.825 E9.46576
G1 X153.175 Y88.012 E10.38816
G1 X153.175 Y88.72 E10.42944
G1 X141.28 Y76.825 E11.41022
G1 X140.572 Y76.825 E11.4515
G1 X153.175 Y89.428 E12.49066
G1 X153.175 Y90.137 E12.532
G1 X139.863 Y76.825 E13.62962
G1 X139.155 Y76.825 E13.6709
G1 X153.175 Y90.845 E14.82689
G1 X153.175 Y91.553 E14.86817
G1 X138.447 Y76.825 E16.08254
G1 X137.738 Y76.825 E16.12388
G1 X153.175 Y92.262 E17.39671
G1 X153.175 Y92.97 E17.43799
G1 X137.03 Y76.825 E18.7692
G1 X136.322 Y76.825 E18.81048
G1 X153.175 Y93.678 E20.20006
G1 X153.175 Y94.386 E20.24134
G1 X135.614 Y76.825 E21.6893
