; generated by PrusaSlicer 2.6.0+MacOS-x64 on 2023-08-22 at 17:44:29 UTC

; 

; external perimeters extrusion width = 0.45mm
; perimeters extrusion width = 0.40mm
; infill extrusion width = 0.45mm
; solid infill extrusion width = 0.50mm
; top infill extrusion width = 0.45mm
; support material extrusion width = 0.42mm
; first layer extrusion width = 0.56mm

M201 X2500 Y2500 Z800 E2500 ; sets maximum accelerations, mm/sec^2
M203 X300 Y250 Z8 E80 ; sets maximum feedrates, mm / sec
M204 S2500 T2500 ; sets acceleration (S) and retract acceleration (R), mm/sec^2
M205 X15.00 Y10.00 Z2.00 E10.00 ; sets the jerk limits, mm/sec
M205 S0 T0 ; sets the minimum extruding and travel feed rate, mm/sec
;TYPE:Custom
G90 ; use absolute coordinates
M83 ; extruder relative mode
M104 S215 ; set extruder temp
M140 S65 ; set bed temp
M190 S65 ; wait for bed temp
M109 S215 ; wait for extruder temp
G28                                        ; move X/Y/Z to min endstops
G1 Z0.28                                   ; lift nozzle a bit
 
G0 Y0      ; move to max Y (within soft-limit)


G92 E0 
G1 Y3 F1800                                    ; zero the extruded length 
G1 Y8 E25 F500                       ; Extrude 25mm of filament in a 5cm line. 
G92 E0                                     ; zero the extruded length again 
G1 E-2 F500                                ; Retract a little 
G1 X70 F4000                              ; Quickly wipe away from the filament line

M211 S0      ; disable software endstop
G0 Y245 X80       ; push forward past the endstop to the nozzle wiper

G0 X90       ; move X to the nozzle wiper
G0 X80       ; move X to wipe the nozzle

M211 S1      ; enable software endstop
M117

;G28          ; home all
G21 ; set units to millimeters
G90 ; use absolute coordinates
M82 ; use absolute distances for extrusion
G92 E0
M107
;LAYER_CHANGE
;Z:0.28
;HEIGHT:0.28
; BEFORE_LAYER_CHANGE 0 @ 0.28mm
G1 E-2 F4800
G92 E0
G1 Z.28 F7200
; AFTER_LAYER_CHANGE 0 @ 0.28mm
G1 X75.4 Y75.4
G1 E2 F4800
M204 S2000
;TYPE:External perimeter
;WIDTH:0.56
G1 F3000
G1 X154.6 Y75.4 E6.60904
G1 X154.6 Y154.6 E11.21808
G1 X75.4 Y154.6 E15.82712
G1 X75.4 Y75.46 E20.43267
M204 S2500
G1 X75.786 Y75.504 F7200
G1 X75.9 Y75.9
M204 S2000
;TYPE:Perimeter
G1 F3000
G1 X154.1 Y75.9 E24.98351
G1 X154.1 Y154.1 E29.53435
G1 X75.9 Y154.1 E34.08519
G1 X75.9 Y75.96 E38.63254
M204 S2500
G1 X76.4 Y76.4 F7200
M204 S2000
G1 F3000
G1 X153.6 Y76.4 E43.12519
G1 X153.6 Y153.6 E47.61784
G1 X76.4 Y153.6 E52.11049
G1 X76.4 Y76.46 E56.59965
M204 S2500
G1 E55.19965 F4800
;WIPE_START
G1 F5760
G1 X77.158 Y76.459 E54.59965
;WIPE_END
G92 E0
G1 X86.259 Y115.967 F7200
G1 E2 F4800
M204 S2000
;TYPE:External perimeter
G1 F3000
G1 X86.142 Y116.301 E2.0206
G1 X85.999 Y116.603 E2.04005
G1 X85.827 Y116.889 E2.05947
G1 X85.629 Y117.157 E2.07886
G1 X85.404 Y117.405 E2.09835
G1 X85.157 Y117.629 E2.11775
G1 X84.889 Y117.827 E2.13714
G1 X84.603 Y117.999 E2.15656
G1 X84.301 Y118.142 E2.17601
G1 X83.987 Y118.254 E2.19541
G1 X83.663 Y118.335 E2.21485
G1 X83.333 Y118.384 E2.23426
G1 X83 Y118.4 E2.25366
G1 X82.667 Y118.384 E2.27306
G1 X82.337 Y118.335 E2.29247
G1 X82.013 Y118.254 E2.31191
G1 X81.699 Y118.142 E2.33131
G1 X81.397 Y117.999 E2.35076
G1 X81.111 Y117.827 E2.37018
G1 X80.843 Y117.629 E2.38957
G1 X80.595 Y117.404 E2.40906
G1 X80.371 Y117.157 E2.42846
G1 X80.173 Y116.889 E2.44785
G1 X80.001 Y116.603 E2.46727
G1 X79.858 Y116.301 E2.48672
G1 X79.746 Y115.987 E2.50612
G1 X79.665 Y115.663 E2.52556
G1 X79.616 Y115.333 E2.54497
G1 X79.6 Y115 E2.56437
G1 X79.616 Y114.667 E2.58377
G1 X79.665 Y114.337 E2.60318
G1 X79.746 Y114.013 E2.62262
G1 X79.858 Y113.699 E2.64202
G1 X80.001 Y113.397 E2.66147
G1 X80.173 Y113.111 E2.68089
G1 X80.371 Y112.843 E2.70028
G1 X80.595 Y112.595 E2.71973
G1 X80.843 Y112.371 E2.73918
G1 X81.111 Y112.173 E2.75857
G1 X81.397 Y112.001 E2.77799
G1 X81.699 Y111.858 E2.79744
G1 X82.013 Y111.746 E2.81684
G1 X82.337 Y111.665 E2.83628
G1 X82.667 Y111.616 E2.85569
G1 X82.995 Y111.6 E2.8748
G1 X83.333 Y111.616 E2.89449
G1 X83.663 Y111.665 E2.9139
G1 X83.987 Y111.746 E2.93334
G1 X84.301 Y111.858 E2.95274
G1 X84.603 Y112.001 E2.97219
G1 X84.889 Y112.173 E2.99161
G1 X85.157 Y112.371 E3.011
G1 X85.405 Y112.595 E3.03045
G1 X85.629 Y112.843 E3.0499
G1 X85.827 Y113.111 E3.06929
G1 X85.999 Y113.397 E3.08871
G1 X86.142 Y113.699 E3.10816
G1 X86.254 Y114.013 E3.12756
G1 X86.335 Y114.337 E3.147
G1 X86.384 Y114.667 E3.16641
G1 X86.4 Y115 E3.18581
G1 X86.384 Y115.333 E3.20521
G1 X86.335 Y115.663 E3.22462
G1 X86.274 Y115.909 E3.23937
M204 S2500
G1 X86.503 Y116.225 F7200
G1 X86.726 Y116.153
M204 S2000
;TYPE:Perimeter
G1 F3000
G1 X86.604 Y116.493 E3.26039
G1 X86.44 Y116.839 E3.28267
G1 X86.244 Y117.167 E3.30491
G1 X86.016 Y117.475 E3.32721
G1 X85.758 Y117.758 E3.3495
G1 X85.475 Y118.016 E3.37179
G1 X85.167 Y118.244 E3.39409
G1 X84.839 Y118.44 E3.41633
G1 X84.493 Y118.604 E3.43861
G1 X84.132 Y118.733 E3.46092
G1 X83.761 Y118.826 E3.48318
G1 X83.382 Y118.882 E3.50548
G1 X83 Y118.901 E3.52774
G1 X82.618 Y118.882 E3.55
G1 X82.239 Y118.826 E3.5723
G1 X81.868 Y118.733 E3.59456
G1 X81.507 Y118.604 E3.61687
G1 X81.161 Y118.44 E3.63915
G1 X80.833 Y118.244 E3.66139
G1 X80.525 Y118.016 E3.68369
G1 X80.242 Y117.758 E3.70598
G1 X79.984 Y117.475 E3.72827
G1 X79.756 Y117.167 E3.75057
G1 X79.56 Y116.839 E3.77281
G1 X79.396 Y116.493 E3.79509
G1 X79.267 Y116.132 E3.8174
G1 X79.174 Y115.761 E3.83966
G1 X79.118 Y115.382 E3.86196
G1 X79.099 Y115 E3.88422
G1 X79.118 Y114.618 E3.90648
G1 X79.174 Y114.239 E3.92878
G1 X79.267 Y113.868 E3.95104
G1 X79.396 Y113.507 E3.97335
G1 X79.56 Y113.161 E3.99563
G1 X79.756 Y112.833 E4.01787
G1 X79.984 Y112.525 E4.04017
G1 X80.242 Y112.242 E4.06246
G1 X80.525 Y111.985 E4.08471
G1 X80.833 Y111.756 E4.10705
G1 X81.161 Y111.56 E4.12929
G1 X81.507 Y111.396 E4.15157
G1 X81.868 Y111.267 E4.17388
G1 X82.239 Y111.174 E4.19614
G1 X82.617 Y111.118 E4.21838
G1 X82.995 Y111.099 E4.24041
G1 X83.382 Y111.118 E4.26296
G1 X83.761 Y111.174 E4.28526
G1 X84.132 Y111.267 E4.30752
G1 X84.493 Y111.396 E4.32983
G1 X84.839 Y111.56 E4.35211
G1 X85.167 Y111.756 E4.37435
G1 X85.475 Y111.984 E4.39665
G1 X85.758 Y112.242 E4.41894
G1 X86.016 Y112.525 E4.44123
G1 X86.244 Y112.833 E4.46353
G1 X86.44 Y113.161 E4.48577
G1 X86.604 Y113.507 E4.50805
G1 X86.733 Y113.868 E4.53036
G1 X86.826 Y114.239 E4.55262
G1 X86.882 Y114.618 E4.57492
G1 X86.901 Y115 E4.59718
G1 X86.882 Y115.382 E4.61944
G1 X86.826 Y115.761 E4.64174
G1 X86.742 Y116.095 E4.66178
M204 S2500
G1 X87.197 Y116.32 F7200
M204 S2000
G1 F3000
G1 X87.066 Y116.684 E4.68429
G1 X86.882 Y117.075 E4.70944
G1 X86.66 Y117.445 E4.73455
G1 X86.402 Y117.792 E4.75971
G1 X86.112 Y118.112 E4.78484
G1 X85.792 Y118.402 E4.80997
G1 X85.445 Y118.66 E4.83513
G1 X85.075 Y118.882 E4.86024
G1 X84.684 Y119.066 E4.88539
G1 X84.278 Y119.212 E4.9105
G1 X83.859 Y119.317 E4.93564
G1 X83.431 Y119.38 E4.96082
G1 X83 Y119.402 E4.98593
G1 X82.569 Y119.38 E5.01104
G1 X82.141 Y119.317 E5.03622
G1 X81.722 Y119.212 E5.06136
G1 X81.316 Y119.066 E5.08647
G1 X80.925 Y118.882 E5.11162
G1 X80.555 Y118.66 E5.13673
G1 X80.208 Y118.402 E5.16189
G1 X79.888 Y118.112 E5.18702
G1 X79.598 Y117.792 E5.21215
G1 X79.34 Y117.445 E5.23731
G1 X79.118 Y117.075 E5.26242
G1 X78.934 Y116.684 E5.28757
G1 X78.788 Y116.278 E5.31268
G1 X78.683 Y115.859 E5.33782
G1 X78.62 Y115.431 E5.363
G1 X78.598 Y115 E5.38811
G1 X78.62 Y114.569 E5.41322
G1 X78.683 Y114.141 E5.4384
G1 X78.788 Y113.722 E5.46354
G1 X78.934 Y113.316 E5.48865
G1 X79.118 Y112.925 E5.5138
G1 X79.34 Y112.555 E5.53891
G1 X79.598 Y112.208 E5.56407
G1 X79.888 Y111.888 E5.5892
G1 X80.208 Y111.598 E5.61433
G1 X80.555 Y111.34 E5.63949
G1 X80.925 Y111.118 E5.6646
G1 X81.316 Y110.934 E5.68975
G1 X81.722 Y110.788 E5.71486
G1 X82.141 Y110.683 E5.74
G1 X82.568 Y110.62 E5.76512
G1 X82.994 Y110.599 E5.78994
G1 X83.431 Y110.62 E5.8154
G1 X83.859 Y110.683 E5.84058
G1 X84.278 Y110.788 E5.86572
G1 X84.684 Y110.934 E5.89083
G1 X85.075 Y111.118 E5.91598
G1 X85.445 Y111.34 E5.94109
G1 X85.792 Y111.598 E5.96625
G1 X86.112 Y111.888 E5.99138
G1 X86.402 Y112.208 E6.01651
G1 X86.66 Y112.555 E6.04167
G1 X86.882 Y112.925 E6.06678
G1 X87.066 Y113.316 E6.09193
G1 X87.212 Y113.722 E6.11704
G1 X87.317 Y114.141 E6.14218
G1 X87.38 Y114.569 E6.16736
G1 X87.402 Y115 E6.19247
G1 X87.38 Y115.431 E6.21758
G1 X87.317 Y115.859 E6.24276
G1 X87.216 Y116.263 E6.26699
M204 S2500
G1 E4.86699 F4800
;WIPE_START
G1 F5760
G1 X87.066 Y116.684 E4.51318
G1 X86.934 Y116.965 E4.26699
;WIPE_END
G92 E0
G1 X147.643 Y111.662 F7200
G1 E2 F4800
M204 S2000
;TYPE:External perimeter
G1 F3000
G1 X147.987 Y111.746 E2.02061
G1 X148.301 Y111.858 E2.04001
G1 X148.603 Y112.001 E2.05946
G1 X148.889 Y112.173 E2.07888
G1 X149.157 Y112.371 E2.09827
G1 X149.405 Y112.596 E2.11776
G1 X149.629 Y112.843 E2.13716
G1 X149.827 Y113.111 E2.15655
G1 X149.999 Y113.397 E2.17597
G1 X150.142 Y113.699 E2.19542
G1 X150.254 Y114.013 E2.21482
G1 X150.335 Y114.337 E2.23426
G1 X150.384 Y114.667 E2.25367
G1 X150.4 Y115 E2.27307
G1 X150.384 Y115.333 E2.29247
G1 X150.335 Y115.663 E2.31188
G1 X150.254 Y115.987 E2.33132
G1 X150.142 Y116.301 E2.35072
G1 X149.999 Y116.603 E2.37017
G1 X149.827 Y116.889 E2.38959
G1 X149.629 Y117.157 E2.40898
G1 X149.405 Y117.405 E2.42843
G1 X149.157 Y117.629 E2.44788
G1 X148.889 Y117.827 E2.46727
G1 X148.603 Y117.999 E2.48669
G1 X148.301 Y118.142 E2.50614
G1 X147.987 Y118.254 E2.52554
G1 X147.663 Y118.335 E2.54498
G1 X147.333 Y118.384 E2.56439
G1 X147 Y118.4 E2.58379
G1 X146.667 Y118.384 E2.60319
G1 X146.337 Y118.335 E2.6226
G1 X146.013 Y118.254 E2.64204
G1 X145.699 Y118.142 E2.66144
G1 X145.397 Y117.999 E2.68089
G1 X145.111 Y117.827 E2.70031
G1 X144.843 Y117.629 E2.7197
G1 X144.595 Y117.405 E2.73915
G1 X144.371 Y117.157 E2.7586
G1 X144.173 Y116.889 E2.77799
G1 X144.001 Y116.603 E2.79741
G1 X143.858 Y116.301 E2.81686
G1 X143.746 Y115.987 E2.83626
G1 X143.665 Y115.663 E2.8557
G1 X143.616 Y115.333 E2.87511
G1 X143.6 Y115 E2.89451
G1 X143.616 Y114.667 E2.91391
G1 X143.665 Y114.337 E2.93332
G1 X143.746 Y114.013 E2.95276
G1 X143.858 Y113.699 E2.97216
G1 X144.001 Y113.397 E2.99161
G1 X144.173 Y113.111 E3.01103
G1 X144.371 Y112.843 E3.03042
G1 X144.595 Y112.595 E3.04987
G1 X144.843 Y112.371 E3.06932
G1 X145.111 Y112.173 E3.08871
G1 X145.397 Y112.001 E3.10813
G1 X145.699 Y111.858 E3.12758
G1 X146.013 Y111.746 E3.14698
G1 X146.337 Y111.665 E3.16642
G1 X146.667 Y111.616 E3.18583
G1 X146.995 Y111.6 E3.20494
G1 X147.333 Y111.616 E3.22463
G1 X147.584 Y111.653 E3.23939
M204 S2500
G1 X147.875 Y111.394 F7200
G1 X147.782 Y111.179
M204 S2000
;TYPE:Perimeter
G1 F3000
G1 X148.132 Y111.267 E3.26039
G1 X148.493 Y111.396 E3.2827
G1 X148.839 Y111.56 E3.30498
G1 X149.167 Y111.756 E3.32722
G1 X149.475 Y111.985 E3.34956
G1 X149.758 Y112.242 E3.37181
G1 X150.016 Y112.525 E3.3941
G1 X150.244 Y112.833 E3.4164
G1 X150.44 Y113.161 E3.43864
G1 X150.604 Y113.507 E3.46092
G1 X150.733 Y113.868 E3.48323
G1 X150.826 Y114.239 E3.50549
G1 X150.882 Y114.618 E3.52779
G1 X150.901 Y115 E3.55005
G1 X150.882 Y115.382 E3.57231
G1 X150.826 Y115.761 E3.59461
G1 X150.733 Y116.132 E3.61687
G1 X150.604 Y116.493 E3.63918
G1 X150.44 Y116.839 E3.66146
G1 X150.244 Y117.167 E3.6837
G1 X150.016 Y117.475 E3.706
G1 X149.758 Y117.758 E3.72829
G1 X149.475 Y118.016 E3.75058
G1 X149.167 Y118.244 E3.77288
G1 X148.839 Y118.44 E3.79512
G1 X148.493 Y118.604 E3.8174
G1 X148.132 Y118.733 E3.83971
G1 X147.761 Y118.826 E3.86197
G1 X147.382 Y118.882 E3.88427
G1 X147 Y118.901 E3.90653
G1 X146.618 Y118.882 E3.92879
G1 X146.239 Y118.826 E3.95109
G1 X145.868 Y118.733 E3.97335
G1 X145.507 Y118.604 E3.99566
G1 X145.161 Y118.44 E4.01794
G1 X144.833 Y118.244 E4.04018
G1 X144.525 Y118.016 E4.06248
G1 X144.242 Y117.758 E4.08477
G1 X143.984 Y117.475 E4.10706
G1 X143.756 Y117.167 E4.12936
G1 X143.56 Y116.839 E4.1516
G1 X143.396 Y116.493 E4.17388
G1 X143.267 Y116.132 E4.19619
G1 X143.174 Y115.761 E4.21845
G1 X143.118 Y115.382 E4.24075
G1 X143.099 Y115 E4.26301
G1 X143.118 Y114.618 E4.28527
G1 X143.174 Y114.239 E4.30757
G1 X143.267 Y113.868 E4.32983
G1 X143.396 Y113.507 E4.35214
G1 X143.56 Y113.161 E4.37442
G1 X143.756 Y112.833 E4.39666
G1 X143.985 Y112.525 E4.419
G1 X144.242 Y112.242 E4.44125
G1 X144.525 Y111.985 E4.4635
G1 X144.833 Y111.756 E4.48584
G1 X145.161 Y111.56 E4.50808
G1 X145.507 Y111.396 E4.53036
G1 X145.868 Y111.267 E4.55267
G1 X146.239 Y111.174 E4.57493
G1 X146.617 Y111.118 E4.59717
G1 X146.995 Y111.099 E4.6192
G1 X147.382 Y111.118 E4.64175
G1 X147.723 Y111.168 E4.66181
M204 S2500
G1 X147.902 Y110.694 F7200
M204 S2000
G1 F3000
G1 X148.278 Y110.788 E4.68436
G1 X148.684 Y110.934 E4.70947
G1 X149.075 Y111.118 E4.73462
G1 X149.445 Y111.34 E4.75973
G1 X149.792 Y111.598 E4.78489
G1 X150.112 Y111.888 E4.81002
G1 X150.402 Y112.208 E4.83515
G1 X150.66 Y112.555 E4.86031
G1 X150.882 Y112.925 E4.88542
G1 X151.066 Y113.316 E4.91057
G1 X151.212 Y113.722 E4.93568
G1 X151.317 Y114.141 E4.96082
G1 X151.38 Y114.569 E4.986
G1 X151.402 Y115 E5.01111
G1 X151.38 Y115.431 E5.03622
G1 X151.317 Y115.859 E5.0614
G1 X151.212 Y116.278 E5.08654
G1 X151.066 Y116.684 E5.11165
G1 X150.882 Y117.075 E5.1368
G1 X150.66 Y117.445 E5.16191
G1 X150.402 Y117.792 E5.18707
G1 X150.112 Y118.112 E5.2122
G1 X149.792 Y118.402 E5.23733
G1 X149.445 Y118.66 E5.26249
G1 X149.075 Y118.882 E5.2876
G1 X148.684 Y119.066 E5.31275
G1 X148.278 Y119.212 E5.33786
G1 X147.859 Y119.317 E5.363
G1 X147.431 Y119.38 E5.38818
G1 X147 Y119.402 E5.41329
G1 X146.569 Y119.38 E5.4384
G1 X146.141 Y119.317 E5.46358
G1 X145.722 Y119.212 E5.48872
G1 X145.316 Y119.066 E5.51383
G1 X144.925 Y118.882 E5.53898
G1 X144.555 Y118.66 E5.56409
G1 X144.208 Y118.402 E5.58925
G1 X143.888 Y118.112 E5.61438
G1 X143.598 Y117.792 E5.63951
G1 X143.34 Y117.445 E5.66467
G1 X143.118 Y117.075 E5.68978
G1 X142.934 Y116.684 E5.71493
G1 X142.788 Y116.278 E5.74004
G1 X142.683 Y115.859 E5.76518
G1 X142.62 Y115.431 E5.79036
G1 X142.598 Y115 E5.81547
G1 X142.62 Y114.569 E5.84058
G1 X142.683 Y114.141 E5.86576
G1 X142.788 Y113.722 E5.8909
G1 X142.934 Y113.316 E5.91601
G1 X143.118 Y112.925 E5.94116
G1 X143.34 Y112.555 E5.96627
G1 X143.598 Y112.208 E5.99143
G1 X143.888 Y111.888 E6.01656
G1 X144.208 Y111.598 E6.04169
G1 X144.555 Y111.34 E6.06685
G1 X144.925 Y111.118 E6.09196
G1 X145.316 Y110.934 E6.11711
G1 X145.722 Y110.788 E6.14222
G1 X146.141 Y110.683 E6.16736
G1 X146.568 Y110.62 E6.19248
G1 X146.994 Y110.599 E6.2173
G1 X147.431 Y110.62 E6.24276
G1 X147.844 Y110.681 E6.26706
M204 S2500
G1 E4.86706 F4800
;WIPE_START
G1 F5760
G1 X148.278 Y110.788 E4.51319
G1 X148.571 Y110.893 E4.26706
;WIPE_END
G92 E0
G1 X152.388 Y76.6 F7200
G1 E2 F4800
M204 S2000
;TYPE:Solid infill
;WIDTH:0.56093
G1 F3000
G1 X153.175 Y77.387 E2.06489
G1 X153.175 Y78.096 E2.10623
G1 X151.904 Y76.825 E2.21103
G1 X151.196 Y76.825 E2.25231
G1 X153.175 Y78.804 E2.41548
G1 X153.175 Y79.512 E2.45676
G1 X150.488 Y76.825 E2.67831
G1 X149.779 Y76.825 E2.71965
G1 X153.175 Y80.221 E2.99966
G1 X153.175 Y80.929 E3.04094
G1 X149.071 Y76.825 E3.37933
G1 X148.363 Y76.825 E3.42061
G1 X153.175 Y81.637 E3.81738
G1 X153.175 Y82.345 E3.85866
G1 X147.655 Y76.825 E4.3138
G1 X146.946 Y76.825 E4.35514
G1 X153.175 Y83.054 E4.86874
G1 X153.175 Y83.762 E4.91002
G1 X146.238 Y76.825 E5.482
G1 X145.53 Y76.825 E5.52328
G1 X153.175 Y84.47 E6.15364
G1 X153.175 Y85.179 E6.19498
G1 X144.821 Y76.825 E6.88379
G1 X144.113 Y76.825 E6.92507
G1 X153.175 Y85.887 E7.67226
G1 X153.175 Y86.595 E7.71354
G1 X143.405 Y76.825 E8.51911
G1 X142.696 Y76.825 E8.56045
G1 X153.175 Y87.304 E9.42448
G1 X153.175 Y88.012 E9.46576
G1 X141.988 Y76.825 E10.38816
G1 X141.28 Y76.825 E10.42944
G1 X153.175 Y88.72 E11.41022
G1 X153.175 Y89.428 E11.4515
G1 X140.572 Y76.825 E12.49066
G1 X139.863 Y76.825 E12.532
G1 X153.175 Y90.137 E13.62962
G1 X153.175 Y90.845 E13.6709
G1 X139.155 Y76.825 E14.82689
G1 X138.447 Y76.825 E14.86817
G1 X153.175 Y91.553 E16.08254
G1 X153.175 Y92.262 E16.12388
G1 X137.738 Y76.825 E17.39671
G1 X137.03 Y76.825 E17.43799
G1 X153.175 Y92.97 E18.7692
G1 X153.175 Y93.678 E18.81048
G1 X136.322 Y76.825 E20.20006
G1 X135.614 Y76.825 E20.24134
G1 X153.175 Y94.386 E21.6893
