; generated by PrusaSlicer 2.6.0+MacOS-x64 on 2023-08-22 at 16:59:51 UTC

; 

; external perimeters extrusion width = 0.45mm
; perimeters extrusion width = 0.40mm
; infill extrusion width = 0.45mm
; solid infill extrusion width = 0.50mm
; top infill extrusion width = 0.45mm
; support material extrusion width = 0.42mm
; first layer extrusion width = 0.56mm

M201 X2500 Y2500 Z800 E2500 ; sets maximum accelerations, mm/sec^2
M203 X300 Y250 Z8 E80 ; sets maximum feedrates, mm / sec
M204 S2500 T2500 ; sets acceleration (S) and retract acceleration (R), mm/sec^2
M205 X15.00 Y10.00 Z2.00 E10.00 ; sets the jerk limits, mm/sec
M205 S0 T0 ; sets the minimum extruding and travel feed rate, mm/sec
;TYPE:Custom
G90 ; use absolute coordinates
M83 ; extruder relative mode
M104 S215 ; set extruder temp
M140 S65 ; set bed temp
M190 S65 ; wait for bed temp
M109 S215 ; wait for extruder temp
G28                                        ; move X/Y/Z to min endstops
G1 Z0.28                                   ; lift nozzle a bit
 
G0 Y0      ; move to max Y (within soft-limit)


G92 E0 
G1 Y3 F1800                                    ; zero the extruded length 
G1 Y8 E25 F500                       ; Extrude 25mm of filament in a 5cm line. 
G92 E0                                     ; zero the extruded length again 
G1 E-2 F500                                ; Retract a little 
G1 X70 F4000                              ; Quickly wipe away from the filament line

M211 S0      ; disable software endstop
G0 Y245 X80       ; push forward past the endstop to the nozzle wiper

G0 X90       ; move X to the nozzle wiper
G0 X80       ; move X to wipe the nozzle

M211 S1      ; enable software endstop
M117

;G28          ; home all
G21 ; set units to millimeters
G90 ; use absolute coordinates
M82 ; use absolute distances for extrusion
G92 E0
M107
;LAYER_CHANGE
;Z:0.28
;HEIGHT:0.28
; BEFORE_LAYER_CHANGE 0 @ 0.28mm
G1 E-2 F4800
G92 E0
G1 Z.28 F7200
; AFTER_LAYER_CHANGE 0 @ 0.28mm
G1 X75.4 Y75.4
G1 E2 F4800
M204 S2000
;TYPE:External perimeter
;WIDTH:0.56
G1 F3000
G1 X154.6 Y75.4 E6.60904
G1 X154.6 Y154.6 E11.21808
G1 X75.4 Y154.6 E15.82712
G1 X75.4 Y75.46 E20.43267
M204 S2500
G1 X75.786 Y75.504 F7200
G1 X75.9 Y75.9
M204 S2000
;TYPE:Perimeter
G1 F3000
G1 X154.1 Y75.9 E24.98351
G1 X154.1 Y154.1 E29.53435
G1 X75.9 Y154.1 E34.08519
G1 X75.9 Y75.96 E38.63254
M204 S2500
G1 X76.4 Y76.4 F7200
M204 S2000
G1 F3000
G1 X153.6 Y76.4 E43.12519
G1 X153.6 Y153.6 E47.61784
G1 X76.4 Y153.6 E52.11049
G1 X76.4 Y76.46 E56.59965
M204 S2500
G1 E55.19965 F4800
;WIPE_START
G1 F5760
G1 X77.158 Y76.459 E54.59965
;WIPE_END
G92 E0
G1 X81.988 Y112.549 F7200
G1 E2 F4800
M204 S2000
;TYPE:External perimeter
G1 F3000
G1 X82.482 Y112.399 E2.03004
G1 X82.993 Y112.348 E2.05993
G1 X83.517 Y112.399 E2.09057
G1 X84.015 Y112.55 E2.12085
G1 X84.473 Y112.795 E2.15108
G1 X84.875 Y113.125 E2.18135
G1 X85.205 Y113.527 E2.21162
G1 X85.45 Y113.985 E2.24185
G1 X85.601 Y114.483 E2.27213
G1 X85.652 Y115 E2.30236
G1 X85.601 Y115.517 E2.33259
G1 X85.45 Y116.015 E2.36287
G1 X85.205 Y116.473 E2.3931
G1 X84.875 Y116.875 E2.42337
G1 X84.473 Y117.205 E2.45364
G1 X84.015 Y117.45 E2.48387
G1 X83.517 Y117.601 E2.51415
G1 X83 Y117.652 E2.54438
G1 X82.483 Y117.601 E2.57461
G1 X81.985 Y117.45 E2.60489
G1 X81.527 Y117.205 E2.63512
G1 X81.125 Y116.875 E2.66539
G1 X80.795 Y116.473 E2.69566
G1 X80.55 Y116.015 E2.72589
G1 X80.399 Y115.517 E2.75617
G1 X80.348 Y115 E2.7864
G1 X80.399 Y114.483 E2.81663
G1 X80.55 Y113.985 E2.84691
G1 X80.795 Y113.527 E2.87714
G1 X81.125 Y113.125 E2.90741
G1 X81.527 Y112.795 E2.93768
G1 X81.934 Y112.577 E2.96455
M204 S2500
G1 X82.04 Y112.153 F7200
G1 X81.756 Y112.106
M204 S2000
;TYPE:Perimeter
G1 F3000
G1 X82.384 Y111.907 E3.00289
G1 X82.992 Y111.846 E3.03845
G1 X83.615 Y111.906 E3.07487
G1 X84.207 Y112.086 E3.11088
G1 X84.752 Y112.377 E3.14683
G1 X85.23 Y112.77 E3.18284
G1 X85.623 Y113.248 E3.21885
G1 X85.914 Y113.793 E3.2548
G1 X86.094 Y114.385 E3.29081
G1 X86.154 Y115 E3.32677
G1 X86.094 Y115.615 E3.36273
G1 X85.914 Y116.207 E3.39874
G1 X85.623 Y116.752 E3.43469
G1 X85.23 Y117.23 E3.4707
G1 X84.752 Y117.623 E3.50671
G1 X84.207 Y117.914 E3.54266
G1 X83.615 Y118.094 E3.57867
G1 X83 Y118.154 E3.61463
G1 X82.385 Y118.094 E3.65059
G1 X81.793 Y117.914 E3.6866
G1 X81.248 Y117.623 E3.72255
G1 X80.77 Y117.23 E3.75856
G1 X80.377 Y116.752 E3.79457
G1 X80.086 Y116.207 E3.83052
G1 X79.906 Y115.615 E3.86653
G1 X79.846 Y115 E3.90249
G1 X79.906 Y114.385 E3.93845
G1 X80.086 Y113.793 E3.97446
G1 X80.377 Y113.248 E4.01041
G1 X80.77 Y112.77 E4.04642
G1 X81.248 Y112.377 E4.08243
G1 X81.703 Y112.134 E4.11245
M204 S2500
G1 X81.526 Y111.662 F7200
M204 S2000
G1 F3000
G1 X81.601 Y111.622 E4.1174
G1 X82.286 Y111.414 E4.15906
G1 X82.992 Y111.344 E4.20035
G1 X83.712 Y111.413 E4.24244
G1 X84.399 Y111.622 E4.28423
G1 X85.031 Y111.96 E4.32594
G1 X85.586 Y112.414 E4.36767
G1 X86.04 Y112.969 E4.4094
G1 X86.378 Y113.601 E4.45111
G1 X86.586 Y114.287 E4.49283
G1 X86.657 Y115 E4.53453
G1 X86.586 Y115.713 E4.57623
G1 X86.378 Y116.399 E4.61795
G1 X86.04 Y117.031 E4.65966
G1 X85.586 Y117.586 E4.70139
G1 X85.031 Y118.04 E4.74312
G1 X84.399 Y118.378 E4.78483
G1 X83.713 Y118.586 E4.82655
G1 X83 Y118.657 E4.86825
G1 X82.287 Y118.586 E4.90995
G1 X81.601 Y118.378 E4.95167
G1 X80.969 Y118.04 E4.99338
G1 X80.414 Y117.586 E5.03511
G1 X79.96 Y117.031 E5.07684
G1 X79.622 Y116.399 E5.11855
G1 X79.414 Y115.713 E5.16027
G1 X79.343 Y115 E5.20197
G1 X79.414 Y114.287 E5.24367
G1 X79.622 Y113.601 E5.28539
G1 X79.96 Y112.969 E5.3271
G1 X80.414 Y112.414 E5.36883
G1 X80.969 Y111.96 E5.41056
G1 X81.473 Y111.69 E5.44383
M204 S2500
G1 E4.04383 F4800
;WIPE_START
G1 F5760
G1 X81.601 Y111.622 E3.92908
G1 X82.188 Y111.444 E3.44383
;WIPE_END
G92 E0
G1 X147.549 Y117.591 F7200
G1 E2 F4800
M204 S2000
;TYPE:External perimeter
G1 F3000
G1 X147 Y117.652 E2.03215
G1 X146.483 Y117.601 E2.06238
G1 X145.985 Y117.45 E2.09266
G1 X145.527 Y117.205 E2.12289
G1 X145.125 Y116.875 E2.15316
G1 X144.795 Y116.473 E2.18343
G1 X144.55 Y116.015 E2.21366
G1 X144.399 Y115.517 E2.24394
G1 X144.348 Y115 E2.27417
G1 X144.399 Y114.483 E2.3044
G1 X144.55 Y113.985 E2.33468
G1 X144.795 Y113.527 E2.36491
G1 X145.125 Y113.125 E2.39518
G1 X145.527 Y112.795 E2.42545
G1 X145.985 Y112.55 E2.45568
G1 X146.482 Y112.399 E2.48591
G1 X146.993 Y112.348 E2.5158
G1 X147.517 Y112.399 E2.54644
G1 X148.015 Y112.55 E2.57672
G1 X148.473 Y112.795 E2.60695
G1 X148.875 Y113.125 E2.63722
G1 X149.205 Y113.527 E2.66749
G1 X149.45 Y113.985 E2.69772
G1 X149.601 Y114.483 E2.728
G1 X149.652 Y115 E2.75823
G1 X149.601 Y115.517 E2.78846
G1 X149.45 Y116.015 E2.81874
G1 X149.205 Y116.473 E2.84897
G1 X148.875 Y116.875 E2.87924
G1 X148.473 Y117.205 E2.90951
G1 X148.015 Y117.45 E2.93974
G1 X147.607 Y117.574 E2.96456
M204 S2500
G1 X147.424 Y117.971 F7200
G1 X147.573 Y118.098
M204 S2000
;TYPE:Perimeter
G1 F3000
G1 X147 Y118.154 E2.99806
G1 X146.385 Y118.094 E3.03402
G1 X145.793 Y117.914 E3.07003
G1 X145.248 Y117.623 E3.10598
G1 X144.77 Y117.23 E3.14199
G1 X144.377 Y116.752 E3.178
G1 X144.086 Y116.207 E3.21395
G1 X143.906 Y115.615 E3.24996
G1 X143.846 Y115 E3.28592
G1 X143.906 Y114.385 E3.32188
G1 X144.086 Y113.793 E3.35789
G1 X144.377 Y113.248 E3.39384
G1 X144.77 Y112.77 E3.42985
G1 X145.248 Y112.377 E3.46586
G1 X145.793 Y112.086 E3.50181
G1 X146.384 Y111.907 E3.53775
G1 X146.992 Y111.846 E3.57331
G1 X147.615 Y111.906 E3.60973
G1 X148.207 Y112.086 E3.64574
G1 X148.752 Y112.377 E3.68169
G1 X149.23 Y112.77 E3.7177
G1 X149.623 Y113.248 E3.75371
G1 X149.914 Y113.793 E3.78966
G1 X150.094 Y114.385 E3.82567
G1 X150.154 Y115 E3.86163
G1 X150.094 Y115.615 E3.89759
G1 X149.914 Y116.207 E3.9336
G1 X149.623 Y116.752 E3.96955
G1 X149.23 Y117.23 E4.00556
G1 X148.752 Y117.623 E4.04157
G1 X148.207 Y117.914 E4.07752
G1 X147.632 Y118.088 E4.11248
M204 S2500
G1 X147.629 Y118.595 F7200
M204 S2000
G1 F3000
G1 X147 Y118.657 E4.14926
G1 X146.287 Y118.586 E4.19096
G1 X145.601 Y118.378 E4.23268
G1 X144.969 Y118.04 E4.27439
G1 X144.414 Y117.586 E4.31612
G1 X143.96 Y117.032 E4.3578
G1 X143.622 Y116.399 E4.39956
G1 X143.414 Y115.713 E4.44128
G1 X143.343 Y115 E4.48298
G1 X143.414 Y114.287 E4.52468
G1 X143.622 Y113.601 E4.5664
G1 X143.96 Y112.969 E4.60811
G1 X144.414 Y112.414 E4.64984
G1 X144.969 Y111.96 E4.69157
G1 X145.601 Y111.622 E4.73328
G1 X146.286 Y111.414 E4.77494
G1 X146.992 Y111.344 E4.81623
G1 X147.712 Y111.413 E4.85832
G1 X148.399 Y111.622 E4.90011
G1 X149.031 Y111.96 E4.94182
G1 X149.586 Y112.414 E4.98355
G1 X150.04 Y112.969 E5.02528
G1 X150.378 Y113.601 E5.06699
G1 X150.586 Y114.287 E5.10871
G1 X150.657 Y115 E5.15041
G1 X150.586 Y115.713 E5.19211
G1 X150.378 Y116.399 E5.23383
G1 X150.04 Y117.032 E5.27559
G1 X149.586 Y117.586 E5.31727
G1 X149.031 Y118.04 E5.359
G1 X148.399 Y118.378 E5.40071
G1 X147.689 Y118.589 E5.44381
M204 S2500
G1 E4.04381 F4800
;WIPE_START
G1 F5760
G1 X147 Y118.657 E3.4957
G1 X146.935 Y118.651 E3.44381
;WIPE_END
G92 E0
G1 X152.388 Y76.6 F7200
G1 E2 F4800
M204 S2000
;TYPE:Solid infill
;WIDTH:0.56093
G1 F3000
G1 X153.175 Y77.387 E2.06489
G1 X153.175 Y78.096 E2.10623
G1 X151.904 Y76.825 E2.21103
G1 X151.196 Y76.825 E2.25231
G1 X153.175 Y78.804 E2.41548
G1 X153.175 Y79.512 E2.45676
G1 X150.488 Y76.825 E2.67831
G1 X149.779 Y76.825 E2.71965
G1 X153.175 Y80.221 E2.99966
G1 X153.175 Y80.929 E3.04094
G1 X149.071 Y76.825 E3.37933
G1 X148.363 Y76.825 E3.42061
G1 X153.175 Y81.637 E3.81738
G1 X153.175 Y82.345 E3.85866
G1 X147.655 Y76.825 E4.3138
G1 X146.946 Y76.825 E4.35514
G1 X153.175 Y83.054 E4.86874
G1 X153.175 Y83.762 E4.91002
G1 X146.238 Y76.825 E5.482
G1 X145.53 Y76.825 E5.52328
G1 X153.175 Y84.47 E6.15364
G1 X153.175 Y85.179 E6.19498
G1 X144.821 Y76.825 E6.88379
G1 X144.113 Y76.825 E6.92507
G1 X153.175 Y85.887 E7.67226
G1 X153.175 Y86.595 E7.71354
G1 X143.405 Y76.825 E8.51911
G1 X142.696 Y76.825 E8.56045
G1 X153.175 Y87.304 E9.42448
G1 X153.175 Y88.012 E9.46576
G1 X141.988 Y76.825 E10.38816
G1 X141.28 Y76.825 E10.42944
G1 X153.175 Y88.72 E11.41022
G1 X153.175 Y89.428 E11.4515
G1 X140.572 Y76.825 E12.49066
G1 X139.863 Y76.825 E12.532
G1 X153.175 Y90.137 E13.62962
G1 X153.175 Y90.845 E13.6709
G1 X139.155 Y76.825 E14.82689
G1 X138.447 Y76.825 E14.86817
G1 X153.175 Y91.553 E16.08254
G1 X153.175 Y92.262 E16.12388
G1 X137.738 Y76.825 E17.39671
G1 X137.03 Y76.825 E17.43799
G1 X153.175 Y92.97 E18.7692
G1 X153.175 Y93.678 E18.81048
G1 X136.322 Y76.825 E20.20006
G1 X135.614 Y76.825 E20.24134
G1 X153.175 Y94.386 E21.6893
G1 X153.175 Y95.095 E21.73064
G1 X134.905 Y76.825 E23.23706
G1 X134.197 Y76.825 E23.27834
G1 X153.175 Y95.803 E24.84314
G1 X153.175 Y96.511 E24.88442
G1 X133.489 Y76.825 E26.50759
G1 X132.78 Y76.825 E26.54893
G1 X153.175 Y97.22 E28.23056
G1 X153.175 Y97.928 E28.27184
G1 X132.072 Y76.825 E30.01185
G1 X131.364 Y76.825 E30.05313
G1 X153.175 Y98.636 E31.85152
G1 X153.175 Y99.345 E31.89286
G1 X130.655 Y76.825 E33.74971
G1 X129.947 Y76.825 E33.79099
G1 X153.175 Y100.053 E35.70621
G1 X153.175 Y100.761 E35.74749
G1 X129.239 Y76.825 E37.72109
G1 X128.531 Y76.825 E37.76237
G1 X153.175 Y101.469 E39.79435
G1 X153.175 Y102.178 E39.83569
G1 X127.822 Y76.825 E41.92613
G1 X127.114 Y76.825 E41.96741
G1 X153.175 Y102.886 E44.11622
G1 X153.175 Y103.594 E44.1575
G1 X126.406 Y76.825 E46.36469
G1 X125.697 Y76.825 E46.40603
G1 X153.175 Y104.303 E48.67168
G1 X153.175 Y105.011 E48.71296
G1 X124.989 Y76.825 E51.03699
G1 X124.281 Y76.825 E51.07827
G1 X153.175 Y105.719 E53.46067
G1 X153.175 Y106.428 E53.50201
G1 X123.572 Y76.825 E55.94287
G1 X122.864 Y76.825 E55.98415
G1 X153.175 Y107.136 E58.48339
G1 X153.175 Y107.844 E58.52467
G1 X122.156 Y76.825 E61.08229
G1 X121.448 Y76.825 E61.12357
G1 X153.175 Y108.552 E63.73956
G1 X153.175 Y109.261 E63.7809
G1 X120.739 Y76.825 E66.45535
G1 X120.031 Y76.825 E66.49663
G1 X153.175 Y109.969 E69.22946
G1 X153.175 Y110.677 E69.27074
G1 X119.323 Y76.825 E72.06195
G1 X118.614 Y76.825 E72.10329
G1 X153.175 Y111.386 E74.95296
G1 X153.175 Y112.094 E74.99424
G1 X117.906 Y76.825 E77.90228
G1 X117.198 Y76.825 E77.94356
G1 X153.175 Y112.802 E80.90998
G1 X153.175 Y113.511 E80.95132
G1 X116.489 Y76.825 E83.9762
G1 X115.781 Y76.825 E84.01748
G1 X153.175 Y114.219 E87.10074
G1 X153.175 Y114.927 E87.14202
G1 X115.073 Y76.825 E90.28365
G1 X114.365 Y76.825 E90.32493
G1 X153.175 Y115.635 E93.52494
G1 X153.175 Y116.344 E93.56628
G1 X150.992 Y114.161 E93.74628
G1 X151.079 Y114.956 E93.79291
G1 X153.175 Y117.052 E93.96573
G1 X153.175 Y117.76 E94.00701
G1 X151.024 Y115.609 E94.18437
G1 X151.005 Y115.797 E94.19539
G1 X150.888 Y116.182 E94.21885
G1 X153.175 Y118.469 E94.40742
G1 X153.175 Y119.177 E94.4487
G1 X150.699 Y116.701 E94.65285
G1 X150.452 Y117.162 E94.68334
G1 X153.175 Y119.885 E94.90786
G1 X153.175 Y120.594 E94.9492
G1 X150.15 Y117.568 E95.19866
G1 X149.888 Y117.888 E95.22277
G1 X149.818 Y117.945 E95.22803
G1 X153.175 Y121.302 E95.50483
G1 X153.175 Y122.01 E95.54611
G1 X149.429 Y118.264 E95.85498
G1 X149.269 Y118.395 E95.86704
G1 X148.997 Y118.54 E95.88501
G1 X153.175 Y122.718 E96.2295
G1 X153.175 Y123.427 E96.27084
G1 X148.531 Y118.782 E96.65379
G1 X147.987 Y118.947 E96.68693
G1 X153.175 Y124.135 E97.1147
G1 X153.175 Y124.843 E97.15598
G1 X147.378 Y119.046 E97.63396
G1 X147 Y119.084 E97.65611
G1 X146.675 Y119.052 E97.67515
G1 X153.4 Y125.777 E98.22965
M204 S2500
G1 E96.82965 F4800
;WIPE_START
G1 F5760
G1 X152.864 Y125.241 E96.22965
;WIPE_END
G92 E0
G1 X148.177 Y111.345 F7200
G1 E2 F4800
M204 S2000
G1 F3000
G1 X113.656 Y76.825 E4.84633
G1 X112.948 Y76.825 E4.88761
G1 X147.045 Y110.922 E7.69902
G1 X146.391 Y110.976 E7.73728
G1 X112.24 Y76.825 E10.55314
G1 X111.531 Y76.825 E10.59448
G1 X145.818 Y111.112 E13.42155
G1 X145.437 Y111.227 E13.44475
G1 X145.299 Y111.301 E13.45388
G1 X110.823 Y76.825 E16.29654
G1 X110.115 Y76.825 E16.33782
G1 X144.838 Y111.548 E19.20084
G1 X144.731 Y111.605 E19.20791
G1 X144.432 Y111.85 E19.23045
G1 X109.406 Y76.825 E22.11842
G1 X108.698 Y76.825 E22.1597
G1 X144.055 Y112.182 E25.075
G1 X143.736 Y112.571 E25.10433
G1 X107.99 Y76.825 E28.0517
G1 X107.282 Y76.825 E28.09298
G1 X143.46 Y113.003 E31.07597
G1 X143.218 Y113.469 E31.10658
G1 X106.573 Y76.825 E34.12804
G1 X105.865 Y76.825 E34.16932
G1 X143.053 Y114.013 E37.23559
G1 X142.995 Y114.203 E37.24717
G1 X142.954 Y114.622 E37.27172
G1 X105.157 Y76.825 E40.38821
G1 X104.448 Y76.825 E40.42955
G1 X143.199 Y115.575 E43.62465
M204 S2500
G1 E42.22465 F4800
;WIPE_START
G1 F5760
G1 X142.663 Y115.039 E41.62465
;WIPE_END
G92 E0
G1 X153.4 Y126.485 F7200
G1 E2 F4800
M204 S2000
G1 F3000
G1 X145.797 Y118.882 E2.62689
G1 X145.437 Y118.773 E2.64882
G1 X144.731 Y118.395 E2.69551
G1 X144.112 Y117.888 E2.74216
G1 X143.605 Y117.269 E2.78881
G1 X143.227 Y116.563 E2.8355
G1 X143.118 Y116.203 E2.85743
G1 X103.74 Y76.825 E6.10427
G1 X103.032 Y76.825 E6.14555
G1 X153.175 Y126.968 E10.28
G1 X153.175 Y127.676 E10.32128
G1 X102.324 Y76.825 E14.51411
G1 X101.615 Y76.825 E14.55545
G1 X153.175 Y128.385 E18.80674
G1 X153.175 Y129.093 E18.84802
G1 X100.907 Y76.825 E23.15769
G1 X100.199 Y76.825 E23.19897
G1 X153.175 Y129.801 E27.56701
G1 X153.175 Y130.51 E27.60835
G1 X99.49 Y76.825 E32.03485
G1 X98.782 Y76.825 E32.07613
G1 X153.175 Y131.218 E36.56101
G1 X153.175 Y131.926 E36.60229
G1 X98.074 Y76.825 E41.14555
G1 X97.365 Y76.825 E41.18689
G1 X153.175 Y132.635 E45.78861
G1 X153.175 Y133.343 E45.82989
G1 X96.657 Y76.825 E50.48998
G1 X95.949 Y76.825 E50.53126
G1 X153.175 Y134.051 E55.24973
G1 X153.175 Y134.759 E55.29101
G1 X95.241 Y76.825 E60.06786
G1 X94.532 Y76.825 E60.1092
G1 X153.175 Y135.468 E64.94451
G1 X153.175 Y136.176 E64.98579
G1 X93.824 Y76.825 E69.87947
G1 X93.116 Y76.825 E69.92075
G1 X153.175 Y136.884 E74.87281
G1 X153.175 Y137.593 E74.91415
G1 X92.407 Y76.825 E79.92467
G1 X91.699 Y76.825 E79.96595
G1 X153.175 Y138.301 E85.03485
G1 X153.175 Y139.009 E85.07613
G1 X90.991 Y76.825 E90.2034
G1 X90.282 Y76.825 E90.24474
G1 X153.175 Y139.718 E95.43047
G1 X153.175 Y140.426 E95.47175
G1 X89.574 Y76.825 E100.71586
G1 X88.866 Y76.825 E100.75714
G1 X153.175 Y141.134 E106.05963
G1 X153.175 Y141.842 E106.10091
G1 X88.158 Y76.825 E111.46177
G1 X87.449 Y76.825 E111.50311
