(Exported by FreeCAD)
(Post Processor: grbl_post)
(Output Time:2024-01-20 09:18:49.455626)
(Begin preamble)
G17 G90
G21
(Begin operation: Fixture)
(Path: Fixture)
G54
(Finish operation: Fixture)
(Begin operation: 1.8mm001)
(Path: 1.8mm001)
(1.8mm001)
(Begin toolchange)
( M6 T2 )
(Finish operation: 1.8mm001)
(Begin operation: Pocket_Shape)
(Path: Pocket_Shape)
(Pocket_Shape)
G0 Z14.500
G0 X60.294 Y20.239
G0 Z12.500
G1 X60.294 Y20.239 Z7.700
G3 X58.309 Y20.388 Z7.700 I-1.147 J-1.983 K0.000
G3 X56.924 Y18.830 Z7.700 I1.013 J-2.295 K0.000
G3 X56.606 Y16.551 Z7.700 I6.768 J-2.107 K0.000
G1 X60.294 Y20.239 Z7.700
G2 X61.442 Y18.841 Z7.700 I-1.399 J-2.319 K0.000
G1 X56.921 Y14.321 Z7.700
G3 X58.018 Y12.872 Z7.700 I2.711 J0.913 K0.000
G1 X61.811 Y16.664 Z7.700
G2 X61.643 Y14.649 Z7.700 I-7.451 J-0.396 K0.000
G2 X60.799 Y13.107 Z7.700 I-2.858 J0.563 K0.000
G1 X60.799 Y13.107 Z6.400
G3 X61.643 Y14.649 Z6.400 I-2.014 J2.105 K0.000
G3 X61.811 Y16.664 Z6.400 I-7.284 J1.619 K0.000
G1 X58.018 Y12.872 Z6.400
G2 X56.921 Y14.321 Z6.400 I1.614 J2.361 K0.000
G1 X61.442 Y18.841 Z6.400
G3 X60.294 Y20.239 Z6.400 I-2.547 J-0.921 K0.000
G1 X56.606 Y16.551 Z6.400
G2 X56.924 Y18.830 Z6.400 I7.087 J0.173 K0.000
G2 X58.309 Y20.388 Z6.400 I2.398 J-0.738 K0.000
G2 X60.294 Y20.239 Z6.400 I0.839 J-2.132 K0.000
G0 Z14.500
G0 Z14.500
G0 X60.294 Y20.239
G0 X71.066 Y19.118
G0 X71.066 Y19.118 Z12.500
G1 X71.066 Y19.118 Z7.700
G2 X72.176 Y20.228 Z7.700 I2.395 J-1.285 K0.000
G1 X71.066 Y19.118 Z7.700
G1 X71.060 Y19.109 Z7.700
G3 X70.564 Y16.070 Z7.700 I5.680 J-2.487 K0.000
G1 X74.741 Y20.247 Z7.700
G2 X75.978 Y18.938 Z7.700 I-1.277 J-2.445 K0.000
G1 X71.033 Y13.994 Z7.700
G3 X72.314 Y12.729 Z7.700 I2.451 J1.200 K0.000
G1 X76.408 Y16.823 Z7.700
G2 X76.234 Y14.853 Z7.700 I-7.606 J-0.322 K0.000
G2 X75.247 Y13.118 Z7.700 I-3.033 J0.578 K0.000
G1 X75.247 Y13.118 Z6.400
G3 X76.234 Y14.853 Z6.400 I-2.045 J2.313 K0.000
G3 X76.408 Y16.823 Z6.400 I-7.432 J1.649 K0.000
G1 X72.314 Y12.729 Z6.400
G2 X71.033 Y13.994 Z6.400 I1.170 J2.465 K0.000
G1 X75.978 Y18.938 Z6.400
G3 X74.741 Y20.247 Z6.400 I-2.514 J-1.136 K0.000
G1 X70.564 Y16.070 Z6.400
G2 X71.060 Y19.109 Z6.400 I6.176 J0.551 K0.000
G1 X71.066 Y19.118 Z6.400
G1 X72.176 Y20.228 Z6.400
G3 X71.066 Y19.118 Z6.400 I1.285 J-2.395 K0.000
G0 Z14.500
G0 Z14.500
G0 X71.066 Y19.118
G0 X102.094 Y20.325
G0 X102.094 Y20.325 Z12.500
G1 X102.094 Y20.325 Z7.700
G3 X100.816 Y20.530 Z7.700 I-0.971 J-1.971 K0.000
G3 X98.895 Y19.075 Z7.700 I0.384 J-2.503 K0.000
G3 X98.468 Y16.699 Z7.700 I5.381 J-2.193 K0.000
G1 X102.094 Y20.325 Z7.700
G2 X103.364 Y19.050 Z7.700 I-1.181 J-2.446 K0.000
G1 X98.784 Y14.469 Z7.700
G3 X99.920 Y13.060 Z7.700 I2.417 J0.787 K0.000
G1 X103.809 Y16.949 Z7.700
G2 X103.636 Y14.914 Z7.700 I-7.608 J-0.378 K0.000
G2 X103.025 Y13.619 Z7.700 I-2.976 J0.612 K0.000
G1 X103.025 Y13.619 Z6.400
G3 X103.636 Y14.914 Z6.400 I-2.365 J1.907 K0.000
G3 X103.809 Y16.949 Z6.400 I-7.435 J1.656 K0.000
G1 X99.920 Y13.060 Z6.400
G2 X98.784 Y14.469 Z6.400 I1.281 J2.196 K0.000
G1 X103.364 Y19.050 Z6.400
G3 X102.094 Y20.325 Z6.400 I-2.451 J-1.171 K0.000
G1 X98.468 Y16.699 Z6.400
G2 X98.895 Y19.075 Z6.400 I5.807 J0.183 K0.000
G2 X100.816 Y20.530 Z6.400 I2.305 J-1.049 K0.000
G2 X102.094 Y20.325 Z6.400 I0.307 J-2.176 K0.000
G0 Z14.500
G0 Z14.500
G0 X102.094 Y20.325
G0 X112.978 Y19.118
G0 X112.978 Y19.118 Z12.500
G1 X112.978 Y19.118 Z7.700
G2 X114.089 Y20.228 Z7.700 I2.395 J-1.285 K0.000
G1 X112.978 Y19.118 Z7.700
G1 X112.973 Y19.109 Z7.700
G3 X112.477 Y16.070 Z7.700 I5.680 J-2.487 K0.000
G1 X116.654 Y20.247 Z7.700
G2 X117.890 Y18.938 Z7.700 I-1.277 J-2.445 K0.000
G1 X112.946 Y13.994 Z7.700
G3 X114.226 Y12.729 Z7.700 I2.451 J1.200 K0.000
G1 X118.321 Y16.823 Z7.700
G2 X118.147 Y14.853 Z7.700 I-7.606 J-0.322 K0.000
G2 X117.160 Y13.118 Z7.700 I-3.033 J0.578 K0.000
G1 X117.160 Y13.118 Z6.400
G3 X118.147 Y14.853 Z6.400 I-2.045 J2.313 K0.000
G3 X118.321 Y16.823 Z6.400 I-7.432 J1.649 K0.000
G1 X114.226 Y12.729 Z6.400
G2 X112.946 Y13.994 Z6.400 I1.170 J2.465 K0.000
G1 X117.890 Y18.938 Z6.400
G3 X116.654 Y20.247 Z6.400 I-2.514 J-1.136 K0.000
G1 X112.477 Y16.070 Z6.400
G2 X112.973 Y19.109 Z6.400 I6.176 J0.551 K0.000
G1 X112.978 Y19.118 Z6.400
G1 X114.089 Y20.228 Z6.400
G3 X112.978 Y19.118 Z6.400 I1.285 J-2.395 K0.000
G0 Z14.500
G0 Z14.500
G0 X112.978 Y19.118
G0 X104.003 Y23.532
G0 X104.003 Y23.532 Z12.500
G1 X104.003 Y23.532 Z7.700
G3 X103.910 Y23.354 Z7.700 I0.286 J-0.262 K0.000
G1 X103.858 Y23.387 Z7.700
G3 X104.105 Y23.665 Z7.700 I-0.934 J1.080 K0.000
G1 X104.238 Y23.768 Z7.700
G1 X112.571 Y32.100 Z7.700
G1 X110.025 Y32.100 Z7.700
G1 X102.010 Y24.085 Z7.700
G3 X99.405 Y24.026 Z7.700 I-1.157 J-6.377 K0.000
G1 X107.479 Y32.100 Z7.700
G0 Z14.500
G0 X112.571 Z14.500
G0 X112.571 Z12.500
G1 X112.571 Y32.100 Z7.700
G1 X104.238 Y23.768 Z7.700
G2 X104.742 Y23.929 Z7.700 I0.447 J-0.527 K0.000
G1 X106.777 Y23.929 Z7.700
G1 X106.926 Y23.910 Z7.700
G1 X115.116 Y32.100 Z7.700
G1 X117.662 Y32.100 Z7.700
G1 X107.677 Y22.116 Z7.700
G1 X107.677 Y19.570 Z7.700
G1 X120.207 Y32.100 Z7.700
G1 X122.753 Y32.100 Z7.700
G1 X114.816 Y24.163 Z7.700
G3 X110.278 Y22.111 Z7.700 I0.319 J-6.749 K0.000
G3 X108.465 Y17.812 Z7.700 I5.341 J-4.784 K0.000
G1 X107.677 Y17.024 Z7.700
G1 X107.677 Y14.479 Z7.700
G1 X108.457 Y15.259 Z7.700
G3 X108.921 Y13.177 Z7.700 I8.390 J0.778 K0.000
G1 X107.677 Y11.933 Z7.700
G2 X107.522 Y9.232 Z7.700 I-21.013 J-0.148 K0.000
G1 X109.800 Y11.510 Z7.700
G3 X111.057 Y10.222 Z7.700 I4.601 J3.235 K0.000
G1 X104.735 Y3.900 Z7.700
G1 X107.281 Y3.900 Z7.700
G1 X112.695 Y9.315 Z7.700
G3 X114.787 Y8.861 Z7.700 I2.469 J6.335 K0.000
G1 X109.826 Y3.900 Z7.700
G1 X112.372 Y3.900 Z7.700
G1 X117.648 Y9.176 Z7.700
G0 Z14.500
G0 X125.100 Y3.900 Z14.500
G0 X125.100 Y3.900 Z12.500
G1 X125.100 Y3.900 Z7.700
G1 X125.100 Y6.446 Z7.700
G1 X122.554 Y3.900 Z7.700
G1 X120.009 Y3.900 Z7.700
G1 X125.100 Y8.991 Z7.700
G1 X125.100 Y11.537 Z7.700
G1 X117.463 Y3.900 Z7.700
G1 X114.918 Y3.900 Z7.700
G1 X125.100 Y14.082 Z7.700
G1 X125.100 Y16.628 Z7.700
G1 X122.007 Y13.535 Z7.700
G3 X122.391 Y16.464 Z7.700 I-9.512 J2.736 K0.000
G1 X125.100 Y19.174 Z7.700
G1 X125.100 Y21.719 Z7.700
G1 X122.180 Y18.799 Z7.700
G3 X121.508 Y20.673 Z7.700 I-6.470 J-1.264 K0.000
G1 X125.100 Y24.265 Z7.700
G1 X125.100 Y26.810 Z7.700
G1 X120.446 Y22.156 Z7.700
G3 X119.020 Y23.276 Z7.700 I-4.732 J-4.559 K0.000
G1 X125.100 Y29.356 Z7.700
G1 X125.100 Y31.901 Z7.700
G1 X117.186 Y23.988 Z7.700
G3 X114.816 Y24.163 Z7.700 I-1.731 J-7.308 K0.000
G1 X122.753 Y32.100 Z7.700
G0 Z14.500
G0 X92.206 Z14.500
G0 X92.206 Z12.500
G1 X92.206 Y32.100 Z7.700
G1 X84.035 Y23.929 Z7.700
G2 X85.026 Y23.272 Z7.700 I0.110 J-0.910 K0.000
G2 X86.633 Y23.981 Z7.700 I2.760 J-4.082 K0.000
G1 X94.752 Y32.100 Z7.700
G1 X97.297 Y32.100 Z7.700
G1 X89.308 Y24.111 Z7.700
G2 X91.231 Y23.488 Z7.700 I-0.669 J-5.342 K0.000
G1 X99.843 Y32.100 Z7.700
G1 X102.388 Y32.100 Z7.700
G1 X92.634 Y22.343 Z7.700
G2 X93.439 Y20.605 Z7.700 I-3.850 J-2.837 K0.000
G1 X104.934 Y32.100 Z7.700
G1 X107.479 Y32.100 Z7.700
G1 X99.405 Y24.026 Z7.700
G3 X96.894 Y22.779 Z7.700 I1.261 J-5.694 K0.000
G3 X94.806 Y19.427 Z7.700 I4.635 J-5.213 K0.000
G1 X93.654 Y18.275 Z7.700
G2 X93.657 Y15.732 Z7.700 I-110.314 J-1.411 K0.000
G1 X94.402 Y16.477 Z7.700
G3 X94.686 Y14.215 Z7.700 I9.095 J-0.007 K0.000
G1 X93.657 Y13.187 Z7.700
G1 X93.657 Y10.641 Z7.700
G1 X95.408 Y12.392 Z7.700
G3 X96.467 Y10.905 Z7.700 I6.203 J3.300 K0.000
G1 X95.276 Y9.714 Z7.700
G3 X94.963 Y9.401 Z7.700 I0.323 J-0.636 K0.000
G1 X89.462 Y3.900 Z7.700
G1 X92.007 Y3.900 Z7.700
G1 X95.133 Y7.026 Z7.700
G3 X96.133 Y5.480 Z7.700 I3.666 J1.273 K0.000
G1 X94.553 Y3.900 Z7.700
G1 X97.099 Y3.900 Z7.700
G1 X97.670 Y4.471 Z7.700
G3 X99.684 Y3.939 Z7.700 I2.801 J6.526 K0.000
G1 X99.644 Y3.900 Z7.700
G1 X100.234 Y3.900 Z7.700
G2 X99.684 Y3.939 Z7.700 I0.010 J4.003 K0.000
G0 Z14.500
G0 X101.654 Y3.900 Z14.500
G0 X101.654 Y3.900 Z12.500
G1 X101.654 Y3.900 Z7.700
G1 X102.190 Y3.900 Z7.700
G1 X102.260 Y3.970 Z7.700
G2 X101.654 Y3.900 Z7.700 I-0.686 J3.258 K0.000
G0 Z14.500
G0 X100.722 Y7.524 Z14.500
G0 X100.722 Y7.524 Z12.500
G1 X100.722 Y7.524 Z7.700
G3 X102.606 Y7.876 Z7.700 I0.309 J3.565 K0.000
G3 X103.584 Y9.769 Z7.700 I-1.271 J1.855 K0.000
G2 X102.532 Y9.333 Z7.700 I-2.217 J3.863 K0.000
G1 X100.722 Y7.524 Z7.700
G2 X99.147 Y7.958 Z7.700 I-0.117 J2.647 K0.000
G2 X98.921 Y8.268 Z7.700 I0.514 J0.612 K0.000
G1 X99.837 Y9.184 Z7.700
G2 X97.911 Y9.804 Z7.700 I0.667 J5.379 K0.000
G1 X97.686 Y9.578 Z7.700
G1 X95.870 Y9.844 Z7.700
G3 X95.276 Y9.714 Z7.700 I-0.158 J-0.699 K0.000
G1 X96.467 Y10.905 Z7.700
G0 Z14.500
G0 X92.116 Y9.100 Z14.500
G0 X92.116 Y9.100 Z12.500
G1 X92.116 Y9.100 Z7.700
G1 X86.916 Y3.900 Z7.700
G1 X84.371 Y3.900 Z7.700
G1 X89.879 Y9.408 Z7.700
G2 X89.650 Y10.000 Z7.700 I0.637 J0.587 K0.000
G1 X89.650 Y11.725 Z7.700
G1 X81.825 Y3.900 Z7.700
G1 X79.279 Y3.900 Z7.700
G1 X84.494 Y9.115 Z7.700
G1 X84.381 Y9.100 Z7.700
G1 X82.174 Y9.100 Z7.700
G1 X81.962 Y9.128 Z7.700
G1 X76.734 Y3.900 Z7.700
G1 X74.188 Y3.900 Z7.700
G1 X81.274 Y10.985 Z7.700
G1 X81.274 Y13.531 Z7.700
G1 X71.643 Y3.900 Z7.700
G1 X69.097 Y3.900 Z7.700
G1 X74.064 Y8.867 Z7.700
G2 X71.691 Y9.039 Z7.700 I-0.646 J7.535 K0.000
G1 X66.552 Y3.900 Z7.700
G1 X64.006 Y3.900 Z7.700
G1 X69.850 Y9.744 Z7.700
G2 X68.419 Y10.859 Z7.700 I3.134 J5.497 K0.000
G1 X61.460 Y3.900 Z7.700
G1 X58.915 Y3.900 Z7.700
G1 X64.115 Y9.100 Z7.700
G1 X62.682 Y9.100 Z7.700
G2 X61.953 Y9.484 Z7.700 I-0.009 J0.866 K0.000
G1 X56.369 Y3.900 Z7.700
G1 X53.824 Y3.900 Z7.700
G1 X58.778 Y8.854 Z7.700
G2 X56.692 Y9.314 Z7.700 I0.104 J5.431 K0.000
G1 X51.278 Y3.900 Z7.700
G1 X48.732 Y3.900 Z7.700
G1 X55.106 Y10.273 Z7.700
G2 X53.900 Y11.613 Z7.700 I3.713 J4.556 K0.000
G1 X53.177 Y10.890 Z7.700
G1 X52.980 Y12.094 Z7.700
G3 X52.491 Y12.750 Z7.700 I-0.863 J-0.134 K0.000
G1 X53.055 Y13.314 Z7.700
G2 X52.593 Y15.397 Z7.700 I7.756 J2.813 K0.000
G1 X50.773 Y13.578 Z7.700
G2 X50.772 Y16.122 Z7.700 I172.422 J1.324 K0.000
G1 X52.640 Y17.990 Z7.700
G2 X54.401 Y22.226 Z7.700 I7.697 J-0.716 K0.000
G2 X58.836 Y24.186 Z7.700 I4.447 J-4.065 K0.000
G1 X61.634 Y26.984 Z7.700
G1 X61.634 Y28.000 Z7.700
G2 X62.534 Y28.900 Z7.700 I0.900 J0.000 K0.000
G1 X63.550 Y28.900 Z7.700
G1 X66.750 Y32.100 Z7.700
G1 X64.205 Y32.100 Z7.700
G1 X50.772 Y18.668 Z7.700
G1 X50.772 Y20.415 Z7.700
G1 X52.092 Y20.415 Z7.700
G3 X52.992 Y21.315 Z7.700 I0.000 J0.900 K0.000
G1 X52.992 Y23.029 Z7.700
G3 X52.920 Y23.361 Z7.700 I-0.656 J0.032 K0.000
G1 X61.659 Y32.100 Z7.700
G1 X59.113 Y32.100 Z7.700
G1 X50.942 Y23.929 Z7.700
G1 X50.772 Y23.929 Z7.700
G1 X50.772 Y26.305 Z7.700
G1 X56.568 Y32.100 Z7.700
G1 X54.022 Y32.100 Z7.700
G1 X50.295 Y28.373 Z7.700
G3 X49.407 Y28.352 Z7.700 I-0.426 J-0.782 K0.000
G1 X47.212 Y27.027 Z7.700
G3 X46.777 Y26.256 Z7.700 I0.465 J-0.770 K0.000
G1 X46.777 Y24.855 Z7.700
G1 X45.817 Y23.895 Z7.700
G3 X45.193 Y23.270 Z7.700 I0.235 J-0.860 K0.000
G1 X44.279 Y22.357 Z7.700
G1 X44.279 Y24.903 Z7.700
G1 X51.477 Y32.100 Z7.700
G1 X48.931 Y32.100 Z7.700
G1 X44.279 Y27.448 Z7.700
G3 X44.249 Y28.233 Z7.700 I-2.996 J0.276 K0.000
G3 X43.185 Y28.900 Z7.700 I-0.903 J-0.259 K0.000
G1 X46.385 Y32.100 Z7.700
G1 X43.840 Y32.100 Z7.700
G1 X40.418 Y28.678 Z7.700
G3 X40.322 Y28.582 Z7.700 I0.131 J-0.228 K0.000
G1 X36.900 Y25.160 Z7.700
G1 X36.900 Y27.706 Z7.700
G1 X41.294 Y32.100 Z7.700
G1 X38.749 Y32.100 Z7.700
G1 X36.900 Y32.100 Z7.700
G1 X36.900 Y30.251 Z7.700
G1 X38.749 Y32.100 Z7.700
G0 Z14.500
G0 X36.900 Y25.160 Z14.500
G0 X36.900 Y25.160 Z12.500
G1 X36.900 Y25.160 Z7.700
G1 X40.322 Y28.582 Z7.700
G3 X40.100 Y28.000 Z7.700 I0.592 J-0.559 K0.000
G1 X40.100 Y25.815 Z7.700
G1 X36.900 Y22.615 Z7.700
G1 X36.900 Y20.069 Z7.700
G1 X40.100 Y23.269 Z7.700
G1 X40.100 Y20.723 Z7.700
G1 X36.900 Y17.523 Z7.700
G1 X36.900 Y14.978 Z7.700
G1 X40.100 Y18.178 Z7.700
G1 X40.100 Y15.632 Z7.700
G1 X36.900 Y12.432 Z7.700
G1 X36.900 Y9.887 Z7.700
G1 X40.100 Y13.087 Z7.700
G1 X40.100 Y10.541 Z7.700
G1 X36.900 Y7.341 Z7.700
G1 X36.900 Y4.795 Z7.700
G1 X41.205 Y9.100 Z7.700
G1 X43.379 Y9.100 Z7.700
G3 X44.008 Y9.358 Z7.700 I0.001 J0.894 K0.000
G1 X38.550 Y3.900 Z7.700
G1 X41.096 Y3.900 Z7.700
G1 X47.474 Y10.279 Z7.700
G3 X48.948 Y9.207 Z7.700 I2.501 J1.892 K0.000
G1 X43.641 Y3.900 Z7.700
G1 X46.187 Y3.900 Z7.700
G1 X51.252 Y8.965 Z7.700
G0 Z14.500
G0 X44.022 Y9.372 Z14.500
G0 X44.022 Y9.372 Z12.500
G1 X44.022 Y9.372 Z7.700
G1 X46.840 Y12.190 Z7.700
G2 X46.777 Y14.673 Z7.700 I22.629 J1.817 K0.000
G1 X44.279 Y12.175 Z7.700
G1 X44.279 Y14.720 Z7.700
G1 X46.777 Y17.218 Z7.700
G1 X46.777 Y19.764 Z7.700
G1 X44.279 Y17.266 Z7.700
G1 X44.279 Y19.811 Z7.700
G1 X45.303 Y20.835 Z7.700
G2 X45.158 Y21.315 Z7.700 I0.709 J0.474 K0.000
G1 X45.158 Y23.029 Z7.700
G2 X45.193 Y23.270 Z7.700 I0.467 J0.057 K0.000
G1 X44.279 Y22.357 Z7.700
G0 Z14.500
G0 X45.817 Y23.895 Z14.500
G0 X45.817 Y23.895 Z12.500
G1 X45.817 Y23.895 Z7.700
G1 X46.777 Y24.855 Z7.700
G1 X46.777 Y23.929 Z7.700
G3 X45.817 Y23.895 Z7.700 I-0.359 J-3.412 K0.000
G0 Z14.500
G0 X61.000 Y23.805 Z14.500
G0 X61.000 Y23.805 Z12.500
G1 X61.000 Y23.805 Z7.700
G2 X61.634 Y23.498 Z7.700 I-1.410 J-3.725 K0.000
G1 X61.634 Y24.439 Z7.700
G1 X61.000 Y23.805 Z7.700
G3 X58.836 Y24.186 Z7.700 I-1.997 J-4.997 K0.000
G1 X61.634 Y26.984 Z7.700
G0 Z14.500
G0 X66.750 Y32.100 Z14.500
G0 X66.750 Y32.100 Z12.500
G1 X66.750 Y32.100 Z7.700
G1 X63.550 Y28.900 Z7.700
G1 X64.730 Y28.900 Z7.700
G2 X65.549 Y28.353 Z7.700 I0.006 J-0.879 K0.000
G1 X69.296 Y32.100 Z7.700
G1 X71.841 Y32.100 Z7.700
G1 X65.630 Y25.888 Z7.700
G1 X65.630 Y23.343 Z7.700
G1 X74.387 Y32.100 Z7.700
G1 X76.932 Y32.100 Z7.700
G1 X65.630 Y20.797 Z7.700
G1 X65.630 Y18.252 Z7.700
G1 X66.898 Y19.520 Z7.700
G2 X71.242 Y23.864 Z7.700 I6.092 J-1.747 K0.000
G1 X79.478 Y32.100 Z7.700
G1 X82.024 Y32.100 Z7.700
G1 X74.093 Y24.169 Z7.700
G2 X76.181 Y23.712 Z7.700 I-0.450 J-7.053 K0.000
G1 X84.569 Y32.100 Z7.700
G1 X87.115 Y32.100 Z7.700
G1 X77.811 Y22.796 Z7.700
G2 X79.072 Y21.511 Z7.700 I-3.598 J-4.794 K0.000
G1 X89.660 Y32.100 Z7.700
G1 X92.206 Y32.100 Z7.700
G1 X84.035 Y23.929 Z7.700
G1 X82.174 Y23.929 Z7.700
G3 X81.274 Y23.029 Z7.700 I-0.000 J-0.900 K0.000
G1 X81.274 Y21.168 Z7.700
G1 X79.963 Y19.857 Z7.700
G2 X80.240 Y18.947 Z7.700 I-4.726 J-1.935 K0.000
G2 X80.428 Y17.776 Z7.700 I-9.358 J-2.100 K0.000
G1 X81.274 Y18.622 Z7.700
G1 X81.274 Y16.077 Z7.700
G1 X80.406 Y15.208 Z7.700
G0 Z14.500
G0 X85.266 Y9.887 Z14.500
G0 X85.266 Y9.887 Z12.500
G1 X85.266 Y9.887 Z7.700
G1 X89.650 Y14.270 Z7.700
G1 X89.650 Y16.816 Z7.700
G1 X85.281 Y12.447 Z7.700
G1 X85.281 Y14.993 Z7.700
G1 X89.547 Y19.258 Z7.700
G3 X88.207 Y20.465 Z7.700 I-1.448 J-0.261 K0.000
G3 X85.769 Y19.545 Z7.700 I-0.419 J-2.581 K0.000
G3 X85.301 Y17.558 Z7.700 I3.501 J-1.875 K0.000
G1 X88.207 Y20.465 Z7.700
G0 Z14.500
G0 X65.630 Y18.252 Z14.500
G0 X65.630 Y18.252 Z12.500
G1 X65.630 Y18.252 Z7.700
G1 X66.898 Y19.520 Z7.700
G3 X66.482 Y16.558 Z7.700 I9.127 J-2.792 K0.000
G1 X65.630 Y15.706 Z7.700
G1 X65.630 Y13.160 Z7.700
G1 X66.704 Y14.234 Z7.700
G3 X67.362 Y12.347 Z7.700 I7.738 J1.639 K0.000
G1 X65.630 Y10.615 Z7.700
G1 X65.630 Y10.615 Z6.400
G1 X67.362 Y12.347 Z6.400
G2 X66.704 Y14.234 Z6.400 I7.080 J3.526 K0.000
G1 X65.630 Y13.160 Z6.400
G1 X65.630 Y15.706 Z6.400
G1 X66.482 Y16.558 Z6.400
G2 X66.898 Y19.520 Z6.400 I9.543 J0.170 K0.000
G1 X65.630 Y18.252 Z6.400
G0 Z14.500
G0 X61.000 Y23.805 Z14.500
G0 X61.000 Y23.805 Z12.500
G1 X61.000 Y23.805 Z6.400
G2 X61.634 Y23.498 Z6.400 I-1.410 J-3.725 K0.000
G1 X61.634 Y24.439 Z6.400
G1 X61.000 Y23.805 Z6.400
G3 X58.836 Y24.186 Z6.400 I-1.997 J-4.997 K0.000
G1 X61.634 Y26.984 Z6.400
G0 Z14.500
G0 X66.750 Y32.100 Z14.500
G0 X66.750 Y32.100 Z12.500
G1 X66.750 Y32.100 Z6.400
G1 X63.550 Y28.900 Z6.400
G1 X64.730 Y28.900 Z6.400
G2 X65.549 Y28.353 Z6.400 I0.006 J-0.879 K0.000
G1 X69.296 Y32.100 Z6.400
G1 X71.841 Y32.100 Z6.400
G1 X65.630 Y25.888 Z6.400
G1 X65.630 Y23.343 Z6.400
G1 X74.387 Y32.100 Z6.400
G1 X76.932 Y32.100 Z6.400
G1 X65.630 Y20.797 Z6.400
G1 X65.630 Y18.252 Z6.400
G1 X66.898 Y19.520 Z6.400
G2 X71.242 Y23.864 Z6.400 I6.092 J-1.747 K0.000
G1 X79.478 Y32.100 Z6.400
G1 X82.024 Y32.100 Z6.400
G1 X74.093 Y24.169 Z6.400
G2 X76.181 Y23.712 Z6.400 I-0.450 J-7.053 K0.000
G1 X84.569 Y32.100 Z6.400
G1 X87.115 Y32.100 Z6.400
G1 X77.811 Y22.796 Z6.400
G2 X79.072 Y21.511 Z6.400 I-3.598 J-4.794 K0.000
G1 X89.660 Y32.100 Z6.400
G1 X92.206 Y32.100 Z6.400
G1 X84.035 Y23.929 Z6.400
G1 X82.174 Y23.929 Z6.400
G3 X81.274 Y23.029 Z6.400 I-0.000 J-0.900 K0.000
G1 X81.274 Y21.168 Z6.400
G1 X79.963 Y19.857 Z6.400
G2 X80.240 Y18.947 Z6.400 I-4.726 J-1.935 K0.000
G2 X80.428 Y17.776 Z6.400 I-9.358 J-2.100 K0.000
G1 X81.274 Y18.622 Z6.400
G1 X81.274 Y16.077 Z6.400
G1 X80.406 Y15.208 Z6.400
G0 Z14.500
G0 X85.266 Y9.887 Z14.500
G0 X85.266 Y9.887 Z12.500
G1 X85.266 Y9.887 Z6.400
G1 X89.650 Y14.270 Z6.400
G1 X89.650 Y16.816 Z6.400
G1 X85.281 Y12.447 Z6.400
G1 X85.281 Y14.993 Z6.400
G1 X89.547 Y19.258 Z6.400
G3 X88.207 Y20.465 Z6.400 I-1.448 J-0.261 K0.000
G3 X85.769 Y19.545 Z6.400 I-0.419 J-2.581 K0.000
G3 X85.301 Y17.558 Z6.400 I3.501 J-1.875 K0.000
G1 X88.207 Y20.465 Z6.400
G0 Z14.500
G0 X92.116 Y9.100 Z14.500
G0 X92.116 Y9.100 Z12.500
G1 X92.116 Y9.100 Z6.400
G1 X86.916 Y3.900 Z6.400
G1 X84.371 Y3.900 Z6.400
G1 X89.879 Y9.408 Z6.400
G2 X89.650 Y10.000 Z6.400 I0.637 J0.587 K0.000
G1 X89.650 Y11.725 Z6.400
G1 X81.825 Y3.900 Z6.400
G1 X79.279 Y3.900 Z6.400
G1 X84.494 Y9.115 Z6.400
G1 X84.381 Y9.100 Z6.400
G1 X82.174 Y9.100 Z6.400
G1 X81.962 Y9.128 Z6.400
G1 X76.734 Y3.900 Z6.400
G1 X74.188 Y3.900 Z6.400
G1 X81.274 Y10.985 Z6.400
G1 X81.274 Y13.531 Z6.400
G1 X71.643 Y3.900 Z6.400
G1 X69.097 Y3.900 Z6.400
G1 X74.064 Y8.867 Z6.400
G2 X71.691 Y9.039 Z6.400 I-0.646 J7.535 K0.000
G1 X66.552 Y3.900 Z6.400
G1 X64.006 Y3.900 Z6.400
G1 X69.850 Y9.744 Z6.400
G2 X68.419 Y10.859 Z6.400 I3.134 J5.497 K0.000
G1 X61.460 Y3.900 Z6.400
G1 X58.915 Y3.900 Z6.400
G1 X64.115 Y9.100 Z6.400
G1 X62.682 Y9.100 Z6.400
G2 X61.953 Y9.484 Z6.400 I-0.009 J0.866 K0.000
G1 X56.369 Y3.900 Z6.400
G1 X53.824 Y3.900 Z6.400
G1 X58.778 Y8.854 Z6.400
G2 X56.692 Y9.314 Z6.400 I0.104 J5.431 K0.000
G1 X51.278 Y3.900 Z6.400
G1 X48.732 Y3.900 Z6.400
G1 X55.106 Y10.273 Z6.400
G2 X53.900 Y11.613 Z6.400 I3.713 J4.556 K0.000
G1 X53.177 Y10.890 Z6.400
G1 X52.980 Y12.094 Z6.400
G3 X52.491 Y12.750 Z6.400 I-0.863 J-0.134 K0.000
G1 X53.055 Y13.314 Z6.400
G2 X52.593 Y15.397 Z6.400 I7.756 J2.813 K0.000
G1 X50.773 Y13.578 Z6.400
G2 X50.772 Y16.122 Z6.400 I172.422 J1.324 K0.000
G1 X52.640 Y17.990 Z6.400
G2 X54.401 Y22.226 Z6.400 I7.697 J-0.716 K0.000
G2 X58.836 Y24.186 Z6.400 I4.447 J-4.065 K0.000
G1 X61.634 Y26.984 Z6.400
G1 X61.634 Y28.000 Z6.400
G2 X62.534 Y28.900 Z6.400 I0.900 J0.000 K0.000
G1 X63.550 Y28.900 Z6.400
G1 X66.750 Y32.100 Z6.400
G1 X64.205 Y32.100 Z6.400
G1 X50.772 Y18.668 Z6.400
G1 X50.772 Y20.415 Z6.400
G1 X52.092 Y20.415 Z6.400
G3 X52.992 Y21.315 Z6.400 I0.000 J0.900 K0.000
G1 X52.992 Y23.029 Z6.400
G3 X52.920 Y23.361 Z6.400 I-0.656 J0.032 K0.000
G1 X61.659 Y32.100 Z6.400
G1 X59.113 Y32.100 Z6.400
G1 X50.942 Y23.929 Z6.400
G1 X50.772 Y23.929 Z6.400
G1 X50.772 Y26.305 Z6.400
G1 X56.568 Y32.100 Z6.400
G1 X54.022 Y32.100 Z6.400
G1 X50.295 Y28.373 Z6.400
G3 X49.407 Y28.352 Z6.400 I-0.426 J-0.782 K0.000
G1 X47.212 Y27.027 Z6.400
G3 X46.777 Y26.256 Z6.400 I0.465 J-0.770 K0.000
G1 X46.777 Y24.855 Z6.400
G1 X45.817 Y23.895 Z6.400
G3 X45.193 Y23.270 Z6.400 I0.235 J-0.860 K0.000
G1 X44.279 Y22.357 Z6.400
G1 X44.279 Y24.903 Z6.400
G1 X51.477 Y32.100 Z6.400
G1 X48.931 Y32.100 Z6.400
G1 X44.279 Y27.448 Z6.400
G3 X44.249 Y28.233 Z6.400 I-2.996 J0.276 K0.000
G3 X43.185 Y28.900 Z6.400 I-0.903 J-0.259 K0.000
G1 X46.385 Y32.100 Z6.400
G1 X43.840 Y32.100 Z6.400
G1 X40.418 Y28.678 Z6.400
G3 X40.322 Y28.582 Z6.400 I0.131 J-0.228 K0.000
G1 X36.900 Y25.160 Z6.400
G1 X36.900 Y27.706 Z6.400
G1 X41.294 Y32.100 Z6.400
G1 X38.749 Y32.100 Z6.400
G1 X36.900 Y32.100 Z6.400
G1 X36.900 Y30.251 Z6.400
G1 X38.749 Y32.100 Z6.400
G0 Z14.500
G0 X36.900 Y25.160 Z14.500
G0 X36.900 Y25.160 Z12.500
G1 X36.900 Y25.160 Z6.400
G1 X40.322 Y28.582 Z6.400
G3 X40.100 Y28.000 Z6.400 I0.592 J-0.559 K0.000
G1 X40.100 Y25.815 Z6.400
G1 X36.900 Y22.615 Z6.400
G1 X36.900 Y20.069 Z6.400
G1 X40.100 Y23.269 Z6.400
G1 X40.100 Y20.723 Z6.400
G1 X36.900 Y17.523 Z6.400
G1 X36.900 Y14.978 Z6.400
G1 X40.100 Y18.178 Z6.400
G1 X40.100 Y15.632 Z6.400
G1 X36.900 Y12.432 Z6.400
G1 X36.900 Y9.887 Z6.400
G1 X40.100 Y13.087 Z6.400
G1 X40.100 Y10.541 Z6.400
G1 X36.900 Y7.341 Z6.400
G1 X36.900 Y4.795 Z6.400
G1 X41.205 Y9.100 Z6.400
G1 X43.379 Y9.100 Z6.400
G3 X44.008 Y9.358 Z6.400 I0.001 J0.894 K0.000
G1 X38.550 Y3.900 Z6.400
G1 X41.096 Y3.900 Z6.400
G1 X47.474 Y10.279 Z6.400
G3 X48.948 Y9.207 Z6.400 I2.501 J1.892 K0.000
G1 X43.641 Y3.900 Z6.400
G1 X46.187 Y3.900 Z6.400
G1 X51.252 Y8.965 Z6.400
G0 Z14.500
G0 X44.022 Y9.372 Z14.500
G0 X44.022 Y9.372 Z12.500
G1 X44.022 Y9.372 Z6.400
G1 X46.840 Y12.190 Z6.400
G2 X46.777 Y14.673 Z6.400 I22.629 J1.817 K0.000
G1 X44.279 Y12.175 Z6.400
G1 X44.279 Y14.720 Z6.400
G1 X46.777 Y17.218 Z6.400
G1 X46.777 Y19.764 Z6.400
G1 X44.279 Y17.266 Z6.400
G1 X44.279 Y19.811 Z6.400
G1 X45.303 Y20.835 Z6.400
G2 X45.158 Y21.315 Z6.400 I0.709 J0.474 K0.000
G1 X45.158 Y23.029 Z6.400
G2 X45.193 Y23.270 Z6.400 I0.467 J0.057 K0.000
G1 X44.279 Y22.357 Z6.400
G0 Z14.500
G0 X45.817 Y23.895 Z14.500
G0 X45.817 Y23.895 Z12.500
G1 X45.817 Y23.895 Z6.400
G1 X46.777 Y24.855 Z6.400
G1 X46.777 Y23.929 Z6.400
G3 X45.817 Y23.895 Z6.400 I-0.359 J-3.412 K0.000
G0 Z14.500
G0 X92.206 Y32.100 Z14.500
G0 X92.206 Y32.100 Z12.500
G1 X92.206 Y32.100 Z6.400
G1 X84.035 Y23.929 Z6.400
G2 X85.026 Y23.272 Z6.400 I0.110 J-0.910 K0.000
G2 X86.633 Y23.981 Z6.400 I2.760 J-4.082 K0.000
G1 X94.752 Y32.100 Z6.400
G1 X97.297 Y32.100 Z6.400
G1 X89.308 Y24.111 Z6.400
G2 X91.231 Y23.488 Z6.400 I-0.669 J-5.342 K0.000
G1 X99.843 Y32.100 Z6.400
G1 X102.388 Y32.100 Z6.400
G1 X92.634 Y22.343 Z6.400
G2 X93.439 Y20.605 Z6.400 I-3.850 J-2.837 K0.000
G1 X104.934 Y32.100 Z6.400
G1 X107.479 Y32.100 Z6.400
G1 X99.405 Y24.026 Z6.400
G3 X96.894 Y22.779 Z6.400 I1.261 J-5.694 K0.000
G3 X94.806 Y19.427 Z6.400 I4.635 J-5.213 K0.000
G1 X93.654 Y18.275 Z6.400
G2 X93.657 Y15.732 Z6.400 I-110.314 J-1.411 K0.000
G1 X94.402 Y16.477 Z6.400
G3 X94.686 Y14.215 Z6.400 I9.095 J-0.007 K0.000
G1 X93.657 Y13.187 Z6.400
G1 X93.657 Y10.641 Z6.400
G1 X95.408 Y12.392 Z6.400
G3 X96.467 Y10.905 Z6.400 I6.203 J3.300 K0.000
G1 X95.276 Y9.714 Z6.400
G3 X94.963 Y9.401 Z6.400 I0.323 J-0.636 K0.000
G1 X89.462 Y3.900 Z6.400
G1 X92.007 Y3.900 Z6.400
G1 X95.133 Y7.026 Z6.400
G3 X96.133 Y5.480 Z6.400 I3.666 J1.273 K0.000
G1 X94.553 Y3.900 Z6.400
G1 X97.099 Y3.900 Z6.400
G1 X97.670 Y4.471 Z6.400
G3 X99.684 Y3.939 Z6.400 I2.801 J6.526 K0.000
G1 X99.644 Y3.900 Z6.400
G1 X100.234 Y3.900 Z6.400
G2 X99.684 Y3.939 Z6.400 I0.010 J4.003 K0.000
G0 Z14.500
G0 X101.654 Y3.900 Z14.500
G0 X101.654 Y3.900 Z12.500
G1 X101.654 Y3.900 Z6.400
G1 X102.190 Y3.900 Z6.400
G1 X102.260 Y3.970 Z6.400
G2 X101.654 Y3.900 Z6.400 I-0.686 J3.258 K0.000
G0 Z14.500
G0 X100.722 Y7.524 Z14.500
G0 X100.722 Y7.524 Z12.500
G1 X100.722 Y7.524 Z6.400
G3 X102.606 Y7.876 Z6.400 I0.309 J3.565 K0.000
G3 X103.584 Y9.769 Z6.400 I-1.271 J1.855 K0.000
G2 X102.532 Y9.333 Z6.400 I-2.217 J3.863 K0.000
G1 X100.722 Y7.524 Z6.400
G2 X99.147 Y7.958 Z6.400 I-0.117 J2.647 K0.000
G2 X98.921 Y8.268 Z6.400 I0.514 J0.612 K0.000
G1 X99.837 Y9.184 Z6.400
G2 X97.911 Y9.804 Z6.400 I0.667 J5.379 K0.000
G1 X97.686 Y9.578 Z6.400
G1 X95.870 Y9.844 Z6.400
G3 X95.276 Y9.714 Z6.400 I-0.158 J-0.699 K0.000
G1 X96.467 Y10.905 Z6.400
G0 Z14.500
G0 X104.003 Y23.532 Z14.500
G0 X104.003 Y23.532 Z12.500
G1 X104.003 Y23.532 Z6.400
G3 X103.910 Y23.354 Z6.400 I0.286 J-0.262 K0.000
G1 X103.858 Y23.387 Z6.400
G3 X104.105 Y23.665 Z6.400 I-0.934 J1.080 K0.000
G1 X104.238 Y23.768 Z6.400
G1 X112.571 Y32.100 Z6.400
G1 X110.025 Y32.100 Z6.400
G1 X102.010 Y24.085 Z6.400
G3 X99.405 Y24.026 Z6.400 I-1.157 J-6.377 K0.000
G1 X107.479 Y32.100 Z6.400
G0 Z14.500
G0 X112.571 Z14.500
G0 X112.571 Z12.500
G1 X112.571 Y32.100 Z6.400
G1 X104.238 Y23.768 Z6.400
G2 X104.742 Y23.929 Z6.400 I0.447 J-0.527 K0.000
G1 X106.777 Y23.929 Z6.400
G1 X106.926 Y23.910 Z6.400
G1 X115.116 Y32.100 Z6.400
G1 X117.662 Y32.100 Z6.400
G1 X107.677 Y22.116 Z6.400
G1 X107.677 Y19.570 Z6.400
G1 X120.207 Y32.100 Z6.400
G1 X122.753 Y32.100 Z6.400
G1 X114.816 Y24.163 Z6.400
G3 X110.278 Y22.111 Z6.400 I0.319 J-6.749 K0.000
G3 X108.465 Y17.812 Z6.400 I5.341 J-4.784 K0.000
G1 X107.677 Y17.024 Z6.400
G1 X107.677 Y14.479 Z6.400
G1 X108.457 Y15.259 Z6.400
G3 X108.921 Y13.177 Z6.400 I8.390 J0.778 K0.000
G1 X107.677 Y11.933 Z6.400
G2 X107.522 Y9.232 Z6.400 I-21.013 J-0.148 K0.000
G1 X109.800 Y11.510 Z6.400
G3 X111.057 Y10.222 Z6.400 I4.601 J3.235 K0.000
G1 X104.735 Y3.900 Z6.400
G1 X107.281 Y3.900 Z6.400
G1 X112.695 Y9.315 Z6.400
G3 X114.787 Y8.861 Z6.400 I2.469 J6.335 K0.000
G1 X109.826 Y3.900 Z6.400
G1 X112.372 Y3.900 Z6.400
G1 X117.648 Y9.176 Z6.400
G0 Z14.500
G0 X125.100 Y3.900 Z14.500
G0 X125.100 Y3.900 Z12.500
G1 X125.100 Y3.900 Z6.400
G1 X125.100 Y6.446 Z6.400
G1 X122.554 Y3.900 Z6.400
G1 X120.009 Y3.900 Z6.400
G1 X125.100 Y8.991 Z6.400
G1 X125.100 Y11.537 Z6.400
G1 X117.463 Y3.900 Z6.400
G1 X114.918 Y3.900 Z6.400
G1 X125.100 Y14.082 Z6.400
G1 X125.100 Y16.628 Z6.400
G1 X122.007 Y13.535 Z6.400
G3 X122.391 Y16.464 Z6.400 I-9.512 J2.736 K0.000
G1 X125.100 Y19.174 Z6.400
G1 X125.100 Y21.719 Z6.400
G1 X122.180 Y18.799 Z6.400
G3 X121.508 Y20.673 Z6.400 I-6.470 J-1.264 K0.000
G1 X125.100 Y24.265 Z6.400
G1 X125.100 Y26.810 Z6.400
G1 X120.446 Y22.156 Z6.400
G3 X119.020 Y23.276 Z6.400 I-4.732 J-4.559 K0.000
G1 X125.100 Y29.356 Z6.400
G1 X125.100 Y31.901 Z6.400
G1 X117.186 Y23.988 Z6.400
G3 X114.816 Y24.163 Z6.400 I-1.731 J-7.308 K0.000
G1 X122.753 Y32.100 Z6.400
G0 Z14.500
G0 Z14.500
(Finish operation: Pocket_Shape)
(Begin postamble)
M5
G17 G90
M2
