; generated by PrusaSlicer 2.6.0+MacOS-x64 on 2023-07-29 at 13:34:10 UTC

; 

; external perimeters extrusion width = 0.45mm
; perimeters extrusion width = 0.45mm
; infill extrusion width = 0.45mm
; solid infill extrusion width = 0.45mm
; top infill extrusion width = 0.40mm
; support material extrusion width = 0.40mm
; first layer extrusion width = 0.60mm

M201 X2500 Y2500 Z800 E2500 ; sets maximum accelerations, mm/sec^2
M203 X300 Y250 Z8 E80 ; sets maximum feedrates, mm / sec
M204 S2500 T2500 ; sets acceleration (S) and retract acceleration (R), mm/sec^2
M205 X15.00 Y10.00 Z2.00 E10.00 ; sets the jerk limits, mm/sec
M205 S0 T0 ; sets the minimum extruding and travel feed rate, mm/sec
;TYPE:Custom
G90 ; use absolute coordinates
M83 ; extruder relative mode
M104 S215 ; set extruder temp
M140 S60 ; set bed temp
M190 S60 ; wait for bed temp
M109 S215 ; wait for extruder temp
G28                                        ; move X/Y/Z to min endstops
G1 Z0.28                                   ; lift nozzle a bit 
G92 E0 
G1 Y3 F1800                                    ; zero the extruded length 
G1 X60  E25 F500                       ; Extrude 25mm of filament in a 5cm line. 
G92 E0                                     ; zero the extruded length again 
G1 E-2 F500                                ; Retract a little 
G1 X70 F4000                              ; Quickly wipe away from the filament line
M117
G21 ; set units to millimeters
G90 ; use absolute coordinates
M82 ; use absolute distances for extrusion
G92 E0
M107
;LAYER_CHANGE
;Z:0.3
;HEIGHT:0.3
; BEFORE_LAYER_CHANGE 0 @ 0.3mm
G1 E-2 F4800
G92 E0
G1 Z.3 F9000
; AFTER_LAYER_CHANGE 0 @ 0.3mm
G1 X4.475 Y175.217
G1 E2 F4800
;TYPE:Support material
;WIDTH:0.6
G1 F2999.946
G1 X4.783 Y175.525 E2.0291
G1 X225.217 Y175.525 E16.75528
G1 X225.525 Y175.217 E16.78438
G1 X225.525 Y172.12 E16.99128
G1 X229.305 Y172.12 E17.2438
G1 X229.305 Y176.427 Z.3 E17.53153
G1 F3000
G1 X229.305 Y180.734 Z.3 E17.81926
G1 F2999.993
G1 X224.523 Y180.734 Z.3 E18.13874
G1 X219.74 Y180.734 Z.3 E18.45823
G1 X214.958 Y180.734 Z.3 E18.77771
G1 X210.176 Y180.734 Z.3 E19.0972
G1 X205.393 Y180.734 Z.3 E19.41668
G1 X200.611 Y180.734 Z.3 E19.73616
G1 F3000
G1 X.695 Y180.734 Z.3 E33.09165
G1 F2999.977
G1 X.695 Y176.427 Z.3 E33.37938
G1 X.695 Y172.12 Z.3 E33.66711
G1 X4.475 Y172.12 E33.91963
G1 X4.475 Y175.137 E34.12118
G1 E32.72118 F4800
;WIPE_START
G1 F7200
G1 X4.475 Y174.19 E32.12118
;WIPE_END
G92 E0
G1 X228.67 Y180.493 F9000
G1 E2 F4800
G1 F3000
G1 X228.67 Y172.602 E2.52716
G1 F2999.934
G1 X228.075 Y172.602 E2.56691
G1 X228.075 Y180.252 E3.07797
G1 X227.48 Y180.252 E3.11772
G1 X227.48 Y172.602 E3.62878
G1 X226.885 Y172.602 E3.66853
G1 X226.885 Y180.252 E4.17959
G1 X226.29 Y180.252 E4.21934
G1 X226.29 Y172.602 E4.7304
G1 X226.007 Y172.602 E4.74931
G1 X226.007 Y175.417 E4.93737
G1 X225.695 Y175.73 E4.96689
G1 X225.695 Y180.252 E5.26898
G1 X225.099 Y180.252 E5.3088
G1 X225.099 Y176.007 E5.59239
G1 X224.504 Y176.007 E5.63214
G1 X224.504 Y180.252 E5.91573
G1 X223.909 Y180.252 E5.95548
G1 X223.909 Y176.007 E6.23907
G1 X223.314 Y176.007 E6.27882
G1 X223.314 Y180.252 E6.56241
G1 X222.719 Y180.252 E6.60216
G1 X222.719 Y176.007 E6.88575
G1 X222.124 Y176.007 E6.9255
G1 X222.124 Y180.252 E7.20909
G1 X221.529 Y180.252 E7.24884
G1 X221.529 Y176.007 E7.53243
G1 X220.933 Y176.007 E7.57225
G1 X220.933 Y180.252 E7.85584
G1 X220.338 Y180.252 E7.89559
G1 X220.338 Y176.007 E8.17918
G1 X219.743 Y176.007 E8.21893
G1 X219.743 Y180.252 E8.50252
G1 X219.148 Y180.252 E8.54227
G1 X219.148 Y176.007 E8.82586
G1 X218.553 Y176.007 E8.86561
G1 X218.553 Y180.252 E9.1492
G1 X217.958 Y180.252 E9.18895
G1 X217.958 Y176.007 E9.47254
G1 X217.363 Y176.007 E9.51229
G1 X217.363 Y180.252 E9.79588
G1 X216.768 Y180.252 E9.83563
G1 X216.768 Y176.007 E10.11922
G1 X216.172 Y176.007 E10.15904
G1 X216.172 Y180.252 E10.44263
G1 X215.577 Y180.252 E10.48238
G1 X215.577 Y176.007 E10.76597
G1 X214.982 Y176.007 E10.80572
G1 X214.982 Y180.252 E11.08931
G1 X214.387 Y180.252 E11.12906
G1 X214.387 Y176.007 E11.41265
G1 X213.792 Y176.007 E11.4524
G1 X213.792 Y180.252 E11.73599
G1 X213.197 Y180.252 E11.77574
G1 X213.197 Y176.007 E12.05933
G1 X212.602 Y176.007 E12.09908
G1 X212.602 Y180.252 E12.38267
G1 X212.007 Y180.252 E12.42242
G1 X212.007 Y176.007 E12.70601
G1 X211.411 Y176.007 E12.74583
G1 X211.411 Y180.252 E13.02942
G1 X210.816 Y180.252 E13.06917
G1 X210.816 Y176.007 E13.35276
G1 X210.221 Y176.007 E13.39251
G1 X210.221 Y180.252 E13.6761
G1 X209.626 Y180.252 E13.71585
G1 X209.626 Y176.007 E13.99944
G1 X209.031 Y176.007 E14.03919
G1 X209.031 Y180.252 E14.32278
G1 X208.436 Y180.252 E14.36253
G1 X208.436 Y176.007 E14.64612
G1 X207.841 Y176.007 E14.68587
G1 X207.841 Y180.252 E14.96946
G1 X207.245 Y180.252 E15.00928
G1 X207.245 Y176.007 E15.29287
G1 X206.65 Y176.007 E15.33262
G1 X206.65 Y180.252 E15.61621
G1 X206.055 Y180.252 E15.65596
G1 X206.055 Y176.007 E15.93955
G1 X205.46 Y176.007 E15.9793
G1 X205.46 Y180.252 E16.26289
G1 X204.865 Y180.252 E16.30264
G1 X204.865 Y176.007 E16.58623
G1 X204.27 Y176.007 E16.62598
G1 X204.27 Y180.252 E16.90957
G1 X203.675 Y180.252 E16.94932
G1 X203.675 Y176.007 E17.23291
G1 X203.08 Y176.007 E17.27266
G1 X203.08 Y180.252 E17.55625
G1 X202.484 Y180.252 E17.59607
G1 X202.484 Y176.007 E17.87966
G1 X201.889 Y176.007 E17.91941
G1 X201.889 Y180.252 E18.203
G1 X201.294 Y180.252 E18.24275
G1 X201.294 Y176.007 E18.52634
G1 X200.699 Y176.007 E18.56609
G1 X200.699 Y180.252 E18.84968
G1 X200.104 Y180.252 E18.88943
G1 X200.104 Y176.007 E19.17302
G1 X199.509 Y176.007 E19.21277
G1 X199.509 Y180.252 E19.49636
G1 X198.914 Y180.252 E19.53611
G1 X198.914 Y176.007 E19.8197
G1 X198.318 Y176.007 E19.85952
G1 X198.318 Y180.252 E20.14311
G1 X197.723 Y180.252 E20.18286
G1 X197.723 Y176.007 E20.46645
G1 X197.128 Y176.007 E20.5062
G1 X197.128 Y180.252 E20.78979
G1 X196.533 Y180.252 E20.82954
G1 X196.533 Y176.007 E21.11313
G1 X195.938 Y176.007 E21.15288
G1 X195.938 Y180.252 E21.43647
G1 X195.343 Y180.252 E21.47622
G1 X195.343 Y176.007 E21.75981
G1 X194.748 Y176.007 E21.79956
G1 X194.748 Y180.252 E22.08315
G1 X194.153 Y180.252 E22.1229
G1 X194.153 Y176.007 E22.40649
G1 X193.557 Y176.007 E22.44631
G1 X193.557 Y180.252 E22.7299
G1 X192.962 Y180.252 E22.76965
G1 X192.962 Y176.007 E23.05324
G1 X192.367 Y176.007 E23.09299
G1 X192.367 Y180.252 E23.37658
G1 X191.772 Y180.252 E23.41633
G1 X191.772 Y176.007 E23.69992
G1 X191.177 Y176.007 E23.73967
G1 X191.177 Y180.252 E24.02326
G1 X190.582 Y180.252 E24.06301
G1 X190.582 Y176.007 E24.3466
G1 X189.987 Y176.007 E24.38635
G1 X189.987 Y180.252 E24.66994
G1 X189.391 Y180.252 E24.70976
G1 X189.391 Y176.007 E24.99335
G1 X188.796 Y176.007 E25.0331
G1 X188.796 Y180.252 E25.31669
G1 X188.201 Y180.252 E25.35644
G1 X188.201 Y176.007 E25.64003
G1 X187.606 Y176.007 E25.67978
G1 X187.606 Y180.252 E25.96337
G1 X187.011 Y180.252 E26.00312
G1 X187.011 Y176.007 E26.28671
G1 X186.416 Y176.007 E26.32646
G1 X186.416 Y180.252 E26.61005
G1 X185.821 Y180.252 E26.6498
G1 X185.821 Y176.007 E26.93339
G1 X185.226 Y176.007 E26.97314
G1 X185.226 Y180.252 E27.25673
G1 X184.63 Y180.252 E27.29655
G1 X184.63 Y176.007 E27.58014
G1 X184.035 Y176.007 E27.61989
G1 X184.035 Y180.252 E27.90348
G1 X183.44 Y180.252 E27.94323
G1 X183.44 Y176.007 E28.22682
G1 X182.845 Y176.007 E28.26657
G1 X182.845 Y180.252 E28.55016
G1 X182.25 Y180.252 E28.58991
G1 X182.25 Y176.007 E28.8735
G1 X181.655 Y176.007 E28.91325
G1 X181.655 Y180.252 E29.19684
G1 X181.06 Y180.252 E29.23659
G1 X181.06 Y176.007 E29.52018
G1 X180.465 Y176.007 E29.55993
G1 X180.465 Y180.252 E29.84352
G1 X179.869 Y180.252 E29.88334
G1 X179.869 Y176.007 E30.16693
G1 X179.274 Y176.007 E30.20668
G1 X179.274 Y180.252 E30.49027
G1 X178.679 Y180.252 E30.53002
G1 X178.679 Y176.007 E30.81361
G1 X178.084 Y176.007 E30.85336
G1 X178.084 Y180.252 E31.13695
G1 X177.489 Y180.252 E31.1767
G1 X177.489 Y176.007 E31.46029
G1 X176.894 Y176.007 E31.50004
G1 X176.894 Y180.252 E31.78363
G1 X176.299 Y180.252 E31.82338
G1 X176.299 Y176.007 E32.10697
G1 X175.703 Y176.007 E32.14679
G1 X175.703 Y180.252 E32.43038
G1 X175.108 Y180.252 E32.47013
G1 X175.108 Y176.007 E32.75372
G1 X174.513 Y176.007 E32.79347
G1 X174.513 Y180.252 E33.07706
G1 X173.918 Y180.252 E33.11681
G1 X173.918 Y176.007 E33.4004
G1 X173.323 Y176.007 E33.44015
G1 X173.323 Y180.252 E33.72374
G1 X172.728 Y180.252 E33.76349
G1 X172.728 Y176.007 E34.04708
G1 X172.133 Y176.007 E34.08683
G1 X172.133 Y180.252 E34.37042
G1 X171.538 Y180.252 E34.41017
G1 X171.538 Y176.007 E34.69376
G1 X170.942 Y176.007 E34.73358
G1 X170.942 Y180.252 E35.01717
G1 X170.347 Y180.252 E35.05692
G1 X170.347 Y176.007 E35.34051
G1 X169.752 Y176.007 E35.38026
G1 X169.752 Y180.252 E35.66385
G1 X169.157 Y180.252 E35.7036
G1 X169.157 Y176.007 E35.98719
G1 X168.562 Y176.007 E36.02694
G1 X168.562 Y180.252 E36.31053
G1 X167.967 Y180.252 E36.35028
G1 X167.967 Y176.007 E36.63387
G1 X167.372 Y176.007 E36.67362
G1 X167.372 Y180.252 E36.95721
G1 X166.776 Y180.252 E36.99703
G1 X166.776 Y176.007 E37.28062
G1 X166.181 Y176.007 E37.32037
G1 X166.181 Y180.252 E37.60396
G1 X165.586 Y180.252 E37.64371
G1 X165.586 Y176.007 E37.9273
G1 X164.991 Y176.007 E37.96705
G1 X164.991 Y180.252 E38.25064
G1 X164.396 Y180.252 E38.29039
G1 X164.396 Y176.007 E38.57398
G1 X163.801 Y176.007 E38.61373
G1 X163.801 Y180.252 E38.89732
G1 X163.206 Y180.252 E38.93707
G1 X163.206 Y176.007 E39.22066
G1 X162.611 Y176.007 E39.26041
G1 X162.611 Y180.252 E39.544
G1 X162.015 Y180.252 E39.58382
G1 X162.015 Y176.007 E39.86741
G1 X161.42 Y176.007 E39.90716
G1 X161.42 Y180.252 E40.19075
G1 X160.825 Y180.252 E40.2305
G1 X160.825 Y176.007 E40.51409
G1 X160.23 Y176.007 E40.55384
G1 X160.23 Y180.252 E40.83743
G1 X159.635 Y180.252 E40.87718
G1 X159.635 Y176.007 E41.16077
G1 X159.04 Y176.007 E41.20052
G1 X159.04 Y180.252 E41.48411
G1 X158.445 Y180.252 E41.52386
G1 X158.445 Y176.007 E41.80745
G1 X157.85 Y176.007 E41.8472
G1 X157.849 Y180.252 E42.13079
G1 X157.254 Y180.252 E42.17054
G1 X157.254 Y176.007 E42.45413
G1 X156.659 Y176.007 E42.49388
G1 X156.659 Y180.252 E42.77747
G1 X156.064 Y180.252 E42.81722
G1 X156.064 Y176.007 E43.10081
G1 X155.469 Y176.007 E43.14056
G1 X155.469 Y180.252 E43.42415
G1 X154.874 Y180.252 E43.4639
G1 X154.874 Y176.007 E43.74749
G1 X154.279 Y176.007 E43.78724
G1 X154.279 Y180.252 E44.07083
G1 X153.684 Y180.252 E44.11058
G1 X153.684 Y176.007 E44.39417
G1 X153.088 Y176.007 E44.43399
G1 X153.088 Y180.252 E44.71758
G1 X152.493 Y180.252 E44.75733
G1 X152.493 Y176.007 E45.04092
G1 X151.898 Y176.007 E45.08067
G1 X151.898 Y180.252 E45.36426
G1 X151.303 Y180.252 E45.40401
G1 X151.303 Y176.007 E45.6876
G1 X150.708 Y176.007 E45.72735
G1 X150.708 Y180.252 E46.01094
G1 X150.113 Y180.252 E46.05069
G1 X150.113 Y176.007 E46.33428
G1 X149.518 Y176.007 E46.37403
G1 X149.518 Y180.252 E46.65762
G1 X148.923 Y180.252 E46.69737
G1 X148.923 Y176.007 E46.98096
G1 X148.327 Y176.007 E47.02078
G1 X148.327 Y180.252 E47.30437
G1 X147.732 Y180.252 E47.34412
G1 X147.732 Y176.007 E47.62771
G1 X147.137 Y176.007 E47.66746
G1 X147.137 Y180.252 E47.95105
G1 X146.542 Y180.252 E47.9908
G1 X146.542 Y176.007 E48.27439
G1 X145.947 Y176.007 E48.31414
G1 X145.947 Y180.252 E48.59773
G1 X145.352 Y180.252 E48.63748
G1 X145.352 Y176.007 E48.92107
G1 X144.757 Y176.007 E48.96082
G1 X144.757 Y180.252 E49.24441
G1 X144.161 Y180.252 E49.28423
G1 X144.161 Y176.007 E49.56782
G1 X143.566 Y176.007 E49.60757
G1 X143.566 Y180.252 E49.89116
G1 X142.971 Y180.252 E49.93091
G1 X142.971 Y176.007 E50.2145
G1 X142.376 Y176.007 E50.25425
G1 X142.376 Y180.252 E50.53784
G1 X141.781 Y180.252 E50.57759
G1 X141.781 Y176.007 E50.86118
G1 X141.186 Y176.007 E50.90093
G1 X141.186 Y180.252 E51.18452
G1 X140.591 Y180.252 E51.22427
G1 X140.591 Y176.007 E51.50786
G1 X139.996 Y176.007 E51.54761
G1 X139.996 Y180.252 E51.8312
G1 X139.4 Y180.252 E51.87102
G1 X139.4 Y176.007 E52.15461
G1 X138.805 Y176.007 E52.19436
G1 X138.805 Y180.252 E52.47795
G1 X138.21 Y180.252 E52.5177
G1 X138.21 Y176.007 E52.80129
G1 X137.615 Y176.007 E52.84104
G1 X137.615 Y180.252 E53.12463
G1 X137.02 Y180.252 E53.16438
G1 X137.02 Y176.007 E53.44797
G1 X136.425 Y176.007 E53.48772
G1 X136.425 Y180.252 E53.77131
G1 X135.83 Y180.252 E53.81106
G1 X135.83 Y176.007 E54.09465
G1 X135.234 Y176.007 E54.13447
G1 X135.234 Y180.252 E54.41806
G1 X134.639 Y180.252 E54.45781
G1 X134.639 Y176.007 E54.7414
G1 X134.044 Y176.007 E54.78115
G1 X134.044 Y180.252 E55.06474
G1 X133.449 Y180.252 E55.10449
G1 X133.449 Y176.007 E55.38808
G1 X132.854 Y176.007 E55.42783
G1 X132.854 Y180.252 E55.71142
G1 X132.259 Y180.252 E55.75117
G1 X132.259 Y176.007 E56.03476
G1 X131.664 Y176.007 E56.07451
G1 X131.664 Y180.252 E56.3581
G1 X131.069 Y180.252 E56.39785
G1 X131.069 Y176.007 E56.68144
G1 X130.473 Y176.007 E56.72126
G1 X130.473 Y180.252 E57.00485
G1 X129.878 Y180.252 E57.0446
G1 X129.878 Y176.007 E57.32819
G1 X129.283 Y176.007 E57.36794
G1 X129.283 Y180.252 E57.65153
G1 X128.688 Y180.252 E57.69128
G1 X128.688 Y176.007 E57.97487
G1 X128.093 Y176.007 E58.01462
G1 X128.093 Y180.252 E58.29821
G1 X127.498 Y180.252 E58.33796
G1 X127.498 Y176.007 E58.62155
G1 X126.903 Y176.007 E58.6613
G1 X126.903 Y180.252 E58.94489
G1 X126.308 Y180.252 E58.98464
G1 X126.308 Y176.007 E59.26823
G1 X125.712 Y176.007 E59.30805
G1 X125.712 Y180.252 E59.59164
G1 X125.117 Y180.252 E59.63139
G1 X125.117 Y176.007 E59.91498
G1 X124.522 Y176.007 E59.95473
G1 X124.522 Y180.252 E60.23832
G1 X123.927 Y180.252 E60.27807
G1 X123.927 Y176.007 E60.56166
G1 X123.332 Y176.007 E60.60141
G1 X123.332 Y180.252 E60.885
G1 X122.737 Y180.252 E60.92475
G1 X122.737 Y176.007 E61.20834
G1 X122.142 Y176.007 E61.24809
G1 X122.142 Y180.252 E61.53168
G1 X121.546 Y180.252 E61.5715
G1 X121.546 Y176.007 E61.85509
G1 X120.951 Y176.007 E61.89484
G1 X120.951 Y180.252 E62.17843
G1 X120.356 Y180.252 E62.21818
G1 X120.356 Y176.007 E62.50177
G1 X119.761 Y176.007 E62.54152
G1 X119.761 Y180.252 E62.82511
G1 X119.166 Y180.252 E62.86486
G1 X119.166 Y176.007 E63.14845
G1 X118.571 Y176.007 E63.1882
G1 X118.571 Y180.252 E63.47179
G1 X117.976 Y180.252 E63.51154
G1 X117.976 Y176.007 E63.79513
G1 X117.381 Y176.007 E63.83488
G1 X117.381 Y180.252 E64.11847
G1 X116.785 Y180.252 E64.15829
G1 X116.785 Y176.007 E64.44188
G1 X116.19 Y176.007 E64.48163
G1 X116.19 Y180.252 E64.76522
G1 X115.595 Y180.252 E64.80497
G1 X115.595 Y176.007 E65.08856
G1 X115 Y176.007 E65.12831
G1 X115 Y180.252 E65.4119
G1 X114.405 Y180.252 E65.45165
G1 X114.405 Y176.007 E65.73524
G1 X113.81 Y176.007 E65.77499
G1 X113.81 Y180.252 E66.05858
G1 X113.215 Y180.252 E66.09833
G1 X113.215 Y176.007 E66.38192
G1 X112.619 Y176.007 E66.42174
G1 X112.619 Y180.252 E66.70533
G1 X112.024 Y180.252 E66.74508
G1 X112.024 Y176.007 E67.02867
G1 X111.429 Y176.007 E67.06842
G1 X111.429 Y180.252 E67.35201
G1 X110.834 Y180.252 E67.39176
G1 X110.834 Y176.007 E67.67535
G1 X110.239 Y176.007 E67.7151
G1 X110.239 Y180.252 E67.99869
G1 X109.644 Y180.252 E68.03844
G1 X109.644 Y176.007 E68.32203
G1 X109.049 Y176.007 E68.36178
G1 X109.049 Y180.252 E68.64537
G1 X108.454 Y180.252 E68.68512
G1 X108.454 Y176.007 E68.96871
G1 X107.858 Y176.007 E69.00853
G1 X107.858 Y180.252 E69.29212
G1 X107.263 Y180.252 E69.33187
G1 X107.263 Y176.007 E69.61546
G1 X106.668 Y176.007 E69.65521
G1 X106.668 Y180.252 E69.9388
G1 X106.073 Y180.252 E69.97855
G1 X106.073 Y176.007 E70.26214
G1 X105.478 Y176.007 E70.30189
G1 X105.478 Y180.252 E70.58548
G1 X104.883 Y180.252 E70.62523
G1 X104.883 Y176.007 E70.90882
G1 X104.288 Y176.007 E70.94857
G1 X104.288 Y180.252 E71.23216
G1 X103.692 Y180.252 E71.27198
G1 X103.692 Y176.007 E71.55557
G1 X103.097 Y176.007 E71.59532
G1 X103.097 Y180.252 E71.87891
G1 X102.502 Y180.252 E71.91866
G1 X102.502 Y176.007 E72.20225
G1 X101.907 Y176.007 E72.242
G1 X101.907 Y180.252 E72.52559
G1 X101.312 Y180.252 E72.56534
G1 X101.312 Y176.007 E72.84893
G1 X100.717 Y176.007 E72.88868
G1 X100.717 Y180.252 E73.17227
G1 X100.122 Y180.252 E73.21202
G1 X100.122 Y176.007 E73.49561
G1 X99.527 Y176.007 E73.53536
G1 X99.527 Y180.252 E73.81895
G1 X98.931 Y180.252 E73.85877
G1 X98.931 Y176.007 E74.14236
