; generated by PrusaSlicer 2.6.0+MacOS-x64 on 2023-07-29 at 17:49:36 UTC

; 

; external perimeters extrusion width = 0.45mm
; perimeters extrusion width = 0.40mm
; infill extrusion width = 0.45mm
; solid infill extrusion width = 0.50mm
; top infill extrusion width = 0.45mm
; support material extrusion width = 0.42mm
; first layer extrusion width = 0.56mm

M201 X2500 Y2500 Z800 E2500 ; sets maximum accelerations, mm/sec^2
M203 X300 Y250 Z8 E80 ; sets maximum feedrates, mm / sec
M204 S2500 T2500 ; sets acceleration (S) and retract acceleration (R), mm/sec^2
M205 X15.00 Y10.00 Z2.00 E10.00 ; sets the jerk limits, mm/sec
M205 S0 T0 ; sets the minimum extruding and travel feed rate, mm/sec
;TYPE:Custom
G90 ; use absolute coordinates
M83 ; extruder relative mode
M104 S215 ; set extruder temp
M140 S65 ; set bed temp
M190 S65 ; wait for bed temp
M109 S215 ; wait for extruder temp
G28                                        ; move X/Y/Z to min endstops
G1 Z0.28                                   ; lift nozzle a bit 
G92 E0 
G1 Y3 F1800                                    ; zero the extruded length 
G1 X60  E25 F500                       ; Extrude 25mm of filament in a 5cm line. 
G92 E0                                     ; zero the extruded length again 
G1 E-2 F500                                ; Retract a little 
G1 X70 F4000                              ; Quickly wipe away from the filament line
M117
G21 ; set units to millimeters
G90 ; use absolute coordinates
M82 ; use absolute distances for extrusion
G92 E0
M107
;LAYER_CHANGE
;Z:0.28
;HEIGHT:0.28
; BEFORE_LAYER_CHANGE 0 @ 0.28mm
G1 E-2 F4800
G92 E0
G1 Z.28 F7200
; AFTER_LAYER_CHANGE 0 @ 0.28mm
G1 X224.98 Y52.371
G1 E2 F4800
M204 S2000
;TYPE:External perimeter
;WIDTH:0.262577
G1 F3000
G1 X5.02 Y52.371 E7.18484
M204 S2500
G1 E5.78484 F4800
;WIPE_START
G1 F5760
G1 X5.778 Y52.371 E5.18484
;WIPE_END
G92 E0
G1 X5.4 Y174.6 F7200
G1 E2 F4800
M204 S2000
;WIDTH:0.56
G1 F3000
G1 X5.4 Y55.4 E8.93684
G1 X224.6 Y55.4 E21.69317
G1 X224.6 Y174.6 E28.63001
G1 X5.46 Y174.6 E41.38285
M204 S2500
G1 X5.54 Y174.225 F7200
G1 X5.9 Y174.1
M204 S2000
;TYPE:Perimeter
G1 F3000
G1 X5.9 Y55.9 E48.26149
G1 X224.1 Y55.9 E60.95962
G1 X224.1 Y174.1 E67.83826
G1 X5.96 Y174.1 E80.5329
M204 S2500
G1 X6.4 Y173.6 F7200
M204 S2000
G1 F3000
G1 X6.4 Y56.4 E87.35335
G1 X223.6 Y56.4 E99.99329
G1 X223.6 Y173.6 E106.81374
G1 X6.46 Y173.6 E119.45019
M204 S2500
G1 E118.05019 F4800
;WIPE_START
G1 F5760
G1 X6.46 Y172.842 E117.45019
;WIPE_END
G92 E0
G1 X223.4 Y57.61 F7200
G1 E2 F4800
M204 S2000
;TYPE:Solid infill
;WIDTH:0.560008
G1 F3000
G1 X222.615 Y56.825 E2.06461
G1 X221.908 Y56.825 E2.10575
G1 X223.175 Y58.092 E2.21003
G1 X223.175 Y58.799 E2.25117
G1 X221.201 Y56.825 E2.41363
G1 X220.494 Y56.825 E2.45477
G1 X223.175 Y59.506 E2.67542
G1 X223.175 Y60.213 E2.71656
G1 X219.787 Y56.825 E2.9954
G1 X219.08 Y56.825 E3.03654
G1 X223.175 Y60.92 E3.37356
G1 X223.175 Y61.627 E3.4147
G1 X218.373 Y56.825 E3.80991
G1 X217.666 Y56.825 E3.85105
G1 X223.175 Y62.334 E4.30445
G1 X223.175 Y63.041 E4.34559
G1 X216.959 Y56.825 E4.85717
G1 X216.252 Y56.825 E4.89831
G1 X223.175 Y63.748 E5.46808
G1 X223.175 Y64.455 E5.50922
G1 X215.545 Y56.825 E6.13718
G1 X214.838 Y56.825 E6.17832
G1 X223.175 Y65.162 E6.86447
G1 X223.175 Y65.869 E6.90561
G1 X214.131 Y56.825 E7.64994
G1 X213.424 Y56.825 E7.69108
G1 X223.175 Y66.576 E8.4936
G1 X223.175 Y67.283 E8.53474
G1 X212.717 Y56.825 E9.39545
G1 X212.01 Y56.825 E9.43659
G1 X223.175 Y67.99 E10.35548
G1 X223.175 Y68.697 E10.39662
G1 X211.303 Y56.825 E11.3737
G1 X210.596 Y56.825 E11.41484
G1 X223.175 Y69.404 E12.45011
G1 X223.175 Y70.111 E12.49125
G1 X209.889 Y56.825 E13.58471
G1 X209.182 Y56.825 E13.62585
G1 X223.175 Y70.818 E14.77749
G1 X223.175 Y71.525 E14.81863
G1 X208.475 Y56.825 E16.02846
G1 X207.768 Y56.825 E16.0696
G1 X223.175 Y72.232 E17.33762
G1 X223.175 Y72.939 E17.37876
G1 X207.061 Y56.825 E18.70496
G1 X206.354 Y56.825 E18.7461
G1 X223.175 Y73.646 E20.13049
G1 X223.175 Y74.353 E20.17163
G1 X205.647 Y56.825 E21.61421
G1 X204.94 Y56.825 E21.65535
G1 X223.175 Y75.06 E23.15611
G1 X223.175 Y75.767 E23.19725
G1 X204.233 Y56.825 E24.7562
G1 X203.526 Y56.825 E24.79734
G1 X223.175 Y76.474 E26.41448
G1 X223.175 Y77.181 E26.45562
G1 X202.819 Y56.825 E28.13095
G1 X202.112 Y56.825 E28.17209
G1 X223.175 Y77.888 E29.9056
G1 X223.175 Y78.595 E29.94674
G1 X201.405 Y56.825 E31.73844
G1 X200.698 Y56.825 E31.77958
G1 X223.175 Y79.302 E33.62947
G1 X223.175 Y80.009 E33.67061
G1 X199.991 Y56.825 E35.57868
G1 X199.284 Y56.825 E35.61982
G1 X223.175 Y80.716 E37.58608
G1 X223.175 Y81.423 E37.62722
G1 X198.577 Y56.825 E39.65167
G1 X197.87 Y56.825 E39.69281
G1 X223.175 Y82.13 E41.77544
G1 X223.175 Y82.837 E41.81658
G1 X197.163 Y56.825 E43.9574
G1 X196.456 Y56.825 E43.99854
G1 X223.175 Y83.544 E46.19755
G1 X223.175 Y84.251 E46.23869
G1 X195.749 Y56.825 E48.49589
G1 X195.042 Y56.825 E48.53703
G1 X223.175 Y84.958 E50.85241
G1 X223.175 Y85.665 E50.89355
G1 X194.335 Y56.825 E53.26712
G1 X193.628 Y56.825 E53.30826
G1 X223.175 Y86.372 E55.74002
G1 X223.175 Y87.079 E55.78116
G1 X192.921 Y56.825 E58.2711
G1 X192.214 Y56.825 E58.31224
G1 X223.175 Y87.786 E60.86037
G1 X223.175 Y88.493 E60.90151
G1 X191.507 Y56.825 E63.50783
G1 X190.8 Y56.825 E63.54897
G1 X223.175 Y89.2 E66.21347
G1 X223.175 Y89.907 E66.25461
G1 X190.093 Y56.825 E68.9773
G1 X189.386 Y56.825 E69.01844
G1 X223.175 Y90.614 E71.79932
G1 X223.175 Y91.321 E71.84046
G1 X188.679 Y56.825 E74.67953
G1 X187.972 Y56.825 E74.72067
G1 X223.175 Y92.028 E77.61792
G1 X223.175 Y92.735 E77.65906
G1 X187.265 Y56.825 E80.6145
G1 X186.558 Y56.825 E80.65564
G1 X223.175 Y93.442 E83.66927
G1 X223.175 Y94.149 E83.71041
G1 X185.851 Y56.825 E86.78222
G1 X185.144 Y56.825 E86.82336
G1 X223.175 Y94.856 E89.95336
G1 X223.175 Y95.563 E89.9945
G1 X184.437 Y56.825 E93.18269
G1 X183.73 Y56.825 E93.22383
G1 X223.175 Y96.27 E96.4702
G1 X223.175 Y96.977 E96.51134
G1 X183.023 Y56.825 E99.8159
G1 X182.316 Y56.825 E99.85704
G1 X223.175 Y97.684 E103.21979
G1 X223.175 Y98.391 E103.26093
G1 X181.609 Y56.825 E106.68187
G1 X180.902 Y56.825 E106.72301
G1 X223.175 Y99.098 E110.20213
G1 X223.175 Y99.805 E110.24327
G1 X180.195 Y56.825 E113.78058
G1 X179.488 Y56.825 E113.82172
G1 X223.175 Y100.512 E117.41722
G1 X223.175 Y101.219 E117.45836
G1 X178.781 Y56.825 E121.11204
G1 X178.074 Y56.825 E121.15318
G1 X223.175 Y101.926 E124.86505
G1 X223.175 Y102.633 E124.90619
G1 X177.367 Y56.825 E128.67625
G1 X176.66 Y56.825 E128.71739
G1 X223.175 Y103.34 E132.54563
G1 X223.175 Y104.047 E132.58677
G1 X175.953 Y56.825 E136.4732
G1 X175.246 Y56.825 E136.51434
G1 X223.175 Y104.754 E140.45896
G1 X223.175 Y105.461 E140.5001
G1 X174.539 Y56.825 E144.50291
G1 X173.832 Y56.825 E144.54405
G1 X223.175 Y106.168 E148.60504
G1 X223.175 Y106.875 E148.64618
G1 X173.125 Y56.825 E152.76536
G1 X172.418 Y56.825 E152.8065
G1 X223.175 Y107.582 E156.98387
G1 X223.175 Y108.289 E157.02501
G1 X171.711 Y56.825 E161.26056
G1 X171.004 Y56.825 E161.3017
G1 X223.175 Y108.996 E165.59544
G1 X223.175 Y109.703 E165.63658
G1 X170.297 Y56.825 E169.98851
G1 X169.59 Y56.825 E170.02965
G1 X223.175 Y110.41 E174.43977
G1 X223.175 Y111.117 E174.48091
G1 X168.883 Y56.825 E178.94921
G1 X168.176 Y56.825 E178.99035
G1 X223.175 Y111.824 E183.51684
G1 X223.175 Y112.531 E183.55798
G1 X167.469 Y56.825 E188.14266
G1 X166.762 Y56.825 E188.1838
G1 X223.175 Y113.238 E192.82666
G1 X223.175 Y113.945 E192.8678
G1 X166.055 Y56.825 E197.56885
G1 X165.348 Y56.825 E197.60999
G1 X223.175 Y114.652 E202.36923
G1 X223.175 Y115.359 E202.41037
G1 X164.641 Y56.825 E207.22779
G1 X163.934 Y56.825 E207.26893
G1 X223.175 Y116.066 E212.14454
G1 X223.175 Y116.773 E212.18568
G1 X163.227 Y56.825 E217.11948
G1 X162.52 Y56.825 E217.16062
G1 X223.175 Y117.48 E222.15261
G1 X223.175 Y118.187 E222.19375
G1 X161.813 Y56.825 E227.24392
G1 X161.106 Y56.825 E227.28506
G1 X223.175 Y118.894 E232.39342
G1 X223.175 Y119.601 E232.43456
G1 X160.399 Y56.825 E237.60111
G1 X159.692 Y56.825 E237.64225
G1 X223.175 Y120.308 E242.86698
G1 X223.175 Y121.015 E242.90812
G1 X158.985 Y56.825 E248.19104
G1 X158.278 Y56.825 E248.23218
G1 X223.175 Y121.722 E253.57329
G1 X223.175 Y122.429 E253.61443
G1 X157.571 Y56.825 E259.01372
G1 X156.864 Y56.825 E259.05486
G1 X223.175 Y123.136 E264.51234
G1 X223.175 Y123.843 E264.55348
G1 X156.157 Y56.825 E270.06915
G1 X155.45 Y56.825 E270.11029
G1 X223.175 Y124.55 E275.68415
G1 X223.175 Y125.257 E275.72529
G1 X154.743 Y56.825 E281.35733
G1 X154.036 Y56.825 E281.39847
G1 X223.175 Y125.964 E287.0887
G1 X223.175 Y126.671 E287.12984
G1 X153.329 Y56.825 E292.87826
G1 X152.622 Y56.825 E292.9194
G1 X223.175 Y127.378 E298.726
G1 X223.175 Y128.085 E298.76714
G1 X151.915 Y56.825 E304.63193
G1 X151.208 Y56.825 E304.67307
G1 X223.175 Y128.792 E310.59605
G1 X223.175 Y129.499 E310.63719
G1 X150.501 Y56.825 E316.61835
G1 X149.794 Y56.825 E316.65949
G1 X223.175 Y130.206 E322.69884
G1 X223.175 Y130.913 E322.73998
G1 X149.087 Y56.825 E328.83752
G1 X148.38 Y56.825 E328.87866
G1 X223.175 Y131.62 E335.03439
G1 X223.175 Y132.327 E335.07553
G1 X147.673 Y56.825 E341.28944
G1 X146.966 Y56.825 E341.33058
G1 X223.175 Y133.034 E347.60268
G1 X223.175 Y133.741 E347.64382
G1 X146.259 Y56.825 E353.97411
G1 X145.552 Y56.825 E354.01525
G1 X223.175 Y134.448 E360.40372
G1 X223.175 Y135.155 E360.44486
G1 X144.845 Y56.825 E366.89152
G1 X144.138 Y56.825 E366.93266
G1 X223.175 Y135.862 E373.43751
G1 X223.175 Y136.569 E373.47865
G1 X143.431 Y56.825 E380.04168
G1 X142.724 Y56.825 E380.08282
G1 X223.175 Y137.276 E386.70404
G1 X223.175 Y137.983 E386.74518
G1 X142.017 Y56.825 E393.42459
G1 X141.311 Y56.825 E393.46568
G1 X223.175 Y138.69 E400.20323
G1 X223.175 Y139.396 E400.24432
G1 X140.604 Y56.825 E407.04002
G1 X139.897 Y56.825 E407.08116
G1 X223.175 Y140.103 E413.93505
G1 X223.175 Y140.81 E413.97619
G1 X139.19 Y56.825 E420.88826
G1 X138.483 Y56.825 E420.9294
G1 X223.175 Y141.517 E427.89966
G1 X223.175 Y142.224 E427.9408
G1 X137.776 Y56.825 E434.96925
G1 X137.069 Y56.825 E435.01039
G1 X223.175 Y142.931 E442.09703
G1 X223.175 Y143.638 E442.13817
G1 X136.362 Y56.825 E449.28299
G1 X135.655 Y56.825 E449.32413
G1 X223.175 Y144.345 E456.52714
G1 X223.175 Y145.052 E456.56828
G1 X134.948 Y56.825 E463.82948
G1 X134.241 Y56.825 E463.87062
G1 X223.175 Y145.759 E471.19
G1 X223.175 Y146.466 E471.23114
G1 X133.534 Y56.825 E478.60871
G1 X132.827 Y56.825 E478.64985
G1 X223.175 Y147.173 E486.08561
G1 X223.175 Y147.88 E486.12675
G1 X132.12 Y56.825 E493.62069
G1 X131.413 Y56.825 E493.66183
G1 X223.175 Y148.587 E501.21396
G1 X223.175 Y149.294 E501.2551
G1 X130.706 Y56.825 E508.86542
G1 X129.999 Y56.825 E508.90656
G1 X223.175 Y150.001 E516.57507
G1 X223.175 Y150.708 E516.61621
G1 X129.292 Y56.825 E524.3429
G1 X128.585 Y56.825 E524.38404
G1 X223.175 Y151.415 E532.16892
G1 X223.175 Y152.122 E532.21006
G1 X127.878 Y56.825 E540.05313
G1 X127.171 Y56.825 E540.09427
G1 X223.175 Y152.829 E547.99552
G1 X223.175 Y153.536 E548.03666
G1 X126.464 Y56.825 E555.9961
G1 X125.757 Y56.825 E556.03724
G1 X223.175 Y154.243 E564.05487
G1 X223.175 Y154.95 E564.09601
G1 X125.05 Y56.825 E572.17183
G1 X124.343 Y56.825 E572.21297
G1 X223.175 Y155.657 E580.34697
G1 X223.175 Y156.364 E580.38811
G1 X123.636 Y56.825 E588.5803
G1 X122.929 Y56.825 E588.62144
G1 X223.175 Y157.071 E596.87182
G1 X223.175 Y157.778 E596.91296
G1 X122.222 Y56.825 E605.22152
G1 X121.515 Y56.825 E605.26266
G1 X223.175 Y158.485 E613.62941
G1 X223.175 Y159.192 E613.67055
G1 X120.808 Y56.825 E622.09549
G1 X120.101 Y56.825 E622.13663
G1 X223.175 Y159.899 E630.61975
G1 X223.175 Y160.606 E630.66089
G1 X119.394 Y56.825 E639.2022
G1 X118.687 Y56.825 E639.24334
G1 X223.175 Y161.313 E647.84284
G1 X223.175 Y162.02 E647.88398
G1 X117.98 Y56.825 E656.54167
G1 X117.273 Y56.825 E656.58281
G1 X223.175 Y162.727 E665.29868
G1 X223.175 Y163.434 E665.33982
G1 X116.566 Y56.825 E674.11388
G1 X115.859 Y56.825 E674.15502
G1 X223.175 Y164.141 E682.98727
G1 X223.175 Y164.848 E683.02841
G1 X115.152 Y56.825 E691.91884
G1 X114.445 Y56.825 E691.95998
G1 X223.175 Y165.555 E700.9086
G1 X223.175 Y166.262 E700.94974
G1 X113.738 Y56.825 E709.95655
G1 X113.031 Y56.825 E709.99769
G1 X223.175 Y166.969 E719.06268
G1 X223.175 Y167.676 E719.10382
G1 X112.324 Y56.825 E728.227
G1 X111.617 Y56.825 E728.26814
G1 X223.175 Y168.383 E737.44951
G1 X223.175 Y169.09 E737.49065
G1 X110.91 Y56.825 E746.73021
G1 X110.203 Y56.825 E746.77135
G1 X223.175 Y169.797 E756.06909
G1 X223.175 Y170.504 E756.11023
G1 X109.496 Y56.825 E765.46616
G1 X108.789 Y56.825 E765.5073
G1 X223.175 Y171.211 E774.92142
G1 X223.175 Y171.918 E774.96256
G1 X108.082 Y56.825 E784.43486
G1 X107.375 Y56.825 E784.476
G1 X223.175 Y172.625 E794.00649
G1 X223.175 Y173.175 E794.0385
G1 X223.018 Y173.175 E794.04764
G1 X106.668 Y56.825 E803.6234
G1 X105.961 Y56.825 E803.66454
G1 X222.311 Y173.175 E813.2403
G1 X221.604 Y173.175 E813.28144
G1 X105.254 Y56.825 E822.8572
G1 X104.547 Y56.825 E822.89834
G1 X220.897 Y173.175 E832.4741
G1 X220.19 Y173.175 E832.51524
G1 X103.84 Y56.825 E842.091
G1 X103.133 Y56.825 E842.13214
G1 X219.483 Y173.175 E851.7079
G1 X218.776 Y173.175 E851.74904
G1 X102.426 Y56.825 E861.3248
G1 X101.719 Y56.825 E861.36594
G1 X218.069 Y173.175 E870.9417
G1 X217.362 Y173.175 E870.98284
G1 X101.012 Y56.825 E880.5586
G1 X100.305 Y56.825 E880.59974
G1 X216.655 Y173.175 E890.1755
G1 X215.948 Y173.175 E890.21664
G1 X99.598 Y56.825 E899.7924
G1 X98.891 Y56.825 E899.83354
G1 X215.241 Y173.175 E909.4093
G1 X214.534 Y173.175 E909.45044
G1 X98.184 Y56.825 E919.0262
G1 X97.477 Y56.825 E919.06734
G1 X213.827 Y173.175 E928.6431
G1 X213.12 Y173.175 E928.68424
G1 X96.77 Y56.825 E938.26
G1 X96.063 Y56.825 E938.30114
G1 X212.414 Y173.175 E947.87694
G1 X211.707 Y173.175 E947.91808
G1 X95.356 Y56.825 E957.49388
G1 X94.649 Y56.825 E957.53502
G1 X211 Y173.175 E967.11082
G1 X210.293 Y173.175 E967.15196
G1 X93.942 Y56.825 E976.72776
G1 X93.235 Y56.825 E976.7689
G1 X209.586 Y173.175 E986.3447
G1 X208.879 Y173.175 E986.38584
G1 X92.528 Y56.825 E995.96164
G1 X91.821 Y56.825 E996.00278
G1 X208.172 Y173.175 E1005.57858
G1 X207.465 Y173.175 E1005.61972
G1 X91.114 Y56.825 E1015.19552
G1 X90.407 Y56.825 E1015.23666
G1 X206.758 Y173.175 E1024.81246
G1 X206.051 Y173.175 E1024.8536
G1 X89.7 Y56.825 E1034.4294
G1 X88.993 Y56.825 E1034.47054
G1 X205.344 Y173.175 E1044.04634
G1 X204.637 Y173.175 E1044.08748
G1 X88.286 Y56.825 E1053.66328
G1 X87.579 Y56.825 E1053.70442
G1 X203.93 Y173.175 E1063.28022
G1 X203.223 Y173.175 E1063.32136
G1 X86.872 Y56.825 E1072.89716
G1 X86.165 Y56.825 E1072.9383
G1 X202.516 Y173.175 E1082.5141
G1 X201.809 Y173.175 E1082.55524
G1 X85.458 Y56.825 E1092.13104
G1 X84.751 Y56.825 E1092.17218
G1 X201.102 Y173.175 E1101.74798
G1 X200.395 Y173.175 E1101.78912
G1 X84.044 Y56.825 E1111.36492
G1 X83.337 Y56.825 E1111.40606
G1 X199.688 Y173.175 E1120.98186
G1 X198.981 Y173.175 E1121.023
G1 X82.63 Y56.825 E1130.5988
G1 X81.923 Y56.825 E1130.63994
G1 X198.274 Y173.175 E1140.21574
G1 X197.567 Y173.175 E1140.25688
G1 X81.216 Y56.825 E1149.83268
G1 X80.509 Y56.825 E1149.87382
G1 X196.86 Y173.175 E1159.44962
G1 X196.153 Y173.175 E1159.49076
G1 X79.802 Y56.825 E1169.06656
G1 X79.095 Y56.825 E1169.1077
G1 X195.446 Y173.175 E1178.6835
G1 X194.739 Y173.175 E1178.72464
G1 X78.388 Y56.825 E1188.30044
G1 X77.681 Y56.825 E1188.34158
G1 X194.032 Y173.175 E1197.91738
G1 X193.325 Y173.175 E1197.95852
G1 X76.974 Y56.825 E1207.53432
G1 X76.267 Y56.825 E1207.57546
G1 X192.618 Y173.175 E1217.15126
G1 X191.911 Y173.175 E1217.1924
G1 X75.56 Y56.825 E1226.7682
G1 X74.853 Y56.825 E1226.80934
G1 X191.204 Y173.175 E1236.38514
G1 X190.497 Y173.175 E1236.42628
G1 X74.146 Y56.825 E1246.00208
G1 X73.439 Y56.825 E1246.04322
G1 X189.79 Y173.175 E1255.61902
G1 X189.083 Y173.175 E1255.66016
G1 X72.732 Y56.825 E1265.23596
G1 X72.025 Y56.825 E1265.2771
G1 X188.376 Y173.175 E1274.8529
G1 X187.669 Y173.175 E1274.89404
G1 X71.318 Y56.825 E1284.46984
G1 X70.611 Y56.825 E1284.51098
G1 X186.962 Y173.175 E1294.08678
G1 X186.255 Y173.175 E1294.12792
G1 X69.904 Y56.825 E1303.70372
G1 X69.197 Y56.825 E1303.74486
