; generated by PrusaSlicer 2.6.0 on 2023-07-28 at 22:23:21 UTC

; 

; external perimeters extrusion width = 0.45mm
; perimeters extrusion width = 0.45mm
; infill extrusion width = 0.45mm
; solid infill extrusion width = 0.45mm
; top infill extrusion width = 0.40mm
; support material extrusion width = 0.40mm
; first layer extrusion width = 0.60mm

; external perimeters extrusion width = 0.45mm
; perimeters extrusion width = 0.45mm
; infill extrusion width = 0.45mm
; solid infill extrusion width = 0.45mm
; top infill extrusion width = 0.40mm
; support material extrusion width = 0.40mm
; first layer extrusion width = 0.60mm

M201 X3000 Y3000 Z800 E2500 ; sets maximum accelerations, mm/sec^2
M203 X300 Y250 Z8 E80 ; sets maximum feedrates, mm / sec
M204 S3000 T3000 ; sets acceleration (S) and retract acceleration (R), mm/sec^2
M205 X15.00 Y10.00 Z2.00 E10.00 ; sets the jerk limits, mm/sec
M205 S0 T0 ; sets the minimum extruding and travel feed rate, mm/sec
;TYPE:Custom
G90 ; use absolute coordinates
M83 ; extruder relative mode
M104 S210 ; set extruder temp
M140 S65 ; set bed temp
M190 S65 ; wait for bed temp
M109 S210 ; wait for extruder temp
G28                                        ; move X/Y/Z to min endstops
G1 Z0.28                                   ; lift nozzle a bit 
G92 E0 
G1 Y3 F1800                                    ; zero the extruded length 
G1 X60  E25 F500                       ; Extrude 25mm of filament in a 5cm line. 
G92 E0                                     ; zero the extruded length again 
G1 E-2 F500                                ; Retract a little 
G1 X70 F4000                              ; Quickly wipe away from the filament line
M117
G21 ; set units to millimeters
G90 ; use absolute coordinates
M82 ; use absolute distances for extrusion
G92 E0
M900 K0.05 ; Filament gcode LA 1.5
M900 K30 ; Filament gcode LA 1.0
M107
;LAYER_CHANGE
;Z:0.3
;HEIGHT:0.3
; BEFORE_LAYER_CHANGE 0 @ 0.3mm
G1 E-2 F4800
G92 E0
G1 Z.3 F9000
; AFTER_LAYER_CHANGE 0 @ 0.3mm
G1 X50.3 Y119.3 F15000
G1 E2 F4800
M204 S1000
;TYPE:External perimeter
;WIDTH:0.6
G1 X179.7 Y119.3 E10.64462
G1 X179.7 Y126.2 E11.10558
G1 X50.3 Y126.2 E19.7502
G1 X50.3 Y119.36 E20.20715
M204 S3000
G1 X50.7 Y119.307 F15000
G1 X50.836 Y119.836
M204 S1000
;TYPE:Perimeter
G1 F4800
G1 X144.885 Y119.836 Z.3 E26.49011
G1 F4799.998
G1 X149.782 Y119.836 Z.3 E26.81726
G1 X154.679 Y119.836 Z.3 E27.14441
G1 X159.576 Y119.836 Z.3 E27.47156
G1 X164.473 Y119.836 Z.3 E27.79871
G1 X169.37 Y119.836 Z.3 E28.12586
G1 X174.267 Y119.836 Z.3 E28.45301
G1 X179.164 Y119.836 Z.3 E28.78016
G1 X179.164 Y125.664 E29.1695
G1 X85.115 Y125.664 Z.3 E35.4525
G1 X80.218 Y125.664 Z.3 E35.77965
G1 X75.321 Y125.664 Z.3 E36.10679
G1 X70.424 Y125.664 Z.3 E36.43394
G1 X65.527 Y125.664 Z.3 E36.76108
G1 X60.63 Y125.664 Z.3 E37.08822
G1 X55.733 Y125.664 Z.3 E37.41537
G1 X50.836 Y125.664 Z.3 E37.74251
G1 X50.836 Y119.896 E38.12784
M204 S3000
G1 E36.72784 F4800
;WIPE_START
G1 F12000
G1 X52.415 Y119.895 E36.12784
;WIPE_END
G92 E0
G1 X178.897 Y121.192 F15000
G1 E2 F4800
M204 S1000
;TYPE:Solid infill
;WIDTH:0.602563
G1 F4788.453
G1 X178.049 Y120.344 E2.0805
G1 X177.288 Y120.344 E2.13158
G1 F4799.927
G1 X178.656 Y121.712 E2.26144
G1 X178.656 Y122.473 E2.31252
G1 X176.527 Y120.344 E2.51462
G1 X175.766 Y120.344 E2.5657
G1 X178.656 Y123.234 E2.84005
G1 X178.656 Y123.995 E2.89113
G1 X176.831 Y122.17 Z.3 E3.06442
G1 X175.005 Y120.344 Z.3 E3.23772
G1 X174.244 Y120.344 E3.2888
G1 X176.45 Y122.55 Z.3 E3.49821
G1 X178.656 Y124.756 Z.3 E3.70763
G1 X178.656 Y125.156 E3.73448
G1 X178.294 Y125.156 E3.75878
G1 X175.889 Y122.75 Z.3 E3.98715
G1 X173.483 Y120.344 Z.3 E4.21553
G1 X172.722 Y120.344 E4.26661
G1 X175.128 Y122.75 Z.3 E4.49499
G1 X177.533 Y125.156 Z.3 E4.72336
G1 X176.772 Y125.156 E4.77444
G1 X174.367 Y122.75 Z.3 E5.00282
G1 F4800
G1 X171.961 Y120.344 Z.3 E5.23119
G1 F4799.906
G1 X171.199 Y120.344 E5.28234
G1 X173.605 Y122.75 Z.3 E5.51074
G1 X176.011 Y125.156 Z.3 E5.73914
G1 X175.249 Y125.156 E5.79029
G1 X172.844 Y122.75 Z.3 E6.01866
G1 X170.438 Y120.344 Z.3 E6.24704
G1 X169.677 Y120.344 E6.29812
G1 X172.083 Y122.75 Z.3 E6.52649
G1 X174.488 Y125.156 Z.3 E6.75487
G1 X173.727 Y125.156 E6.80595
G1 X171.322 Y122.75 Z.3 E7.03433
G1 X168.916 Y120.344 Z.3 E7.2627
G1 X168.155 Y120.344 E7.31378
G1 X170.561 Y122.75 Z.3 E7.54216
G1 X172.966 Y125.156 Z.3 E7.77053
G1 X172.205 Y125.156 E7.82161
G1 X169.799 Y122.75 Z.3 E8.04998
G1 X167.394 Y120.344 Z.3 E8.27836
G1 X166.633 Y120.344 E8.32944
G1 X169.038 Y122.75 Z.3 E8.55782
G1 X171.444 Y125.156 Z.3 E8.78619
G1 X170.683 Y125.156 E8.83727
G1 X168.277 Y122.75 Z.3 E9.06565
G1 X165.872 Y120.344 Z.3 E9.29402
G1 X165.111 Y120.344 E9.3451
G1 X167.516 Y122.75 Z.3 E9.57347
G1 X169.922 Y125.156 Z.3 E9.80185
G1 X169.161 Y125.156 E9.85293
G1 X166.755 Y122.75 Z.3 E10.0813
G1 F4800
G1 X164.35 Y120.344 Z.3 E10.30968
G1 F4799.956
G1 X163.588 Y120.344 E10.36083
G1 X168.4 Y125.156 E10.81763
G1 X167.638 Y125.156 E10.86878
G1 X165.232 Y122.75 Z.3 E11.09715
G1 X162.827 Y120.344 Z.3 E11.32553
G1 X162.066 Y120.344 E11.37661
G1 X164.471 Y122.75 Z.3 E11.60498
G1 X166.877 Y125.156 Z.3 E11.83336
G1 X166.116 Y125.156 E11.88444
G1 X163.71 Y122.75 Z.3 E12.11282
G1 X161.305 Y120.344 Z.3 E12.34119
G1 X160.544 Y120.344 E12.39227
G1 X162.949 Y122.75 Z.3 E12.62065
G1 X165.355 Y125.156 Z.3 E12.84902
G1 X164.594 Y125.156 E12.9001
G1 X162.189 Y122.75 Z.3 E13.12848
G1 X159.783 Y120.344 Z.3 E13.35685
G1 X159.022 Y120.344 E13.40793
G1 X161.427 Y122.75 Z.3 E13.6363
G1 X163.833 Y125.156 Z.3 E13.86468
G1 X163.072 Y125.156 E13.91576
G1 X160.667 Y122.75 Z.3 E14.14413
G1 X158.261 Y120.344 Z.3 E14.37251
G1 X157.5 Y120.344 E14.42359
G1 X159.906 Y122.75 Z.3 E14.65196
G1 X162.311 Y125.156 Z.3 E14.88034
G1 X161.55 Y125.156 E14.93142
G1 X159.145 Y122.75 Z.3 E15.1598
G1 F4800
G1 X156.739 Y120.344 Z.3 E15.38817
G1 F4799.951
G1 X155.977 Y120.344 E15.43932
G1 X160.789 Y125.156 E15.89612
G1 X160.027 Y125.156 E15.94727
G1 X157.621 Y122.75 Z.3 E16.17565
G1 X155.216 Y120.344 Z.3 E16.40402
G1 X154.455 Y120.344 E16.4551
G1 X156.861 Y122.75 Z.3 E16.68348
G1 X159.266 Y125.156 Z.3 E16.91185
G1 X158.505 Y125.156 E16.96293
G1 X156.1 Y122.75 Z.3 E17.19131
G1 X153.694 Y120.344 Z.3 E17.41968
G1 X152.933 Y120.344 E17.47076
G1 X155.339 Y122.75 Z.3 E17.69913
G1 X157.744 Y125.156 Z.3 E17.92751
G1 X156.983 Y125.156 E17.97859
G1 X154.577 Y122.75 Z.3 E18.20697
G1 X152.172 Y120.344 Z.3 E18.43534
G1 X151.411 Y120.344 E18.48642
G1 X153.816 Y122.75 Z.3 E18.71479
G1 X156.222 Y125.156 Z.3 E18.94317
G1 X155.461 Y125.156 E18.99425
G1 X153.055 Y122.75 Z.3 E19.22263
G1 X150.65 Y120.344 Z.3 E19.451
G1 X149.889 Y120.344 E19.50208
G1 X152.294 Y122.75 Z.3 E19.73046
G1 X154.7 Y125.156 Z.3 E19.95883
G1 X153.939 Y125.156 E20.00991
G1 X151.533 Y122.75 Z.3 E20.23831
G1 X149.127 Y120.344 Z.3 E20.46671
G1 X148.366 Y120.344 E20.51779
G1 X150.771 Y122.75 Z.3 E20.74617
G1 X153.177 Y125.156 Z.3 E20.97454
G1 X152.416 Y125.156 E21.02562
G1 X150.01 Y122.75 Z.3 E21.25399
G1 X147.605 Y120.344 Z.3 E21.48237
G1 X146.844 Y120.344 E21.53345
G1 X149.249 Y122.75 Z.3 E21.76183
G1 X151.655 Y125.156 Z.3 E21.9902
G1 X150.894 Y125.156 E22.04128
G1 X148.488 Y122.75 Z.3 E22.26966
G1 X146.083 Y120.344 Z.3 E22.49803
G1 X145.322 Y120.344 E22.54911
G1 X147.728 Y122.75 Z.3 E22.77748
G1 X150.133 Y125.156 Z.3 E23.00586
G1 X149.372 Y125.156 E23.05694
G1 X146.966 Y122.75 Z.3 E23.28532
G1 X144.561 Y120.344 Z.3 E23.51369
G1 X143.8 Y120.344 E23.56477
G1 X146.206 Y122.75 Z.3 E23.79314
G1 X148.611 Y125.156 Z.3 E24.02152
G1 X147.85 Y125.156 E24.0726
G1 X145.445 Y122.75 Z.3 E24.30098
G1 X143.039 Y120.344 Z.3 E24.52935
G1 X142.278 Y120.344 E24.58043
G1 X144.684 Y122.75 Z.3 E24.8088
G1 X147.089 Y125.156 Z.3 E25.03718
G1 X146.328 Y125.156 E25.08826
G1 X143.922 Y122.75 Z.3 E25.31666
G1 X141.516 Y120.344 Z.3 E25.54506
G1 X140.755 Y120.344 E25.59614
G1 X143.16 Y122.75 Z.3 E25.82452
G1 X145.566 Y125.156 Z.3 E26.05289
G1 X144.805 Y125.156 E26.10397
G1 X142.4 Y122.75 Z.3 E26.33234
G1 X139.994 Y120.344 Z.3 E26.56072
G1 X139.233 Y120.344 E26.6118
G1 X141.639 Y122.75 Z.3 E26.84018
G1 X144.044 Y125.156 Z.3 E27.06855
G1 X143.283 Y125.156 E27.11963
G1 X140.878 Y122.75 Z.3 E27.34801
G1 X138.472 Y120.344 Z.3 E27.57638
G1 X137.711 Y120.344 E27.62746
G1 X140.117 Y122.75 Z.3 E27.85583
G1 X142.522 Y125.156 Z.3 E28.08421
G1 X141.761 Y125.156 E28.13529
G1 X139.355 Y122.75 Z.3 E28.36366
G1 X136.95 Y120.344 Z.3 E28.59204
G1 X136.189 Y120.344 E28.64312
G1 X138.594 Y122.75 Z.3 E28.87149
G1 X141 Y125.156 Z.3 E29.09987
G1 X140.239 Y125.156 E29.15095
G1 X137.833 Y122.75 Z.3 E29.37933
G1 F4800
G1 X135.428 Y120.344 Z.3 E29.6077
G1 F4799.956
G1 X134.666 Y120.344 E29.65885
G1 X139.478 Y125.156 E30.11565
G1 X138.716 Y125.156 E30.1668
G1 X136.311 Y122.75 Z.3 E30.39518
G1 X133.905 Y120.344 Z.3 E30.62355
G1 X133.144 Y120.344 E30.67463
G1 X135.549 Y122.75 Z.3 E30.903
G1 X137.955 Y125.156 Z.3 E31.13138
G1 X137.194 Y125.156 E31.18246
G1 X134.788 Y122.75 Z.3 E31.41084
G1 X132.383 Y120.344 Z.3 E31.63921
G1 X131.622 Y120.344 E31.69029
G1 X134.027 Y122.75 Z.3 E31.91867
G1 X136.433 Y125.156 Z.3 E32.14704
G1 X135.672 Y125.156 E32.19812
G1 X133.266 Y122.75 Z.3 E32.42649
G1 F4800
G1 X130.861 Y120.344 Z.3 E32.65487
G1 F4799.847
G1 X130.1 Y120.344 E32.70595
G1 X132.505 Y122.75 Z.3 E32.93433
G1 X134.911 Y125.156 Z.3 E33.1627
G1 X134.15 Y125.156 E33.21378
G1 X131.745 Y122.75 Z.3 E33.44215
G1 F4800
G1 X129.339 Y120.344 Z.3 E33.67053
G1 F4799.943
G1 X128.578 Y120.344 E33.72161
G1 X130.984 Y122.75 Z.3 E33.94999
G1 X133.389 Y125.156 Z.3 E34.17836
G1 X132.628 Y125.156 E34.22944
G1 X130.223 Y122.75 Z.3 E34.45782
G1 X127.817 Y120.344 Z.3 E34.68619
G1 X127.055 Y120.344 E34.73734
G1 X129.461 Y122.75 Z.3 E34.96574
G1 X131.867 Y125.156 Z.3 E35.19414
G1 X131.105 Y125.156 E35.24529
G1 X128.699 Y122.75 Z.3 E35.47366
G1 X126.294 Y120.344 Z.3 E35.70204
G1 X125.533 Y120.344 E35.75312
G1 X127.938 Y122.75 Z.3 E35.98149
G1 X130.344 Y125.156 Z.3 E36.20987
G1 X129.583 Y125.156 E36.26095
G1 X127.177 Y122.75 Z.3 E36.48933
G1 X124.772 Y120.344 Z.3 E36.7177
G1 X124.011 Y120.344 E36.76878
G1 X126.417 Y122.75 Z.3 E36.99715
G1 F4800
G1 X128.822 Y125.156 Z.3 E37.22553
G1 F4799.939
G1 X128.061 Y125.156 E37.27661
G1 X125.656 Y122.75 Z.3 E37.50499
G1 X123.25 Y120.344 Z.3 E37.73336
G1 X122.489 Y120.344 E37.78444
G1 X124.895 Y122.75 Z.3 E38.01282
G1 X127.3 Y125.156 Z.3 E38.24119
G1 X126.539 Y125.156 E38.29227
G1 X124.133 Y122.75 Z.3 E38.52065
G1 X121.728 Y120.344 Z.3 E38.74902
G1 X120.967 Y120.344 E38.8001
G1 X123.372 Y122.75 Z.3 E39.02847
G1 X125.778 Y125.156 Z.3 E39.25685
G1 X125.017 Y125.156 E39.30793
G1 X122.611 Y122.75 Z.3 E39.5363
G1 F4800
G1 X120.206 Y120.344 Z.3 E39.76468
G1 F4799.795
G1 X119.444 Y120.344 E39.81583
G1 X124.255 Y125.156 E40.27258
G1 X123.494 Y125.156 E40.32366
G1 X121.089 Y122.75 Z.3 E40.55204
G1 X118.683 Y120.344 Z.3 E40.78041
G1 X117.922 Y120.344 E40.83149
G1 X120.327 Y122.75 Z.3 E41.05986
G1 F4800
G1 X122.733 Y125.156 Z.3 E41.28824
G1 F4799.941
G1 X121.972 Y125.156 E41.33932
G1 X119.566 Y122.75 Z.3 E41.5677
G1 X117.161 Y120.344 Z.3 E41.79607
G1 X116.4 Y120.344 E41.84715
G1 X118.805 Y122.75 Z.3 E42.07552
G1 X121.211 Y125.156 Z.3 E42.3039
G1 X120.45 Y125.156 E42.35498
G1 X118.044 Y122.75 Z.3 E42.58335
G1 X115.639 Y120.344 Z.3 E42.81173
G1 X114.878 Y120.344 E42.86281
G1 X117.284 Y122.75 Z.3 E43.09119
G1 X119.689 Y125.156 Z.3 E43.31956
G1 X118.928 Y125.156 E43.37064
G1 X116.522 Y122.75 Z.3 E43.59901
G1 F4800
G1 X114.117 Y120.344 Z.3 E43.82739
G1 F4799.893
G1 X113.356 Y120.344 E43.87847
G1 X115.762 Y122.75 Z.3 E44.10685
G1 X118.167 Y125.156 Z.3 E44.33522
G1 X117.406 Y125.156 E44.3863
G1 X115 Y122.75 Z.3 E44.6147
G1 X112.594 Y120.344 Z.3 E44.8431
G1 X111.833 Y120.344 E44.89418
G1 X114.238 Y122.75 Z.3 E45.12255
G1 F4800
G1 X116.644 Y125.156 Z.3 E45.35093
G1 F4799.893
G1 X115.883 Y125.156 E45.40201
G1 X113.478 Y122.75 Z.3 E45.63039
G1 X111.072 Y120.344 Z.3 E45.85876
G1 X110.311 Y120.344 E45.90984
G1 X112.716 Y122.75 Z.3 E46.13821
G1 F4800
G1 X115.122 Y125.156 Z.3 E46.36659
G1 F4799.941
G1 X114.361 Y125.156 E46.41767
G1 X111.956 Y122.75 Z.3 E46.64605
G1 X109.55 Y120.344 Z.3 E46.87442
G1 X108.789 Y120.344 E46.9255
G1 X111.195 Y122.75 Z.3 E47.15388
G1 X113.6 Y125.156 Z.3 E47.38225
G1 X112.839 Y125.156 E47.43333
G1 X110.434 Y122.75 Z.3 E47.66171
G1 X108.028 Y120.344 Z.3 E47.89008
G1 X107.267 Y120.344 E47.94116
G1 X109.673 Y122.75 Z.3 E48.16953
G1 X112.078 Y125.156 Z.3 E48.39791
G1 X111.317 Y125.156 E48.44899
G1 X108.911 Y122.75 Z.3 E48.67736
G1 F4800
G1 X106.506 Y120.344 Z.3 E48.90574
G1 F4799.893
G1 X105.745 Y120.344 E48.95682
G1 X108.15 Y122.75 Z.3 E49.1852
G1 X110.556 Y125.156 Z.3 E49.41357
G1 X109.795 Y125.156 E49.46465
G1 X107.389 Y122.75 Z.3 E49.69305
G1 X104.983 Y120.344 Z.3 E49.92145
G1 X104.222 Y120.344 E49.97253
G1 X106.628 Y122.75 Z.3 E50.2009
G1 X109.033 Y125.156 Z.3 E50.42928
G1 X108.272 Y125.156 E50.48036
G1 X105.867 Y122.75 Z.3 E50.70873
G1 X103.461 Y120.344 Z.3 E50.93711
G1 X102.7 Y120.344 E50.98819
G1 X105.105 Y122.75 Z.3 E51.21656
G1 F4800
G1 X107.511 Y125.156 Z.3 E51.44494
G1 F4799.941
G1 X106.75 Y125.156 E51.49602
G1 X104.344 Y122.75 Z.3 E51.7244
G1 X101.939 Y120.344 Z.3 E51.95277
G1 X101.178 Y120.344 E52.00385
G1 X103.583 Y122.75 Z.3 E52.23222
G1 X105.989 Y125.156 Z.3 E52.4606
G1 X105.228 Y125.156 E52.51168
G1 X102.822 Y122.75 Z.3 E52.74006
G1 X100.417 Y120.344 Z.3 E52.96843
G1 X99.656 Y120.344 E53.01951
G1 X102.062 Y122.75 Z.3 E53.24789
G1 X104.467 Y125.156 Z.3 E53.47626
G1 X103.706 Y125.156 E53.52734
G1 X101.3 Y122.75 Z.3 E53.75571
G1 F4800
G1 X98.895 Y120.344 Z.3 E53.98409
G1 F4799.756
G1 X98.133 Y120.344 E54.03524
G1 X102.945 Y125.156 E54.49204
G1 X102.183 Y125.156 E54.54319
G1 X97.372 Y120.344 E54.99994
G1 X96.611 Y120.344 E55.05102
G1 X99.016 Y122.75 Z.3 E55.2794
G1 X101.422 Y125.156 Z.3 E55.50777
G1 X100.661 Y125.156 E55.55885
G1 X98.256 Y122.75 Z.3 E55.78722
G1 F4800
G1 X95.85 Y120.344 Z.3 E56.0156
G1 F4799.939
G1 X95.089 Y120.344 E56.06668
G1 X97.494 Y122.75 Z.3 E56.29506
G1 X99.9 Y125.156 Z.3 E56.52343
G1 X99.139 Y125.156 E56.57451
G1 X96.734 Y122.75 Z.3 E56.80289
G1 X94.328 Y120.344 Z.3 E57.03126
G1 X93.567 Y120.344 E57.08234
G1 X95.973 Y122.75 Z.3 E57.31071
G1 F4800
G1 X98.378 Y125.156 Z.3 E57.53909
G1 F4799.943
G1 X97.617 Y125.156 E57.59017
G1 X95.212 Y122.75 Z.3 E57.81855
G1 X92.806 Y120.344 Z.3 E58.04692
G1 X92.045 Y120.344 E58.098
G1 X94.451 Y122.75 Z.3 E58.32637
G1 F4800
G1 X96.856 Y125.156 Z.3 E58.55475
G1 F4799.939
G1 X96.095 Y125.156 E58.60583
G1 X91.284 Y120.344 E59.06258
G1 X90.522 Y120.344 E59.11373
G1 X95.334 Y125.156 E59.57053
G1 X94.572 Y125.156 E59.62168
G1 X92.167 Y122.75 Z.3 E59.85006
G1 X89.761 Y120.344 Z.3 E60.07843
G1 X89 Y120.344 E60.12951
G1 X91.406 Y122.75 Z.3 E60.35789
G1 X93.811 Y125.156 Z.3 E60.58626
G1 X93.05 Y125.156 E60.63734
G1 X90.645 Y122.75 Z.3 E60.86572
G1 X88.239 Y120.344 Z.3 E61.09409
G1 X87.478 Y120.344 E61.14517
G1 X89.883 Y122.75 Z.3 E61.37354
G1 X92.289 Y125.156 Z.3 E61.60192
G1 X91.528 Y125.156 E61.653
G1 X89.122 Y122.75 Z.3 E61.88137
G1 F4800
G1 X86.717 Y120.344 Z.3 E62.10975
G1 F4799.943
G1 X85.956 Y120.344 E62.16083
G1 X88.361 Y122.75 Z.3 E62.38921
G1 X90.767 Y125.156 Z.3 E62.61758
G1 X90.006 Y125.156 E62.66866
G1 X87.6 Y122.75 Z.3 E62.89703
G1 F4800
G1 X85.195 Y120.344 Z.3 E63.12541
G1 F4799.941
G1 X84.434 Y120.344 E63.17649
G1 X86.84 Y122.75 Z.3 E63.40487
G1 X89.245 Y125.156 Z.3 E63.63324
G1 X88.484 Y125.156 E63.68432
G1 X86.078 Y122.75 Z.3 E63.91269
G1 F4800
G1 X83.673 Y120.344 Z.3 E64.14107
G1 F4799.387
G1 X82.911 Y120.344 E64.19222
G1 X85.316 Y122.75 Z.3 E64.42059
G1 X87.722 Y125.156 Z.3 E64.64897
G1 X86.961 Y125.156 E64.70005
G1 X84.555 Y122.75 Z.3 E64.92842
G1 X82.15 Y120.344 Z.3 E65.1568
G1 X81.389 Y120.344 E65.20788
G1 X83.794 Y122.75 Z.3 E65.43625
G1 F4800
G1 X86.2 Y125.156 Z.3 E65.66463
G1 F4799.535
G1 X85.439 Y125.156 E65.71571
G1 X83.034 Y122.75 Z.3 E65.94409
G1 X80.628 Y120.344 Z.3 E66.17246
G1 X79.867 Y120.344 E66.22354
G1 X82.272 Y122.75 Z.3 E66.45192
G1 X84.678 Y125.156 Z.3 E66.68029
G1 X83.917 Y125.156 E66.73137
G1 X81.512 Y122.75 Z.3 E66.95975
