; generated by PrusaSlicer 2.6.0+MacOS-x64 on 2023-07-29 at 00:48:05 UTC

; 

; external perimeters extrusion width = 0.45mm
; perimeters extrusion width = 0.40mm
; infill extrusion width = 0.45mm
; solid infill extrusion width = 0.50mm
; top infill extrusion width = 0.45mm
; support material extrusion width = 0.42mm
; first layer extrusion width = 0.56mm

M201 X2500 Y2500 Z800 E2500 ; sets maximum accelerations, mm/sec^2
M203 X300 Y250 Z8 E80 ; sets maximum feedrates, mm / sec
M204 S2500 T2500 ; sets acceleration (S) and retract acceleration (R), mm/sec^2
M205 X15.00 Y10.00 Z2.00 E10.00 ; sets the jerk limits, mm/sec
M205 S0 T0 ; sets the minimum extruding and travel feed rate, mm/sec
;TYPE:Custom
G90 ; use absolute coordinates
M83 ; extruder relative mode
M104 S215 ; set extruder temp
M140 S60 ; set bed temp
M190 S60 ; wait for bed temp
M109 S215 ; wait for extruder temp
G28                                        ; move X/Y/Z to min endstops
G1 Z0.28                                   ; lift nozzle a bit 
G92 E0 
G1 Y3 F1800                                    ; zero the extruded length 
G1 X60  E25 F500                       ; Extrude 25mm of filament in a 5cm line. 
G92 E0                                     ; zero the extruded length again 
G1 E-2 F500                                ; Retract a little 
G1 X70 F4000                              ; Quickly wipe away from the filament line
M117
G21 ; set units to millimeters
G90 ; use absolute coordinates
M82 ; use absolute distances for extrusion
G92 E0
M107
;LAYER_CHANGE
;Z:0.28
;HEIGHT:0.28
; BEFORE_LAYER_CHANGE 0 @ 0.28mm
G1 E-2 F4800
G92 E0
G1 Z.28 F7200
; AFTER_LAYER_CHANGE 0 @ 0.28mm
G1 X49.2 Y111.953
G1 E2 F4800
M204 S2000
;TYPE:Support material interface
;WIDTH:0.42
G1 F3000
G1 X49.2 Y115 E2.12766
G1 X49.577 Y115 E2.14346
G1 X49.577 Y112.123 E2.264
G1 X49.606 Y112.123 E2.26522
G1 X49.606 Y112.651 E2.28734
G1 X49.849 Y112.894 E2.30174
G1 X49.954 Y112.894 E2.30614
G1 X49.954 Y115 E2.39438
G1 X50.331 Y115 E2.41018
G1 X50.331 Y112.894 E2.49842
G1 X50.708 Y112.894 E2.51422
G1 X50.708 Y115 E2.60246
G1 X51.085 Y115 E2.61826
G1 X51.085 Y112.894 E2.7065
G1 X51.462 Y112.894 E2.7223
G1 X51.462 Y115 E2.81054
G1 X51.839 Y115 E2.82634
G1 X51.839 Y112.894 E2.91458
G1 X52.216 Y112.894 E2.93038
G1 X52.216 Y115 E3.01862
G1 X52.593 Y115 E3.03442
G1 X52.593 Y112.894 E3.12266
G1 X52.97 Y112.894 E3.13846
G1 X52.97 Y115 E3.2267
G1 X53.348 Y115 E3.24254
G1 X53.348 Y112.894 E3.33078
G1 X53.725 Y112.894 E3.34658
G1 X53.725 Y115 E3.43482
G1 X54.102 Y115 E3.45062
G1 X54.102 Y112.894 E3.53886
G1 X54.479 Y112.894 E3.55466
G1 X54.479 Y115 E3.6429
G1 X54.856 Y115 E3.6587
G1 X54.856 Y112.894 E3.74694
G1 X55.233 Y112.894 E3.76274
G1 X55.233 Y115 E3.85098
G1 X55.61 Y115 E3.86678
G1 X55.61 Y112.894 E3.95502
G1 X55.987 Y112.894 E3.97082
G1 X55.987 Y115 E4.05906
G1 X56.364 Y115 E4.07486
G1 X56.364 Y112.894 E4.1631
G1 X56.741 Y112.894 E4.1789
G1 X56.741 Y115 E4.26714
G1 X57.118 Y115 E4.28294
G1 X57.118 Y112.894 E4.37118
G1 X57.495 Y112.894 E4.38698
G1 X57.495 Y115 E4.47522
G1 X57.872 Y115 E4.49102
G1 X57.872 Y112.894 E4.57926
G1 X58.25 Y112.894 E4.5951
G1 X58.25 Y115 E4.68334
G1 X58.627 Y115 E4.69914
G1 X58.627 Y112.894 E4.78738
G1 X59.004 Y112.894 E4.80318
G1 X59.004 Y115 E4.89142
G1 X59.381 Y115 E4.90722
G1 X59.381 Y112.894 E4.99546
G1 X59.758 Y112.894 E5.01126
G1 X59.758 Y115 E5.0995
G1 X60.135 Y115 E5.1153
G1 X60.135 Y112.894 E5.20354
G1 X60.512 Y112.894 E5.21934
G1 X60.512 Y115 E5.30758
G1 X60.889 Y115 E5.32338
G1 X60.889 Y112.894 E5.41162
G1 X61.266 Y112.894 E5.42742
G1 X61.266 Y115 E5.51566
G1 X61.643 Y115 E5.53146
G1 X61.643 Y112.894 E5.6197
G1 X62.02 Y112.894 E5.6355
G1 X62.02 Y115 E5.72374
G1 X62.397 Y115 E5.73954
G1 X62.397 Y112.894 E5.82778
G1 X62.775 Y112.894 E5.84362
G1 X62.775 Y115 E5.93186
G1 X63.152 Y115 E5.94766
G1 X63.152 Y112.894 E6.0359
G1 X63.529 Y112.894 E6.0517
G1 X63.529 Y115 E6.13994
G1 X63.906 Y115 E6.15574
G1 X63.906 Y112.894 E6.24398
G1 X64.283 Y112.894 E6.25978
G1 X64.283 Y115 E6.34802
G1 X64.66 Y115 E6.36382
G1 X64.66 Y112.894 E6.45206
G1 X65.037 Y112.894 E6.46786
G1 X65.037 Y115 E6.5561
G1 X65.414 Y115 E6.5719
G1 X65.414 Y112.894 E6.66014
G1 X65.791 Y112.894 E6.67594
G1 X65.791 Y115 E6.76418
G1 X66.168 Y115 E6.77998
G1 X66.168 Y112.894 E6.86822
G1 X66.545 Y112.894 E6.88402
G1 X66.545 Y115 E6.97226
G1 X66.922 Y115 E6.98806
G1 X66.922 Y112.894 E7.0763
G1 X67.299 Y112.894 E7.0921
G1 X67.299 Y115 E7.18034
G1 X67.677 Y115 E7.19618
G1 X67.677 Y112.894 E7.28442
G1 X68.054 Y112.894 E7.30022
G1 X68.054 Y115 E7.38846
G1 X68.431 Y115 E7.40426
G1 X68.431 Y112.894 E7.4925
G1 X68.808 Y112.894 E7.5083
G1 X68.808 Y115 E7.59654
G1 X69.185 Y115 E7.61234
G1 X69.185 Y112.894 E7.70058
G1 X69.562 Y112.894 E7.71638
G1 X69.562 Y115 E7.80462
G1 X69.939 Y115 E7.82042
G1 X69.939 Y112.894 E7.90866
G1 X70.316 Y112.894 E7.92446
G1 X70.316 Y115 E8.0127
G1 X70.693 Y115 E8.0285
G1 X70.693 Y112.894 E8.11674
G1 X71.07 Y112.894 E8.13254
G1 X71.07 Y115 E8.22078
G1 X71.447 Y115 E8.23658
G1 X71.447 Y112.894 E8.32482
G1 X71.824 Y112.894 E8.34062
G1 X71.824 Y115 E8.42886
G1 X72.201 Y115 E8.44466
G1 X72.201 Y112.894 E8.5329
G1 X72.579 Y112.894 E8.54874
G1 X72.579 Y115 E8.63698
G1 X72.956 Y115 E8.65278
G1 X72.956 Y112.894 E8.74102
G1 X73.333 Y112.894 E8.75682
G1 X73.333 Y115 E8.84506
G1 X73.71 Y115 E8.86086
G1 X73.71 Y112.894 E8.9491
G1 X74.087 Y112.894 E8.9649
G1 X74.087 Y115 E9.05314
G1 X74.464 Y115 E9.06894
G1 X74.464 Y112.894 E9.15718
G1 X74.841 Y112.894 E9.17298
G1 X74.841 Y115 E9.26122
G1 X75.218 Y115 E9.27702
G1 X75.218 Y112.894 E9.36526
G1 X75.595 Y112.894 E9.38106
G1 X75.595 Y115 E9.4693
G1 X75.972 Y115 E9.4851
G1 X75.972 Y112.894 E9.57334
G1 X76.349 Y112.894 E9.58914
G1 X76.349 Y115 E9.67738
G1 X76.726 Y115 E9.69318
G1 X76.726 Y112.894 E9.78142
G1 X77.104 Y112.894 E9.79726
G1 X77.104 Y115 E9.8855
G1 X77.481 Y115 E9.9013
G1 X77.481 Y112.894 E9.98954
G1 X77.858 Y112.894 E10.00534
G1 X77.858 Y115 E10.09358
G1 X78.235 Y115 E10.10938
G1 X78.235 Y112.894 E10.19762
G1 X78.612 Y112.894 E10.21342
G1 X78.612 Y115 E10.30166
G1 X78.989 Y115 E10.31746
G1 X78.989 Y112.894 E10.4057
G1 X79.366 Y112.894 E10.4215
G1 X79.366 Y115 E10.50974
G1 X79.743 Y115 E10.52554
G1 X79.743 Y112.894 E10.61378
G1 X80.12 Y112.894 E10.62958
G1 X80.12 Y115 E10.71782
G1 X80.497 Y115 E10.73362
G1 X80.497 Y112.894 E10.82186
G1 X80.874 Y112.894 E10.83766
G1 X80.874 Y115 E10.9259
G1 X81.251 Y115 E10.9417
G1 X81.251 Y112.894 E11.02994
G1 X81.628 Y112.894 E11.04574
G1 X81.628 Y115 E11.13398
G1 X82.006 Y115 E11.14982
G1 X82.006 Y112.894 E11.23806
G1 X82.383 Y112.894 E11.25386
G1 X82.383 Y115 E11.3421
G1 X82.76 Y115 E11.3579
G1 X82.76 Y112.894 E11.44614
G1 X83.137 Y112.894 E11.46194
G1 X83.137 Y115 E11.55018
G1 X83.514 Y115 E11.56598
G1 X83.514 Y112.894 E11.65422
G1 X83.891 Y112.894 E11.67002
G1 X83.891 Y115 E11.75826
G1 X84.268 Y115 E11.77406
G1 X84.268 Y112.894 E11.8623
G1 X84.645 Y112.894 E11.8781
G1 X84.645 Y115 E11.96634
G1 X85.022 Y115 E11.98214
G1 X85.022 Y112.894 E12.07038
G1 X85.399 Y112.894 E12.08618
G1 X85.399 Y115 E12.17442
G1 X85.776 Y115 E12.19022
G1 X85.776 Y112.894 E12.27846
G1 X86.153 Y112.894 E12.29426
G1 X86.153 Y115 E12.3825
G1 X86.53 Y115 E12.3983
G1 X86.53 Y112.894 E12.48654
G1 X86.908 Y112.894 E12.50238
G1 X86.908 Y115 E12.59062
G1 X87.285 Y115 E12.60642
G1 X87.285 Y112.894 E12.69466
G1 X87.662 Y112.894 E12.71046
G1 X87.662 Y115 E12.7987
G1 X88.039 Y115 E12.8145
G1 X88.039 Y112.894 E12.90274
G1 X88.416 Y112.894 E12.91854
G1 X88.416 Y115 E13.00678
G1 X88.793 Y115 E13.02258
G1 X88.793 Y112.894 E13.11082
G1 X89.17 Y112.894 E13.12662
G1 X89.17 Y115 E13.21486
G1 X89.547 Y115 E13.23066
G1 X89.547 Y112.894 E13.3189
G1 X89.924 Y112.894 E13.3347
G1 X89.924 Y115 E13.42294
G1 X90.301 Y115 E13.43874
G1 X90.301 Y112.894 E13.52698
G1 X90.678 Y112.894 E13.54278
G1 X90.678 Y115 E13.63102
G1 X91.055 Y115 E13.64682
G1 X91.055 Y112.894 E13.73506
G1 X91.433 Y112.894 E13.7509
G1 X91.433 Y115 E13.83914
G1 X91.81 Y115 E13.85494
G1 X91.81 Y112.894 E13.94318
G1 X92.187 Y112.894 E13.95898
G1 X92.187 Y115 E14.04722
G1 X92.564 Y115 E14.06302
G1 X92.564 Y112.894 E14.15126
G1 X92.941 Y112.894 E14.16706
G1 X92.941 Y115 E14.2553
G1 X93.318 Y115 E14.2711
G1 X93.318 Y112.894 E14.35934
G1 X93.695 Y112.894 E14.37514
G1 X93.695 Y115 E14.46338
G1 X94.072 Y115 E14.47918
G1 X94.072 Y112.894 E14.56742
G1 X94.449 Y112.894 E14.58322
G1 X94.449 Y115 E14.67146
G1 X94.826 Y115 E14.68726
G1 X94.826 Y112.894 E14.7755
G1 X95.203 Y112.894 E14.7913
G1 X95.203 Y115 E14.87954
G1 X95.58 Y115 E14.89534
G1 X95.58 Y112.894 E14.98358
G1 X95.957 Y112.894 E14.99938
G1 X95.957 Y115 E15.08762
G1 X96.335 Y115 E15.10346
G1 X96.335 Y112.894 E15.1917
G1 X96.712 Y112.894 E15.2075
G1 X96.712 Y115 E15.29574
G1 X97.089 Y115 E15.31154
G1 X97.089 Y112.894 E15.39978
G1 X97.466 Y112.894 E15.41558
G1 X97.466 Y115 E15.50382
G1 X97.843 Y115 E15.51962
G1 X97.843 Y112.894 E15.60786
G1 X98.22 Y112.894 E15.62366
G1 X98.22 Y115 E15.7119
G1 X98.597 Y115 E15.7277
G1 X98.597 Y112.894 E15.81594
G1 X98.974 Y112.894 E15.83174
G1 X98.974 Y115 E15.91998
G1 X99.351 Y115 E15.93578
G1 X99.351 Y112.894 E16.02402
G1 X99.728 Y112.894 E16.03982
G1 X99.728 Y115 E16.12806
G1 X100.105 Y115 E16.14386
G1 X100.105 Y112.894 E16.2321
G1 X100.482 Y112.894 E16.2479
G1 X100.482 Y115 E16.33614
G1 X100.859 Y115 E16.35194
G1 X100.859 Y112.894 E16.44018
G1 X101.237 Y112.894 E16.45602
G1 X101.237 Y115 E16.54426
G1 X101.614 Y115 E16.56006
G1 X101.614 Y112.894 E16.6483
G1 X101.991 Y112.894 E16.6641
G1 X101.991 Y115 E16.75234
G1 X102.368 Y115 E16.76814
G1 X102.368 Y112.894 E16.85638
G1 X102.745 Y112.894 E16.87218
G1 X102.745 Y115 E16.96042
G1 X103.122 Y115 E16.97622
G1 X103.122 Y112.894 E17.06446
G1 X103.499 Y112.894 E17.08026
G1 X103.499 Y115 E17.1685
G1 X103.876 Y115 E17.1843
G1 X103.876 Y112.894 E17.27254
G1 X104.253 Y112.894 E17.28834
G1 X104.253 Y115 E17.37658
G1 X104.63 Y115 E17.39238
G1 X104.63 Y112.894 E17.48062
G1 X105.007 Y112.894 E17.49642
G1 X105.007 Y115 E17.58466
G1 X105.384 Y115 E17.60046
G1 X105.384 Y112.894 E17.6887
G1 X105.762 Y112.894 E17.70454
G1 X105.762 Y115 E17.79278
G1 X106.139 Y115 E17.80858
G1 X106.139 Y112.894 E17.89682
G1 X106.516 Y112.894 E17.91262
G1 X106.516 Y115 E18.00086
G1 X106.893 Y115 E18.01666
G1 X106.893 Y112.894 E18.1049
G1 X107.27 Y112.894 E18.1207
G1 X107.27 Y115 E18.20894
G1 X107.647 Y115 E18.22474
G1 X107.647 Y112.894 E18.31298
G1 X108.024 Y112.894 E18.32878
G1 X108.024 Y115 E18.41702
G1 X108.401 Y115 E18.43282
G1 X108.401 Y112.894 E18.52106
G1 X108.778 Y112.894 E18.53686
G1 X108.778 Y115 E18.6251
G1 X109.155 Y115 E18.6409
G1 X109.155 Y112.894 E18.72914
G1 X109.532 Y112.894 E18.74494
G1 X109.532 Y115 E18.83318
G1 X109.909 Y115 E18.84898
G1 X109.909 Y112.894 E18.93722
G1 X110.286 Y112.894 E18.95302
G1 X110.286 Y115 E19.04126
G1 X110.664 Y115 E19.0571
G1 X110.664 Y112.894 E19.14534
G1 X111.041 Y112.894 E19.16114
G1 X111.041 Y115 E19.24938
G1 X111.418 Y115 E19.26518
G1 X111.418 Y112.894 E19.35342
G1 X111.795 Y112.894 E19.36922
G1 X111.795 Y115 E19.45746
G1 X112.172 Y115 E19.47326
G1 X112.172 Y112.894 E19.5615
G1 X112.549 Y112.894 E19.5773
G1 X112.549 Y115 E19.66554
G1 X112.926 Y115 E19.68134
G1 X112.926 Y112.894 E19.76958
G1 X113.303 Y112.894 E19.78538
G1 X113.303 Y115 E19.87362
G1 X113.68 Y115 E19.88942
G1 X113.68 Y112.894 E19.97766
G1 X114.057 Y112.894 E19.99346
G1 X114.057 Y115 E20.0817
G1 X114.434 Y115 E20.0975
G1 X114.434 Y112.894 E20.18574
G1 X114.811 Y112.894 E20.20154
G1 X114.811 Y115 E20.28978
G1 X115.188 Y115 E20.30558
G1 X115.188 Y112.894 E20.39382
G1 X115.566 Y112.894 E20.40966
G1 X115.566 Y115 E20.4979
G1 X115.943 Y115 E20.5137
G1 X115.943 Y112.894 E20.60194
G1 X116.32 Y112.894 E20.61774
G1 X116.32 Y115 E20.70598
G1 X116.697 Y115 E20.72178
G1 X116.697 Y112.894 E20.81002
G1 X117.074 Y112.894 E20.82582
G1 X117.074 Y115 E20.91406
G1 X117.451 Y115 E20.92986
G1 X117.451 Y112.894 E21.0181
G1 X117.828 Y112.894 E21.0339
G1 X117.828 Y115 E21.12214
G1 X118.205 Y115 E21.13794
G1 X118.205 Y112.894 E21.22618
G1 X118.582 Y112.894 E21.24198
G1 X118.582 Y115 E21.33022
G1 X118.959 Y115 E21.34602
G1 X118.959 Y112.894 E21.43426
G1 X119.336 Y112.894 E21.45006
G1 X119.336 Y115 E21.5383
G1 X119.713 Y115 E21.5541
G1 X119.713 Y112.894 E21.64234
G1 X120.091 Y112.894 E21.65818
G1 X120.091 Y115 E21.74642
G1 X120.468 Y115 E21.76222
G1 X120.468 Y112.894 E21.85046
G1 X120.845 Y112.894 E21.86626
G1 X120.845 Y115 E21.9545
G1 X121.222 Y115 E21.9703
G1 X121.222 Y112.894 E22.05854
G1 X121.599 Y112.894 E22.07434
G1 X121.599 Y115 E22.16258
G1 X121.976 Y115 E22.17838
G1 X121.976 Y112.894 E22.26662
G1 X122.353 Y112.894 E22.28242
G1 X122.353 Y115 E22.37066
G1 X122.73 Y115 E22.38646
G1 X122.73 Y112.894 E22.4747
G1 X123.107 Y112.894 E22.4905
G1 X123.107 Y115 E22.57874
G1 X123.484 Y115 E22.59454
G1 X123.484 Y112.894 E22.68278
G1 X123.861 Y112.894 E22.69858
G1 X123.861 Y115 E22.78682
G1 X124.238 Y115 E22.80262
G1 X124.238 Y112.894 E22.89086
G1 X124.615 Y112.894 E22.90666
G1 X124.615 Y115 E22.9949
G1 X124.993 Y115 E23.01074
G1 X124.993 Y112.894 E23.09898
G1 X125.37 Y112.894 E23.11478
G1 X125.37 Y115 E23.20302
G1 X125.747 Y115 E23.21882
G1 X125.747 Y112.894 E23.30706
G1 X126.124 Y112.894 E23.32286
G1 X126.124 Y115 E23.4111
G1 X126.501 Y115 E23.4269
G1 X126.501 Y112.894 E23.51514
G1 X126.878 Y112.894 E23.53094
G1 X126.878 Y115 E23.61918
G1 X127.255 Y115 E23.63498
G1 X127.255 Y112.894 E23.72322
G1 X127.632 Y112.894 E23.73902
G1 X127.632 Y115 E23.82726
G1 X128.009 Y115 E23.84306
G1 X128.009 Y112.894 E23.9313
G1 X128.386 Y112.894 E23.9471
G1 X128.386 Y115 E24.03534
G1 X128.763 Y115 E24.05114
G1 X128.763 Y112.894 E24.13938
G1 X129.14 Y112.894 E24.15518
G1 X129.14 Y115 E24.24342
G1 X129.517 Y115 E24.25922
G1 X129.517 Y112.894 E24.34746
G1 X129.895 Y112.894 E24.3633
G1 X129.895 Y115 E24.45154
G1 X130.272 Y115 E24.46734
G1 X130.272 Y112.894 E24.55558
G1 X130.649 Y112.894 E24.57138
G1 X130.649 Y115 E24.65962
G1 X131.026 Y115 E24.67542
G1 X131.026 Y112.894 E24.76366
G1 X131.403 Y112.894 E24.77946
G1 X131.403 Y115 E24.8677
G1 X131.78 Y115 E24.8835
G1 X131.78 Y112.894 E24.97174
G1 X132.157 Y112.894 E24.98754
G1 X132.157 Y115 E25.07578
G1 X132.534 Y115 E25.09158
G1 X132.534 Y112.894 E25.17982
G1 X132.911 Y112.894 E25.19562
G1 X132.911 Y115 E25.28386
G1 X133.288 Y115 E25.29966
G1 X133.288 Y112.894 E25.3879
G1 X133.665 Y112.894 E25.4037
G1 X133.665 Y115 E25.49194
G1 X134.042 Y115 E25.50774
G1 X134.042 Y112.894 E25.59598
G1 X134.42 Y112.894 E25.61182
G1 X134.42 Y115 E25.70006
G1 X134.797 Y115 E25.71586
G1 X134.797 Y112.894 E25.8041
G1 X135.174 Y112.894 E25.8199
G1 X135.174 Y115 E25.90814
G1 X135.551 Y115 E25.92394
G1 X135.551 Y112.894 E26.01218
G1 X135.928 Y112.894 E26.02798
G1 X135.928 Y115 E26.11622
G1 X136.305 Y115 E26.13202
G1 X136.305 Y112.894 E26.22026
G1 X136.682 Y112.894 E26.23606
G1 X136.682 Y115 E26.3243
G1 X137.059 Y115 E26.3401
G1 X137.059 Y112.894 E26.42834
G1 X137.436 Y112.894 E26.44414
G1 X137.436 Y115 E26.53238
G1 X137.813 Y115 E26.54818
G1 X137.813 Y112.894 E26.63642
G1 X138.19 Y112.894 E26.65222
G1 X138.19 Y115 E26.74046
G1 X138.567 Y115 E26.75626
G1 X138.567 Y112.894 E26.8445
G1 X138.944 Y112.894 E26.8603
G1 X138.944 Y115 E26.94854
G1 X139.322 Y115 E26.96438
G1 X139.322 Y112.894 E27.05262
G1 X139.699 Y112.894 E27.06842
G1 X139.699 Y115 E27.15666
G1 X140.076 Y115 E27.17246
G1 X140.076 Y112.894 E27.2607
G1 X140.453 Y112.894 E27.2765
G1 X140.453 Y115 E27.36474
G1 X140.83 Y115 E27.38054
G1 X140.83 Y112.894 E27.46878
G1 X141.207 Y112.894 E27.48458
G1 X141.207 Y115 E27.57282
G1 X141.584 Y115 E27.58862
G1 X141.584 Y112.894 E27.67686
G1 X141.961 Y112.894 E27.69266
G1 X141.961 Y115 E27.7809
G1 X142.338 Y115 E27.7967
G1 X142.338 Y112.894 E27.88494
G1 X142.715 Y112.894 E27.90074
G1 X142.715 Y115 E27.98898
G1 X143.092 Y115 E28.00478
G1 X143.092 Y112.894 E28.09302
G1 X143.469 Y112.894 E28.10882
G1 X143.469 Y115 E28.19706
G1 X143.846 Y115 E28.21286
G1 X143.846 Y112.894 E28.3011
G1 X144.224 Y112.894 E28.31694
G1 X144.224 Y115 E28.40518
G1 X144.601 Y115 E28.42098
G1 X144.601 Y112.894 E28.50922
