; generated by PrusaSlicer 2.6.0+MacOS-x64 on 2023-07-29 at 00:07:36 UTC

; 

; external perimeters extrusion width = 0.45mm
; perimeters extrusion width = 0.45mm
; infill extrusion width = 0.45mm
; solid infill extrusion width = 0.45mm
; top infill extrusion width = 0.40mm
; support material extrusion width = 0.40mm
; first layer extrusion width = 0.60mm

M201 X2500 Y2500 Z800 E2500 ; sets maximum accelerations, mm/sec^2
M203 X300 Y250 Z8 E80 ; sets maximum feedrates, mm / sec
M204 S2500 T2500 ; sets acceleration (S) and retract acceleration (R), mm/sec^2
M205 X15.00 Y10.00 Z2.00 E10.00 ; sets the jerk limits, mm/sec
M205 S0 T0 ; sets the minimum extruding and travel feed rate, mm/sec
;TYPE:Custom
G90 ; use absolute coordinates
M83 ; extruder relative mode
M104 S215 ; set extruder temp
M140 S60 ; set bed temp
M190 S60 ; wait for bed temp
M109 S215 ; wait for extruder temp
G28                                        ; move X/Y/Z to min endstops
G1 Z0.28                                   ; lift nozzle a bit 
G92 E0 
G1 Y3 F1800                                    ; zero the extruded length 
G1 X60  E25 F500                       ; Extrude 25mm of filament in a 5cm line. 
G92 E0                                     ; zero the extruded length again 
G1 E-2 F500                                ; Retract a little 
G1 X70 F4000                              ; Quickly wipe away from the filament line
M117
G21 ; set units to millimeters
G90 ; use absolute coordinates
M82 ; use absolute distances for extrusion
G92 E0
M107
;LAYER_CHANGE
;Z:0.3
;HEIGHT:0.3
; BEFORE_LAYER_CHANGE 0 @ 0.3mm
G1 E-2 F4800
G92 E0
G1 Z.3 F9000
; AFTER_LAYER_CHANGE 0 @ 0.3mm
G1 X49.476 Y115.161 F15000
G1 E2 F4800
M204 S1000
;TYPE:Support material interface
;WIDTH:0.4
G1 F4798.632
G1 X49.476 Y112.143 E2.12633
G1 X49.596 Y112.143 E2.13135
G1 F4799.08
G1 X49.596 Y112.667 E2.15328
G1 X49.833 Y112.904 E2.16731
G1 X49.833 Y115 E2.25505
G1 X50.19 Y115 E2.26999
G1 F4798.638
G1 X50.19 Y112.904 E2.35773
G1 X50.547 Y112.904 E2.37267
G1 X50.547 Y115 E2.46041
G1 X50.904 Y115 E2.47535
G1 X50.904 Y112.904 E2.56309
G1 X51.261 Y112.904 E2.57803
G1 X51.261 Y115 E2.66577
G1 X51.618 Y115 E2.68071
G1 F4799.332
G1 X51.618 Y112.904 E2.76845
G1 F4798.749
G1 X51.976 Y112.904 E2.78344
G1 F4799.332
G1 X51.976 Y115 E2.87118
G1 X52.333 Y115 E2.88612
G1 F4798.663
G1 X52.333 Y112.904 E2.97386
G1 X52.69 Y112.904 E2.9888
G1 X52.69 Y115 E3.07654
G1 X53.047 Y115 E3.09148
G1 X53.047 Y112.904 E3.17922
G1 X53.404 Y112.904 E3.19416
G1 X53.404 Y115 E3.2819
G1 X53.761 Y115 E3.29684
G1 X53.761 Y112.904 E3.38458
G1 X54.118 Y112.904 E3.39952
G1 X54.118 Y115 E3.48726
G1 X54.475 Y115 E3.5022
G1 X54.475 Y112.904 E3.58994
G1 X54.832 Y112.904 E3.60488
G1 X54.832 Y115 E3.69262
G1 X55.189 Y115 E3.70756
G1 X55.189 Y112.904 E3.7953
G1 X55.546 Y112.904 E3.81024
G1 X55.546 Y115 E3.89798
G1 X55.903 Y115 E3.91292
G1 X55.903 Y112.904 E4.00066
G1 X56.26 Y112.904 E4.0156
G1 F4799.37
G1 X56.26 Y115 E4.10334
G1 F4798.825
G1 X56.618 Y115 E4.11833
G1 F4799.37
G1 X56.618 Y112.904 E4.20607
G1 X56.975 Y112.904 E4.22101
G1 F4798.637
G1 X56.975 Y115 E4.30875
G1 X57.332 Y115 E4.32369
G1 X57.332 Y112.904 E4.41143
G1 X57.689 Y112.904 E4.42637
G1 X57.689 Y115 E4.51411
G1 X58.046 Y115 E4.52905
G1 X58.046 Y112.904 E4.61679
G1 X58.403 Y112.904 E4.63173
G1 X58.403 Y115 E4.71947
G1 X58.76 Y115 E4.73441
G1 X58.76 Y112.904 E4.82215
G1 X59.117 Y112.904 E4.83709
G1 X59.117 Y115 E4.92483
G1 X59.474 Y115 E4.93977
G1 X59.474 Y112.904 E5.02751
G1 X59.831 Y112.904 E5.04245
G1 X59.831 Y115 E5.13019
G1 X60.188 Y115 E5.14513
G1 X60.188 Y112.904 E5.23287
G1 X60.545 Y112.904 E5.24781
G1 X60.545 Y115 E5.33555
G1 X60.902 Y115 E5.35049
G1 F4799.344
G1 X60.902 Y112.904 E5.43823
G1 F4798.773
G1 X61.26 Y112.904 E5.45322
G1 F4799.344
G1 X61.26 Y115 E5.54096
G1 X61.617 Y115 E5.5559
G1 F4798.638
G1 X61.617 Y112.904 E5.64364
G1 X61.974 Y112.904 E5.65858
G1 X61.974 Y115 E5.74632
G1 X62.331 Y115 E5.76126
G1 X62.331 Y112.904 E5.849
G1 X62.688 Y112.904 E5.86394
G1 X62.688 Y115 E5.95168
G1 X63.045 Y115 E5.96662
G1 X63.045 Y112.904 E6.05436
G1 X63.402 Y112.904 E6.0693
G1 X63.402 Y115 E6.15704
G1 X63.759 Y115 E6.17198
G1 X63.759 Y112.904 E6.25972
G1 X64.116 Y112.904 E6.27466
G1 X64.116 Y115 E6.3624
G1 X64.473 Y115 E6.37734
G1 X64.473 Y112.904 E6.46508
G1 X64.83 Y112.904 E6.48002
G1 X64.83 Y115 E6.56776
G1 X65.187 Y115 E6.5827
G1 F4799.306
G1 X65.187 Y112.904 E6.67044
G1 F4798.838
G1 X65.545 Y112.904 E6.68543
G1 F4799.267
G1 X65.545 Y115 E6.77317
G1 X65.902 Y115 E6.78811
G1 F4798.509
G1 X65.902 Y112.904 E6.87585
G1 X66.259 Y112.904 E6.89079
G1 X66.259 Y115 E6.97853
G1 X66.616 Y115 E6.99347
G1 X66.616 Y112.904 E7.08121
G1 X66.973 Y112.904 E7.09615
G1 X66.973 Y115 E7.18389
G1 X67.33 Y115 E7.19883
G1 X67.33 Y112.904 E7.28657
G1 X67.687 Y112.904 E7.30151
G1 X67.687 Y115 E7.38925
G1 X68.044 Y115 E7.40419
G1 X68.044 Y112.904 E7.49193
G1 X68.401 Y112.904 E7.50687
G1 X68.401 Y115 E7.59461
G1 X68.758 Y115 E7.60955
G1 X68.758 Y112.904 E7.69729
G1 X69.115 Y112.904 E7.71223
G1 X69.115 Y115 E7.79997
G1 X69.472 Y115 E7.81491
G1 X69.472 Y112.904 E7.90265
G1 X69.829 Y112.904 E7.91759
G1 F4799.344
G1 X69.829 Y115 E8.00533
G1 F4798.723
G1 X70.187 Y115 E8.02032
G1 F4799.344
G1 X70.187 Y112.904 E8.10806
G1 X70.544 Y112.904 E8.123
G1 F4798.688
G1 X70.544 Y115 E8.21074
G1 X70.901 Y115 E8.22568
G1 X70.901 Y112.904 E8.31342
G1 X71.258 Y112.904 E8.32836
G1 X71.258 Y115 E8.4161
G1 X71.615 Y115 E8.43104
G1 X71.615 Y112.904 E8.51878
G1 X71.972 Y112.904 E8.53372
G1 X71.972 Y115 E8.62146
G1 X72.329 Y115 E8.6364
G1 X72.329 Y112.904 E8.72414
G1 X72.686 Y112.904 E8.73908
G1 X72.686 Y115 E8.82682
G1 X73.043 Y115 E8.84176
G1 X73.043 Y112.904 E8.9295
G1 X73.4 Y112.904 E8.94444
G1 X73.4 Y115 E9.03218
G1 X73.757 Y115 E9.04712
G1 X73.757 Y112.904 E9.13486
G1 X74.114 Y112.904 E9.1498
G1 X74.114 Y115 E9.23754
G1 X74.471 Y115 E9.25248
G1 F4799.165
G1 X74.471 Y112.904 E9.34022
G1 F4798.851
G1 X74.829 Y112.904 E9.35521
G1 F4799.242
G1 X74.829 Y115 E9.44295
G1 X75.186 Y115 E9.45789
G1 F4798.381
G1 X75.186 Y112.904 E9.54563
G1 X75.543 Y112.904 E9.56057
G1 X75.543 Y115 E9.64831
G1 X75.9 Y115 E9.66325
G1 X75.9 Y112.904 E9.75099
G1 X76.257 Y112.904 E9.76593
G1 X76.257 Y115 E9.85367
G1 X76.614 Y115 E9.86861
G1 X76.614 Y112.904 E9.95635
G1 X76.971 Y112.904 E9.97129
G1 X76.971 Y115 E10.05903
G1 X77.328 Y115 E10.07397
G1 X77.328 Y112.904 E10.16171
G1 X77.685 Y112.904 E10.17665
G1 X77.685 Y115 E10.26439
G1 X78.042 Y115 E10.27933
G1 X78.042 Y112.904 E10.36707
G1 X78.399 Y112.904 E10.38201
G1 X78.399 Y115 E10.46975
G1 X78.756 Y115 E10.48469
G1 F4799.242
G1 X78.756 Y112.904 E10.57243
G1 F4798.52
G1 X79.114 Y112.904 E10.58742
G1 F4799.191
G1 X79.114 Y115 E10.67516
G1 X79.471 Y115 E10.6901
G1 F4798.535
G1 X79.471 Y112.904 E10.77784
G1 X79.828 Y112.904 E10.79278
G1 X79.828 Y115 E10.88052
G1 X80.185 Y115 E10.89546
G1 X80.185 Y112.904 E10.9832
G1 X80.542 Y112.904 E10.99814
G1 X80.542 Y115 E11.08588
G1 X80.899 Y115 E11.10082
G1 X80.899 Y112.904 E11.18856
G1 X81.256 Y112.904 E11.2035
G1 X81.256 Y115 E11.29124
G1 X81.613 Y115 E11.30618
G1 X81.613 Y112.904 E11.39392
G1 X81.97 Y112.904 E11.40886
G1 X81.97 Y115 E11.4966
G1 X82.327 Y115 E11.51154
G1 X82.327 Y112.904 E11.59928
G1 X82.684 Y112.904 E11.61422
G1 X82.684 Y115 E11.70196
G1 X83.041 Y115 E11.7169
G1 X83.041 Y112.904 E11.80464
G1 X83.398 Y112.904 E11.81958
G1 F4799.344
G1 X83.398 Y115 E11.90732
G1 F4798.723
G1 X83.756 Y115 E11.92231
G1 F4799.344
G1 X83.756 Y112.904 E12.01005
G1 X84.113 Y112.904 E12.02499
G1 F4798.688
G1 X84.113 Y115 E12.11273
G1 X84.47 Y115 E12.12767
G1 X84.47 Y112.904 E12.21541
G1 X84.827 Y112.904 E12.23035
G1 X84.827 Y115 E12.31809
G1 X85.184 Y115 E12.33303
G1 X85.184 Y112.904 E12.42077
G1 X85.541 Y112.904 E12.43571
G1 X85.541 Y115 E12.52345
G1 X85.898 Y115 E12.53839
G1 X85.898 Y112.904 E12.62613
G1 X86.255 Y112.904 E12.64107
G1 X86.255 Y115 E12.72881
G1 X86.612 Y115 E12.74375
G1 X86.612 Y112.904 E12.83149
G1 X86.969 Y112.904 E12.84643
G1 X86.969 Y115 E12.93417
G1 X87.326 Y115 E12.94911
G1 X87.326 Y112.904 E13.03685
G1 X87.683 Y112.904 E13.05179
G1 X87.683 Y115 E13.13953
G1 X88.04 Y115 E13.15447
G1 F4799.344
G1 X88.04 Y112.904 E13.24221
G1 F4798.825
G1 X88.398 Y112.904 E13.2572
G1 F4799.396
G1 X88.398 Y115 E13.34494
G1 X88.755 Y115 E13.35988
G1 F4798.586
G1 X88.755 Y112.904 E13.44762
G1 X89.112 Y112.904 E13.46256
G1 X89.112 Y115 E13.5503
G1 X89.469 Y115 E13.56524
G1 X89.469 Y112.904 E13.65298
G1 X89.826 Y112.904 E13.66792
G1 X89.826 Y115 E13.75566
G1 X90.183 Y115 E13.7706
G1 X90.183 Y112.904 E13.85834
G1 X90.54 Y112.904 E13.87328
G1 X90.54 Y115 E13.96102
G1 X90.897 Y115 E13.97596
G1 X90.897 Y112.904 E14.0637
G1 X91.254 Y112.904 E14.07864
G1 X91.254 Y115 E14.16638
G1 X91.611 Y115 E14.18132
G1 X91.611 Y112.904 E14.26906
G1 X91.968 Y112.904 E14.284
G1 X91.968 Y115 E14.37174
G1 X92.325 Y115 E14.38668
G1 F4799.242
G1 X92.325 Y112.904 E14.47442
G1 F4798.52
G1 X92.683 Y112.904 E14.48941
G1 F4799.191
G1 X92.683 Y115 E14.57715
G1 X93.04 Y115 E14.59209
G1 F4798.535
G1 X93.04 Y112.904 E14.67983
G1 X93.397 Y112.904 E14.69477
G1 X93.397 Y115 E14.78251
G1 X93.754 Y115 E14.79745
G1 X93.754 Y112.904 E14.88519
G1 X94.111 Y112.904 E14.90013
G1 X94.111 Y115 E14.98787
G1 X94.468 Y115 E15.00281
G1 X94.468 Y112.904 E15.09055
G1 X94.825 Y112.904 E15.10549
G1 X94.825 Y115 E15.19323
G1 X95.182 Y115 E15.20817
G1 X95.182 Y112.904 E15.29591
G1 X95.539 Y112.904 E15.31085
G1 X95.539 Y115 E15.39859
G1 X95.896 Y115 E15.41353
G1 X95.896 Y112.904 E15.50127
G1 X96.253 Y112.904 E15.51621
G1 X96.253 Y115 E15.60395
G1 X96.61 Y115 E15.61889
G1 X96.61 Y112.904 E15.70663
G1 X96.967 Y112.904 E15.72157
G1 F4799.344
G1 X96.967 Y115 E15.80931
G1 F4798.723
G1 X97.325 Y115 E15.8243
G1 F4799.344
G1 X97.325 Y112.904 E15.91204
G1 X97.682 Y112.904 E15.92698
G1 F4798.33
G1 X97.682 Y115 E16.01472
G1 X98.039 Y115 E16.02966
G1 X98.039 Y112.904 E16.1174
G1 X98.396 Y112.904 E16.13234
G1 X98.396 Y115 E16.22008
G1 X98.753 Y115 E16.23502
G1 X98.753 Y112.904 E16.32276
G1 X99.11 Y112.904 E16.3377
G1 X99.11 Y115 E16.42544
G1 X99.467 Y115 E16.44038
G1 X99.467 Y112.904 E16.52812
G1 X99.824 Y112.904 E16.54306
G1 X99.824 Y115 E16.6308
G1 X100.181 Y115 E16.64574
G1 X100.181 Y112.904 E16.73348
G1 X100.538 Y112.904 E16.74842
G1 X100.538 Y115 E16.83616
G1 X100.895 Y115 E16.8511
G1 X100.895 Y112.904 E16.93884
G1 X101.252 Y112.904 E16.95378
G1 X101.252 Y115 E17.04152
G1 X101.609 Y115 E17.05646
G1 F4799.344
G1 X101.609 Y112.904 E17.1442
G1 F4798.825
G1 X101.967 Y112.904 E17.15919
G1 F4799.396
G1 X101.967 Y115 E17.24693
G1 X102.324 Y115 E17.26187
G1 F4798.74
G1 X102.324 Y112.904 E17.34961
G1 X102.681 Y112.904 E17.36455
G1 X102.681 Y115 E17.45229
G1 X103.038 Y115 E17.46723
G1 X103.038 Y112.904 E17.55497
G1 X103.395 Y112.904 E17.56991
G1 X103.395 Y115 E17.65765
G1 X103.752 Y115 E17.67259
G1 X103.752 Y112.904 E17.76033
G1 X104.109 Y112.904 E17.77527
G1 X104.109 Y115 E17.86301
G1 X104.466 Y115 E17.87795
G1 X104.466 Y112.904 E17.96569
G1 X104.823 Y112.904 E17.98063
G1 X104.823 Y115 E18.06837
G1 X105.18 Y115 E18.08331
G1 X105.18 Y112.904 E18.17105
G1 X105.537 Y112.904 E18.18599
G1 X105.537 Y115 E18.27373
G1 X105.894 Y115 E18.28867
G1 F4799.396
G1 X105.894 Y112.904 E18.37641
G1 F4798.825
G1 X106.252 Y112.904 E18.3914
G1 F4799.344
G1 X106.252 Y115 E18.47914
G1 X106.609 Y115 E18.49408
G1 F4798.688
G1 X106.609 Y112.904 E18.58182
G1 X106.966 Y112.904 E18.59676
G1 X106.966 Y115 E18.6845
G1 X107.323 Y115 E18.69944
G1 X107.323 Y112.904 E18.78718
G1 X107.68 Y112.904 E18.80212
G1 X107.68 Y115 E18.88986
G1 X108.037 Y115 E18.9048
G1 X108.037 Y112.904 E18.99254
G1 X108.394 Y112.904 E19.00748
G1 X108.394 Y115 E19.09522
G1 X108.751 Y115 E19.11016
G1 X108.751 Y112.904 E19.1979
G1 X109.108 Y112.904 E19.21284
G1 X109.108 Y115 E19.30058
G1 X109.465 Y115 E19.31552
G1 X109.465 Y112.904 E19.40326
G1 X109.822 Y112.904 E19.4182
G1 X109.822 Y115 E19.50594
G1 X110.179 Y115 E19.52088
G1 X110.179 Y112.904 E19.60862
G1 X110.536 Y112.904 E19.62356
G1 F4799.344
G1 X110.536 Y115 E19.7113
G1 F4798.723
G1 X110.894 Y115 E19.72629
G1 F4799.344
G1 X110.894 Y112.904 E19.81403
G1 X111.251 Y112.904 E19.82897
G1 F4798.688
G1 X111.251 Y115 E19.91671
G1 X111.608 Y115 E19.93165
G1 X111.608 Y112.904 E20.01939
G1 X111.965 Y112.904 E20.03433
G1 X111.965 Y115 E20.12207
G1 X112.322 Y115 E20.13701
G1 X112.322 Y112.904 E20.22475
G1 X112.679 Y112.904 E20.23969
G1 X112.679 Y115 E20.32743
G1 X113.036 Y115 E20.34237
G1 X113.036 Y112.904 E20.43011
G1 X113.393 Y112.904 E20.44505
G1 X113.393 Y115 E20.53279
G1 X113.75 Y115 E20.54773
G1 X113.75 Y112.904 E20.63547
G1 X114.107 Y112.904 E20.65041
G1 X114.107 Y115 E20.73815
G1 X114.464 Y115 E20.75309
G1 X114.464 Y112.904 E20.84083
G1 X114.821 Y112.904 E20.85577
G1 X114.821 Y115 E20.94351
G1 X115.178 Y115 E20.95845
G1 F4799.344
G1 X115.178 Y112.904 E21.04619
G1 F4798.825
G1 X115.536 Y112.904 E21.06118
G1 F4799.396
G1 X115.536 Y115 E21.14892
G1 X115.893 Y115 E21.16386
G1 F4798.74
G1 X115.893 Y112.904 E21.2516
G1 X116.25 Y112.904 E21.26654
G1 X116.25 Y115 E21.35428
G1 X116.607 Y115 E21.36922
G1 X116.607 Y112.904 E21.45696
G1 X116.964 Y112.904 E21.4719
G1 X116.964 Y115 E21.55964
G1 X117.321 Y115 E21.57458
G1 X117.321 Y112.904 E21.66232
G1 X117.678 Y112.904 E21.67726
G1 X117.678 Y115 E21.765
G1 X118.035 Y115 E21.77994
G1 X118.035 Y112.904 E21.86768
G1 X118.392 Y112.904 E21.88262
G1 X118.392 Y115 E21.97036
G1 X118.749 Y115 E21.9853
G1 X118.749 Y112.904 E22.07304
G1 X119.106 Y112.904 E22.08798
G1 X119.106 Y115 E22.17572
G1 X119.463 Y115 E22.19066
G1 F4799.396
G1 X119.463 Y112.904 E22.2784
G1 F4798.825
G1 X119.821 Y112.904 E22.29339
G1 F4799.344
G1 X119.821 Y115 E22.38113
G1 X120.178 Y115 E22.39607
G1 F4798.688
G1 X120.178 Y112.904 E22.48381
G1 X120.535 Y112.904 E22.49875
G1 X120.535 Y115 E22.58649
G1 X120.892 Y115 E22.60143
G1 X120.892 Y112.904 E22.68917
G1 X121.249 Y112.904 E22.70411
G1 X121.249 Y115 E22.79185
G1 X121.606 Y115 E22.80679
G1 X121.606 Y112.904 E22.89453
G1 X121.963 Y112.904 E22.90947
G1 X121.963 Y115 E22.99721
G1 X122.32 Y115 E23.01215
G1 X122.32 Y112.904 E23.09989
G1 X122.677 Y112.904 E23.11483
G1 X122.677 Y115 E23.20257
G1 X123.034 Y115 E23.21751
G1 X123.034 Y112.904 E23.30525
G1 X123.391 Y112.904 E23.32019
G1 X123.391 Y115 E23.40793
G1 X123.748 Y115 E23.42287
G1 X123.748 Y112.904 E23.51061
G1 X124.105 Y112.904 E23.52555
G1 F4799.344
G1 X124.105 Y115 E23.61329
G1 F4798.723
G1 X124.463 Y115 E23.62828
G1 F4799.344
G1 X124.463 Y112.904 E23.71602
G1 X124.82 Y112.904 E23.73096
G1 F4798.382
G1 X124.82 Y115 E23.8187
G1 X125.177 Y115 E23.83364
G1 X125.177 Y112.904 E23.92138
G1 X125.534 Y112.904 E23.93632
G1 X125.534 Y115 E24.02406
G1 X125.891 Y115 E24.039
G1 X125.891 Y112.904 E24.12674
G1 X126.248 Y112.904 E24.14168
G1 X126.248 Y115 E24.22942
G1 X126.605 Y115 E24.24436
G1 X126.605 Y112.904 E24.3321
G1 X126.962 Y112.904 E24.34704
G1 X126.962 Y115 E24.43478
G1 X127.319 Y115 E24.44972
G1 X127.319 Y112.904 E24.53746
G1 X127.676 Y112.904 E24.5524
G1 X127.676 Y115 E24.64014
G1 X128.033 Y115 E24.65508
G1 X128.033 Y112.904 E24.74282
G1 X128.39 Y112.904 E24.75776
G1 X128.39 Y115 E24.8455
G1 X128.747 Y115 E24.86044
G1 F4799.089
G1 X128.747 Y112.904 E24.94818
G1 F4798.877
G1 X129.105 Y112.904 E24.96317
G1 X129.105 Y115 E25.05091
G1 X129.462 Y115 E25.06585
G1 X129.462 Y112.904 E25.15359
G1 X129.819 Y112.904 E25.16853
G1 X129.819 Y115 E25.25627
G1 X130.176 Y115 E25.27121
G1 X130.176 Y112.904 E25.35895
G1 X130.533 Y112.904 E25.37389
G1 X130.533 Y115 E25.46163
G1 X130.89 Y115 E25.47657
G1 X130.89 Y112.904 E25.56431
G1 X131.247 Y112.904 E25.57925
G1 X131.247 Y115 E25.66699
G1 X131.604 Y115 E25.68193
G1 X131.604 Y112.904 E25.76967
G1 X131.961 Y112.904 E25.78461
G1 X131.961 Y115 E25.87235
G1 X132.318 Y115 E25.88729
G1 F4797.972
G1 X132.318 Y112.904 E25.97503
G1 X132.675 Y112.904 E25.98997
G1 F4798.382
G1 X132.675 Y115 E26.07771
G1 X133.032 Y115 E26.09265
G1 F4799.396
G1 X133.032 Y112.904 E26.18039
G1 F4798.825
G1 X133.39 Y112.904 E26.19538
G1 F4799.396
G1 X133.39 Y115 E26.28312
G1 X133.747 Y115 E26.29806
G1 F4798.688
