; generated by PrusaSlicer 2.6.0+MacOS-x64 on 2023-07-17 at 19:42:04 UTC

; 

; external perimeters extrusion width = 0.45mm
; perimeters extrusion width = 0.40mm
; infill extrusion width = 0.45mm
; solid infill extrusion width = 0.50mm
; top infill extrusion width = 0.45mm
; first layer extrusion width = 0.56mm

M201 X2500 Y2500 Z800 E2500 ; sets maximum accelerations, mm/sec^2
M203 X300 Y250 Z8 E80 ; sets maximum feedrates, mm / sec
M204 S2500 T2500 ; sets acceleration (S) and retract acceleration (R), mm/sec^2
M205 X15.00 Y10.00 Z2.00 E10.00 ; sets the jerk limits, mm/sec
M205 S0 T0 ; sets the minimum extruding and travel feed rate, mm/sec
;TYPE:Custom
G90 ; use absolute coordinates
M83 ; extruder relative mode
M104 S215 ; set extruder temp
M140 S65 ; set bed temp
M190 S65 ; wait for bed temp
M109 S215 ; wait for extruder temp
G28                                        ; move X/Y/Z to min endstops
G1 Z0.28                                   ; lift nozzle a bit 
G92 E0 
G1 Y3 F1800                                    ; zero the extruded length 
G1 X60  E25 F500                       ; Extrude 25mm of filament in a 5cm line. 
G92 E0                                     ; zero the extruded length again 
G1 E-2 F500                                ; Retract a little 
G1 X70 F4000                              ; Quickly wipe away from the filament line
M117
G21 ; set units to millimeters
G90 ; use absolute coordinates
M82 ; use absolute distances for extrusion
G92 E0
M107
;LAYER_CHANGE
;Z:0.28
;HEIGHT:0.28
; BEFORE_LAYER_CHANGE 0 @ 0.28mm
G1 E-2 F4800
G92 E0
G1 Z.28 F7200
; AFTER_LAYER_CHANGE 0 @ 0.28mm
G1 X45.015 Y56.12
G1 E2 F4800
M204 S2000
;TYPE:External perimeter
;WIDTH:0.56
G1 F3000
G1 X45.234 Y56.5 E2.02552
G1 X62.982 Y56.5 E3.05836
G1 X59.027 Y49.65 E3.51867
G1 X73.195 Y49.65 E4.34318
G1 X69.24 Y56.5 E4.80349
G1 X87.427 Y56.5 E5.86188
G1 X83.472 Y49.65 E6.32219
G1 X97.639 Y49.65 E7.14664
G1 X93.904 Y56.12 E7.5814
G1 X94.123 Y56.5 E7.60692
G1 X111.871 Y56.5 E8.63976
G1 X107.916 Y49.65 E9.10007
G1 X122.084 Y49.65 E9.92458
G1 X118.129 Y56.5 E10.38489
G1 X135.877 Y56.5 E11.41773
G1 X136.096 Y56.12 E11.44325
G1 X132.361 Y49.65 E11.87801
G1 X146.528 Y49.65 E12.70246
G1 X142.573 Y56.5 E13.16277
G1 X160.76 Y56.5 E14.22116
G1 X156.805 Y49.65 E14.68147
G1 X170.973 Y49.65 E15.50598
G1 X167.018 Y56.5 E15.96629
G1 X184.766 Y56.5 E16.99913
G1 X184.985 Y56.12 E17.02465
G1 X181.25 Y49.65 E17.45941
G1 X195.417 Y49.65 E18.28386
G1 X191.462 Y56.5 E18.74417
G1 X209.649 Y56.5 E19.80256
G1 X205.694 Y49.65 E20.26287
G1 X219.862 Y49.65 E21.08738
G1 X215.907 Y56.5 E21.54769
G1 X224.6 Y56.5 E22.05358
G1 X224.6 Y180.35 E29.26102
G1 X5.4 Y180.35 E42.01735
G1 X5.4 Y56.5 E49.22479
G1 X14.093 Y56.5 E49.73068
G1 X10.138 Y49.65 E50.19099
G1 X24.306 Y49.65 E51.0155
G1 X20.351 Y56.5 E51.47581
G1 X38.538 Y56.5 E52.5342
G1 X34.583 Y49.65 E52.99451
G1 X48.75 Y49.65 E53.81896
G1 X45.045 Y56.068 E54.25022
M204 S2500
G1 X44.874 Y56.494 F7200
G1 X44.48 Y56.193
M204 S2000
;TYPE:Perimeter
G1 F3000
G1 X44.946 Y57 E54.30445
G1 X63.848 Y57 E55.40445
G1 X59.893 Y50.15 E55.86476
G1 X72.329 Y50.15 E56.58847
G1 X68.374 Y57 E57.04878
G1 X88.292 Y57 E58.20791
G1 X84.338 Y50.15 E58.66819
G1 X96.773 Y50.15 E59.39184
G1 X93.327 Y56.12 E59.79299
G1 X93.835 Y57 E59.85212
G1 X112.737 Y57 E60.95212
G1 X108.782 Y50.15 E61.41243
G1 X121.218 Y50.15 E62.13614
G1 X117.263 Y57 E62.59645
G1 X136.165 Y57 E63.69645
G1 X136.673 Y56.12 E63.75558
G1 X133.227 Y50.15 E64.15673
G1 X145.662 Y50.15 E64.88038
G1 X141.708 Y57 E65.34066
G1 X161.626 Y57 E66.49979
G1 X157.671 Y50.15 E66.9601
G1 X170.107 Y50.15 E67.68381
G1 X166.152 Y57 E68.14412
G1 X185.054 Y57 E69.24412
G1 X185.562 Y56.12 E69.30325
G1 X182.115 Y50.15 E69.70443
G1 X194.551 Y50.15 E70.42814
G1 X190.596 Y57 E70.88845
G1 X210.515 Y57 E72.04763
G1 X206.56 Y50.15 E72.50794
G1 X218.996 Y50.15 E73.23165
G1 X215.041 Y57 E73.69196
G1 X224.1 Y57 E74.21915
G1 X224.1 Y179.85 E81.3684
G1 X5.9 Y179.85 E94.06653
G1 X5.9 Y57 E101.21578
G1 X14.959 Y57 E101.74297
G1 X11.004 Y50.15 E102.20328
G1 X23.44 Y50.15 E102.92699
G1 X19.485 Y57 E103.3873
G1 X39.404 Y57 E104.54648
G1 X35.449 Y50.15 E105.00679
G1 X47.885 Y50.15 E105.7305
G1 X44.438 Y56.12 E106.13168
G1 X44.45 Y56.141 E106.13309
M204 S2500
G1 X43.945 Y56.266 F7200
M204 S2000
G1 F3000
G1 X44.657 Y57.5 E106.216
G1 X64.714 Y57.5 E107.38322
G1 X60.759 Y50.65 E107.84353
G1 X71.463 Y50.65 E108.46645
G1 X67.508 Y57.5 E108.92676
G1 X89.158 Y57.5 E110.18668
G1 X85.203 Y50.65 E110.64699
G1 X95.908 Y50.65 E111.26997
G1 X92.749 Y56.12 E111.63757
G1 X93.546 Y57.5 E111.73031
G1 X113.603 Y57.5 E112.89753
G1 X109.648 Y50.65 E113.35784
G1 X120.352 Y50.65 E113.98076
G1 X116.397 Y57.5 E114.44107
G1 X136.454 Y57.5 E115.60829
G1 X137.251 Y56.12 E115.70103
G1 X134.092 Y50.65 E116.06863
G1 X144.797 Y50.65 E116.69161
G1 X140.842 Y57.5 E117.15192
G1 X162.492 Y57.5 E118.41184
G1 X158.537 Y50.65 E118.87215
G1 X169.241 Y50.65 E119.49507
G1 X165.286 Y57.5 E119.95538
G1 X185.343 Y57.5 E121.1226
G1 X186.139 Y56.12 E121.21531
G1 X182.981 Y50.65 E121.58288
G1 X193.685 Y50.65 E122.2058
G1 X189.731 Y57.5 E122.66608
G1 X211.381 Y57.5 E123.926
G1 X207.426 Y50.65 E124.38631
G1 X218.13 Y50.65 E125.00923
G1 X214.175 Y57.5 E125.46954
G1 X223.6 Y57.5 E126.01803
G1 X223.6 Y179.35 E133.10908
G1 X6.4 Y179.35 E145.74902
G1 X6.4 Y57.5 E152.84007
G1 X15.825 Y57.5 E153.38856
G1 X11.87 Y50.65 E153.84887
G1 X22.574 Y50.65 E154.47179
G1 X18.619 Y57.5 E154.9321
G1 X40.269 Y57.5 E156.19202
G1 X36.315 Y50.65 E156.6523
G1 X47.019 Y50.65 E157.27522
G1 X43.861 Y56.12 E157.64279
G1 X43.915 Y56.214 E157.6491
M204 S2500
G1 E156.2491 F4800
;WIPE_START
G1 F5760
G1 X44.294 Y56.87 E155.6491
;WIPE_END
G92 E0
G1 X70.337 Y50.85 F7200
G1 E2 F4800
M204 S2000
;TYPE:Solid infill
;WIDTH:0.560369
G1 F3000
G1 X70.667 Y51.179 E2.02714
G1 X70.408 Y51.628 E2.05733
G1 X69.855 Y51.075 E2.10288
G1 X69.147 Y51.075 E2.14411
G1 X70.149 Y52.077 E2.22664
G1 X69.89 Y52.525 E2.25678
G1 X68.44 Y51.075 E2.3762
G1 X67.732 Y51.075 E2.41743
G1 X69.631 Y52.974 E2.57383
G1 X69.372 Y53.422 E2.60397
G1 X67.025 Y51.075 E2.79727
G1 X66.317 Y51.075 E2.8385
G1 X69.113 Y53.871 E3.06878
G1 X68.854 Y54.319 E3.09892
G1 X65.61 Y51.075 E3.3661
G1 X64.902 Y51.075 E3.40733
G1 X68.595 Y54.768 E3.71149
G1 X68.336 Y55.216 E3.74163
G1 X64.195 Y51.075 E4.08269
G1 X63.487 Y51.075 E4.12392
G1 X68.077 Y55.665 E4.50196
G1 X67.818 Y56.113 E4.5321
G1 X62.78 Y51.075 E4.94703
G1 X62.072 Y51.075 E4.98826
G1 X67.559 Y56.562 E5.44017
G1 X67.3 Y57.01 E5.47031
G1 X61.673 Y51.384 E5.93371
G1 X62.64 Y53.058 E6.0463
G1 X67.206 Y57.624 E6.42236
M204 S2500
G1 E5.02236 F4800
;WIPE_START
G1 F5760
G1 X66.67 Y57.088 E4.42236
;WIPE_END
G92 E0
G1 X94.392 Y50.85 F7200
G1 E2 F4800
M204 S2000
G1 F3000
G1 X94.969 Y51.426 E2.04748
G1 X94.71 Y51.875 E2.07767
G1 X93.91 Y51.075 E2.14356
G1 X93.202 Y51.075 E2.18479
G1 X94.451 Y52.323 E2.28762
G1 X94.192 Y52.772 E2.31781
G1 X92.495 Y51.075 E2.45758
G1 X91.787 Y51.075 E2.49881
G1 X93.933 Y53.22 E2.67552
G1 X93.674 Y53.669 E2.70571
G1 X91.08 Y51.075 E2.91935
G1 X90.372 Y51.075 E2.96058
G1 X93.415 Y54.117 E3.21116
G1 X93.156 Y54.566 E3.24135
G1 X89.665 Y51.075 E3.52887
G1 X88.957 Y51.075 E3.5701
G1 X92.897 Y55.015 E3.8946
G1 X92.638 Y55.463 E3.92474
G1 X88.25 Y51.075 E4.28614
G1 X87.542 Y51.075 E4.32737
G1 X92.544 Y56.076 E4.7393
M204 S2500
G1 E3.3393 F4800
;WIPE_START
G1 F5760
G1 X92.008 Y55.54 E2.7393
;WIPE_END
G92 E0
G1 X119.155 Y50.85 F7200
G1 E2 F4800
M204 S2000
G1 F3000
G1 X119.53 Y51.225 E2.03089
G1 X119.271 Y51.673 E2.06103
G1 X118.672 Y51.075 E2.11032
G1 X117.965 Y51.075 E2.15149
G1 X119.012 Y52.122 E2.23772
G1 X118.753 Y52.57 E2.26786
G1 X117.257 Y51.075 E2.39103
G1 X116.55 Y51.075 E2.4322
G1 X118.494 Y53.019 E2.59231
G1 X118.235 Y53.467 E2.62245
G1 X115.842 Y51.075 E2.8195
G1 X115.135 Y51.075 E2.86067
G1 X117.976 Y53.916 E3.09466
G1 X117.717 Y54.364 E3.1248
G1 X114.427 Y51.075 E3.39573
G1 X113.72 Y51.075 E3.4369
G1 X117.458 Y54.813 E3.74477
G1 X117.199 Y55.261 E3.77491
G1 X113.012 Y51.075 E4.11971
G1 X112.305 Y51.075 E4.16088
G1 X116.94 Y55.71 E4.54262
G1 X116.681 Y56.158 E4.57276
G1 X111.597 Y51.075 E4.99144
G1 X110.89 Y51.075 E5.03261
G1 X116.422 Y56.607 E5.48823
G1 X116.163 Y57.056 E5.51842
G1 X110.045 Y50.937 E6.02235
M204 S2500
G1 E4.62235 F4800
;WIPE_START
G1 F5760
G1 X110.581 Y51.473 E4.02235
;WIPE_END
G92 E0
G1 X143.996 Y51.636 F7200
G1 E2 F4800
M204 S2000
G1 F3000
G1 X143.435 Y51.075 E2.0462
G1 X142.727 Y51.075 E2.08743
G1 X143.573 Y51.92 E2.15707
G1 X143.314 Y52.368 E2.18721
G1 X142.02 Y51.075 E2.29374
G1 X141.312 Y51.075 E2.33497
G1 X143.055 Y52.817 E2.47848
G1 X142.796 Y53.265 E2.50862
G1 X140.605 Y51.075 E2.68903
G1 X139.897 Y51.075 E2.73026
G1 X142.537 Y53.714 E2.94765
G1 X142.278 Y54.163 E2.97784
G1 X139.19 Y51.075 E3.23217
G1 X138.482 Y51.075 E3.2734
G1 X142.019 Y54.611 E3.56467
G1 X141.76 Y55.06 E3.59486
G1 X137.775 Y51.075 E3.92307
G1 X137.067 Y51.075 E3.9643
G1 X141.501 Y55.508 E4.32945
G1 X141.242 Y55.957 E4.35964
G1 X136.36 Y51.075 E4.76173
G1 X135.652 Y51.075 E4.80296
G1 X140.983 Y56.405 E5.24198
G1 X140.724 Y56.854 E5.27217
G1 X134.945 Y51.075 E5.74813
G1 X134.828 Y51.075 E5.75494
G1 X135.636 Y52.473 E5.84898
G1 X140.63 Y57.467 E6.26029
M204 S2500
G1 E4.86029 F4800
;WIPE_START
G1 F5760
G1 X140.094 Y56.931 E4.26029
;WIPE_END
G92 E0
G1 X167.973 Y50.85 F7200
G1 E2 F4800
M204 S2000
G1 F3000
G1 X168.392 Y51.27 E2.03455
G1 X168.134 Y51.718 E2.06466
G1 X167.49 Y51.075 E2.11766
G1 X166.783 Y51.075 E2.15883
G1 X167.875 Y52.167 E2.24877
G1 X167.616 Y52.615 E2.27891
G1 X166.075 Y51.075 E2.40579
G1 X165.368 Y51.075 E2.44696
G1 X167.357 Y53.064 E2.61078
G1 X167.098 Y53.512 E2.64092
G1 X164.66 Y51.075 E2.84167
G1 X163.953 Y51.075 E2.88284
G1 X166.839 Y53.961 E3.12053
G1 X166.58 Y54.409 E3.15067
G1 X163.245 Y51.075 E3.4253
G1 X162.538 Y51.075 E3.46647
G1 X166.321 Y54.858 E3.77804
G1 X166.062 Y55.306 E3.80818
G1 X161.83 Y51.075 E4.15669
G1 X161.123 Y51.075 E4.19786
G1 X165.803 Y55.755 E4.58331
G1 X165.544 Y56.204 E4.6135
G1 X160.415 Y51.075 E5.03593
G1 X159.708 Y51.075 E5.0771
G1 X165.285 Y56.652 E5.53643
G1 X165.026 Y57.101 E5.56662
G1 X159.031 Y51.105 E6.06041
M204 S2500
G1 E4.66041 F4800
;WIPE_START
G1 F5760
G1 X159.567 Y51.641 E4.06041
;WIPE_END
G92 E0
G1 X192.028 Y50.85 F7200
G1 E2 F4800
M204 S2000
G1 F3000
G1 X192.694 Y51.516 E2.05485
G1 X192.435 Y51.965 E2.08504
G1 X191.545 Y51.075 E2.15834
G1 X190.838 Y51.075 E2.19951
G1 X192.176 Y52.413 E2.30971
G1 X191.918 Y52.862 E2.33987
G1 X190.13 Y51.075 E2.48709
G1 X189.423 Y51.075 E2.52826
G1 X191.659 Y53.311 E2.71242
G1 X191.4 Y53.759 E2.74256
G1 X188.715 Y51.075 E2.96366
G1 X188.008 Y51.075 E3.00483
G1 X191.141 Y54.208 E3.26287
G1 X190.882 Y54.656 E3.29301
G1 X187.3 Y51.075 E3.58799
G1 X186.593 Y51.075 E3.62916
G1 X190.623 Y55.105 E3.96107
G1 X190.364 Y55.553 E3.99121
G1 X185.885 Y51.075 E4.36006
G1 X185.178 Y51.075 E4.40123
G1 X190.105 Y56.002 E4.80702
G1 X189.846 Y56.45 E4.83716
G1 X184.47 Y51.075 E5.27989
G1 X183.763 Y51.075 E5.32106
G1 X189.587 Y56.899 E5.80073
G1 X189.328 Y57.347 E5.83087
G1 X184.007 Y52.027 E6.26907
M204 S2500
G1 E4.86907 F4800
;WIPE_START
G1 F5760
G1 X184.543 Y52.563 E4.26907
;WIPE_END
G92 E0
G1 X216.79 Y50.85 F7200
G1 E2 F4800
M204 S2000
G1 F3000
G1 X217.255 Y51.315 E2.0383
G1 X216.996 Y51.763 E2.06844
G1 X216.308 Y51.075 E2.1251
G1 X215.6 Y51.075 E2.16633
G1 X216.737 Y52.212 E2.25997
G1 X216.478 Y52.66 E2.29011
G1 X214.893 Y51.075 E2.42065
G1 X214.185 Y51.075 E2.46188
G1 X216.219 Y53.109 E2.6294
G1 X215.961 Y53.557 E2.65951
G1 X213.478 Y51.075 E2.86397
G1 X212.77 Y51.075 E2.9052
G1 X215.702 Y54.006 E3.14664
G1 X215.443 Y54.454 E3.17678
G1 X212.063 Y51.075 E3.45512
G1 X211.355 Y51.075 E3.49635
G1 X215.184 Y54.903 E3.81167
G1 X214.925 Y55.352 E3.84186
G1 X210.648 Y51.075 E4.19412
G1 X209.94 Y51.075 E4.23535
G1 X214.666 Y55.8 E4.62455
G1 X214.407 Y56.249 E4.65474
G1 X209.233 Y51.075 E5.08088
G1 X208.525 Y51.075 E5.12211
G1 X214.148 Y56.697 E5.58518
G1 X213.889 Y57.146 E5.61537
G1 X208.017 Y51.274 E6.09899
M204 S2500
G1 E4.69899 F4800
;WIPE_START
G1 F5760
G1 X208.553 Y51.81 E4.09899
;WIPE_END
G92 E0
G1 X222.933 Y57.7 F7200
G1 E2 F4800
M204 S2000
G1 F3000
G1 X223.175 Y57.942 E2.01993
G1 X223.175 Y58.65 E2.06116
G1 X222.45 Y57.925 E2.12087
G1 X221.743 Y57.925 E2.16204
G1 X223.175 Y59.357 E2.27998
G1 X223.175 Y60.065 E2.32121
G1 X221.035 Y57.925 E2.49746
G1 X220.328 Y57.925 E2.53863
G1 X223.175 Y60.772 E2.77311
G1 X223.175 Y61.48 E2.81434
G1 X219.62 Y57.925 E3.10713
G1 X218.913 Y57.925 E3.1483
G1 X223.175 Y62.187 E3.49932
G1 X223.175 Y62.895 E3.54055
G1 X218.205 Y57.925 E3.94988
G1 X217.498 Y57.925 E3.99105
G1 X223.175 Y63.602 E4.45861
G1 X223.175 Y64.31 E4.49984
G1 X216.79 Y57.925 E5.02571
G1 X216.083 Y57.925 E5.06688
G1 X223.175 Y65.017 E5.65098
G1 X223.175 Y65.725 E5.69221
G1 X215.375 Y57.925 E6.33462
G1 X214.668 Y57.925 E6.37579
G1 X223.175 Y66.432 E7.07643
G1 X223.175 Y67.14 E7.11766
G1 X209.598 Y53.562 E8.23592
G1 X210.564 Y55.236 E8.34848
G1 X223.175 Y67.847 E9.38713
G1 X223.175 Y68.555 E9.42836
G1 X211.531 Y56.91 E10.38741
G1 X212.117 Y57.925 E10.45567
G1 X211.838 Y57.925 E10.47192
G1 X223.175 Y69.262 E11.40565
G1 X223.175 Y69.97 E11.44688
G1 X211.13 Y57.925 E12.43892
G1 X210.423 Y57.925 E12.48009
G1 X223.175 Y70.677 E13.53036
G1 X223.175 Y71.385 E13.57159
G1 X209.715 Y57.925 E14.68017
G1 X209.008 Y57.925 E14.72134
G1 X223.175 Y72.092 E15.88815
G1 X223.175 Y72.8 E15.92938
G1 X208.3 Y57.925 E17.1545
G1 X207.593 Y57.925 E17.19567
G1 X223.175 Y73.507 E18.47902
G1 X223.175 Y74.215 E18.52025
G1 X206.885 Y57.925 E19.86191
G1 X206.178 Y57.925 E19.90308
G1 X223.175 Y74.922 E21.30297
G1 X223.175 Y75.63 E21.3442
G1 X205.47 Y57.925 E22.8024
G1 X204.763 Y57.925 E22.84357
G1 X223.175 Y76.337 E24.36
G1 X223.175 Y77.045 E24.40123
G1 X204.055 Y57.925 E25.97597
G1 X203.348 Y57.925 E26.01714
G1 X223.175 Y77.752 E27.65011
G1 X223.175 Y78.46 E27.69134
G1 X202.64 Y57.925 E29.38262
G1 X201.933 Y57.925 E29.42379
G1 X223.175 Y79.167 E31.1733
G1 X223.175 Y79.875 E31.21453
G1 X201.225 Y57.925 E33.02235
G1 X200.518 Y57.925 E33.06352
G1 X223.175 Y80.582 E34.92957
G1 X223.175 Y81.29 E34.9708
G1 X199.81 Y57.925 E36.89516
G1 X199.103 Y57.925 E36.93633
G1 X223.175 Y81.997 E38.91892
G1 X223.175 Y82.705 E38.96015
G1 X198.395 Y57.925 E41.00105
G1 X197.688 Y57.925 E41.04222
G1 X223.175 Y83.412 E43.14135
G1 X223.175 Y84.12 E43.18258
G1 X196.98 Y57.925 E45.34002
G1 X196.273 Y57.925 E45.38119
G1 X223.175 Y84.827 E47.59686
G1 X223.175 Y85.535 E47.63809
G1 X195.565 Y57.925 E49.91207
G1 X194.858 Y57.925 E49.95324
G1 X223.175 Y86.242 E52.28545
G1 X223.175 Y86.95 E52.32668
G1 X194.15 Y57.925 E54.7172
G1 X193.443 Y57.925 E54.75837
G1 X223.175 Y87.657 E57.20712
G1 X223.175 Y88.365 E57.24835
G1 X192.735 Y57.925 E59.75542
G1 X192.028 Y57.925 E59.79659
G1 X223.175 Y89.072 E62.36188
G1 X223.175 Y89.78 E62.40311
G1 X191.32 Y57.925 E65.02672
G1 X190.613 Y57.925 E65.06789
G1 X223.175 Y90.487 E67.74973
G1 X223.175 Y91.195 E67.79096
G1 X189.68 Y57.7 E70.54964
M204 S2500
G1 E69.14964 F4800
;WIPE_START
G1 F5760
G1 X190.216 Y58.236 E68.54964
;WIPE_END
G92 E0
G1 X184.973 Y53.701 F7200
G1 E2 F4800
M204 S2000
G1 F3000
G1 X223.175 Y91.902 E5.14631
G1 X223.175 Y92.61 E5.18754
G1 X186.555 Y55.989 E8.20364
G1 X186.63 Y56.12 E8.21243
G1 X186.391 Y56.533 E8.24022
G1 X223.175 Y93.317 E11.26978
G1 X223.175 Y94.025 E11.31101
G1 X186.132 Y56.982 E14.3619
G1 X185.873 Y57.431 E14.39209
G1 X223.175 Y94.732 E17.46427
G1 X223.175 Y95.44 E17.5055
G1 X185.615 Y57.879 E20.59902
G1 X185.588 Y57.925 E20.60213
G1 X184.953 Y57.925 E20.63911
G1 X223.175 Y96.147 E23.78711
G1 X223.175 Y96.855 E23.82834
G1 X184.245 Y57.925 E27.03465
G1 X183.538 Y57.925 E27.07582
G1 X223.175 Y97.562 E30.34036
G1 X223.175 Y98.27 E30.38159
G1 X182.83 Y57.925 E33.70444
G1 X182.123 Y57.925 E33.74561
G1 X223.175 Y98.977 E37.12669
G1 X223.175 Y99.685 E37.16792
G1 X181.415 Y57.925 E40.60731
G1 X180.708 Y57.925 E40.64848
G1 X223.175 Y100.392 E44.1461
G1 X223.175 Y101.1 E44.18733
G1 X180 Y57.925 E47.74326
G1 X179.293 Y57.925 E47.78443
G1 X223.175 Y101.807 E51.39859
