; generated by PrusaSlicer 2.6.0+MacOS-x64 on 2023-07-29 at 14:25:13 UTC

; 

; external perimeters extrusion width = 0.45mm
; perimeters extrusion width = 0.45mm
; infill extrusion width = 0.45mm
; solid infill extrusion width = 0.45mm
; top infill extrusion width = 0.40mm
; support material extrusion width = 0.40mm
; first layer extrusion width = 0.60mm

M201 X2500 Y2500 Z800 E2500 ; sets maximum accelerations, mm/sec^2
M203 X300 Y250 Z8 E80 ; sets maximum feedrates, mm / sec
M204 S2500 T2500 ; sets acceleration (S) and retract acceleration (R), mm/sec^2
M205 X15.00 Y10.00 Z2.00 E10.00 ; sets the jerk limits, mm/sec
M205 S0 T0 ; sets the minimum extruding and travel feed rate, mm/sec
;TYPE:Custom
G90 ; use absolute coordinates
M83 ; extruder relative mode
M104 S215 ; set extruder temp
M140 S65 ; set bed temp
M190 S65 ; wait for bed temp
M109 S215 ; wait for extruder temp
G28                                        ; move X/Y/Z to min endstops
G1 Z0.28                                   ; lift nozzle a bit 
G92 E0 
G1 Y3 F1800                                    ; zero the extruded length 
G1 X60  E25 F500                       ; Extrude 25mm of filament in a 5cm line. 
G92 E0                                     ; zero the extruded length again 
G1 E-2 F500                                ; Retract a little 
G1 X70 F4000                              ; Quickly wipe away from the filament line
M117
G21 ; set units to millimeters
G90 ; use absolute coordinates
M82 ; use absolute distances for extrusion
G92 E0
M107
;LAYER_CHANGE
;Z:0.3
;HEIGHT:0.3
; BEFORE_LAYER_CHANGE 0 @ 0.3mm
G1 E-2 F4800
G92 E0
G1 Z.3 F9000
; AFTER_LAYER_CHANGE 0 @ 0.3mm
G1 X100.3 Y26.157
G1 E2 F4800
;TYPE:External perimeter
;WIDTH:0.6
G1 F3000
G1 X129.7 Y26.157 E3.96408
G1 X129.7 Y172.7 E13.75395
G1 X100.3 Y172.7 E15.71803
G1 X100.3 Y26.217 E25.50389
G1 X100.659 Y26.333 F9000
G1 X100.836 Y26.692
;TYPE:Perimeter
G1 F3000
G1 X129.164 Y26.692 E27.39635
G1 F2999.996
G1 X129.164 Y138.688 Z.3 E34.87828
G1 X129.164 Y143.47 Z.3 E35.19777
G1 X129.164 Y148.253 Z.3 E35.51725
G1 X129.164 Y153.035 Z.3 E35.83673
G1 X129.164 Y157.817 Z.3 E36.15622
G1 X129.164 Y162.599 Z.3 E36.4757
G1 X129.164 Y167.382 Z.3 E36.79519
G1 X129.164 Y172.164 Z.3 E37.11467
G1 X100.836 Y172.164 E39.00713
G1 X100.836 Y167.382 Z.3 E39.32661
G1 X100.836 Y162.599 Z.3 E39.6461
G1 X100.836 Y157.817 Z.3 E39.96558
G1 X100.836 Y153.035 Z.3 E40.28506
G1 X100.836 Y148.252 Z.3 E40.60455
G1 X100.836 Y143.47 Z.3 E40.92403
G1 F3000
G1 X100.836 Y26.752 Z.3 E48.72144
G1 E47.32144 F4800
;WIPE_START
G1 F7200
G1 X101.783 Y26.75 E46.72144
;WIPE_END
G92 E0
G1 X127.813 Y26.96 F9000
G1 E2 F4800
;TYPE:Solid infill
;WIDTH:0.600407
G1 F2998.953
G1 X128.656 Y27.803 E2.0797
G1 F2999.777
G1 X128.656 Y28.561 E2.13038
G1 X127.296 Y27.201 E2.25897
G1 X126.538 Y27.201 E2.30965
G1 X128.656 Y29.319 E2.5099
G1 X128.656 Y30.077 E2.56058
G1 X125.78 Y27.201 E2.8325
G1 X125.022 Y27.201 E2.88318
G1 X128.656 Y30.835 E3.22677
G1 X128.656 Y31.593 E3.27745
G1 X124.264 Y27.201 E3.69271
G1 X123.506 Y27.201 E3.74339
G1 X128.656 Y32.351 E4.23032
G1 X128.656 Y33.109 E4.281
G1 X122.748 Y27.201 E4.83959
G1 X121.99 Y27.201 E4.89027
G1 X128.656 Y33.867 E5.52053
G1 X128.656 Y34.625 E5.57121
G1 X126.181 Y32.15 Z.3 E5.80519
G1 X123.707 Y29.676 Z.3 E6.03916
G1 X121.232 Y27.201 Z.3 E6.27314
G1 X120.473 Y27.201 E6.32388
G1 X123.201 Y29.928 Z.3 E6.58176
G1 X125.928 Y32.656 Z.3 E6.83965
G1 F3000
G1 X128.656 Y35.383 Z.3 E7.09753
G1 F2999.806
G1 X128.656 Y36.141 E7.14821
G1 X119.715 Y27.201 E7.99352
G1 X118.957 Y27.201 E8.0442
G1 X128.656 Y36.899 E8.96118
G1 X128.656 Y37.657 E9.01186
G1 X118.199 Y27.201 E10.00051
G1 X117.441 Y27.201 E10.05119
G1 X128.656 Y38.416 E11.11156
G1 X128.656 Y39.174 E11.16224
G1 X116.683 Y27.201 E12.29427
G1 X115.925 Y27.201 E12.34495
G1 X128.656 Y39.932 E13.54865
G1 X128.656 Y40.69 E13.59933
G1 X115.167 Y27.201 E14.8747
G1 X114.409 Y27.201 E14.92538
G1 X128.656 Y41.448 E16.27242
G1 X128.656 Y42.206 E16.3231
G1 X113.651 Y27.201 E17.74181
G1 X112.893 Y27.201 E17.79249
G1 X128.656 Y42.964 E19.28286
G1 X128.656 Y43.722 E19.33354
G1 X112.135 Y27.201 E20.89558
G1 X111.377 Y27.201 E20.94626
G1 X128.656 Y44.48 E22.57997
G1 X128.656 Y45.238 E22.63065
G1 X110.619 Y27.201 E24.33603
G1 X109.861 Y27.201 E24.38671
G1 X128.656 Y45.996 E26.16376
G1 X128.656 Y46.754 E26.21444
G1 X109.103 Y27.201 E28.06315
G1 X108.345 Y27.201 E28.11383
G1 X128.656 Y47.512 E30.03421
G1 X128.656 Y48.27 E30.08489
G1 X125.145 Y44.758 Z.3 E30.4169
G1 X121.633 Y41.247 Z.3 E30.74891
G1 X118.122 Y37.736 Z.3 E31.08091
G1 X114.61 Y34.224 Z.3 E31.41292
G1 X111.098 Y30.713 Z.3 E31.74493
G1 X107.587 Y27.201 Z.3 E32.07694
G1 X106.828 Y27.201 E32.12768
G1 X109.946 Y30.319 Z.3 E32.4225
G1 X113.065 Y33.437 Z.3 E32.71733
G1 X116.183 Y36.555 Z.3 E33.01215
G1 X119.301 Y39.674 Z.3 E33.30697
G1 X122.419 Y42.792 Z.3 E33.6018
G1 X125.538 Y45.91 Z.3 E33.89662
G1 F3000
G1 X128.656 Y49.028 Z.3 E34.19144
G1 F2999.913
G1 X128.656 Y49.786 E34.24212
G1 X106.07 Y27.201 E36.37755
G1 X105.312 Y27.201 E36.42823
G1 X128.656 Y50.544 E38.63533
G1 X128.656 Y51.302 E38.68601
G1 X104.554 Y27.201 E40.96478
G1 X103.796 Y27.201 E41.01546
G1 X128.656 Y52.061 E43.36594
G1 X128.656 Y52.819 E43.41662
G1 X103.038 Y27.201 E45.83877
G1 X102.28 Y27.201 E45.88945
G1 X128.656 Y53.577 E48.38327
G1 X128.656 Y54.335 E48.43395
G1 X101.522 Y27.201 E50.99944
G1 X101.344 Y27.201 E51.01134
G1 X101.344 Y27.782 E51.05018
G1 X104.728 Y31.166 Z.3 E51.3701
G1 X108.111 Y34.549 Z.3 E51.69002
G1 X111.495 Y37.933 Z.3 E52.00994
G1 X114.879 Y41.316 Z.3 E52.32986
G1 X118.263 Y44.7 Z.3 E52.64978
G1 X121.646 Y48.084 Z.3 E52.96971
G1 F3000
G1 X128.656 Y55.093 Z.3 E53.63245
G1 F2999.936
G1 X128.656 Y55.851 E53.68313
G1 X101.344 Y28.54 E56.2654
G1 X101.344 Y29.298 E56.31608
G1 X128.656 Y56.609 E58.89835
G1 X128.656 Y57.367 E58.94903
G1 X101.344 Y30.056 E61.5313
G1 X101.344 Y30.814 E61.58198
G1 F3000
G1 X104.967 Y34.437 Z.3 E61.92457
G1 F2999.99
G1 X108.352 Y37.821 Z.3 E62.24453
G1 X111.736 Y41.205 Z.3 E62.56448
G1 X115.12 Y44.589 Z.3 E62.88443
G1 X118.504 Y47.973 Z.3 E63.20439
G1 X121.888 Y51.357 Z.3 E63.52435
G1 X125.272 Y54.741 Z.3 E63.8443
G1 X128.656 Y58.125 Z.3 E64.16425
G1 X128.656 Y58.883 E64.21493
G1 X125.031 Y55.258 Z.3 E64.55764
G1 X121.647 Y51.875 Z.3 E64.87758
G1 X118.263 Y48.491 Z.3 E65.19752
G1 X114.88 Y45.107 Z.3 E65.51746
G1 X111.496 Y41.723 Z.3 E65.83739
G1 X108.112 Y38.34 Z.3 E66.15733
G1 X104.728 Y34.956 Z.3 E66.47726
G1 X101.344 Y31.572 Z.3 E66.7972
G1 X101.344 Y32.33 E66.84788
G1 X104.728 Y35.714 Z.3 E67.16782
G1 X108.112 Y39.098 Z.3 E67.48775
G1 X111.496 Y42.481 Z.3 E67.80769
G1 X114.88 Y45.865 Z.3 E68.12762
G1 X118.263 Y49.249 Z.3 E68.44756
G1 X121.647 Y52.633 Z.3 E68.7675
G1 X128.656 Y59.641 Z.3 E69.43015
G1 X128.656 Y60.399 E69.48083
G1 X125.031 Y56.774 Z.3 E69.82353
G1 X121.647 Y53.391 Z.3 E70.14347
G1 X118.264 Y50.007 Z.3 E70.46341
G1 X114.88 Y46.623 Z.3 E70.78335
G1 X111.496 Y43.239 Z.3 E71.10329
G1 X108.112 Y39.856 Z.3 E71.42323
G1 X104.728 Y36.472 Z.3 E71.74316
G1 X101.344 Y33.088 Z.3 E72.0631
G1 X101.344 Y33.846 E72.11378
G1 X104.969 Y37.471 Z.3 E72.45648
G1 X108.353 Y40.854 Z.3 E72.77642
G1 X111.736 Y44.238 Z.3 E73.09636
G1 X115.12 Y47.622 Z.3 E73.4163
G1 X118.504 Y51.006 Z.3 E73.73624
G1 X121.888 Y54.389 Z.3 E74.05618
G1 X125.272 Y57.773 Z.3 E74.37611
G1 X128.656 Y61.157 Z.3 E74.69605
G1 X128.656 Y61.915 E74.74673
G1 X125.031 Y58.29 Z.3 E75.08943
G1 X121.647 Y54.907 Z.3 E75.40937
G1 X118.264 Y51.523 Z.3 E75.72931
G1 X114.88 Y48.139 Z.3 E76.04925
G1 X111.496 Y44.755 Z.3 E76.36919
G1 X108.112 Y41.372 Z.3 E76.68913
G1 X104.728 Y37.988 Z.3 E77.00906
G1 X101.344 Y34.604 Z.3 E77.329
G1 X101.344 Y35.362 E77.37968
G1 X104.969 Y38.987 Z.3 E77.72238
G1 X108.353 Y42.37 Z.3 E78.04232
G1 X111.736 Y45.754 Z.3 E78.36226
G1 X115.12 Y49.138 Z.3 E78.6822
G1 X118.504 Y52.522 Z.3 E79.00214
G1 X121.888 Y55.905 Z.3 E79.32207
G1 X125.272 Y59.289 Z.3 E79.64201
G1 X128.656 Y62.673 Z.3 E79.96195
G1 X128.656 Y63.431 E80.01263
G1 X125.031 Y59.806 Z.3 E80.35533
G1 X121.647 Y56.423 Z.3 E80.67527
G1 X118.264 Y53.039 Z.3 E80.99521
G1 X114.88 Y49.655 Z.3 E81.31515
G1 X111.496 Y46.271 Z.3 E81.63509
G1 X108.112 Y42.888 Z.3 E81.95502
G1 X104.728 Y39.504 Z.3 E82.27496
G1 X101.344 Y36.12 Z.3 E82.5949
G1 X101.344 Y36.878 E82.64558
G1 X104.728 Y40.262 Z.3 E82.96552
G1 X108.112 Y43.646 Z.3 E83.28546
G1 X111.496 Y47.029 Z.3 E83.6054
G1 X114.88 Y50.413 Z.3 E83.92534
G1 X118.264 Y53.797 Z.3 E84.24528
G1 X121.648 Y57.181 Z.3 E84.56522
G1 X128.656 Y64.189 Z.3 E85.22785
G1 X128.656 Y64.947 E85.27853
G1 X125.272 Y61.563 Z.3 E85.59848
G1 X121.888 Y58.179 Z.3 E85.91844
G1 X118.504 Y54.795 Z.3 E86.2384
G1 X115.12 Y51.411 Z.3 E86.55835
G1 X111.736 Y48.027 Z.3 E86.8783
G1 X108.351 Y44.643 Z.3 E87.19827
G1 F3000
G1 X101.344 Y37.636 Z.3 E87.8608
G1 F2999.694
G1 X101.344 Y38.394 E87.91148
G1 X128.656 Y65.706 E90.4938
G1 X128.656 Y66.464 E90.54448
G1 F3000
G1 X125.033 Y62.841 Z.3 E90.88704
G1 F2999.997
G1 X121.649 Y59.457 Z.3 E91.20701
G1 X118.265 Y56.073 Z.3 E91.52697
G1 X114.881 Y52.689 Z.3 E91.84694
G1 X111.496 Y49.304 Z.3 E92.1669
G1 X108.112 Y45.92 Z.3 E92.48687
G1 X104.728 Y42.536 Z.3 E92.80683
G1 X101.344 Y39.152 Z.3 E93.1268
G1 X101.344 Y39.911 E93.17754
G1 X104.728 Y43.295 Z.3 E93.49751
G1 X108.112 Y46.679 Z.3 E93.81747
G1 X111.497 Y50.063 Z.3 E94.13744
G1 X114.881 Y53.447 Z.3 E94.45741
G1 X118.265 Y56.831 Z.3 E94.77737
G1 X121.649 Y60.215 Z.3 E95.09734
G1 F3000
G1 X128.656 Y67.222 Z.3 E95.75981
G1 F2999.706
G1 X128.656 Y67.98 E95.81049
G1 X101.344 Y40.669 E98.39276
G1 X101.344 Y41.427 E98.44344
G1 X128.656 Y68.738 E101.02571
G1 X128.656 Y69.496 E101.07639
G1 X101.344 Y42.185 E103.65866
G1 X101.344 Y42.943 E103.70934
G1 X128.656 Y70.254 E106.29161
G1 X128.656 Y71.012 E106.34229
G1 X101.344 Y43.701 E108.92456
G1 X101.344 Y44.459 E108.97524
G1 X128.656 Y71.77 E111.55751
G1 X128.656 Y72.528 E111.60819
G1 X101.344 Y45.217 E114.19046
G1 X101.344 Y45.975 E114.24114
G1 X128.656 Y73.286 E116.82341
G1 X128.656 Y74.044 E116.87409
G1 X101.344 Y46.733 E119.45636
G1 X101.344 Y47.491 E119.50704
G1 X128.656 Y74.802 E122.08931
G1 X128.656 Y75.56 E122.13999
G1 X101.344 Y48.249 E124.72226
G1 X101.344 Y49.007 E124.77294
G1 X128.656 Y76.318 E127.35521
G1 X128.656 Y77.076 E127.40589
G1 F3000
G1 X125.033 Y73.453 Z.3 E127.74848
G1 F2999.99
G1 X121.648 Y70.069 Z.3 E128.06844
G1 X118.264 Y66.685 Z.3 E128.3884
G1 X114.88 Y63.301 Z.3 E128.70834
G1 X111.496 Y59.917 Z.3 E129.02829
G1 X108.112 Y56.533 Z.3 E129.34825
G1 X104.728 Y53.149 Z.3 E129.66821
G1 X101.344 Y49.765 Z.3 E129.98816
G1 X101.344 Y50.523 E130.03884
G1 X104.969 Y54.148 Z.3 E130.38155
G1 X108.353 Y57.531 Z.3 E130.70148
G1 X111.737 Y60.915 Z.3 E131.02142
G1 X115.12 Y64.299 Z.3 E131.34135
G1 X118.504 Y67.683 Z.3 E131.6613
G1 X121.888 Y71.066 Z.3 E131.98123
G1 X125.272 Y74.45 Z.3 E132.30118
G1 X128.656 Y77.834 Z.3 E132.62111
G1 X128.656 Y78.592 E132.67179
G1 X125.031 Y74.967 Z.3 E133.01451
G1 X121.647 Y71.583 Z.3 E133.33444
G1 X118.263 Y68.2 Z.3 E133.65439
G1 X114.879 Y64.816 Z.3 E133.97432
G1 X111.496 Y61.432 Z.3 E134.29425
G1 X108.112 Y58.048 Z.3 E134.61418
G1 X104.728 Y54.665 Z.3 E134.93413
G1 X101.344 Y51.281 Z.3 E135.25406
G1 X101.344 Y52.039 E135.30474
G1 X104.728 Y55.423 Z.3 E135.62468
G1 X108.112 Y58.807 Z.3 E135.94464
G1 X111.496 Y62.191 Z.3 E136.26459
G1 X114.88 Y65.575 Z.3 E136.58455
G1 X118.264 Y68.959 Z.3 E136.9045
G1 X121.648 Y72.343 Z.3 E137.22446
G1 F3000
G1 X128.656 Y79.351 Z.3 E137.88705
G1 F2999.262
G1 X128.656 Y80.109 E137.93774
G1 F3000
G1 X125.029 Y76.482 Z.3 E138.28064
G1 F2999.965
G1 X121.646 Y73.099 Z.3 E138.60056
G1 X118.262 Y69.715 Z.3 E138.92047
G1 X114.879 Y66.331 Z.3 E139.24039
G1 X111.495 Y62.948 Z.3 E139.56032
G1 X108.111 Y59.564 Z.3 E139.88023
G1 X104.728 Y56.181 Z.3 E140.20015
G1 X101.344 Y52.797 Z.3 E140.52007
G1 X101.344 Y53.556 E140.5708
G1 X104.728 Y56.939 Z.3 E140.8907
G1 X108.111 Y60.323 Z.3 E141.2106
G1 X111.495 Y63.706 Z.3 E141.5305
G1 X114.878 Y67.09 Z.3 E141.8504
G1 X118.262 Y70.473 Z.3 E142.1703
G1 X121.645 Y73.856 Z.3 E142.4902
G1 X128.656 Y80.867 Z.3 E143.15308
G1 X128.656 Y81.625 E143.20375
G1 X125.272 Y78.241 Z.3 E143.52368
G1 X121.888 Y74.857 Z.3 E143.84363
G1 X118.504 Y71.474 Z.3 E144.16356
G1 X115.12 Y68.09 Z.3 E144.48351
G1 X111.737 Y64.706 Z.3 E144.80344
G1 X108.353 Y61.322 Z.3 E145.12338
G1 X101.344 Y54.314 Z.3 E145.78603
G1 X101.344 Y55.072 E145.8367
G1 X104.728 Y58.456 Z.3 E146.15665
G1 X108.112 Y61.84 Z.3 E146.47658
G1 X111.496 Y65.223 Z.3 E146.79652
G1 X114.88 Y68.607 Z.3 E147.11646
G1 X118.264 Y71.991 Z.3 E147.4364
G1 X121.648 Y75.375 Z.3 E147.75633
G1 X128.656 Y82.383 Z.3 E148.41898
G1 X128.656 Y83.141 E148.46965
G1 X125.031 Y79.517 Z.3 E148.81235
G1 X121.648 Y76.133 Z.3 E149.13229
G1 X118.264 Y72.749 Z.3 E149.45222
G1 X114.88 Y69.365 Z.3 E149.77217
G1 X111.496 Y65.981 Z.3 E150.0921
G1 X108.112 Y62.598 Z.3 E150.41205
G1 X104.728 Y59.214 Z.3 E150.73198
G1 X101.344 Y55.83 Z.3 E151.05193
G1 X101.344 Y56.588 E151.1026
G1 X104.728 Y59.972 Z.3 E151.42255
G1 X108.112 Y63.356 Z.3 E151.74248
G1 X111.496 Y66.739 Z.3 E152.06242
G1 X114.88 Y70.123 Z.3 E152.38235
G1 X118.264 Y73.507 Z.3 E152.7023
G1 X121.648 Y76.891 Z.3 E153.02223
G1 X128.656 Y83.899 Z.3 E153.68488
G1 X128.656 Y84.657 E153.73555
G1 X125.031 Y81.033 Z.3 E154.07825
G1 X121.648 Y77.649 Z.3 E154.39819
G1 X118.264 Y74.265 Z.3 E154.71812
G1 X114.88 Y70.881 Z.3 E155.03807
G1 X111.496 Y67.497 Z.3 E155.358
G1 X108.112 Y64.114 Z.3 E155.67795
G1 X104.728 Y60.73 Z.3 E155.99788
G1 X101.344 Y57.346 Z.3 E156.31783
G1 X101.344 Y58.104 E156.3685
G1 X104.728 Y61.488 Z.3 E156.68845
G1 X108.112 Y64.872 Z.3 E157.00838
G1 X111.496 Y68.255 Z.3 E157.32832
G1 X114.88 Y71.639 Z.3 E157.64825
G1 X118.264 Y75.023 Z.3 E157.9682
G1 X121.648 Y78.407 Z.3 E158.28813
G1 X128.656 Y85.415 Z.3 E158.95078
G1 X128.656 Y86.173 E159.00145
G1 X125.031 Y82.549 Z.3 E159.34415
G1 X121.648 Y79.165 Z.3 E159.66409
G1 X118.264 Y75.781 Z.3 E159.98402
G1 X114.88 Y72.397 Z.3 E160.30397
G1 X111.496 Y69.013 Z.3 E160.6239
G1 X108.112 Y65.63 Z.3 E160.94385
G1 X104.728 Y62.246 Z.3 E161.26378
G1 X101.344 Y58.862 Z.3 E161.58372
G1 X101.344 Y59.62 E161.6344
G1 X104.969 Y63.245 Z.3 E161.97711
G1 X108.353 Y66.628 Z.3 E162.29704
G1 X111.737 Y70.012 Z.3 E162.61699
G1 X115.12 Y73.396 Z.3 E162.93692
G1 X118.504 Y76.78 Z.3 E163.25687
G1 X121.888 Y80.163 Z.3 E163.5768
G1 X125.272 Y83.547 Z.3 E163.89674
G1 X128.656 Y86.931 Z.3 E164.21667
G1 X128.656 Y87.689 E164.26735
G1 X125.031 Y84.064 Z.3 E164.61008
G1 X121.647 Y80.68 Z.3 E164.93001
G1 X118.263 Y77.297 Z.3 E165.24995
G1 X114.879 Y73.913 Z.3 E165.56989
G1 X111.496 Y70.529 Z.3 E165.88982
G1 X108.112 Y67.145 Z.3 E166.20975
G1 X104.728 Y63.762 Z.3 E166.52969
G1 X101.344 Y60.378 Z.3 E166.84962
G1 X101.344 Y61.136 E166.9003
G1 X104.969 Y64.761 Z.3 E167.24303
G1 X108.353 Y68.145 Z.3 E167.56296
G1 X111.737 Y71.528 Z.3 E167.8829
G1 X115.121 Y74.912 Z.3 E168.20284
G1 X118.504 Y78.296 Z.3 E168.52277
G1 X121.888 Y81.68 Z.3 E168.8427
G1 X125.272 Y85.063 Z.3 E169.16264
G1 X128.656 Y88.447 Z.3 E169.48257
G1 X128.656 Y89.205 E169.53325
G1 X125.272 Y85.821 Z.3 E169.85318
G1 X121.888 Y82.437 Z.3 E170.17313
G1 X118.504 Y79.054 Z.3 E170.49306
G1 X115.12 Y75.67 Z.3 E170.813
G1 X111.737 Y72.286 Z.3 E171.13293
G1 X108.353 Y68.902 Z.3 E171.45288
G1 X101.344 Y61.894 Z.3 E172.11552
G1 X101.344 Y62.652 E172.1662
G1 X104.969 Y66.277 Z.3 E172.50891
G1 X108.353 Y69.66 Z.3 E172.82884
G1 X111.737 Y73.044 Z.3 E173.14879
G1 X115.12 Y76.428 Z.3 E173.46872
G1 X118.504 Y79.812 Z.3 E173.78867
G1 X121.888 Y83.195 Z.3 E174.1086
G1 X125.272 Y86.579 Z.3 E174.42854
G1 X128.656 Y89.963 Z.3 E174.74847
G1 X128.656 Y90.721 E174.79915
G1 X125.272 Y87.337 Z.3 E175.11908
G1 X121.888 Y83.953 Z.3 E175.43903
G1 X118.504 Y80.57 Z.3 E175.75896
G1 X115.12 Y77.186 Z.3 E176.0789
G1 X111.737 Y73.802 Z.3 E176.39883
G1 X108.353 Y70.418 Z.3 E176.71878
G1 X101.344 Y63.41 Z.3 E177.38142
G1 X101.344 Y64.168 E177.4321
G1 X104.969 Y67.793 Z.3 E177.77481
G1 X108.353 Y71.176 Z.3 E178.09474
G1 X111.737 Y74.56 Z.3 E178.41469
G1 X115.12 Y77.944 Z.3 E178.73462
