; generated by PrusaSlicer 2.6.0+MacOS-x64 on 2023-07-29 at 02:15:12 UTC

; 

; external perimeters extrusion width = 0.45mm
; perimeters extrusion width = 0.45mm
; infill extrusion width = 0.45mm
; solid infill extrusion width = 0.45mm
; top infill extrusion width = 0.40mm
; support material extrusion width = 0.40mm
; first layer extrusion width = 0.60mm

M201 X2500 Y2500 Z800 E2500 ; sets maximum accelerations, mm/sec^2
M203 X300 Y250 Z8 E80 ; sets maximum feedrates, mm / sec
M204 S2500 T2500 ; sets acceleration (S) and retract acceleration (R), mm/sec^2
M205 X15.00 Y10.00 Z2.00 E10.00 ; sets the jerk limits, mm/sec
M205 S0 T0 ; sets the minimum extruding and travel feed rate, mm/sec
;TYPE:Custom
G90 ; use absolute coordinates
M83 ; extruder relative mode
M104 S215 ; set extruder temp
M140 S60 ; set bed temp
M190 S60 ; wait for bed temp
M109 S215 ; wait for extruder temp
G28                                        ; move X/Y/Z to min endstops
G1 Z0.28                                   ; lift nozzle a bit 
G92 E0 
G1 Y3 F1800                                    ; zero the extruded length 
G1 X60  E25 F500                       ; Extrude 25mm of filament in a 5cm line. 
G92 E0                                     ; zero the extruded length again 
G1 E-2 F500                                ; Retract a little 
G1 X70 F4000                              ; Quickly wipe away from the filament line
M117
G21 ; set units to millimeters
G90 ; use absolute coordinates
M82 ; use absolute distances for extrusion
G92 E0
M107
;LAYER_CHANGE
;Z:0.3
;HEIGHT:0.3
; BEFORE_LAYER_CHANGE 0 @ 0.3mm
G1 E-2 F4800
G92 E0
G1 Z.3 F9000
; AFTER_LAYER_CHANGE 0 @ 0.3mm
G1 X9.309 Y34.975
G1 E2 F4800
;TYPE:Support material
;WIDTH:0.6
G1 F3000
G1 X4.783 Y34.975 E2.30236
G1 F2999.922
G1 X4.475 Y35.283 E2.33146
G1 X4.475 Y36.861 E2.43688
G1 X4.783 Y37.168 E2.46593
G1 X9.565 Y37.168 Z.3 E2.78539
G1 X14.347 Y37.168 Z.3 E3.10484
G1 X19.129 Y37.168 Z.3 E3.4243
G1 X23.911 Y37.168 Z.3 E3.74375
G1 X28.692 Y37.168 Z.3 E4.06321
G1 X33.474 Y37.168 Z.3 E4.38266
G1 X225.217 Y37.168 Z.3 E17.19211
G1 X225.525 Y36.861 E17.22116
G1 X225.525 Y35.283 E17.32658
G1 X225.217 Y34.975 E17.35568
G1 X220.691 Y34.975 E17.65804
G1 X220.691 Y32.123 E17.84857
G1 X229.305 Y32.123 E18.42403
G1 X229.305 Y36.43 Z.3 E18.71176
G1 X229.305 Y40.737 Z.3 E18.99949
G1 X225.525 Y40.737 E19.25201
G1 X225.525 Y39.139 E19.35877
G1 X225.217 Y38.832 E19.38782
G1 X220.435 Y38.832 Z.3 E19.70727
G1 X215.653 Y38.832 Z.3 E20.02673
G1 X210.871 Y38.832 Z.3 E20.34618
G1 X206.09 Y38.832 Z.3 E20.66564
G1 X201.308 Y38.832 Z.3 E20.98509
G1 X196.526 Y38.832 Z.3 E21.30455
G1 F3000
G1 X4.783 Y38.832 Z.3 E34.114
G1 F2999.938
G1 X4.475 Y39.139 E34.14305
G1 X4.475 Y40.737 E34.24981
G1 X.695 Y40.737 E34.50233
G1 X.695 Y36.43 Z.3 E34.79006
G1 F3000
G1 X.695 Y32.123 Z.3 E35.07779
G1 F2999.954
G1 X5.002 Y32.123 Z.3 E35.36552
G1 X9.309 Y32.123 Z.3 E35.65325
G1 X9.309 Y34.895 E35.83843
G1 E34.43843 F4800
;WIPE_START
G1 F7200
G1 X9.309 Y33.948 E33.83843
;WIPE_END
G92 E0
G1 X228.67 Y40.496 F9000
G1 E2 F4800
G1 F2999.913
G1 X228.67 Y36.55 Z.3 E2.26358
G1 F3000
G1 X228.67 Y32.605 Z.3 E2.52716
G1 F2999.931
G1 X228.075 Y32.605 E2.56691
G1 X228.075 Y40.255 E3.07797
G1 X227.48 Y40.255 E3.11772
G1 X227.48 Y32.605 E3.62878
G1 X226.885 Y32.605 E3.66853
G1 X226.885 Y40.255 E4.17959
G1 X226.29 Y40.255 E4.21934
G1 X226.29 Y32.605 E4.7304
G1 X225.695 Y32.605 E4.77015
G1 X225.695 Y34.77 E4.91478
G1 X225.417 Y34.493 E4.941
G1 X225.099 Y34.493 E4.96224
G1 X225.099 Y32.605 E5.08837
G1 X224.504 Y32.605 E5.12812
G1 X224.504 Y34.493 E5.25425
G1 X223.909 Y34.493 E5.294
G1 X223.909 Y32.605 E5.42013
G1 X223.314 Y32.605 E5.45988
G1 X223.314 Y34.493 E5.58601
G1 X222.719 Y34.493 E5.62576
G1 X222.719 Y32.605 E5.75189
G1 X222.124 Y32.605 E5.79164
G1 X222.124 Y34.493 E5.91777
G1 X221.529 Y34.493 E5.95752
G1 X221.529 Y32.364 E6.09975
G1 E4.69975 F4800
;WIPE_START
G1 F7200
G1 X221.529 Y33.311 E4.09975
;WIPE_END
G92 E0
G1 X225.695 Y38.968 F9000
G1 E2 F4800
G1 F3000
G1 X225.695 Y37.373 E2.10655
G1 F2999.305
G1 X225.417 Y37.65 E2.13277
G1 X225.099 Y37.65 E2.15401
G1 X225.099 Y38.35 E2.20077
G1 X224.504 Y38.35 E2.24052
G1 X224.504 Y37.65 E2.28728
G1 X223.909 Y37.65 E2.32703
G1 X223.909 Y38.35 E2.37379
G1 X223.314 Y38.35 E2.41354
G1 X223.314 Y37.65 E2.4603
G1 X222.719 Y37.65 E2.50005
G1 X222.719 Y38.35 E2.54681
G1 X222.124 Y38.35 E2.58656
G1 X222.124 Y37.65 E2.63332
G1 X221.529 Y37.65 E2.67307
G1 X221.529 Y38.35 E2.71983
G1 X220.934 Y38.35 E2.75958
G1 X220.934 Y37.65 E2.80634
G1 X220.338 Y37.65 E2.84616
G1 X220.338 Y38.35 E2.89292
G1 X219.743 Y38.35 E2.93267
G1 X219.743 Y37.65 E2.97943
G1 X219.148 Y37.65 E3.01918
G1 X219.148 Y38.35 E3.06594
G1 X218.553 Y38.35 E3.10569
G1 X218.553 Y37.65 E3.15245
G1 X217.958 Y37.65 E3.1922
G1 X217.958 Y38.35 E3.23896
G1 X217.363 Y38.35 E3.27871
G1 X217.363 Y37.65 E3.32547
G1 X216.768 Y37.65 E3.36522
G1 X216.768 Y38.35 E3.41198
G1 X216.172 Y38.35 E3.4518
G1 X216.172 Y37.65 E3.49856
G1 X215.577 Y37.65 E3.53831
G1 X215.577 Y38.35 E3.58507
G1 X214.982 Y38.35 E3.62482
G1 X214.982 Y37.65 E3.67158
G1 X214.387 Y37.65 E3.71133
G1 X214.387 Y38.35 E3.75809
G1 X213.792 Y38.35 E3.79784
G1 X213.792 Y37.65 E3.8446
G1 X213.197 Y37.65 E3.88435
G1 X213.197 Y38.35 E3.93111
G1 X212.602 Y38.35 E3.97086
G1 X212.602 Y37.65 E4.01762
G1 X212.007 Y37.65 E4.05737
G1 X212.007 Y38.35 E4.10413
G1 X211.411 Y38.35 E4.14395
G1 X211.411 Y37.65 E4.19071
G1 X210.816 Y37.65 E4.23046
G1 X210.816 Y38.35 E4.27722
G1 X210.221 Y38.35 E4.31697
G1 X210.221 Y37.65 E4.36373
G1 X209.626 Y37.65 E4.40348
G1 X209.626 Y38.35 E4.45024
G1 X209.031 Y38.35 E4.48999
G1 X209.031 Y37.65 E4.53675
G1 X208.436 Y37.65 E4.5765
G1 X208.436 Y38.35 E4.62326
G1 X207.841 Y38.35 E4.66301
G1 X207.841 Y37.65 E4.70977
G1 X207.245 Y37.65 E4.74959
G1 X207.245 Y38.35 E4.79635
G1 X206.65 Y38.35 E4.8361
G1 X206.65 Y37.65 E4.88286
G1 X206.055 Y37.65 E4.92261
G1 X206.055 Y38.35 E4.96937
G1 X205.46 Y38.35 E5.00912
G1 X205.46 Y37.65 E5.05588
G1 X204.865 Y37.65 E5.09563
G1 X204.865 Y38.35 E5.14239
G1 X204.27 Y38.35 E5.18214
G1 X204.27 Y37.65 E5.2289
G1 X203.675 Y37.65 E5.26865
G1 X203.675 Y38.35 E5.31541
G1 X203.08 Y38.35 E5.35516
G1 X203.08 Y37.65 E5.40192
G1 X202.484 Y37.65 E5.44174
G1 X202.484 Y38.35 E5.4885
G1 X201.889 Y38.35 E5.52825
G1 X201.889 Y37.65 E5.57501
G1 X201.294 Y37.65 E5.61476
G1 X201.294 Y38.35 E5.66152
G1 X200.699 Y38.35 E5.70127
G1 X200.699 Y37.65 E5.74803
G1 X200.104 Y37.65 E5.78778
G1 X200.104 Y38.35 E5.83454
G1 X199.509 Y38.35 E5.87429
G1 X199.509 Y37.65 E5.92105
G1 X198.914 Y37.65 E5.9608
G1 X198.914 Y38.35 E6.00756
G1 X198.318 Y38.35 E6.04738
G1 X198.318 Y37.65 E6.09414
G1 X197.723 Y37.65 E6.13389
G1 X197.723 Y38.35 E6.18065
G1 X197.128 Y38.35 E6.2204
G1 X197.128 Y37.65 E6.26716
G1 X196.533 Y37.65 E6.30691
G1 X196.533 Y38.35 E6.35367
G1 X195.938 Y38.35 E6.39342
G1 X195.938 Y37.65 E6.44018
G1 X195.343 Y37.65 E6.47993
G1 X195.343 Y38.35 E6.52669
G1 X194.748 Y38.35 E6.56644
G1 X194.748 Y37.65 E6.6132
G1 X194.153 Y37.65 E6.65295
G1 X194.153 Y38.35 E6.69971
G1 X193.557 Y38.35 E6.73953
G1 X193.557 Y37.65 E6.78629
G1 X192.962 Y37.65 E6.82604
G1 X192.962 Y38.35 E6.8728
G1 X192.367 Y38.35 E6.91255
G1 X192.367 Y37.65 E6.95931
G1 X191.772 Y37.65 E6.99906
G1 X191.772 Y38.35 E7.04582
G1 X191.177 Y38.35 E7.08557
G1 X191.177 Y37.65 E7.13233
G1 X190.582 Y37.65 E7.17208
G1 X190.582 Y38.35 E7.21884
G1 X189.987 Y38.35 E7.25859
G1 X189.987 Y37.65 E7.30535
G1 X189.392 Y37.65 E7.3451
G1 X189.392 Y38.35 E7.39186
G1 X188.796 Y38.35 E7.43168
G1 X188.796 Y37.65 E7.47844
G1 X188.201 Y37.65 E7.51819
G1 X188.201 Y38.35 E7.56495
G1 X187.606 Y38.35 E7.6047
G1 X187.606 Y37.65 E7.65146
G1 X187.011 Y37.65 E7.69121
G1 X187.011 Y38.35 E7.73797
G1 X186.416 Y38.35 E7.77772
G1 X186.416 Y37.65 E7.82448
G1 X185.821 Y37.65 E7.86423
G1 X185.821 Y38.35 E7.91099
G1 X185.226 Y38.35 E7.95074
G1 X185.226 Y37.65 E7.9975
G1 X184.63 Y37.65 E8.03732
G1 X184.63 Y38.35 E8.08408
G1 X184.035 Y38.35 E8.12383
G1 X184.035 Y37.65 E8.17059
G1 X183.44 Y37.65 E8.21034
G1 X183.44 Y38.35 E8.2571
G1 X182.845 Y38.35 E8.29685
G1 X182.845 Y37.65 E8.34361
G1 X182.25 Y37.65 E8.38336
G1 X182.25 Y38.35 E8.43012
G1 X181.655 Y38.35 E8.46987
G1 X181.655 Y37.65 E8.51663
G1 X181.06 Y37.65 E8.55638
G1 X181.06 Y38.35 E8.60314
G1 X180.465 Y38.35 E8.64289
G1 X180.465 Y37.65 E8.68965
G1 X179.869 Y37.65 E8.72947
G1 X179.869 Y38.35 E8.77623
G1 X179.274 Y38.35 E8.81598
G1 X179.274 Y37.65 E8.86274
G1 X178.679 Y37.65 E8.90249
G1 X178.679 Y38.35 E8.94925
G1 X178.084 Y38.35 E8.989
G1 X178.084 Y37.65 E9.03576
G1 X177.489 Y37.65 E9.07551
G1 X177.489 Y38.35 E9.12227
G1 X176.894 Y38.35 E9.16202
G1 X176.894 Y37.65 E9.20878
G1 X176.299 Y37.65 E9.24853
G1 X176.299 Y38.35 E9.29529
G1 X175.703 Y38.35 E9.33511
G1 X175.703 Y37.65 E9.38187
G1 X175.108 Y37.65 E9.42162
G1 X175.108 Y38.35 E9.46838
G1 X174.513 Y38.35 E9.50813
G1 X174.513 Y37.65 E9.55489
G1 X173.918 Y37.65 E9.59464
G1 X173.918 Y38.35 E9.6414
G1 X173.323 Y38.35 E9.68115
G1 X173.323 Y37.65 E9.72791
G1 X172.728 Y37.65 E9.76766
G1 X172.728 Y38.35 E9.81442
G1 X172.133 Y38.35 E9.85417
G1 X172.133 Y37.65 E9.90093
G1 X171.538 Y37.65 E9.94068
G1 X171.538 Y38.35 E9.98744
G1 X170.942 Y38.35 E10.02726
G1 X170.942 Y37.65 E10.07402
G1 X170.347 Y37.65 E10.11377
G1 X170.347 Y38.35 E10.16053
G1 X169.752 Y38.35 E10.20028
G1 X169.752 Y37.65 E10.24704
G1 X169.157 Y37.65 E10.28679
G1 X169.157 Y38.35 E10.33355
G1 X168.562 Y38.35 E10.3733
G1 X168.562 Y37.65 E10.42006
G1 X167.967 Y37.65 E10.45981
G1 X167.967 Y38.35 E10.50657
G1 X167.372 Y38.35 E10.54632
G1 X167.372 Y37.65 E10.59308
G1 X166.776 Y37.65 E10.6329
G1 X166.776 Y38.35 E10.67966
G1 X166.181 Y38.35 E10.71941
G1 X166.181 Y37.65 E10.76617
G1 X165.586 Y37.65 E10.80592
G1 X165.586 Y38.35 E10.85268
G1 X164.991 Y38.35 E10.89243
G1 X164.991 Y37.65 E10.93919
G1 X164.396 Y37.65 E10.97894
G1 X164.396 Y38.35 E11.0257
G1 X163.801 Y38.35 E11.06545
G1 X163.801 Y37.65 E11.11221
G1 X163.206 Y37.65 E11.15196
G1 X163.206 Y38.35 E11.19872
G1 X162.611 Y38.35 E11.23847
G1 X162.611 Y37.65 E11.28523
G1 X162.015 Y37.65 E11.32505
G1 X162.015 Y38.35 E11.37181
G1 X161.42 Y38.35 E11.41156
G1 X161.42 Y37.65 E11.45832
G1 X160.825 Y37.65 E11.49807
G1 X160.825 Y38.35 E11.54483
G1 X160.23 Y38.35 E11.58458
G1 X160.23 Y37.65 E11.63134
G1 X159.635 Y37.65 E11.67109
G1 X159.635 Y38.35 E11.71785
G1 X159.04 Y38.35 E11.7576
G1 X159.04 Y37.65 E11.80436
G1 X158.445 Y37.65 E11.84411
G1 X158.445 Y38.35 E11.89087
G1 X157.85 Y38.35 E11.93062
G1 X157.85 Y37.65 E11.97738
G1 X157.254 Y37.65 E12.0172
G1 X157.254 Y38.35 E12.06396
G1 X156.659 Y38.35 E12.10371
G1 X156.659 Y37.65 E12.15047
G1 X156.064 Y37.65 E12.19022
G1 X156.064 Y38.35 E12.23698
G1 X155.469 Y38.35 E12.27673
G1 X155.469 Y37.65 E12.32349
G1 X154.874 Y37.65 E12.36324
G1 X154.874 Y38.35 E12.41
G1 X154.279 Y38.35 E12.44975
G1 X154.279 Y37.65 E12.49651
G1 X153.684 Y37.65 E12.53626
G1 X153.684 Y38.35 E12.58302
G1 X153.088 Y38.35 E12.62284
G1 X153.088 Y37.65 E12.6696
G1 X152.493 Y37.65 E12.70935
G1 X152.493 Y38.35 E12.75611
G1 X151.898 Y38.35 E12.79586
G1 X151.898 Y37.65 E12.84262
G1 X151.303 Y37.65 E12.88237
G1 X151.303 Y38.35 E12.92913
G1 X150.708 Y38.35 E12.96888
G1 X150.708 Y37.65 E13.01564
G1 X150.113 Y37.65 E13.05539
G1 X150.113 Y38.35 E13.10215
G1 X149.518 Y38.35 E13.1419
G1 X149.518 Y37.65 E13.18866
G1 X148.923 Y37.65 E13.22841
G1 X148.923 Y38.35 E13.27517
G1 X148.327 Y38.35 E13.31499
G1 X148.327 Y37.65 E13.36175
G1 X147.732 Y37.65 E13.4015
G1 X147.732 Y38.35 E13.44826
G1 X147.137 Y38.35 E13.48801
G1 X147.137 Y37.65 E13.53477
G1 X146.542 Y37.65 E13.57452
G1 X146.542 Y38.35 E13.62128
G1 X145.947 Y38.35 E13.66103
G1 X145.947 Y37.65 E13.70779
G1 X145.352 Y37.65 E13.74754
G1 X145.352 Y38.35 E13.7943
G1 X144.757 Y38.35 E13.83405
G1 X144.757 Y37.65 E13.88081
G1 X144.161 Y37.65 E13.92063
G1 X144.161 Y38.35 E13.96739
G1 X143.566 Y38.35 E14.00714
G1 X143.566 Y37.65 E14.0539
G1 X142.971 Y37.65 E14.09365
G1 X142.971 Y38.35 E14.14041
G1 X142.376 Y38.35 E14.18016
G1 X142.376 Y37.65 E14.22692
G1 X141.781 Y37.65 E14.26667
G1 X141.781 Y38.35 E14.31343
G1 X141.186 Y38.35 E14.35318
G1 X141.186 Y37.65 E14.39994
G1 X140.591 Y37.65 E14.43969
G1 X140.591 Y38.35 E14.48645
G1 X139.996 Y38.35 E14.5262
G1 X139.996 Y37.65 E14.57296
G1 X139.4 Y37.65 E14.61278
G1 X139.4 Y38.35 E14.65954
G1 X138.805 Y38.35 E14.69929
G1 X138.805 Y37.65 E14.74605
G1 X138.21 Y37.65 E14.7858
G1 X138.21 Y38.35 E14.83256
G1 X137.615 Y38.35 E14.87231
G1 X137.615 Y37.65 E14.91907
G1 X137.02 Y37.65 E14.95882
G1 X137.02 Y38.35 E15.00558
G1 X136.425 Y38.35 E15.04533
G1 X136.425 Y37.65 E15.09209
G1 X135.83 Y37.65 E15.13184
G1 X135.83 Y38.35 E15.1786
G1 X135.234 Y38.35 E15.21842
G1 X135.234 Y37.65 E15.26518
G1 X134.639 Y37.65 E15.30493
G1 X134.639 Y38.35 E15.35169
G1 X134.044 Y38.35 E15.39144
G1 X134.044 Y37.65 E15.4382
G1 X133.449 Y37.65 E15.47795
G1 X133.449 Y38.35 E15.52471
G1 X132.854 Y38.35 E15.56446
G1 X132.854 Y37.65 E15.61122
G1 X132.259 Y37.65 E15.65097
G1 X132.259 Y38.35 E15.69773
G1 X131.664 Y38.35 E15.73748
G1 X131.664 Y37.65 E15.78424
G1 X131.069 Y37.65 E15.82399
G1 X131.069 Y38.35 E15.87075
G1 X130.473 Y38.35 E15.91057
G1 X130.473 Y37.65 E15.95733
G1 X129.878 Y37.65 E15.99708
G1 X129.878 Y38.35 E16.04384
G1 X129.283 Y38.35 E16.08359
G1 X129.283 Y37.65 E16.13035
G1 X128.688 Y37.65 E16.1701
G1 X128.688 Y38.35 E16.21686
G1 X128.093 Y38.35 E16.25661
G1 X128.093 Y37.65 E16.30337
G1 X127.498 Y37.65 E16.34312
G1 X127.498 Y38.35 E16.38988
G1 X126.903 Y38.35 E16.42963
G1 X126.903 Y37.65 E16.47639
G1 X126.308 Y37.65 E16.51614
G1 X126.308 Y38.35 E16.5629
G1 X125.712 Y38.35 E16.60272
G1 X125.712 Y37.65 E16.64948
G1 X125.117 Y37.65 E16.68923
G1 X125.117 Y38.35 E16.73599
G1 X124.522 Y38.35 E16.77574
G1 X124.522 Y37.65 E16.8225
G1 X123.927 Y37.65 E16.86225
G1 X123.927 Y38.35 E16.90901
G1 X123.332 Y38.35 E16.94876
G1 X123.332 Y37.65 E16.99552
G1 X122.737 Y37.65 E17.03527
G1 X122.737 Y38.35 E17.08203
G1 X122.142 Y38.35 E17.12178
G1 X122.142 Y37.65 E17.16854
G1 X121.546 Y37.65 E17.20836
G1 X121.546 Y38.35 E17.25512
G1 X120.951 Y38.35 E17.29487
G1 X120.951 Y37.65 E17.34163
G1 X120.356 Y37.65 E17.38138
G1 X120.356 Y38.35 E17.42814
G1 X119.761 Y38.35 E17.46789
G1 X119.761 Y37.65 E17.51465
G1 X119.166 Y37.65 E17.5544
G1 X119.166 Y38.35 E17.60116
G1 X118.571 Y38.35 E17.64091
G1 X118.571 Y37.65 E17.68767
G1 X117.976 Y37.65 E17.72742
G1 X117.976 Y38.35 E17.77418
G1 X117.381 Y38.35 E17.81393
G1 X117.381 Y37.65 E17.86069
G1 X116.785 Y37.65 E17.90051
G1 X116.785 Y38.35 E17.94727
G1 X116.19 Y38.35 E17.98702
G1 X116.19 Y37.65 E18.03378
G1 X115.595 Y37.65 E18.07353
G1 X115.595 Y38.35 E18.12029
G1 X115 Y38.35 E18.16004
G1 X115 Y37.65 E18.2068
G1 X114.405 Y37.65 E18.24655
G1 X114.405 Y38.35 E18.29331
G1 X113.81 Y38.35 E18.33306
G1 X113.81 Y37.65 E18.37982
G1 X113.215 Y37.65 E18.41957
G1 X113.215 Y38.35 E18.46633
G1 X112.619 Y38.35 E18.50615
G1 X112.619 Y37.65 E18.55291
G1 X112.024 Y37.65 E18.59266
G1 X112.024 Y38.35 E18.63942
G1 X111.429 Y38.35 E18.67917
G1 X111.429 Y37.65 E18.72593
G1 X110.834 Y37.65 E18.76568
G1 X110.834 Y38.35 E18.81244
G1 X110.239 Y38.35 E18.85219
G1 X110.239 Y37.65 E18.89895
G1 X109.644 Y37.65 E18.9387
G1 X109.644 Y38.35 E18.98546
G1 X109.049 Y38.35 E19.02521
G1 X109.049 Y37.65 E19.07197
G1 X108.454 Y37.65 E19.11172
G1 X108.454 Y38.35 E19.15848
G1 X107.858 Y38.35 E19.1983
G1 X107.858 Y37.65 E19.24506
G1 X107.263 Y37.65 E19.28481
G1 X107.263 Y38.35 E19.33157
G1 X106.668 Y38.35 E19.37132
G1 X106.668 Y37.65 E19.41808
G1 X106.073 Y37.65 E19.45783
G1 X106.073 Y38.35 E19.50459
G1 X105.478 Y38.35 E19.54434
G1 X105.478 Y37.65 E19.5911
G1 X104.883 Y37.65 E19.63085
G1 X104.883 Y38.35 E19.67761
G1 X104.288 Y38.35 E19.71736
G1 X104.288 Y37.65 E19.76412
G1 X103.692 Y37.65 E19.80394
G1 X103.692 Y38.35 E19.8507
G1 X103.097 Y38.35 E19.89045
G1 X103.097 Y37.65 E19.93721
G1 X102.502 Y37.65 E19.97696
G1 X102.502 Y38.35 E20.02372
G1 X101.907 Y38.35 E20.06347
G1 X101.907 Y37.65 E20.11023
G1 X101.312 Y37.65 E20.14998
G1 X101.312 Y38.35 E20.19674
G1 X100.717 Y38.35 E20.23649
G1 X100.717 Y37.65 E20.28325
