; generated by PrusaSlicer 2.6.0+MacOS-x64 on 2023-07-30 at 17:35:34 UTC

; 

; external perimeters extrusion width = 0.45mm
; perimeters extrusion width = 0.40mm
; infill extrusion width = 0.45mm
; solid infill extrusion width = 0.50mm
; top infill extrusion width = 0.45mm
; first layer extrusion width = 0.56mm

M201 X2500 Y2500 Z800 E2500 ; sets maximum accelerations, mm/sec^2
M203 X300 Y250 Z8 E80 ; sets maximum feedrates, mm / sec
M204 S2500 T2500 ; sets acceleration (S) and retract acceleration (R), mm/sec^2
M205 X15.00 Y10.00 Z2.00 E10.00 ; sets the jerk limits, mm/sec
M205 S0 T0 ; sets the minimum extruding and travel feed rate, mm/sec
;TYPE:Custom
G90 ; use absolute coordinates
M83 ; extruder relative mode
M104 S215 ; set extruder temp
M140 S60 ; set bed temp
M190 S60 ; wait for bed temp
M109 S215 ; wait for extruder temp
G28                                        ; move X/Y/Z to min endstops
G1 Z0.28                                   ; lift nozzle a bit 
G92 E0 
G1 Y3 F1800                                    ; zero the extruded length 
G1 X60  E25 F500                       ; Extrude 25mm of filament in a 5cm line. 
G92 E0                                     ; zero the extruded length again 
G1 E-2 F500                                ; Retract a little 
G1 X70 F4000                              ; Quickly wipe away from the filament line
M117
G21 ; set units to millimeters
G90 ; use absolute coordinates
M82 ; use absolute distances for extrusion
G92 E0
M107
;LAYER_CHANGE
;Z:0.28
;HEIGHT:0.28
; BEFORE_LAYER_CHANGE 0 @ 0.28mm
G1 E-2 F4800
G92 E0
G1 Z.28 F7200
; AFTER_LAYER_CHANGE 0 @ 0.28mm
G1 X98.465 Y108.753
G1 E2 F4800
M204 S2000
;TYPE:Skirt/Brim
;WIDTH:0.56
G1 F3000
G1 X98.819 Y108.542 E2.02398
G1 X99.223 Y108.375 E2.04942
G1 X99.848 Y108.25 E2.08651
G1 X130.208 Y108.255 E3.85331
G1 X130.753 Y108.369 E3.88571
G1 X131.302 Y108.606 E3.92051
G1 X131.692 Y108.879 E3.94821
G1 X132.102 Y109.285 E3.98179
G1 X132.408 Y109.726 E4.01303
G1 X132.625 Y110.222 E4.04454
G1 X132.75 Y110.849 E4.08175
G1 X132.724 Y119.381 E4.57827
G1 X132.623 Y119.783 E4.60239
G1 X132.455 Y120.187 E4.62785
G1 X132.09 Y120.729 E4.66588
G1 X131.535 Y121.247 E4.71006
G1 X131.181 Y121.458 E4.73404
G1 X130.777 Y121.625 E4.75948
G1 X130.152 Y121.75 E4.79657
G1 X99.848 Y121.75 E6.56011
G1 X99.224 Y121.625 E6.59715
G1 X98.777 Y121.436 E6.62539
G1 X98.404 Y121.2 E6.65108
G1 X97.753 Y120.535 E6.70524
G1 X97.542 Y120.181 E6.72922
G1 X97.375 Y119.777 E6.75466
G1 X97.25 Y119.151 E6.79181
G1 X97.276 Y110.619 E7.28833
G1 X97.377 Y110.217 E7.31245
G1 X97.545 Y109.813 E7.33791
G1 X97.91 Y109.271 E7.37594
G1 X98.421 Y108.794 E7.41662
M204 S2500
G1 X98.748 Y109.166 F7200
M204 S2000
G1 F3000
G1 X99.029 Y108.997 E7.4357
G1 X99.392 Y108.846 E7.45858
G1 X99.873 Y108.75 E7.48712
G1 X130.18 Y108.755 E9.25083
G1 X130.621 Y108.851 E9.2771
G1 X131.075 Y109.052 E9.30599
G1 X131.383 Y109.272 E9.32802
G1 X131.731 Y109.62 E9.35666
G1 X131.981 Y109.986 E9.38245
G1 X132.154 Y110.393 E9.40819
G1 X132.25 Y110.873 E9.43668
G1 X132.232 Y119.291 E9.92657
G1 X132.153 Y119.61 E9.94569
G1 X132.003 Y119.973 E9.96855
G1 X131.725 Y120.386 E9.99752
G1 X131.252 Y120.834 E10.03543
G1 X130.971 Y121.003 E10.05451
G1 X130.608 Y121.154 E10.07739
G1 X130.127 Y121.25 E10.10593
G1 X99.873 Y121.25 E11.86656
G1 X99.392 Y121.154 E11.8951
G1 X99.026 Y121.002 E11.91816
G1 X98.696 Y120.793 E11.94089
G1 X98.166 Y120.251 E11.98501
G1 X97.997 Y119.971 E12.00404
G1 X97.846 Y119.608 E12.02692
G1 X97.75 Y119.127 E12.05546
G1 X97.768 Y110.709 E12.54535
G1 X97.847 Y110.39 E12.56447
G1 X97.997 Y110.027 E12.58733
G1 X98.275 Y109.614 E12.6163
G1 X98.704 Y109.207 E12.65071
M204 S2500
G1 X99.034 Y109.576 F7200
M204 S2000
G1 F3000
G1 X99.239 Y109.45 E12.66471
G1 X99.561 Y109.317 E12.68498
G1 X99.897 Y109.25 E12.70492
G1 X130.152 Y109.255 E14.46561
G1 X130.441 Y109.318 E14.48282
G1 X130.848 Y109.498 E14.50872
G1 X131.043 Y109.639 E14.52272
G1 X131.36 Y109.956 E14.54881
G1 X131.55 Y110.241 E14.56874
G1 X131.683 Y110.561 E14.58891
G1 X131.75 Y110.897 E14.60885
G1 X131.739 Y119.205 E15.09233
G1 X131.683 Y119.438 E15.10628
G1 X131.55 Y119.759 E15.1265
G1 X131.359 Y120.045 E15.14651
G1 X130.966 Y120.424 E15.17828
G1 X130.761 Y120.55 E15.19228
G1 X130.439 Y120.683 E15.21255
G1 X130.103 Y120.75 E15.23249
G1 X99.897 Y120.75 E16.99033
G1 X99.561 Y120.683 E17.01027
G1 X99.239 Y120.55 E17.03054
G1 X98.992 Y120.39 E17.04767
G1 X98.576 Y119.965 E17.08228
G1 X98.45 Y119.761 E17.09623
G1 X98.317 Y119.439 E17.1165
G1 X98.25 Y119.103 E17.13644
G1 X98.261 Y110.795 E17.61992
G1 X98.317 Y110.562 E17.63387
G1 X98.45 Y110.241 E17.65409
G1 X98.641 Y109.955 E17.6741
G1 X98.991 Y109.618 E17.70238
M204 S2500
G1 X99.326 Y109.983 F7200
M204 S2000
G1 F3000
G1 X99.452 Y109.903 E17.71107
G1 X99.729 Y109.788 E17.72852
G1 X99.922 Y109.75 E17.73997
G1 X130.124 Y109.755 E19.49757
G1 X130.266 Y109.787 E19.50604
G1 X130.584 Y109.923 E19.52617
G1 X130.706 Y110.009 E19.53486
G1 X130.989 Y110.292 E19.55815
G1 X131.098 Y110.455 E19.56956
G1 X131.212 Y110.729 E19.58683
G1 X131.25 Y110.922 E19.59828
G1 X131.245 Y119.124 E20.07559
G1 X131.213 Y119.268 E20.08417
G1 X131.098 Y119.545 E20.10162
G1 X130.989 Y119.707 E20.11298
G1 X130.674 Y120.017 E20.1387
G1 X130.548 Y120.097 E20.14739
G1 X130.271 Y120.212 E20.16484
G1 X130.078 Y120.25 E20.17629
G1 X99.922 Y120.25 E21.93122
G1 X99.729 Y120.212 E21.94267
G1 X99.455 Y120.098 E21.95994
G1 X99.293 Y119.989 E21.9713
G1 X98.983 Y119.674 E21.99702
G1 X98.903 Y119.548 E22.00571
G1 X98.788 Y119.271 E22.02316
G1 X98.75 Y119.078 E22.03461
G1 X98.755 Y110.876 E22.51192
G1 X98.787 Y110.732 E22.5205
G1 X98.902 Y110.455 E22.53795
G1 X99.011 Y110.293 E22.54931
G1 X99.284 Y110.025 E22.57157
M204 S2500
G1 X99.628 Y110.382 F7200
M204 S2000
G1 F3000
G1 X99.946 Y110.25 E22.59161
G1 X130.102 Y110.26 E24.34654
G1 X130.372 Y110.382 E24.36378
G1 X130.618 Y110.628 E24.38403
G1 X130.75 Y110.946 E24.40407
G1 X130.74 Y119.102 E24.87871
G1 X130.618 Y119.372 E24.89595
G1 X130.372 Y119.618 E24.9162
G1 X130.054 Y119.75 E24.93624
G1 X99.898 Y119.74 E26.69117
G1 X99.628 Y119.618 E26.70841
G1 X99.382 Y119.372 E26.72866
G1 X99.25 Y119.054 E26.7487
G1 X99.25 Y110.946 E27.22054
G1 X99.355 Y110.669 E27.23778
G1 X99.585 Y110.424 E27.25734
M204 S2500
G1 X99.929 Y110.788 F7200
M204 S2000
G1 F3000
G1 X100.021 Y110.75 E27.26313
G1 X129.979 Y110.75 E29.00653
G1 X130.071 Y110.788 E29.01232
G1 X130.212 Y110.929 E29.02392
G1 X130.25 Y111.021 E29.02971
G1 X130.25 Y118.979 E29.49283
G1 X130.212 Y119.071 E29.49862
G1 X130.071 Y119.212 E29.51022
G1 X129.979 Y119.25 E29.51601
G1 X100.021 Y119.25 E31.25941
G1 X99.929 Y119.212 E31.2652
G1 X99.788 Y119.071 E31.2768
G1 X99.75 Y118.979 E31.28259
G1 X99.75 Y111.021 E31.74571
G1 X99.788 Y110.929 E31.7515
G1 X99.886 Y110.831 E31.75957
M204 S2500
G1 E30.35957 F4800
;WIPE_START
G1 F5760
G1 X100.021 Y110.75 E30.23493
G1 X100.621 Y110.75 E29.75957
;WIPE_END
G92 E0
G1 X129.6 Y118.6 F7200
G1 E2 F4800
M204 S2000
;TYPE:External perimeter
G1 F3000
G1 X100.4 Y118.6 E3.69929
G1 X100.4 Y111.4 E4.11829
G1 X129.6 Y111.4 E5.81758
G1 X129.6 Y118.54 E6.23309
M204 S2500
G1 X129.201 Y118.568 F7200
G1 X129.1 Y118.1
M204 S2000
;TYPE:Perimeter
G1 F3000
G1 X100.9 Y118.1 E7.87419
G1 X100.9 Y111.9 E8.235
G1 X129.1 Y111.9 E9.8761
G1 X129.1 Y118.04 E10.23342
M204 S2500
G1 X128.6 Y117.6 F7200
M204 S2000
G1 F3000
G1 X101.4 Y117.6 E11.81632
G1 X101.4 Y112.4 E12.11893
G1 X128.6 Y112.4 E13.70183
G1 X128.6 Y117.54 E14.00095
M204 S2500
G1 E12.60095 F4800
;WIPE_START
G1 F5760
G1 X127.842 Y117.542 E12.00095
;WIPE_END
G92 E0
G1 X128.4 Y113.631 F7200
G1 E2 F4800
M204 S2000
;TYPE:Solid infill
;WIDTH:0.569539
G1 F3000
G1 X127.594 Y112.825 E2.0676
G1 X126.874 Y112.825 E2.1103
G1 X128.175 Y114.126 E2.21942
G1 X128.175 Y114.847 E2.26218
G1 X126.153 Y112.825 E2.43177
G1 X125.433 Y112.825 E2.47447
G1 X128.175 Y115.567 E2.70444
G1 X128.175 Y116.288 E2.7472
G1 X124.712 Y112.825 E3.03764
G1 X123.992 Y112.825 E3.08034
G1 X128.175 Y117.008 E3.43117
G1 X128.175 Y117.175 E3.44107
G1 X127.622 Y117.175 E3.47387
G1 X123.272 Y112.825 E3.83871
G1 X122.551 Y112.825 E3.88147
G1 X126.902 Y117.175 E4.24635
G1 X126.181 Y117.175 E4.28911
G1 X121.831 Y112.825 E4.65395
G1 X121.11 Y112.825 E4.69671
G1 X125.461 Y117.175 E5.06159
G1 X124.74 Y117.175 E5.10435
G1 X120.39 Y112.825 E5.46919
G1 X119.669 Y112.825 E5.51195
G1 X124.02 Y117.175 E5.87683
G1 X123.299 Y117.175 E5.91959
G1 X118.949 Y112.825 E6.28443
G1 X118.228 Y112.825 E6.32719
G1 X122.579 Y117.175 E6.69207
G1 X121.858 Y117.175 E6.73483
G1 X117.508 Y112.825 E7.09967
G1 X116.787 Y112.825 E7.14243
G1 X121.138 Y117.175 E7.50731
G1 X120.417 Y117.175 E7.55007
G1 X116.067 Y112.825 E7.91491
G1 X115.346 Y112.825 E7.95767
G1 X119.697 Y117.175 E8.32255
G1 X118.976 Y117.175 E8.36531
G1 X114.626 Y112.825 E8.73015
G1 X113.905 Y112.825 E8.77291
G1 X118.256 Y117.175 E9.13779
G1 X117.535 Y117.175 E9.18055
G1 X113.185 Y112.825 E9.54539
G1 X112.464 Y112.825 E9.58815
G1 X116.815 Y117.175 E9.95303
G1 X116.094 Y117.175 E9.99579
G1 X111.744 Y112.825 E10.36063
G1 X111.024 Y112.825 E10.40333
G1 X115.374 Y117.175 E10.76817
G1 X114.654 Y117.175 E10.81087
G1 X110.303 Y112.825 E11.17575
G1 X109.583 Y112.825 E11.21845
G1 X113.933 Y117.175 E11.58329
G1 X113.213 Y117.175 E11.62599
G1 X108.862 Y112.825 E11.99087
G1 X108.142 Y112.825 E12.03357
G1 X112.492 Y117.175 E12.39841
G1 X111.772 Y117.175 E12.44111
G1 X107.421 Y112.825 E12.80599
G1 X106.701 Y112.825 E12.84869
G1 X111.051 Y117.175 E13.21353
G1 X110.331 Y117.175 E13.25623
G1 X105.98 Y112.825 E13.62111
G1 X105.26 Y112.825 E13.66381
G1 X109.61 Y117.175 E14.02865
G1 X108.89 Y117.175 E14.07135
G1 X104.539 Y112.825 E14.43623
G1 X103.819 Y112.825 E14.47893
G1 X108.169 Y117.175 E14.84377
G1 X107.449 Y117.175 E14.88647
G1 X103.098 Y112.825 E15.25135
G1 X102.378 Y112.825 E15.29405
G1 X106.728 Y117.175 E15.65889
G1 X106.008 Y117.175 E15.70159
G1 X101.825 Y112.992 E16.05242
G1 X101.825 Y113.713 E16.09518
G1 X105.287 Y117.175 E16.38554
G1 X104.567 Y117.175 E16.42824
G1 X101.825 Y114.433 E16.65821
G1 X101.825 Y115.154 E16.70097
G1 X103.846 Y117.175 E16.87047
G1 X103.126 Y117.175 E16.91317
G1 X101.825 Y115.874 E17.02229
G1 X101.825 Y116.594 E17.06499
G1 X102.63 Y117.4 E17.13255
M204 S2500
;LAYER_CHANGE
;Z:0.48
;HEIGHT:0.2
; BEFORE_LAYER_CHANGE 1 @ 0.48mm
G1 E15.73255 F4800
;WIPE_START
G1 F5760
G1 X102.094 Y116.864 E15.13255
;WIPE_END
G92 E0
G1 Z.48 F7200
; AFTER_LAYER_CHANGE 1 @ 0.48mm
M104 S190 ; set temperature
G1 X129.755 Y118.755
G1 E2 F4800
;TYPE:External perimeter
;WIDTH:0.45
G1 F4020
G1 X100.245 Y118.755 E2.99888
G1 X100.245 Y111.245 E3.25308
G1 X129.755 Y111.245 E4.25196
G1 X129.755 Y118.695 E4.50413
G1 X129.356 Y118.722 F7200
G1 X129.373 Y118.373
;TYPE:Perimeter
;WIDTH:0.4
G1 F4020
G1 X100.627 Y118.373 E5.35764
G1 X100.627 Y111.627 E5.55794
G1 X129.373 Y111.627 E6.41145
G1 X129.373 Y118.313 E6.60997
G1 X129.016 Y118.016 F7200
G1 F4020
G1 X100.984 Y118.016 E7.44228
G1 X100.984 Y111.984 E7.62138
G1 X129.016 Y111.984 E8.45369
G1 X129.016 Y117.956 E8.63101
G1 E7.23101 F4800
;WIPE_START
G1 F5760
G1 X128.258 Y117.958 E6.63101
;WIPE_END
G92 E0
G1 X101.454 Y112.367 F7200
G1 E2 F4800
;TYPE:Solid infill
;WIDTH:0.610898
G1 F4020
G1 X101.404 Y112.317 E2.00334
G1 X101.335 Y112.335 E2.00671
G1 X101.317 Y112.404 E2.01008
G1 X101.367 Y112.454 E2.01342
G1 X101.436 Y112.436 E2.01679
;WIDTH:0.499999
G1 X101.33 Y113.166 E2.04483
G1 X102.166 Y112.33 E2.08976
G1 X102.812 Y112.33 E2.11431
G1 X101.33 Y113.812 E2.19397
G1 X101.33 Y114.459 E2.21856
G1 X103.459 Y112.33 E2.33299
G1 X104.105 Y112.33 E2.35754
G1 X101.33 Y115.105 E2.50669
G1 X101.33 Y115.752 E2.53128
G1 X104.752 Y112.33 E2.71521
G1 X105.398 Y112.33 E2.73976
G1 X101.33 Y116.398 E2.95841
G1 X101.33 Y117.044 E2.98296
G1 X106.044 Y112.33 E3.23633
G1 X106.691 Y112.33 E3.26092
G1 X101.351 Y117.67 E3.54794
G1 X101.998 Y117.67 E3.57253
G1 X107.337 Y112.33 E3.85952
G1 X107.984 Y112.33 E3.88411
G1 X102.644 Y117.67 E4.17113
G1 X103.29 Y117.67 E4.19568
G1 X108.63 Y112.33 E4.4827
G1 X109.276 Y112.33 E4.50725
G1 X103.937 Y117.67 E4.79424
G1 X104.583 Y117.67 E4.81879
G1 X109.923 Y112.33 E5.10581
G1 X110.569 Y112.33 E5.13036
G1 X105.23 Y117.67 E5.41735
G1 X105.876 Y117.67 E5.4419
G1 X111.216 Y112.33 E5.72892
G1 X111.862 Y112.33 E5.75347
G1 X106.522 Y117.67 E6.04049
G1 X107.169 Y117.67 E6.06508
G1 X112.508 Y112.33 E6.35207
G1 X113.155 Y112.33 E6.37666
G1 X107.815 Y117.67 E6.66368
G1 X108.462 Y117.67 E6.68827
G1 X113.801 Y112.33 E6.97526
G1 X114.448 Y112.33 E6.99985
G1 X109.108 Y117.67 E7.28687
G1 X109.754 Y117.67 E7.31142
G1 X115.094 Y112.33 E7.59844
G1 X115.74 Y112.33 E7.62299
G1 X110.401 Y117.67 E7.90998
G1 X111.047 Y117.67 E7.93453
G1 X116.387 Y112.33 E8.22155
G1 X117.033 Y112.33 E8.2461
G1 X111.694 Y117.67 E8.53309
G1 X112.34 Y117.67 E8.55764
G1 X117.68 Y112.33 E8.84466
G1 X118.326 Y112.33 E8.86921
G1 X112.986 Y117.67 E9.15623
G1 X113.633 Y117.67 E9.18082
G1 X118.973 Y112.33 E9.46784
G1 X119.619 Y112.33 E9.49239
G1 X114.279 Y117.67 E9.77941
G1 X114.926 Y117.67 E9.804
G1 X120.265 Y112.33 E10.09099
G1 X120.912 Y112.33 E10.11558
G1 X115.572 Y117.67 E10.4026
G1 X116.218 Y117.67 E10.42715
G1 X121.558 Y112.33 E10.71417
G1 X122.205 Y112.33 E10.73876
G1 X116.865 Y117.67 E11.02578
G1 X117.511 Y117.67 E11.05033
G1 X122.851 Y112.33 E11.33735
G1 X123.497 Y112.33 E11.3619
G1 X118.158 Y117.67 E11.64889
G1 X118.804 Y117.67 E11.67344
G1 X124.144 Y112.33 E11.96046
G1 X124.79 Y112.33 E11.98501
G1 X119.451 Y117.67 E12.272
G1 X120.097 Y117.67 E12.29655
G1 X125.437 Y112.33 E12.58357
G1 X126.083 Y112.33 E12.60812
G1 X120.743 Y117.67 E12.89514
G1 X121.39 Y117.67 E12.91973
G1 X126.729 Y112.33 E13.20672
G1 X127.376 Y112.33 E13.23131
G1 X122.036 Y117.67 E13.51833
G1 X122.683 Y117.67 E13.54292
G1 X128.022 Y112.33 E13.82991
G1 X128.669 Y112.33 E13.8545
G1 X123.329 Y117.67 E14.14152
G1 X123.975 Y117.67 E14.16607
G1 X128.67 Y112.975 E14.41842
G1 X128.67 Y113.622 E14.44301
G1 X124.622 Y117.67 E14.66059
G1 X125.268 Y117.67 E14.68514
G1 X128.67 Y114.268 E14.86799
G1 X128.67 Y114.915 E14.89258
G1 X125.915 Y117.67 E15.04066
G1 X126.561 Y117.67 E15.06521
G1 X128.67 Y115.561 E15.17857
G1 X128.67 Y116.207 E15.20312
G1 X127.207 Y117.67 E15.28175
G1 X127.854 Y117.67 E15.30634
G1 X128.67 Y116.854 E15.3502
G1 X128.687 Y117.602 E15.37864
;WIDTH:0.59935
G1 X128.638 Y117.553 E15.38185
G1 X128.571 Y117.571 E15.38506
G1 X128.553 Y117.638 E15.38827
G1 X128.602 Y117.687 E15.39148
G1 X128.669 Y117.669 E15.39469
M106 S255
;LAYER_CHANGE
;Z:0.68
;HEIGHT:0.2
; BEFORE_LAYER_CHANGE 2 @ 0.68mm
G1 E13.99469 F4800
;WIPE_START
G1 F5760
G1 X128.602 Y117.687 E13.93977
G1 X128.553 Y117.638 E13.88491
G1 X128.571 Y117.571 E13.82999
G1 X128.638 Y117.553 E13.77507
G1 X128.687 Y117.602 E13.72021
G1 X128.678 Y117.191 E13.39469
;WIPE_END
G92 E0
G1 Z.68 F7200
; AFTER_LAYER_CHANGE 2 @ 0.68mm
G1 X129.755 Y118.755
G1 E2 F4800
;TYPE:External perimeter
;WIDTH:0.45
G1 F3918
G1 X100.245 Y118.755 E2.99888
G1 X100.245 Y111.245 E3.25308
G1 X129.755 Y111.245 E4.25196
G1 X129.755 Y118.695 E4.50413
G1 X129.356 Y118.722 F7200
G1 X129.373 Y118.373
;TYPE:Perimeter
;WIDTH:0.4
G1 F3918
G1 X100.627 Y118.373 E5.35764
G1 X100.627 Y111.627 E5.55794
G1 X129.373 Y111.627 E6.41145
G1 X129.373 Y118.313 E6.60997
G1 X129.016 Y118.016 F7200
G1 F3918
G1 X100.984 Y118.016 E7.44228
G1 X100.984 Y111.984 E7.62138
G1 X129.016 Y111.984 E8.45369
G1 X129.016 Y117.956 E8.63101
G1 E7.23101 F4800
;WIPE_START
G1 F5760
G1 X128.258 Y117.958 E6.63101
;WIPE_END
G92 E0
G1 X101.367 Y117.546 F7200
G1 E2 F4800
;TYPE:Solid infill
;WIDTH:0.610898
G1 F3918
G1 X101.317 Y117.596 E2.00334
G1 X101.335 Y117.665 E2.00671
G1 X101.404 Y117.683 E2.01008
G1 X101.454 Y117.633 E2.01342
G1 X101.436 Y117.564 E2.01679
;WIDTH:0.499999
G1 X101.33 Y116.834 E2.04483
G1 X102.166 Y117.67 E2.08976
G1 X102.812 Y117.67 E2.11431
G1 X101.33 Y116.188 E2.19397
G1 X101.33 Y115.541 E2.21856
G1 X103.459 Y117.67 E2.33299
G1 X104.105 Y117.67 E2.35754
G1 X101.33 Y114.895 E2.50669
G1 X101.33 Y114.248 E2.53128
G1 X104.752 Y117.67 E2.71521
G1 X105.398 Y117.67 E2.73976
G1 X101.33 Y113.602 E2.95841
G1 X101.33 Y112.956 E2.98296
