; generated by PrusaSlicer 2.6.0+MacOS-x64 on 2023-07-30 at 14:11:12 UTC

; 

; external perimeters extrusion width = 0.45mm
; perimeters extrusion width = 0.40mm
; infill extrusion width = 0.45mm
; solid infill extrusion width = 0.50mm
; top infill extrusion width = 0.45mm
; first layer extrusion width = 0.56mm

M201 X2500 Y2500 Z800 E2500 ; sets maximum accelerations, mm/sec^2
M203 X300 Y250 Z8 E80 ; sets maximum feedrates, mm / sec
M204 S2500 T2500 ; sets acceleration (S) and retract acceleration (R), mm/sec^2
M205 X15.00 Y10.00 Z2.00 E10.00 ; sets the jerk limits, mm/sec
M205 S0 T0 ; sets the minimum extruding and travel feed rate, mm/sec
;TYPE:Custom
G90 ; use absolute coordinates
M83 ; extruder relative mode
M104 S215 ; set extruder temp
M140 S60 ; set bed temp
M190 S60 ; wait for bed temp
M109 S215 ; wait for extruder temp
G28                                        ; move X/Y/Z to min endstops
G1 Z0.28                                   ; lift nozzle a bit 
G92 E0 
G1 Y3 F1800                                    ; zero the extruded length 
G1 X60  E25 F500                       ; Extrude 25mm of filament in a 5cm line. 
G92 E0                                     ; zero the extruded length again 
G1 E-2 F500                                ; Retract a little 
G1 X70 F4000                              ; Quickly wipe away from the filament line
M117
G21 ; set units to millimeters
G90 ; use absolute coordinates
M82 ; use absolute distances for extrusion
G92 E0
M107
;LAYER_CHANGE
;Z:0.28
;HEIGHT:0.28
; BEFORE_LAYER_CHANGE 0 @ 0.28mm
G1 E-2 F4800
G92 E0
G1 Z.28 F7200
; AFTER_LAYER_CHANGE 0 @ 0.28mm
G1 X107.91 Y103.271
G1 E2 F4800
M204 S2000
;TYPE:Skirt/Brim
;WIDTH:0.56
G1 F3000
G1 X108.465 Y102.753 E2.04418
G1 X108.819 Y102.542 E2.06816
G1 X109.224 Y102.374 E2.09368
G1 X109.749 Y102.261 E2.12493
G1 X120.208 Y102.255 E2.73359
G1 X120.753 Y102.369 E2.76599
G1 X121.302 Y102.606 E2.80079
G1 X121.692 Y102.879 E2.82849
G1 X122.102 Y103.284 E2.86203
G1 X122.456 Y103.815 E2.89917
G1 X122.641 Y104.274 E2.92797
G1 X122.745 Y104.803 E2.95934
G1 X122.75 Y125.153 E4.14361
G1 X122.654 Y125.682 E4.1749
G1 X122.455 Y126.186 E4.20643
G1 X122.09 Y126.729 E4.24451
G1 X121.535 Y127.247 E4.28869
G1 X121.181 Y127.458 E4.31267
G1 X120.777 Y127.625 E4.33811
G1 X120.152 Y127.75 E4.3752
G1 X109.847 Y127.75 E4.9749
G1 X109.318 Y127.654 E5.00619
G1 X108.814 Y127.455 E5.03772
G1 X108.271 Y127.09 E5.0758
G1 X107.753 Y126.535 E5.11998
G1 X107.542 Y126.181 E5.14396
G1 X107.375 Y125.777 E5.1694
G1 X107.25 Y125.152 E5.20649
G1 X107.25 Y104.847 E6.38814
G1 X107.346 Y104.318 E6.41943
G1 X107.545 Y103.814 E6.45096
G1 X107.877 Y103.321 E6.48555
M204 S2500
G1 X108.275 Y103.614 F7200
M204 S2000
G1 F3000
G1 X108.748 Y103.166 E6.52346
G1 X109.029 Y102.997 E6.54254
G1 X109.393 Y102.845 E6.5655
G1 X109.825 Y102.755 E6.59118
G1 X120.18 Y102.755 E7.19379
G1 X120.621 Y102.851 E7.22006
G1 X121.075 Y103.052 E7.24895
G1 X121.383 Y103.272 E7.27098
G1 X121.731 Y103.619 E7.29958
G1 X122.002 Y104.026 E7.32804
G1 X122.168 Y104.437 E7.35384
G1 X122.25 Y104.871 E7.37954
G1 X122.25 Y125.129 E8.55845
G1 X122.168 Y125.563 E8.58415
G1 X122.002 Y125.974 E8.60995
G1 X121.725 Y126.386 E8.63884
G1 X121.252 Y126.834 E8.67675
G1 X120.971 Y127.003 E8.69583
G1 X120.608 Y127.154 E8.71871
G1 X120.127 Y127.25 E8.74725
G1 X109.871 Y127.25 E9.3441
G1 X109.437 Y127.168 E9.3698
G1 X109.026 Y127.002 E9.3956
G1 X108.614 Y126.725 E9.42449
G1 X108.166 Y126.252 E9.4624
G1 X107.997 Y125.971 E9.48148
G1 X107.846 Y125.608 E9.50436
G1 X107.75 Y125.127 E9.5329
G1 X107.75 Y104.871 E10.7117
G1 X107.832 Y104.437 E10.7374
G1 X107.998 Y104.026 E10.7632
G1 X108.241 Y103.664 E10.78857
M204 S2500
G1 X108.641 Y103.955 F7200
M204 S2000
G1 F3000
G1 X109.034 Y103.576 E10.82034
G1 X109.239 Y103.45 E10.83434
G1 X109.561 Y103.317 E10.85461
G1 X109.897 Y103.25 E10.87455
G1 X120.153 Y103.255 E11.4714
G1 X120.441 Y103.318 E11.48856
G1 X120.848 Y103.498 E11.51446
G1 X121.043 Y103.639 E11.52846
G1 X121.36 Y103.956 E11.55455
G1 X121.55 Y104.241 E11.57448
G1 X121.683 Y104.561 E11.59465
G1 X121.75 Y104.897 E11.61459
G1 X121.75 Y125.103 E12.79048
G1 X121.683 Y125.439 E12.81042
G1 X121.55 Y125.759 E12.83059
G1 X121.359 Y126.045 E12.8506
G1 X120.966 Y126.424 E12.88237
G1 X120.761 Y126.55 E12.89637
G1 X120.439 Y126.683 E12.91664
G1 X120.103 Y126.75 E12.93658
G1 X109.897 Y126.75 E13.53052
G1 X109.561 Y126.683 E13.55046
G1 X109.241 Y126.55 E13.57063
G1 X108.955 Y126.359 E13.59064
G1 X108.576 Y125.966 E13.62241
G1 X108.45 Y125.761 E13.63641
G1 X108.317 Y125.439 E13.65668
G1 X108.25 Y125.103 E13.67662
G1 X108.25 Y104.897 E14.85251
G1 X108.317 Y104.561 E14.87245
G1 X108.45 Y104.241 E14.89262
G1 X108.608 Y104.005 E14.90915
M204 S2500
G1 X109.011 Y104.293 F7200
M204 S2000
G1 F3000
G1 X109.326 Y103.983 E14.93487
G1 X109.452 Y103.903 E14.94356
G1 X109.729 Y103.788 E14.96101
G1 X109.922 Y103.75 E14.97246
G1 X120.124 Y103.755 E15.56616
G1 X120.266 Y103.787 E15.57463
G1 X120.584 Y103.923 E15.59476
G1 X120.706 Y104.009 E15.60345
G1 X120.989 Y104.292 E15.62674
G1 X121.098 Y104.455 E15.63815
G1 X121.212 Y104.729 E15.65542
G1 X121.25 Y104.922 E15.66687
G1 X121.25 Y125.078 E16.83985
G1 X121.212 Y125.271 E16.8513
G1 X121.098 Y125.545 E16.86857
G1 X120.989 Y125.707 E16.87993
G1 X120.674 Y126.017 E16.90565
G1 X120.548 Y126.097 E16.91434
G1 X120.271 Y126.212 E16.93179
G1 X120.078 Y126.25 E16.94324
G1 X109.922 Y126.25 E17.53427
G1 X109.729 Y126.212 E17.54572
G1 X109.455 Y126.098 E17.56299
G1 X109.293 Y125.989 E17.57435
G1 X108.983 Y125.674 E17.60007
G1 X108.903 Y125.548 E17.60876
G1 X108.788 Y125.271 E17.62621
G1 X108.75 Y125.078 E17.63766
G1 X108.75 Y104.922 E18.81064
G1 X108.788 Y104.729 E18.82209
G1 X108.902 Y104.455 E18.83936
G1 X108.977 Y104.343 E18.8472
M204 S2500
G1 X109.382 Y104.628 F7200
M204 S2000
G1 F3000
G1 X109.628 Y104.382 E18.86745
G1 X109.946 Y104.25 E18.88749
G1 X120.054 Y104.25 E19.47572
G1 X120.372 Y104.382 E19.49576
G1 X120.645 Y104.669 E19.51881
G1 X120.75 Y104.946 E19.53605
G1 X120.75 Y125.054 E20.70623
G1 X120.618 Y125.372 E20.72627
G1 X120.331 Y125.645 E20.74932
G1 X120.054 Y125.75 E20.76656
G1 X109.946 Y125.75 E21.35479
G1 X109.628 Y125.618 E21.37483
G1 X109.355 Y125.331 E21.39788
G1 X109.25 Y125.054 E21.41512
G1 X109.25 Y104.946 E22.5853
G1 X109.351 Y104.679 E22.60191
M204 S2500
G1 X109.788 Y104.929 F7200
M204 S2000
G1 F3000
G1 X109.929 Y104.788 E22.61351
G1 X110.021 Y104.75 E22.6193
G1 X119.979 Y104.75 E23.19881
G1 X120.071 Y104.788 E23.2046
G1 X120.212 Y104.929 E23.2162
G1 X120.25 Y105.021 E23.22199
G1 X120.25 Y124.979 E24.38344
G1 X120.212 Y125.071 E24.38923
G1 X120.071 Y125.212 E24.40083
G1 X119.979 Y125.25 E24.40662
G1 X110.021 Y125.25 E24.98613
G1 X109.929 Y125.212 E24.99192
G1 X109.788 Y125.071 E25.00352
G1 X109.75 Y124.979 E25.00931
G1 X109.75 Y105.021 E26.17076
G1 X109.765 Y104.984 E26.17308
M204 S2500
G1 E24.77308 F4800
;WIPE_START
G1 F5760
G1 X109.929 Y104.788 E24.57076
G1 X110.021 Y104.75 E24.49196
G1 X110.424 Y104.75 E24.17308
;WIPE_END
G92 E0
G1 X119.6 Y124.6 F7200
G1 E2 F4800
M204 S2000
;TYPE:External perimeter
G1 F3000
G1 X110.4 Y124.6 E2.53539
G1 X110.4 Y105.4 E3.65273
G1 X119.6 Y105.4 E4.18812
G1 X119.6 Y124.54 E5.30197
M204 S2500
G1 X119.228 Y124.454 F7200
G1 X119.1 Y124.1
M204 S2000
;TYPE:Perimeter
G1 F3000
G1 X110.9 Y124.1 E5.77917
G1 X110.9 Y105.9 E6.83832
G1 X119.1 Y105.9 E7.31552
G1 X119.1 Y124.04 E8.37118
M204 S2500
G1 X118.6 Y123.6 F7200
M204 S2000
G1 F3000
G1 X111.4 Y123.6 E8.79018
G1 X111.4 Y106.4 E9.79113
G1 X118.6 Y106.4 E10.21013
G1 X118.6 Y123.54 E11.20759
M204 S2500
G1 E9.80759 F4800
;WIPE_START
G1 F5760
G1 X117.842 Y123.546 E9.20759
;WIPE_END
G92 E0
G1 X116.901 Y109.993 F7200
G1 E2 F4800
M204 S2000
;TYPE:External perimeter
G1 F3000
G1 X116.865 Y110.371 E2.0221
G1 X116.757 Y110.728 E2.04381
G1 X116.581 Y111.057 E2.06552
G1 X116.345 Y111.345 E2.08719
G1 X116.057 Y111.581 E2.10886
G1 X115.728 Y111.757 E2.13057
G1 X115.371 Y111.865 E2.15228
G1 X115 Y111.902 E2.17398
G1 X114.629 Y111.865 E2.19568
G1 X114.272 Y111.757 E2.21739
G1 X113.943 Y111.581 E2.2391
G1 X113.655 Y111.345 E2.26077
G1 X113.419 Y111.057 E2.28244
G1 X113.243 Y110.728 E2.30415
G1 X113.135 Y110.371 E2.32586
G1 X113.098 Y110 E2.34756
G1 X113.135 Y109.629 E2.36926
G1 X113.243 Y109.272 E2.39097
G1 X113.419 Y108.943 E2.41268
G1 X113.655 Y108.655 E2.43435
G1 X113.943 Y108.419 E2.45602
G1 X114.272 Y108.243 E2.47773
G1 X114.628 Y108.135 E2.49938
G1 X114.986 Y108.099 E2.52032
G1 X115.37 Y108.134 E2.54276
G1 X115.728 Y108.243 E2.56454
G1 X116.057 Y108.419 E2.58625
G1 X116.345 Y108.655 E2.60792
G1 X116.581 Y108.943 E2.62959
G1 X116.757 Y109.272 E2.6513
G1 X116.865 Y109.629 E2.67301
G1 X116.895 Y109.933 E2.69079
M204 S2500
G1 X117.231 Y110.182 F7200
G1 X117.4 Y109.953
M204 S2000
;TYPE:Perimeter
G1 F3000
G1 X117.358 Y110.469 E2.72092
G1 X117.221 Y110.92 E2.74835
G1 X116.999 Y111.336 E2.77579
G1 X116.7 Y111.7 E2.8032
G1 X116.336 Y111.999 E2.83061
G1 X115.92 Y112.221 E2.85805
G1 X115.469 Y112.358 E2.88548
G1 X115 Y112.404 E2.9129
G1 X114.531 Y112.358 E2.94032
G1 X114.08 Y112.221 E2.96775
G1 X113.664 Y111.999 E2.99519
G1 X113.3 Y111.7 E3.0226
G1 X113.001 Y111.336 E3.05001
G1 X112.779 Y110.92 E3.07745
G1 X112.642 Y110.469 E3.10488
G1 X112.596 Y110 E3.1323
G1 X112.642 Y109.531 E3.15972
G1 X112.779 Y109.08 E3.18715
G1 X113.001 Y108.664 E3.21459
G1 X113.3 Y108.3 E3.242
G1 X113.664 Y108.001 E3.26941
G1 X114.08 Y107.779 E3.29685
G1 X114.53 Y107.642 E3.32422
G1 X114.984 Y107.596 E3.35078
G1 X115.467 Y107.641 E3.37901
G1 X115.92 Y107.779 E3.40657
G1 X116.336 Y108.001 E3.43401
G1 X116.7 Y108.3 E3.46142
G1 X116.999 Y108.664 E3.48883
G1 X117.221 Y109.08 E3.51627
G1 X117.358 Y109.531 E3.5437
G1 X117.394 Y109.894 E3.56493
M204 S2500
G1 X117.898 Y109.911 F7200
M204 S2000
G1 F3000
G1 X117.907 Y110 E3.57014
G1 X117.851 Y110.567 E3.6033
G1 X117.685 Y111.112 E3.63645
G1 X117.417 Y111.615 E3.66962
G1 X117.055 Y112.055 E3.70278
G1 X116.615 Y112.417 E3.73594
G1 X116.112 Y112.685 E3.76911
G1 X115.567 Y112.851 E3.80226
G1 X115 Y112.907 E3.83542
G1 X114.433 Y112.851 E3.86858
G1 X113.888 Y112.685 E3.90173
G1 X113.385 Y112.417 E3.9349
G1 X112.945 Y112.055 E3.96806
G1 X112.583 Y111.615 E4.00122
G1 X112.315 Y111.112 E4.03439
G1 X112.149 Y110.567 E4.06754
G1 X112.093 Y110 E4.1007
G1 X112.149 Y109.433 E4.13386
G1 X112.315 Y108.888 E4.16701
G1 X112.583 Y108.385 E4.20018
G1 X112.945 Y107.945 E4.23334
G1 X113.385 Y107.583 E4.2665
G1 X113.888 Y107.315 E4.29967
G1 X114.431 Y107.15 E4.3327
G1 X114.982 Y107.094 E4.36493
G1 X115.563 Y107.148 E4.39889
G1 X116.112 Y107.315 E4.43228
G1 X116.615 Y107.583 E4.46545
G1 X117.055 Y107.945 E4.49861
G1 X117.417 Y108.385 E4.53177
G1 X117.685 Y108.888 E4.56494
G1 X117.851 Y109.433 E4.59809
G1 X117.892 Y109.852 E4.62259
M204 S2500
G1 E3.22259 F4800
;WIPE_START
G1 F5760
G1 X117.907 Y110 E3.10482
G1 X117.851 Y110.567 E2.65376
G1 X117.84 Y110.605 E2.62259
;WIPE_END
G92 E0
G1 X113.127 Y119.707 F7200
G1 E2 F4800
M204 S2000
;TYPE:External perimeter
G1 F3000
G1 X113.135 Y119.629 E2.00456
G1 X113.243 Y119.272 E2.02627
G1 X113.419 Y118.943 E2.04798
G1 X113.655 Y118.655 E2.06965
G1 X113.943 Y118.419 E2.09132
G1 X114.272 Y118.243 E2.11303
G1 X114.629 Y118.135 E2.13474
G1 X114.992 Y118.098 E2.15597
G1 X115.37 Y118.134 E2.17807
G1 X115.728 Y118.243 E2.19985
G1 X116.057 Y118.419 E2.22156
G1 X116.345 Y118.655 E2.24323
G1 X116.581 Y118.943 E2.2649
G1 X116.757 Y119.272 E2.28661
G1 X116.865 Y119.629 E2.30832
G1 X116.902 Y120 E2.33002
G1 X116.865 Y120.371 E2.35172
G1 X116.757 Y120.728 E2.37343
G1 X116.581 Y121.057 E2.39514
G1 X116.345 Y121.345 E2.41681
G1 X116.057 Y121.581 E2.43848
G1 X115.728 Y121.757 E2.46019
G1 X115.371 Y121.865 E2.4819
G1 X115 Y121.902 E2.5036
G1 X114.629 Y121.865 E2.5253
G1 X114.272 Y121.757 E2.54701
G1 X113.943 Y121.581 E2.56872
G1 X113.655 Y121.345 E2.59039
G1 X113.419 Y121.057 E2.61206
G1 X113.243 Y120.728 E2.63377
G1 X113.135 Y120.371 E2.65548
G1 X113.098 Y120 E2.67718
G1 X113.121 Y119.766 E2.69086
M204 S2500
G1 X113.062 Y119.663 F7200
G1 X112.653 Y119.495
M204 S2000
;TYPE:Perimeter
G1 F3000
G1 X112.779 Y119.08 E2.7161
G1 X113.001 Y118.664 E2.74354
G1 X113.3 Y118.3 E2.77095
G1 X113.664 Y118.001 E2.79836
G1 X114.08 Y117.779 E2.8258
G1 X114.53 Y117.642 E2.85317
G1 X114.99 Y117.596 E2.88007
G1 X115.468 Y117.642 E2.90802
G1 X115.92 Y117.779 E2.93551
G1 X116.336 Y118.001 E2.96295
G1 X116.7 Y118.3 E2.99036
G1 X116.999 Y118.664 E3.01777
G1 X117.221 Y119.08 E3.04521
G1 X117.358 Y119.531 E3.07264
G1 X117.404 Y120 E3.10006
G1 X117.358 Y120.469 E3.12748
G1 X117.221 Y120.92 E3.15491
G1 X116.999 Y121.336 E3.18235
G1 X116.7 Y121.7 E3.20976
G1 X116.336 Y121.999 E3.23717
G1 X115.92 Y122.221 E3.26461
G1 X115.469 Y122.358 E3.29204
G1 X115 Y122.404 E3.31946
G1 X114.531 Y122.358 E3.34688
G1 X114.08 Y122.221 E3.37431
G1 X113.664 Y121.999 E3.40175
G1 X113.3 Y121.7 E3.42916
G1 X113.001 Y121.336 E3.45657
G1 X112.779 Y120.92 E3.48401
G1 X112.642 Y120.469 E3.51144
G1 X112.596 Y120 E3.53886
G1 X112.64 Y119.554 E3.56494
M204 S2500
G1 X112.141 Y119.512 F7200
M204 S2000
G1 F3000
G1 X112.149 Y119.433 E3.56956
G1 X112.315 Y118.888 E3.60271
G1 X112.583 Y118.385 E3.63588
G1 X112.945 Y117.945 E3.66904
G1 X113.385 Y117.583 E3.7022
G1 X113.888 Y117.315 E3.73537
G1 X114.432 Y117.15 E3.76845
G1 X114.989 Y117.094 E3.80103
G1 X115.565 Y117.149 E3.8347
G1 X116.112 Y117.315 E3.86797
G1 X116.615 Y117.583 E3.90114
G1 X117.055 Y117.945 E3.9343
G1 X117.417 Y118.385 E3.96746
G1 X117.685 Y118.888 E4.00063
G1 X117.851 Y119.433 E4.03378
G1 X117.907 Y120 E4.06694
G1 X117.851 Y120.567 E4.1001
G1 X117.685 Y121.112 E4.13325
G1 X117.417 Y121.615 E4.16642
G1 X117.055 Y122.055 E4.19958
G1 X116.615 Y122.417 E4.23274
G1 X116.112 Y122.685 E4.26591
G1 X115.567 Y122.851 E4.29906
G1 X115 Y122.907 E4.33222
G1 X114.433 Y122.851 E4.36538
G1 X113.888 Y122.685 E4.39853
G1 X113.385 Y122.417 E4.4317
G1 X112.945 Y122.055 E4.46486
G1 X112.583 Y121.615 E4.49802
G1 X112.315 Y121.112 E4.53119
G1 X112.149 Y120.567 E4.56434
G1 X112.093 Y120 E4.5975
G1 X112.136 Y119.572 E4.62253
M204 S2500
G1 E3.22253 F4800
;WIPE_START
G1 F5760
G1 X112.149 Y119.433 E3.11201
G1 X112.315 Y118.888 E2.66098
G1 X112.338 Y118.845 E2.62253
;WIPE_END
G92 E0
G1 X113.782 Y106.6 F7200
G1 E2 F4800
M204 S2000
;TYPE:Solid infill
;WIDTH:0.567937
G1 F3000
G1 X114.014 Y106.832 E2.0194
G1 X113.724 Y106.92 E2.03732
G1 X113.503 Y107.039 E2.05216
G1 X113.289 Y106.825 E2.07005
G1 X112.57 Y106.825 E2.11256
G1 X113.052 Y107.307 E2.15286
G1 X112.658 Y107.63 E2.18298
G1 X111.852 Y106.825 E2.25033
G1 X111.825 Y106.825 E2.25193
G1 X111.825 Y107.516 E2.29278
G1 X112.331 Y108.022 E2.33509
G1 X112.228 Y108.148 E2.34471
G1 X112.058 Y108.467 E2.36608
G1 X111.825 Y108.234 E2.38556
G1 X111.825 Y108.952 E2.42801
G1 X112.025 Y109.153 E2.44477
M204 S2500
G1 E1.04477 F4800
;WIPE_START
G1 F5760
G1 X111.825 Y108.952 E.82029
G1 X111.825 Y108.478 E.44477
;WIPE_END
G92 E0
G1 X117.373 Y106.6 F7200
G1 E2 F4800
M204 S2000
G1 F3000
G1 X118.175 Y107.402 E2.06705
G1 X118.175 Y108.12 E2.1095
G1 X116.88 Y106.825 E2.21777
G1 X116.161 Y106.825 E2.26028
G1 X116.249 Y106.912 E2.2676
G1 X116.852 Y107.228 E2.30785
G1 X117.357 Y107.643 E2.34649
G1 X117.772 Y108.148 E2.38513
G1 X118.088 Y108.751 E2.42538
G1 X118.4 Y109.064 E2.45151
M204 S2500
G1 E1.05151 F4800
;WIPE_START
G1 F5760
G1 X118.088 Y108.751 E.70164
G1 X117.941 Y108.471 E.45151
;WIPE_END
G92 E0
G1 X117.987 Y110.805 F7200
G1 E2 F4800
M204 S2000
G1 F3000
G1 X118.175 Y110.993 E2.01572
G1 X118.175 Y111.711 E2.05817
G1 X117.961 Y111.497 E2.07606
G1 X117.772 Y111.852 E2.09984
G1 X117.693 Y111.948 E2.10719
G1 X118.175 Y112.43 E2.14749
G1 X118.175 Y113.148 E2.18994
G1 X117.37 Y112.342 E2.25729
G1 X116.978 Y112.669 E2.28747
G1 X118.175 Y113.866 E2.38755
G1 X118.175 Y114.584 E2.43
G1 X116.533 Y112.942 E2.56728
G1 X116.276 Y113.08 E2.58453
G1 X116.028 Y113.155 E2.59985
G1 X118.175 Y115.302 E2.77935
G1 X118.175 Y116.021 E2.82186
G1 X115.444 Y113.29 E3.05019
G1 X115 Y113.334 E3.07657
G1 X114.745 Y113.308 E3.09172
G1 X118.175 Y116.739 E3.37853
G1 X118.175 Y117.457 E3.42098
G1 X113.83 Y113.112 E3.78425
