; generated by PrusaSlicer 2.6.0+MacOS-x64 on 2023-07-30 at 14:37:45 UTC

; 

; external perimeters extrusion width = 0.45mm
; perimeters extrusion width = 0.40mm
; infill extrusion width = 0.45mm
; solid infill extrusion width = 0.50mm
; top infill extrusion width = 0.45mm
; first layer extrusion width = 0.56mm

M201 X2500 Y2500 Z800 E2500 ; sets maximum accelerations, mm/sec^2
M203 X300 Y250 Z8 E80 ; sets maximum feedrates, mm / sec
M204 S2500 T2500 ; sets acceleration (S) and retract acceleration (R), mm/sec^2
M205 X15.00 Y10.00 Z2.00 E10.00 ; sets the jerk limits, mm/sec
M205 S0 T0 ; sets the minimum extruding and travel feed rate, mm/sec
;TYPE:Custom
G90 ; use absolute coordinates
M83 ; extruder relative mode
M104 S215 ; set extruder temp
M140 S60 ; set bed temp
M190 S60 ; wait for bed temp
M109 S215 ; wait for extruder temp
G28                                        ; move X/Y/Z to min endstops
G1 Z0.28                                   ; lift nozzle a bit 
G92 E0 
G1 Y3 F1800                                    ; zero the extruded length 
G1 X60  E25 F500                       ; Extrude 25mm of filament in a 5cm line. 
G92 E0                                     ; zero the extruded length again 
G1 E-2 F500                                ; Retract a little 
G1 X70 F4000                              ; Quickly wipe away from the filament line
M117
G21 ; set units to millimeters
G90 ; use absolute coordinates
M82 ; use absolute distances for extrusion
G92 E0
M107
;LAYER_CHANGE
;Z:0.28
;HEIGHT:0.28
; BEFORE_LAYER_CHANGE 0 @ 0.28mm
G1 E-2 F4800
G92 E0
G1 Z.28 F7200
; AFTER_LAYER_CHANGE 0 @ 0.28mm
G1 X107.753 Y93.465
G1 E2 F4800
M204 S2000
;TYPE:Skirt/Brim
;WIDTH:0.56
G1 F3000
G1 X108.271 Y92.91 E2.04418
G1 X108.813 Y92.545 E2.08221
G1 X109.217 Y92.377 E2.10767
G1 X109.619 Y92.275 E2.13181
G1 X120.323 Y92.268 E2.75473
G1 X120.804 Y92.386 E2.78355
G1 X121.349 Y92.632 E2.81835
G1 X121.723 Y92.905 E2.8453
G1 X122.101 Y93.283 E2.87641
G1 X122.455 Y93.814 E2.91355
G1 X122.654 Y94.318 E2.94508
G1 X122.75 Y94.847 E2.97637
G1 X122.75 Y125.152 E4.73997
G1 X122.625 Y125.777 E4.77706
G1 X122.458 Y126.181 E4.8025
G1 X122.247 Y126.534 E4.82643
G1 X121.688 Y127.124 E4.87373
G1 X121.188 Y127.455 E4.90863
G1 X120.777 Y127.625 E4.93451
G1 X120.309 Y127.733 E4.96246
G1 X109.848 Y127.75 E5.57124
G1 X109.223 Y127.625 E5.60833
G1 X108.819 Y127.458 E5.63377
G1 X108.465 Y127.247 E5.65775
G1 X107.8 Y126.596 E5.71191
G1 X107.564 Y126.223 E5.7376
G1 X107.375 Y125.776 E5.76584
G1 X107.25 Y125.152 E5.80288
G1 X107.25 Y94.848 E7.56642
G1 X107.375 Y94.223 E7.60351
G1 X107.542 Y93.819 E7.62895
G1 X107.722 Y93.517 E7.64941
M204 S2500
G1 X108.15 Y93.775 F7200
M204 S2000
G1 F3000
G1 X108.614 Y93.275 E7.68911
G1 X109.027 Y92.997 E7.71808
G1 X109.39 Y92.847 E7.74094
G1 X109.709 Y92.768 E7.76006
G1 X120.291 Y92.768 E8.37588
G1 X120.618 Y92.85 E8.3955
G1 X121.118 Y93.077 E8.42746
G1 X121.382 Y93.271 E8.44653
G1 X121.731 Y93.619 E8.47521
G1 X122.002 Y94.026 E8.50367
G1 X122.168 Y94.437 E8.52947
G1 X122.25 Y94.871 E8.55517
G1 X122.25 Y125.127 E10.31592
G1 X122.154 Y125.608 E10.34446
G1 X122.003 Y125.971 E10.36734
G1 X121.834 Y126.252 E10.38642
G1 X121.386 Y126.725 E10.42433
G1 X120.973 Y127.003 E10.4533
G1 X120.607 Y127.154 E10.47634
G1 X120.227 Y127.239 E10.499
G1 X109.873 Y127.25 E11.10155
G1 X109.392 Y127.154 E11.13009
G1 X109.029 Y127.003 E11.15297
G1 X108.749 Y126.834 E11.172
G1 X108.207 Y126.304 E11.21612
G1 X107.998 Y125.974 E11.23885
G1 X107.846 Y125.608 E11.26191
G1 X107.75 Y125.127 E11.29045
G1 X107.75 Y94.873 E13.05108
G1 X107.846 Y94.392 E13.07962
G1 X107.997 Y94.029 E13.1025
G1 X108.119 Y93.826 E13.11628
M204 S2500
G1 X108.544 Y94.088 F7200
M204 S2000
G1 F3000
G1 X108.955 Y93.641 E13.15162
G1 X109.241 Y93.45 E13.17163
G1 X109.562 Y93.317 E13.19185
G1 X109.795 Y93.261 E13.2058
G1 X120.205 Y93.261 E13.81161
G1 X120.439 Y93.317 E13.82561
G1 X120.848 Y93.498 E13.85164
G1 X121.043 Y93.639 E13.86564
G1 X121.36 Y93.956 E13.89173
G1 X121.55 Y94.241 E13.91166
G1 X121.683 Y94.561 E13.93183
G1 X121.75 Y94.897 E13.95177
G1 X121.75 Y125.103 E15.70961
G1 X121.683 Y125.439 E15.72955
G1 X121.55 Y125.761 E15.74982
G1 X121.424 Y125.966 E15.76382
G1 X121.045 Y126.359 E15.79559
G1 X120.759 Y126.55 E15.8156
G1 X120.438 Y126.683 E15.83582
G1 X120.15 Y126.745 E15.85296
G1 X109.897 Y126.75 E16.44963
G1 X109.561 Y126.683 E16.46957
G1 X109.239 Y126.55 E16.48984
G1 X109.035 Y126.424 E16.50379
G1 X108.61 Y126.008 E16.5384
G1 X108.45 Y125.761 E16.55553
G1 X108.317 Y125.439 E16.5758
G1 X108.25 Y125.103 E16.59574
G1 X108.25 Y94.897 E18.35358
G1 X108.317 Y94.561 E18.37352
G1 X108.45 Y94.239 E18.39379
G1 X108.512 Y94.139 E18.40064
M204 S2500
G1 X108.933 Y94.405 F7200
M204 S2000
G1 F3000
G1 X108.983 Y94.326 E18.40608
G1 X109.293 Y94.011 E18.4318
G1 X109.455 Y93.902 E18.44316
G1 X109.732 Y93.787 E18.46061
G1 X109.876 Y93.755 E18.46919
G1 X120.124 Y93.755 E19.06557
G1 X120.266 Y93.787 E19.07404
G1 X120.584 Y93.923 E19.09417
G1 X120.706 Y94.009 E19.10286
G1 X120.989 Y94.292 E19.12615
G1 X121.098 Y94.455 E19.13756
G1 X121.212 Y94.729 E19.15483
G1 X121.25 Y94.922 E19.16628
G1 X121.25 Y125.078 E20.92121
G1 X121.212 Y125.271 E20.93266
G1 X121.097 Y125.548 E20.95011
G1 X121.017 Y125.674 E20.9588
G1 X120.707 Y125.989 E20.98452
G1 X120.545 Y126.098 E20.99588
G1 X120.271 Y126.212 E21.01315
G1 X120.078 Y126.25 E21.0246
G1 X109.922 Y126.25 E21.61563
G1 X109.729 Y126.212 E21.62708
G1 X109.452 Y126.097 E21.64453
G1 X109.326 Y126.017 E21.65322
G1 X109.011 Y125.707 E21.67894
G1 X108.902 Y125.545 E21.6903
G1 X108.788 Y125.271 E21.70757
G1 X108.75 Y125.078 E21.71902
G1 X108.75 Y94.922 E23.47395
G1 X108.788 Y94.729 E23.4854
G1 X108.902 Y94.456 E23.50262
M204 S2500
G1 X109.355 Y94.669 F7200
M204 S2000
G1 F3000
G1 X109.628 Y94.382 E23.52567
G1 X109.946 Y94.25 E23.54571
G1 X120.054 Y94.25 E24.13394
G1 X120.372 Y94.382 E24.15398
G1 X120.618 Y94.628 E24.17423
G1 X120.74 Y94.898 E24.19147
G1 X120.75 Y125.054 E25.9464
G1 X120.618 Y125.372 E25.96644
G1 X120.372 Y125.618 E25.98669
G1 X120.102 Y125.74 E26.00393
G1 X109.946 Y125.75 E26.59496
G1 X109.628 Y125.618 E26.615
G1 X109.382 Y125.372 E26.63525
G1 X109.26 Y125.102 E26.65249
G1 X109.25 Y94.946 E28.40742
G1 X109.332 Y94.724 E28.42119
M204 S2500
G1 X109.788 Y94.929 F7200
M204 S2000
G1 F3000
G1 X109.929 Y94.788 E28.43279
G1 X110.021 Y94.75 E28.43858
G1 X119.979 Y94.75 E29.01809
G1 X120.071 Y94.788 E29.02388
G1 X120.212 Y94.929 E29.03548
G1 X120.25 Y95.021 E29.04127
G1 X120.25 Y124.979 E30.78467
G1 X120.212 Y125.071 E30.79046
G1 X120.071 Y125.212 E30.80206
G1 X119.979 Y125.25 E30.80785
G1 X110.021 Y125.25 E31.38736
G1 X109.929 Y125.212 E31.39315
G1 X109.788 Y125.071 E31.40475
G1 X109.75 Y124.979 E31.41054
G1 X109.75 Y95.021 E33.15394
G1 X109.765 Y94.984 E33.15626
M204 S2500
G1 E31.75626 F4800
;WIPE_START
G1 F5760
G1 X109.929 Y94.788 E31.55394
G1 X110.021 Y94.75 E31.47514
G1 X110.424 Y94.75 E31.15626
;WIPE_END
G92 E0
G1 X119.6 Y124.6 F7200
G1 E2 F4800
M204 S2000
;TYPE:External perimeter
G1 F3000
G1 X110.4 Y124.6 E2.53539
G1 X110.4 Y95.4 E4.23468
G1 X119.6 Y95.4 E4.77007
G1 X119.6 Y124.54 E6.46587
M204 S2500
G1 X119.235 Y124.436 F7200
G1 X119.1 Y124.1
M204 S2000
;TYPE:Perimeter
G1 F3000
G1 X110.9 Y124.1 E6.94307
G1 X110.9 Y95.9 E8.58417
G1 X119.1 Y95.9 E9.06137
G1 X119.1 Y124.04 E10.69898
M204 S2500
G1 X118.6 Y123.6 F7200
M204 S2000
G1 F3000
G1 X111.4 Y123.6 E11.11798
G1 X111.4 Y96.4 E12.70088
G1 X118.6 Y96.4 E13.11988
G1 X118.6 Y123.54 E14.69929
M204 S2500
G1 E13.29929 F4800
;WIPE_START
G1 F5760
G1 X117.842 Y123.546 E12.69929
;WIPE_END
G92 E0
G1 X117.051 Y99.988 F7200
G1 E2 F4800
M204 S2000
;TYPE:External perimeter
G1 F3000
G1 X117.013 Y100.4 E2.02408
G1 X116.896 Y100.785 E2.0475
G1 X116.706 Y101.14 E2.07093
G1 X116.451 Y101.451 E2.09433
G1 X116.14 Y101.706 E2.11773
G1 X115.785 Y101.896 E2.14116
G1 X115.4 Y102.013 E2.16458
G1 X115 Y102.052 E2.18797
G1 X114.6 Y102.013 E2.21136
G1 X114.215 Y101.896 E2.23478
G1 X113.86 Y101.706 E2.25821
G1 X113.549 Y101.451 E2.28161
G1 X113.294 Y101.14 E2.30501
G1 X113.104 Y100.785 E2.32844
G1 X112.987 Y100.4 E2.35186
G1 X112.948 Y100 E2.37525
G1 X112.987 Y99.6 E2.39864
G1 X113.104 Y99.215 E2.42206
G1 X113.294 Y98.86 E2.44549
G1 X113.549 Y98.549 E2.46889
G1 X113.86 Y98.294 E2.49229
G1 X114.215 Y98.104 E2.51572
G1 X114.599 Y97.988 E2.53906
G1 X114.985 Y97.949 E2.56164
G1 X115.399 Y97.987 E2.58583
G1 X115.785 Y98.104 E2.6093
G1 X116.14 Y98.294 E2.63273
G1 X116.451 Y98.549 E2.65613
G1 X116.706 Y98.86 E2.67953
G1 X116.896 Y99.215 E2.70296
G1 X117.013 Y99.6 E2.72638
G1 X117.045 Y99.928 E2.74556
M204 S2500
G1 X117.398 Y100.187 F7200
G1 X117.55 Y99.953
M204 S2000
;TYPE:Perimeter
G1 F3000
G1 X117.505 Y100.498 E2.77738
G1 X117.36 Y100.977 E2.8065
G1 X117.124 Y101.419 E2.83566
G1 X116.806 Y101.806 E2.86481
G1 X116.419 Y102.124 E2.89396
G1 X115.977 Y102.36 E2.92312
G1 X115.498 Y102.505 E2.95224
G1 X115 Y102.554 E2.98136
G1 X114.502 Y102.505 E3.01048
G1 X114.023 Y102.36 E3.0396
G1 X113.581 Y102.124 E3.06876
G1 X113.194 Y101.806 E3.09791
G1 X112.876 Y101.419 E3.12706
G1 X112.64 Y100.977 E3.15622
G1 X112.495 Y100.498 E3.18534
G1 X112.446 Y100 E3.21446
G1 X112.495 Y99.502 E3.24358
G1 X112.64 Y99.023 E3.2727
G1 X112.876 Y98.581 E3.30186
G1 X113.194 Y98.194 E3.33101
G1 X113.581 Y97.876 E3.36016
G1 X114.023 Y97.64 E3.38932
G1 X114.5 Y97.495 E3.41833
G1 X114.983 Y97.446 E3.44658
G1 X115.496 Y97.494 E3.47656
G1 X115.977 Y97.64 E3.50581
G1 X116.419 Y97.876 E3.53497
G1 X116.806 Y98.194 E3.56412
G1 X117.124 Y98.581 E3.59327
G1 X117.36 Y99.023 E3.62243
G1 X117.505 Y99.502 E3.65155
G1 X117.544 Y99.893 E3.67442
M204 S2500
G1 X118.048 Y99.911 F7200
M204 S2000
G1 F3000
G1 X118.057 Y100 E3.67963
G1 X117.998 Y100.596 E3.71448
G1 X117.824 Y101.17 E3.74938
G1 X117.541 Y101.698 E3.78424
G1 X117.161 Y102.161 E3.8191
G1 X116.698 Y102.541 E3.85396
G1 X116.17 Y102.824 E3.88882
G1 X115.596 Y102.998 E3.92372
G1 X115 Y103.057 E3.95857
G1 X114.404 Y102.998 E3.99342
G1 X113.83 Y102.824 E4.02832
G1 X113.302 Y102.541 E4.06318
G1 X112.839 Y102.161 E4.09804
G1 X112.459 Y101.698 E4.1329
G1 X112.176 Y101.17 E4.16776
G1 X112.002 Y100.596 E4.20266
G1 X111.943 Y100 E4.23751
G1 X112.002 Y99.404 E4.27236
G1 X112.176 Y98.83 E4.30726
G1 X112.459 Y98.302 E4.34212
G1 X112.839 Y97.839 E4.37698
G1 X113.302 Y97.459 E4.41184
G1 X113.83 Y97.176 E4.4467
G1 X114.402 Y97.003 E4.48148
G1 X114.98 Y96.944 E4.51529
G1 X115.593 Y97.001 E4.55112
G1 X116.17 Y97.176 E4.58621
G1 X116.698 Y97.459 E4.62107
G1 X117.161 Y97.839 E4.65593
G1 X117.541 Y98.302 E4.69079
G1 X117.824 Y98.83 E4.72565
G1 X117.998 Y99.404 E4.76055
G1 X118.042 Y99.851 E4.78669
M204 S2500
G1 E3.38669 F4800
;WIPE_START
G1 F5760
G1 X118.057 Y100 E3.26814
G1 X117.998 Y100.596 E2.794
G1 X117.995 Y100.605 E2.78669
;WIPE_END
G92 E0
G1 X116.951 Y119.992 F7200
G1 E2 F4800
M204 S2000
;TYPE:External perimeter
G1 F3000
G1 X116.914 Y120.381 E2.02274
G1 X116.803 Y120.747 E2.045
G1 X116.623 Y121.084 E2.06723
G1 X116.38 Y121.38 E2.08952
G1 X116.084 Y121.623 E2.11181
G1 X115.747 Y121.803 E2.13404
G1 X115.381 Y121.914 E2.1563
G1 X115 Y121.952 E2.17858
G1 X114.619 Y121.914 E2.20086
G1 X114.253 Y121.803 E2.22312
G1 X113.916 Y121.623 E2.24535
G1 X113.62 Y121.38 E2.26764
G1 X113.377 Y121.084 E2.28993
G1 X113.197 Y120.747 E2.31216
G1 X113.086 Y120.381 E2.33442
G1 X113.048 Y120 E2.3567
G1 X113.086 Y119.619 E2.37898
G1 X113.197 Y119.253 E2.40124
G1 X113.377 Y118.916 E2.42347
G1 X113.62 Y118.62 E2.44576
G1 X113.916 Y118.377 E2.46805
G1 X114.253 Y118.197 E2.49028
G1 X114.619 Y118.086 E2.51254
G1 X114.985 Y118.049 E2.53395
G1 X115.38 Y118.085 E2.55703
G1 X115.747 Y118.197 E2.57936
G1 X116.084 Y118.377 E2.60159
G1 X116.38 Y118.62 E2.62388
G1 X116.623 Y118.916 E2.64617
G1 X116.803 Y119.253 E2.6684
G1 X116.914 Y119.619 E2.69066
G1 X116.945 Y119.932 E2.70896
M204 S2500
G1 X117.29 Y120.186 F7200
G1 X117.45 Y120.047
M204 S2000
;TYPE:Perimeter
G1 F3000
G1 X117.407 Y120.479 E2.73422
G1 X117.267 Y120.939 E2.7622
G1 X117.041 Y121.364 E2.79021
G1 X116.735 Y121.735 E2.8182
G1 X116.364 Y122.041 E2.84619
G1 X115.939 Y122.267 E2.8742
G1 X115.479 Y122.407 E2.90218
G1 X115 Y122.454 E2.93019
G1 X114.521 Y122.407 E2.9582
G1 X114.061 Y122.267 E2.98618
G1 X113.636 Y122.041 E3.01419
G1 X113.265 Y121.735 E3.04218
G1 X112.959 Y121.364 E3.07017
G1 X112.733 Y120.939 E3.09818
G1 X112.593 Y120.479 E3.12616
G1 X112.546 Y120 E3.15417
G1 X112.593 Y119.521 E3.18218
G1 X112.733 Y119.061 E3.21016
G1 X112.959 Y118.636 E3.23817
G1 X113.265 Y118.265 E3.26616
G1 X113.636 Y117.959 E3.29415
G1 X114.061 Y117.733 E3.32216
G1 X114.52 Y117.593 E3.35009
G1 X114.983 Y117.546 E3.37717
G1 X115.477 Y117.592 E3.40604
G1 X115.939 Y117.733 E3.43415
G1 X116.364 Y117.959 E3.46216
G1 X116.735 Y118.265 E3.49015
G1 X117.041 Y118.637 E3.51818
G1 X117.267 Y119.061 E3.54614
G1 X117.407 Y119.521 E3.57412
G1 X117.453 Y119.987 E3.60137
M204 S2500
G1 X117.948 Y120.089 F7200
M204 S2000
G1 F3000
G1 X117.9 Y120.577 E3.62991
G1 X117.732 Y121.131 E3.6636
G1 X117.458 Y121.643 E3.69739
G1 X117.091 Y122.091 E3.73109
G1 X116.643 Y122.458 E3.76479
G1 X116.131 Y122.732 E3.79858
G1 X115.577 Y122.9 E3.83227
G1 X115 Y122.957 E3.86601
G1 X114.423 Y122.9 E3.89975
G1 X113.869 Y122.732 E3.93344
G1 X113.357 Y122.458 E3.96723
G1 X112.909 Y122.091 E4.00093
G1 X112.542 Y121.643 E4.03463
G1 X112.268 Y121.131 E4.06842
G1 X112.1 Y120.577 E4.10211
G1 X112.043 Y120 E4.13585
G1 X112.1 Y119.423 E4.16959
G1 X112.268 Y118.869 E4.20328
G1 X112.542 Y118.357 E4.23707
G1 X112.909 Y117.909 E4.27077
G1 X113.357 Y117.542 E4.30447
G1 X113.869 Y117.268 E4.33826
G1 X114.421 Y117.101 E4.37182
G1 X114.981 Y117.044 E4.40458
G1 X115.573 Y117.099 E4.43918
G1 X116.131 Y117.268 E4.47311
G1 X116.643 Y117.542 E4.5069
G1 X117.091 Y117.909 E4.5406
G1 X117.458 Y118.357 E4.5743
G1 X117.732 Y118.869 E4.60809
G1 X117.9 Y119.423 E4.64178
G1 X117.954 Y120.029 E4.67719
M204 S2500
G1 E3.27719 F4800
;WIPE_START
G1 F5760
G1 X117.9 Y120.577 E2.84126
G1 X117.84 Y120.775 E2.67719
;WIPE_END
G92 E0
G1 X117.001 Y109.99 F7200
G1 E2 F4800
M204 S2000
;TYPE:External perimeter
G1 F3000
G1 X116.963 Y110.391 E2.02344
G1 X116.85 Y110.766 E2.04623
G1 X116.665 Y111.112 E2.06906
G1 X116.416 Y111.416 E2.09193
G1 X116.112 Y111.665 E2.1148
G1 X115.766 Y111.85 E2.13763
G1 X115.391 Y111.963 E2.16042
G1 X115 Y112.002 E2.18329
G1 X114.609 Y111.963 E2.20616
G1 X114.234 Y111.85 E2.22895
G1 X113.888 Y111.665 E2.25178
G1 X113.584 Y111.416 E2.27465
G1 X113.335 Y111.112 E2.29752
G1 X113.15 Y110.766 E2.32035
G1 X113.037 Y110.391 E2.34314
G1 X112.998 Y110 E2.36601
G1 X113.037 Y109.609 E2.38888
G1 X113.15 Y109.234 E2.41167
G1 X113.335 Y108.888 E2.4345
G1 X113.584 Y108.584 E2.45737
G1 X113.888 Y108.335 E2.48024
G1 X114.234 Y108.15 E2.50307
G1 X114.609 Y108.037 E2.52586
G1 X114.985 Y107.999 E2.54785
G1 X115.39 Y108.036 E2.57152
G1 X115.766 Y108.15 E2.59438
G1 X116.112 Y108.335 E2.61721
G1 X116.416 Y108.584 E2.64008
G1 X116.665 Y108.888 E2.66295
G1 X116.85 Y109.234 E2.68578
G1 X116.963 Y109.609 E2.70857
G1 X116.995 Y109.931 E2.7274
M204 S2500
G1 X117.348 Y110.189 F7200
G1 X117.5 Y110.047
M204 S2000
;TYPE:Perimeter
G1 F3000
G1 X117.456 Y110.489 E2.75325
G1 X117.314 Y110.958 E2.78177
G1 X117.082 Y111.391 E2.81036
G1 X116.771 Y111.771 E2.83894
G1 X116.391 Y112.082 E2.86752
G1 X115.958 Y112.314 E2.89611
G1 X115.489 Y112.456 E2.92463
G1 X115 Y112.504 E2.95322
G1 X114.511 Y112.456 E2.98181
G1 X114.042 Y112.314 E3.01033
G1 X113.609 Y112.082 E3.03892
G1 X113.229 Y111.771 E3.0675
G1 X112.918 Y111.391 E3.09608
G1 X112.686 Y110.958 E3.12467
G1 X112.544 Y110.489 E3.15319
G1 X112.496 Y110 E3.18178
G1 X112.544 Y109.511 E3.21037
G1 X112.686 Y109.042 E3.23889
G1 X112.918 Y108.609 E3.26748
G1 X113.229 Y108.229 E3.29606
G1 X113.609 Y107.918 E3.32464
G1 X114.042 Y107.686 E3.35323
G1 X114.51 Y107.544 E3.38169
G1 X114.983 Y107.496 E3.40936
G1 X115.486 Y107.543 E3.43876
G1 X115.958 Y107.686 E3.46746
G1 X116.391 Y107.918 E3.49605
G1 X116.771 Y108.229 E3.52463
G1 X117.082 Y108.609 E3.55321
G1 X117.314 Y109.042 E3.5818
G1 X117.456 Y109.511 E3.61032
G1 X117.503 Y109.987 E3.63816
M204 S2500
G1 X117.998 Y110.089 F7200
