; generated by PrusaSlicer 2.6.0+MacOS-x64 on 2023-07-30 at 14:59:15 UTC

; 

; external perimeters extrusion width = 0.45mm
; perimeters extrusion width = 0.40mm
; infill extrusion width = 0.45mm
; solid infill extrusion width = 0.50mm
; top infill extrusion width = 0.45mm
; first layer extrusion width = 0.56mm

M201 X2500 Y2500 Z800 E2500 ; sets maximum accelerations, mm/sec^2
M203 X300 Y250 Z8 E80 ; sets maximum feedrates, mm / sec
M204 S2500 T2500 ; sets acceleration (S) and retract acceleration (R), mm/sec^2
M205 X15.00 Y10.00 Z2.00 E10.00 ; sets the jerk limits, mm/sec
M205 S0 T0 ; sets the minimum extruding and travel feed rate, mm/sec
;TYPE:Custom
G90 ; use absolute coordinates
M83 ; extruder relative mode
M104 S215 ; set extruder temp
M140 S60 ; set bed temp
M190 S60 ; wait for bed temp
M109 S215 ; wait for extruder temp
G28                                        ; move X/Y/Z to min endstops
G1 Z0.28                                   ; lift nozzle a bit 
G92 E0 
G1 Y3 F1800                                    ; zero the extruded length 
G1 X60  E25 F500                       ; Extrude 25mm of filament in a 5cm line. 
G92 E0                                     ; zero the extruded length again 
G1 E-2 F500                                ; Retract a little 
G1 X70 F4000                              ; Quickly wipe away from the filament line
M117
G21 ; set units to millimeters
G90 ; use absolute coordinates
M82 ; use absolute distances for extrusion
G92 E0
M107
;LAYER_CHANGE
;Z:0.28
;HEIGHT:0.28
; BEFORE_LAYER_CHANGE 0 @ 0.28mm
G1 E-2 F4800
G92 E0
G1 Z.28 F7200
; AFTER_LAYER_CHANGE 0 @ 0.28mm
G1 X107.753 Y93.465
G1 E2 F4800
M204 S2000
;TYPE:Skirt/Brim
;WIDTH:0.56
G1 F3000
G1 X108.271 Y92.91 E2.04418
G1 X108.813 Y92.545 E2.08221
G1 X109.217 Y92.377 E2.10767
G1 X109.619 Y92.275 E2.13181
G1 X120.323 Y92.268 E2.75473
G1 X120.804 Y92.386 E2.78355
G1 X121.349 Y92.632 E2.81835
G1 X121.723 Y92.905 E2.8453
G1 X122.101 Y93.283 E2.87641
G1 X122.455 Y93.814 E2.91355
G1 X122.654 Y94.318 E2.94508
G1 X122.75 Y94.847 E2.97637
G1 X122.75 Y125.152 E4.73997
G1 X122.625 Y125.777 E4.77706
G1 X122.458 Y126.181 E4.8025
G1 X122.247 Y126.534 E4.82643
G1 X121.688 Y127.124 E4.87373
G1 X121.188 Y127.455 E4.90863
G1 X120.777 Y127.625 E4.93451
G1 X120.309 Y127.733 E4.96246
G1 X109.848 Y127.75 E5.57124
G1 X109.223 Y127.625 E5.60833
G1 X108.819 Y127.458 E5.63377
G1 X108.465 Y127.247 E5.65775
G1 X107.8 Y126.596 E5.71191
G1 X107.564 Y126.223 E5.7376
G1 X107.375 Y125.776 E5.76584
G1 X107.25 Y125.152 E5.80288
G1 X107.25 Y94.848 E7.56642
G1 X107.375 Y94.223 E7.60351
G1 X107.542 Y93.819 E7.62895
G1 X107.722 Y93.517 E7.64941
M204 S2500
G1 X108.15 Y93.775 F7200
M204 S2000
G1 F3000
G1 X108.614 Y93.275 E7.68911
G1 X109.027 Y92.997 E7.71808
G1 X109.39 Y92.847 E7.74094
G1 X109.709 Y92.768 E7.76006
G1 X120.291 Y92.768 E8.37588
G1 X120.618 Y92.85 E8.3955
G1 X121.118 Y93.077 E8.42746
G1 X121.382 Y93.271 E8.44653
G1 X121.731 Y93.619 E8.47521
G1 X122.002 Y94.026 E8.50367
G1 X122.168 Y94.437 E8.52947
G1 X122.25 Y94.871 E8.55517
G1 X122.25 Y125.127 E10.31592
G1 X122.154 Y125.608 E10.34446
G1 X122.003 Y125.971 E10.36734
G1 X121.834 Y126.252 E10.38642
G1 X121.386 Y126.725 E10.42433
G1 X120.973 Y127.003 E10.4533
G1 X120.607 Y127.154 E10.47634
G1 X120.227 Y127.239 E10.499
G1 X109.873 Y127.25 E11.10155
G1 X109.392 Y127.154 E11.13009
G1 X109.029 Y127.003 E11.15297
G1 X108.749 Y126.834 E11.172
G1 X108.207 Y126.304 E11.21612
G1 X107.998 Y125.974 E11.23885
G1 X107.846 Y125.608 E11.26191
G1 X107.75 Y125.127 E11.29045
G1 X107.75 Y94.873 E13.05108
G1 X107.846 Y94.392 E13.07962
G1 X107.997 Y94.029 E13.1025
G1 X108.119 Y93.826 E13.11628
M204 S2500
G1 X108.544 Y94.088 F7200
M204 S2000
G1 F3000
G1 X108.955 Y93.641 E13.15162
G1 X109.241 Y93.45 E13.17163
G1 X109.562 Y93.317 E13.19185
G1 X109.795 Y93.261 E13.2058
G1 X120.205 Y93.261 E13.81161
G1 X120.439 Y93.317 E13.82561
G1 X120.848 Y93.498 E13.85164
G1 X121.043 Y93.639 E13.86564
G1 X121.36 Y93.956 E13.89173
G1 X121.55 Y94.241 E13.91166
G1 X121.683 Y94.561 E13.93183
G1 X121.75 Y94.897 E13.95177
G1 X121.75 Y125.103 E15.70961
G1 X121.683 Y125.439 E15.72955
G1 X121.55 Y125.761 E15.74982
G1 X121.424 Y125.966 E15.76382
G1 X121.045 Y126.359 E15.79559
G1 X120.759 Y126.55 E15.8156
G1 X120.438 Y126.683 E15.83582
G1 X120.15 Y126.745 E15.85296
G1 X109.897 Y126.75 E16.44963
G1 X109.561 Y126.683 E16.46957
G1 X109.239 Y126.55 E16.48984
G1 X109.035 Y126.424 E16.50379
G1 X108.61 Y126.008 E16.5384
G1 X108.45 Y125.761 E16.55553
G1 X108.317 Y125.439 E16.5758
G1 X108.25 Y125.103 E16.59574
G1 X108.25 Y94.897 E18.35358
G1 X108.317 Y94.561 E18.37352
G1 X108.45 Y94.239 E18.39379
G1 X108.512 Y94.139 E18.40064
M204 S2500
G1 X108.933 Y94.405 F7200
M204 S2000
G1 F3000
G1 X108.983 Y94.326 E18.40608
G1 X109.293 Y94.011 E18.4318
G1 X109.455 Y93.902 E18.44316
G1 X109.732 Y93.787 E18.46061
G1 X109.876 Y93.755 E18.46919
G1 X120.124 Y93.755 E19.06557
G1 X120.266 Y93.787 E19.07404
G1 X120.584 Y93.923 E19.09417
G1 X120.706 Y94.009 E19.10286
G1 X120.989 Y94.292 E19.12615
G1 X121.098 Y94.455 E19.13756
G1 X121.212 Y94.729 E19.15483
G1 X121.25 Y94.922 E19.16628
G1 X121.25 Y125.078 E20.92121
G1 X121.212 Y125.271 E20.93266
G1 X121.097 Y125.548 E20.95011
G1 X121.017 Y125.674 E20.9588
G1 X120.707 Y125.989 E20.98452
G1 X120.545 Y126.098 E20.99588
G1 X120.271 Y126.212 E21.01315
G1 X120.078 Y126.25 E21.0246
G1 X109.922 Y126.25 E21.61563
G1 X109.729 Y126.212 E21.62708
G1 X109.452 Y126.097 E21.64453
G1 X109.326 Y126.017 E21.65322
G1 X109.011 Y125.707 E21.67894
G1 X108.902 Y125.545 E21.6903
G1 X108.788 Y125.271 E21.70757
G1 X108.75 Y125.078 E21.71902
G1 X108.75 Y94.922 E23.47395
G1 X108.788 Y94.729 E23.4854
G1 X108.902 Y94.456 E23.50262
M204 S2500
G1 X109.355 Y94.669 F7200
M204 S2000
G1 F3000
G1 X109.628 Y94.382 E23.52567
G1 X109.946 Y94.25 E23.54571
G1 X120.054 Y94.25 E24.13394
G1 X120.372 Y94.382 E24.15398
G1 X120.618 Y94.628 E24.17423
G1 X120.74 Y94.898 E24.19147
G1 X120.75 Y125.054 E25.9464
G1 X120.618 Y125.372 E25.96644
G1 X120.372 Y125.618 E25.98669
G1 X120.102 Y125.74 E26.00393
G1 X109.946 Y125.75 E26.59496
G1 X109.628 Y125.618 E26.615
G1 X109.382 Y125.372 E26.63525
G1 X109.26 Y125.102 E26.65249
G1 X109.25 Y94.946 E28.40742
G1 X109.332 Y94.724 E28.42119
M204 S2500
G1 X109.788 Y94.929 F7200
M204 S2000
G1 F3000
G1 X109.929 Y94.788 E28.43279
G1 X110.021 Y94.75 E28.43858
G1 X119.979 Y94.75 E29.01809
G1 X120.071 Y94.788 E29.02388
G1 X120.212 Y94.929 E29.03548
G1 X120.25 Y95.021 E29.04127
G1 X120.25 Y124.979 E30.78467
G1 X120.212 Y125.071 E30.79046
G1 X120.071 Y125.212 E30.80206
G1 X119.979 Y125.25 E30.80785
G1 X110.021 Y125.25 E31.38736
G1 X109.929 Y125.212 E31.39315
G1 X109.788 Y125.071 E31.40475
G1 X109.75 Y124.979 E31.41054
G1 X109.75 Y95.021 E33.15394
G1 X109.765 Y94.984 E33.15626
M204 S2500
G1 E31.75626 F4800
;WIPE_START
G1 F5760
G1 X109.929 Y94.788 E31.55394
G1 X110.021 Y94.75 E31.47514
G1 X110.424 Y94.75 E31.15626
;WIPE_END
G92 E0
G1 X119.6 Y124.6 F7200
G1 E2 F4800
M204 S2000
;TYPE:External perimeter
G1 F3000
G1 X110.4 Y124.6 E2.53539
G1 X110.4 Y95.4 E4.23468
G1 X119.6 Y95.4 E4.77007
G1 X119.6 Y124.54 E6.46587
M204 S2500
G1 X119.235 Y124.436 F7200
G1 X119.1 Y124.1
M204 S2000
;TYPE:Perimeter
G1 F3000
G1 X110.9 Y124.1 E6.94307
G1 X110.9 Y95.9 E8.58417
G1 X119.1 Y95.9 E9.06137
G1 X119.1 Y124.04 E10.69898
M204 S2500
G1 X118.6 Y123.6 F7200
M204 S2000
G1 F3000
G1 X111.4 Y123.6 E11.11798
G1 X111.4 Y96.4 E12.70088
G1 X118.6 Y96.4 E13.11988
G1 X118.6 Y123.54 E14.69929
M204 S2500
G1 E13.29929 F4800
;WIPE_START
G1 F5760
G1 X117.842 Y123.546 E12.69929
;WIPE_END
G92 E0
G1 X117.101 Y119.987 F7200
G1 E2 F4800
M204 S2000
;TYPE:External perimeter
G1 F3000
G1 X117.062 Y120.41 E2.02472
G1 X116.942 Y120.804 E2.04869
G1 X116.748 Y121.168 E2.07269
G1 X116.486 Y121.486 E2.09667
G1 X116.168 Y121.748 E2.12065
G1 X115.804 Y121.942 E2.14465
G1 X115.41 Y122.062 E2.16862
G1 X115 Y122.102 E2.19259
G1 X114.59 Y122.062 E2.21656
G1 X114.196 Y121.942 E2.24053
G1 X113.832 Y121.748 E2.26453
G1 X113.514 Y121.486 E2.28851
G1 X113.252 Y121.168 E2.31249
G1 X113.058 Y120.804 E2.33649
G1 X112.938 Y120.41 E2.36046
G1 X112.898 Y120 E2.38443
G1 X112.938 Y119.59 E2.4084
G1 X113.058 Y119.196 E2.43237
G1 X113.252 Y118.832 E2.45637
G1 X113.514 Y118.514 E2.48035
G1 X113.832 Y118.252 E2.50433
G1 X114.196 Y118.058 E2.52833
G1 X114.589 Y117.939 E2.55223
G1 X114.984 Y117.899 E2.57533
G1 X115.409 Y117.938 E2.60017
G1 X115.804 Y118.058 E2.62419
G1 X116.168 Y118.252 E2.64819
G1 X116.486 Y118.514 E2.67217
G1 X116.748 Y118.832 E2.69615
G1 X116.942 Y119.196 E2.72015
G1 X117.062 Y119.59 E2.74412
G1 X117.095 Y119.927 E2.76383
M204 S2500
G1 X117.448 Y120.185 F7200
G1 X117.6 Y120.047
M204 S2000
;TYPE:Perimeter
G1 F3000
G1 X117.554 Y120.508 E2.79079
G1 X117.406 Y120.997 E2.82052
G1 X117.165 Y121.447 E2.85023
G1 X116.841 Y121.841 E2.87992
G1 X116.447 Y122.165 E2.90961
G1 X115.997 Y122.406 E2.93932
G1 X115.508 Y122.554 E2.96905
G1 X115 Y122.604 E2.99876
G1 X114.492 Y122.554 E3.02847
G1 X114.003 Y122.406 E3.0582
G1 X113.553 Y122.165 E3.08791
G1 X113.159 Y121.841 E3.1176
G1 X112.835 Y121.447 E3.14729
G1 X112.594 Y120.997 E3.177
G1 X112.446 Y120.508 E3.20673
G1 X112.396 Y120 E3.23644
G1 X112.446 Y119.492 E3.26615
G1 X112.594 Y119.003 E3.29588
G1 X112.835 Y118.553 E3.32559
G1 X113.158 Y118.159 E3.35524
G1 X113.553 Y117.835 E3.38497
G1 X114.003 Y117.594 E3.41468
G1 X114.491 Y117.446 E3.44436
G1 X114.982 Y117.396 E3.47308
G1 X115.506 Y117.445 E3.50371
G1 X115.997 Y117.594 E3.53357
G1 X116.447 Y117.835 E3.56328
G1 X116.841 Y118.159 E3.59297
G1 X117.165 Y118.553 E3.62266
G1 X117.406 Y119.003 E3.65237
G1 X117.554 Y119.492 E3.6821
G1 X117.603 Y119.987 E3.71105
M204 S2500
G1 X118.098 Y120.089 F7200
M204 S2000
G1 F3000
G1 X118.047 Y120.606 E3.74128
G1 X117.87 Y121.189 E3.77674
G1 X117.583 Y121.726 E3.81217
G1 X117.197 Y122.197 E3.84761
G1 X116.726 Y122.583 E3.88305
G1 X116.189 Y122.87 E3.91848
G1 X115.606 Y123.047 E3.95394
G1 X115 Y123.107 E3.98938
G1 X114.394 Y123.047 E4.02482
G1 X113.811 Y122.87 E4.06028
G1 X113.274 Y122.583 E4.09571
G1 X112.803 Y122.197 E4.13115
G1 X112.417 Y121.726 E4.16659
G1 X112.13 Y121.189 E4.20202
G1 X111.953 Y120.606 E4.23748
G1 X111.893 Y120 E4.27292
G1 X111.953 Y119.394 E4.30836
G1 X112.13 Y118.811 E4.34382
G1 X112.417 Y118.274 E4.37925
G1 X112.803 Y117.803 E4.41469
G1 X113.274 Y117.417 E4.45013
G1 X113.811 Y117.13 E4.48556
G1 X114.392 Y116.954 E4.52089
G1 X114.98 Y116.894 E4.55529
G1 X115.602 Y116.952 E4.59164
G1 X116.189 Y117.13 E4.62734
G1 X116.726 Y117.417 E4.66277
G1 X117.197 Y117.803 E4.69821
G1 X117.583 Y118.274 E4.73365
G1 X117.87 Y118.811 E4.76908
G1 X118.047 Y119.394 E4.80454
G1 X118.104 Y120.03 E4.8417
M204 S2500
G1 E3.4417 F4800
;WIPE_START
G1 F5760
G1 X118.047 Y120.606 E2.98347
G1 X117.995 Y120.777 E2.8417
;WIPE_END
G92 E0
G1 X117.202 Y100 F7200
G1 E2 F4800
M204 S2000
;TYPE:External perimeter
G1 F3000
G1 X117.16 Y100.43 E2.02514
G1 X117.034 Y100.843 E2.05027
G1 X116.831 Y101.223 E2.07534
G1 X116.557 Y101.557 E2.10048
G1 X116.223 Y101.831 E2.12562
G1 X115.843 Y102.034 E2.15069
G1 X115.43 Y102.16 E2.17582
G1 X115 Y102.202 E2.20096
G1 X114.57 Y102.16 E2.2261
G1 X114.157 Y102.034 E2.25123
G1 X113.777 Y101.831 E2.2763
G1 X113.443 Y101.557 E2.30144
G1 X113.169 Y101.223 E2.32658
G1 X112.966 Y100.843 E2.35165
G1 X112.84 Y100.43 E2.37678
G1 X112.798 Y100 E2.40192
G1 X112.84 Y99.57 E2.42706
G1 X112.966 Y99.157 E2.45219
G1 X113.169 Y98.777 E2.47726
G1 X113.443 Y98.443 E2.5024
G1 X113.777 Y98.169 E2.52754
G1 X114.157 Y97.966 E2.55261
G1 X114.57 Y97.841 E2.57772
G1 X114.983 Y97.799 E2.60188
G1 X115.429 Y97.84 E2.62794
G1 X115.843 Y97.966 E2.65312
G1 X116.223 Y98.169 E2.67819
G1 X116.557 Y98.443 E2.70333
G1 X116.831 Y98.777 E2.72847
G1 X117.034 Y99.157 E2.75354
G1 X117.16 Y99.57 E2.77867
G1 X117.196 Y99.94 E2.8003
M204 S2500
G1 X117.548 Y100.2 F7200
G1 X117.7 Y99.953
M204 S2000
;TYPE:Perimeter
G1 F3000
G1 X117.652 Y100.528 E2.83388
G1 X117.498 Y101.035 E2.86472
G1 X117.249 Y101.502 E2.89552
G1 X116.912 Y101.912 E2.92641
G1 X116.502 Y102.249 E2.9573
G1 X116.035 Y102.498 E2.9881
G1 X115.528 Y102.652 E3.01894
G1 X115 Y102.704 E3.04982
G1 X114.472 Y102.652 E3.0807
G1 X113.965 Y102.498 E3.11154
G1 X113.498 Y102.249 E3.14234
G1 X113.088 Y101.912 E3.17323
G1 X112.751 Y101.502 E3.20412
G1 X112.502 Y101.035 E3.23492
G1 X112.348 Y100.528 E3.26576
G1 X112.296 Y100 E3.29664
G1 X112.348 Y99.472 E3.32752
G1 X112.502 Y98.965 E3.35836
G1 X112.751 Y98.498 E3.38916
G1 X113.088 Y98.088 E3.42005
G1 X113.498 Y97.751 E3.45094
G1 X113.965 Y97.502 E3.48174
G1 X114.471 Y97.348 E3.51252
G1 X114.981 Y97.296 E3.54235
G1 X115.525 Y97.347 E3.57415
G1 X116.035 Y97.502 E3.60517
G1 X116.502 Y97.751 E3.63597
G1 X116.912 Y98.088 E3.66686
G1 X117.249 Y98.498 E3.69775
G1 X117.498 Y98.965 E3.72855
G1 X117.652 Y99.472 E3.75939
G1 X117.694 Y99.893 E3.78401
M204 S2500
G1 X118.198 Y99.909 F7200
M204 S2000
G1 F3000
G1 X118.207 Y100 E3.78933
G1 X118.145 Y100.626 E3.82594
G1 X117.963 Y101.227 E3.86248
G1 X117.666 Y101.781 E3.89906
G1 X117.267 Y102.267 E3.93565
G1 X116.781 Y102.666 E3.97224
G1 X116.227 Y102.963 E4.00882
G1 X115.626 Y103.145 E4.04536
G1 X115 Y103.207 E4.08197
G1 X114.374 Y103.145 E4.11858
G1 X113.773 Y102.963 E4.15512
G1 X113.219 Y102.666 E4.1917
G1 X112.733 Y102.267 E4.22829
G1 X112.334 Y101.781 E4.26488
G1 X112.037 Y101.227 E4.30146
G1 X111.855 Y100.626 E4.338
G1 X111.793 Y100 E4.37461
G1 X111.855 Y99.374 E4.41122
G1 X112.037 Y98.773 E4.44776
G1 X112.334 Y98.219 E4.48434
G1 X112.733 Y97.733 E4.52093
G1 X113.219 Y97.334 E4.55752
G1 X113.773 Y97.037 E4.5941
G1 X114.372 Y96.856 E4.63052
G1 X114.979 Y96.794 E4.66603
G1 X115.622 Y96.854 E4.70361
G1 X116.227 Y97.037 E4.74039
G1 X116.781 Y97.334 E4.77697
G1 X117.267 Y97.733 E4.81356
G1 X117.666 Y98.219 E4.85015
G1 X117.963 Y98.773 E4.88673
G1 X118.145 Y99.374 E4.92327
G1 X118.192 Y99.85 E4.95111
M204 S2500
G1 E3.55111 F4800
;WIPE_START
G1 F5760
G1 X118.207 Y100 E3.43177
G1 X118.147 Y100.604 E2.95111
;WIPE_END
G92 E0
G1 X117.151 Y109.986 F7200
G1 E2 F4800
M204 S2000
;TYPE:External perimeter
G1 F3000
G1 X117.111 Y110.42 E2.02536
G1 X116.988 Y110.824 E2.04994
G1 X116.789 Y111.196 E2.07449
G1 X116.522 Y111.522 E2.09901
G1 X116.196 Y111.789 E2.12353
G1 X115.823 Y111.988 E2.14813
G1 X115.42 Y112.111 E2.17265
G1 X115 Y112.152 E2.19721
G1 X114.58 Y112.111 E2.22177
G1 X114.176 Y111.988 E2.24635
G1 X113.804 Y111.789 E2.2709
G1 X113.478 Y111.522 E2.29542
G1 X113.211 Y111.196 E2.31994
G1 X113.012 Y110.824 E2.34449
G1 X112.889 Y110.42 E2.36907
G1 X112.848 Y110 E2.39363
G1 X112.889 Y109.58 E2.41819
G1 X113.012 Y109.177 E2.44271
G1 X113.211 Y108.804 E2.46731
G1 X113.478 Y108.478 E2.49183
G1 X113.804 Y108.211 E2.51635
G1 X114.177 Y108.012 E2.54095
G1 X114.58 Y107.89 E2.56545
G1 X114.984 Y107.849 E2.58908
G1 X115.419 Y107.889 E2.6145
G1 X115.824 Y108.012 E2.63913
G1 X116.196 Y108.211 E2.66368
G1 X116.522 Y108.478 E2.6882
G1 X116.789 Y108.804 E2.71272
G1 X116.988 Y109.176 E2.73727
G1 X117.111 Y109.58 E2.76185
G1 X117.145 Y109.926 E2.78208
M204 S2500
G1 X117.498 Y110.184 F7200
G1 X117.65 Y110.047
M204 S2000
;TYPE:Perimeter
G1 F3000
G1 X117.603 Y110.518 E2.80963
G1 X117.452 Y111.016 E2.83991
G1 X117.207 Y111.475 E2.87019
G1 X116.877 Y111.877 E2.90046
G1 X116.475 Y112.207 E2.93073
G1 X116.016 Y112.452 E2.96101
G1 X115.518 Y112.603 E2.99129
G1 X115 Y112.654 E3.02158
G1 X114.482 Y112.603 E3.05187
G1 X113.984 Y112.452 E3.08215
G1 X113.525 Y112.207 E3.11243
G1 X113.123 Y111.877 E3.1427
G1 X112.793 Y111.475 E3.17297
G1 X112.548 Y111.016 E3.20325
G1 X112.397 Y110.518 E3.23353
G1 X112.346 Y110 E3.26382
G1 X112.397 Y109.482 E3.29411
G1 X112.548 Y108.984 E3.32439
G1 X112.793 Y108.525 E3.35467
G1 X113.123 Y108.123 E3.38494
G1 X113.525 Y107.793 E3.41521
G1 X113.984 Y107.548 E3.44549
G1 X114.481 Y107.397 E3.47572
G1 X114.982 Y107.346 E3.50503
G1 X115.516 Y107.396 E3.53624
G1 X116.016 Y107.548 E3.56665
G1 X116.475 Y107.793 E3.59693
G1 X116.877 Y108.123 E3.6272
G1 X117.207 Y108.525 E3.65747
G1 X117.452 Y108.984 E3.68775
G1 X117.603 Y109.482 E3.71803
G1 X117.653 Y109.987 E3.74756
M204 S2500
