; generated by PrusaSlicer 2.6.0+MacOS-x64 on 2023-07-31 at 18:01:25 UTC

; 

; external perimeters extrusion width = 0.45mm
; perimeters extrusion width = 0.40mm
; infill extrusion width = 0.45mm
; solid infill extrusion width = 0.50mm
; top infill extrusion width = 0.45mm
; support material extrusion width = 0.42mm
; first layer extrusion width = 0.56mm

M201 X2500 Y2500 Z800 E2500 ; sets maximum accelerations, mm/sec^2
M203 X300 Y250 Z8 E80 ; sets maximum feedrates, mm / sec
M204 S2500 T2500 ; sets acceleration (S) and retract acceleration (R), mm/sec^2
M205 X15.00 Y10.00 Z2.00 E10.00 ; sets the jerk limits, mm/sec
M205 S0 T0 ; sets the minimum extruding and travel feed rate, mm/sec
;TYPE:Custom
G90 ; use absolute coordinates
M83 ; extruder relative mode
M104 S215 ; set extruder temp
M140 S60 ; set bed temp
M190 S60 ; wait for bed temp
M109 S215 ; wait for extruder temp
G28                                        ; move X/Y/Z to min endstops
G1 Z0.28                                   ; lift nozzle a bit 
G92 E0 
G1 Y3 F1800                                    ; zero the extruded length 
G1 X60  E25 F500                       ; Extrude 25mm of filament in a 5cm line. 
G92 E0                                     ; zero the extruded length again 
G1 E-2 F500                                ; Retract a little 
G1 X70 F4000                              ; Quickly wipe away from the filament line
M117
G21 ; set units to millimeters
G90 ; use absolute coordinates
M82 ; use absolute distances for extrusion
G92 E0
M107
;LAYER_CHANGE
;Z:0.28
;HEIGHT:0.28
; BEFORE_LAYER_CHANGE 0 @ 0.28mm
G1 E-2 F4800
G92 E0
G1 Z.28 F7200
; AFTER_LAYER_CHANGE 0 @ 0.28mm
G1 X97.534 Y41.138
G1 E2 F4800
M204 S2000
;TYPE:Skirt/Brim
;WIDTH:0.56
G1 F3000
G1 X97.752 Y40.766 E2.02509
G1 X98.271 Y40.21 E2.06935
G1 X98.814 Y39.845 E2.10743
G1 X99.318 Y39.646 E2.13896
G1 X99.847 Y39.55 E2.17025
G1 X130.208 Y39.555 E3.93711
G1 X130.753 Y39.669 E3.96951
G1 X131.302 Y39.906 E4.00431
G1 X131.692 Y40.179 E4.03201
G1 X132.102 Y40.584 E4.06555
G1 X132.455 Y41.114 E4.10261
G1 X132.654 Y41.618 E4.13414
G1 X132.75 Y42.147 E4.16543
G1 X132.75 Y187.845 E12.64432
G1 X132.69 Y188.252 E12.66826
G1 X132.466 Y188.862 E12.70608
G1 X132.248 Y189.234 E12.73117
G1 X131.729 Y189.79 E12.77543
G1 X131.186 Y190.155 E12.81351
G1 X130.682 Y190.354 E12.84504
G1 X130.153 Y190.45 E12.87633
G1 X99.855 Y190.45 E14.63952
G1 X99.448 Y190.39 E14.66346
G1 X98.838 Y190.166 E14.70128
G1 X98.466 Y189.948 E14.72637
G1 X97.91 Y189.429 E14.77063
G1 X97.545 Y188.886 E14.80871
G1 X97.346 Y188.382 E14.84024
G1 X97.25 Y187.853 E14.87153
G1 X97.25 Y42.155 E23.35042
G1 X97.31 Y41.748 E23.37436
G1 X97.513 Y41.194 E23.4087
M204 S2500
G1 X97.981 Y41.37 F7200
M204 S2000
G1 F3000
G1 X98.166 Y41.048 E23.43031
G1 X98.614 Y40.575 E23.46822
G1 X99.026 Y40.298 E23.49711
G1 X99.437 Y40.132 E23.52291
G1 X99.871 Y40.05 E23.54861
G1 X130.18 Y40.055 E25.31244
G1 X130.621 Y40.151 E25.33871
G1 X131.075 Y40.352 E25.3676
G1 X131.383 Y40.572 E25.38963
G1 X131.731 Y40.919 E25.41823
G1 X132.002 Y41.326 E25.44669
G1 X132.168 Y41.737 E25.47249
G1 X132.25 Y42.171 E25.49819
G1 X132.25 Y187.825 E33.97451
G1 X132.2 Y188.149 E33.99359
G1 X132.007 Y188.663 E34.02554
G1 X131.834 Y188.952 E34.04514
G1 X131.386 Y189.425 E34.08305
G1 X130.974 Y189.702 E34.11194
G1 X130.563 Y189.868 E34.13774
G1 X130.129 Y189.95 E34.16344
G1 X99.875 Y189.95 E35.92407
G1 X99.551 Y189.9 E35.94315
G1 X99.037 Y189.707 E35.9751
G1 X98.748 Y189.534 E35.9947
G1 X98.275 Y189.086 E36.03261
G1 X97.998 Y188.674 E36.0615
G1 X97.832 Y188.263 E36.0873
G1 X97.75 Y187.829 E36.113
G1 X97.75 Y42.175 E44.58932
G1 X97.8 Y41.851 E44.6084
G1 X97.959 Y41.426 E44.63481
M204 S2500
G1 X98.425 Y41.606 F7200
M204 S2000
G1 F3000
G1 X98.577 Y41.334 E44.65294
G1 X98.955 Y40.941 E44.68467
G1 X99.241 Y40.75 E44.70468
G1 X99.561 Y40.617 E44.72485
G1 X99.897 Y40.55 E44.74479
G1 X130.152 Y40.555 E46.50548
G1 X130.441 Y40.618 E46.52269
G1 X130.848 Y40.798 E46.54859
G1 X131.043 Y40.939 E46.56259
G1 X131.36 Y41.256 E46.58868
G1 X131.55 Y41.541 E46.60861
G1 X131.683 Y41.861 E46.62878
G1 X131.75 Y42.197 E46.64872
G1 X131.75 Y187.805 E55.12237
G1 X131.712 Y188.042 E55.13634
G1 X131.55 Y188.459 E55.16237
G1 X131.423 Y188.666 E55.1765
G1 X131.045 Y189.059 E55.20823
G1 X130.759 Y189.25 E55.22824
G1 X130.439 Y189.383 E55.24841
G1 X130.103 Y189.45 E55.26835
G1 X99.895 Y189.45 E57.0263
G1 X99.658 Y189.412 E57.04027
G1 X99.241 Y189.25 E57.0663
G1 X99.034 Y189.123 E57.08043
G1 X98.641 Y188.745 E57.11216
G1 X98.45 Y188.459 E57.13217
G1 X98.317 Y188.139 E57.15234
G1 X98.25 Y187.803 E57.17228
G1 X98.25 Y42.195 E65.64593
G1 X98.288 Y41.958 E65.6599
G1 X98.403 Y41.662 E65.67838
M204 S2500
G1 X98.865 Y41.847 F7200
M204 S2000
G1 F3000
G1 X98.983 Y41.626 E65.69296
G1 X99.293 Y41.311 E65.71868
G1 X99.455 Y41.202 E65.73004
G1 X99.729 Y41.088 E65.74731
G1 X99.922 Y41.05 E65.75876
G1 X130.124 Y41.055 E67.51636
G1 X130.266 Y41.087 E67.52483
G1 X130.584 Y41.223 E67.54496
G1 X130.706 Y41.309 E67.55365
G1 X130.989 Y41.592 E67.57694
G1 X131.098 Y41.755 E67.58835
G1 X131.212 Y42.029 E67.60562
G1 X131.25 Y42.222 E67.61707
G1 X131.25 Y187.781 E76.08787
G1 X131.224 Y187.928 E76.09656
G1 X131.096 Y188.249 E76.11667
G1 X131.017 Y188.374 E76.12528
G1 X130.707 Y188.689 E76.151
G1 X130.545 Y188.798 E76.16236
G1 X130.271 Y188.912 E76.17963
G1 X130.078 Y188.95 E76.19108
G1 X99.919 Y188.95 E77.94618
G1 X99.772 Y188.924 E77.95487
G1 X99.451 Y188.796 E77.97498
G1 X99.326 Y188.717 E77.98359
G1 X99.011 Y188.407 E78.00931
G1 X98.902 Y188.245 E78.02067
G1 X98.788 Y187.971 E78.03794
G1 X98.75 Y187.778 E78.04939
G1 X98.75 Y42.219 E86.52019
G1 X98.776 Y42.072 E86.52888
G1 X98.843 Y41.903 E86.53946
M204 S2500
G1 X99.303 Y42.094 F7200
M204 S2000
G1 F3000
G1 X99.382 Y41.928 E86.55016
G1 X99.628 Y41.682 E86.57041
G1 X99.946 Y41.55 E86.59045
G1 X130.054 Y41.55 E88.34258
G1 X130.372 Y41.682 E88.36262
G1 X130.618 Y41.928 E88.38287
G1 X130.74 Y42.198 E88.40011
G1 X130.75 Y187.754 E96.87073
G1 X130.618 Y188.072 E96.89077
G1 X130.372 Y188.318 E96.91102
G1 X130.102 Y188.44 E96.92826
G1 X99.946 Y188.45 E98.68319
G1 X99.628 Y188.318 E98.70323
G1 X99.382 Y188.072 E98.72348
G1 X99.26 Y187.802 E98.74072
G1 X99.25 Y42.246 E107.21134
G1 X99.28 Y42.149 E107.21725
M204 S2500
G1 X99.75 Y42.321 F7200
M204 S2000
G1 F3000
G1 X99.788 Y42.229 E107.22304
G1 X99.929 Y42.088 E107.23464
G1 X100.021 Y42.05 E107.24043
G1 X129.979 Y42.05 E108.98383
G1 X130.071 Y42.088 E108.98962
G1 X130.212 Y42.229 E109.00122
G1 X130.25 Y42.321 E109.00701
G1 X130.25 Y187.679 E117.46611
G1 X130.212 Y187.771 E117.4719
G1 X130.071 Y187.912 E117.4835
G1 X129.979 Y187.95 E117.48929
G1 X100.021 Y187.95 E119.23269
G1 X99.929 Y187.912 E119.23848
G1 X99.788 Y187.771 E119.25008
G1 X99.75 Y187.679 E119.25587
G1 X99.75 Y42.381 E127.71148
M204 S2500
G1 E126.31148 F4800
;WIPE_START
G1 F5760
G1 X99.788 Y42.229 E126.18744
G1 X99.929 Y42.088 E126.02958
G1 X100.021 Y42.05 E125.95078
G1 X100.323 Y42.05 E125.71148
;WIPE_END
G92 E0
G1 X129.6 Y187.3 F7200
G1 E2 F4800
M204 S2000
;TYPE:External perimeter
G1 F3000
G1 X100.4 Y187.3 E3.69929
G1 X100.4 Y42.7 E12.11428
G1 X129.6 Y42.7 E13.81357
G1 X129.6 Y187.24 E22.22507
M204 S2500
G1 X129.241 Y187.123 F7200
G1 X129.1 Y186.8
M204 S2000
;TYPE:Perimeter
G1 F3000
G1 X100.9 Y186.8 E23.86617
G1 X100.9 Y43.2 E32.22296
G1 X129.1 Y43.2 E33.86406
G1 X129.1 Y186.74 E42.21736
M204 S2500
G1 X128.6 Y186.3 F7200
M204 S2000
G1 F3000
G1 X101.4 Y186.3 E43.80026
G1 X101.4 Y43.7 E52.09886
G1 X128.6 Y43.7 E53.68176
G1 X128.6 Y186.24 E61.97687
M204 S2500
G1 E60.57687 F4800
;WIPE_START
G1 F5760
G1 X127.842 Y186.242 E59.97687
;WIPE_END
G92 E0
G1 X101.6 Y185.089 F7200
G1 E2 F4800
M204 S2000
;TYPE:Solid infill
;WIDTH:0.560391
G1 F3000
G1 X102.386 Y185.875 E2.06474
G1 X103.094 Y185.875 E2.10597
G1 X101.825 Y184.606 E2.21049
G1 X101.825 Y183.899 E2.25167
G1 X103.801 Y185.875 E2.41442
G1 X104.509 Y185.875 E2.45565
G1 X101.825 Y183.191 E2.67672
G1 X101.825 Y182.484 E2.7179
G1 X105.216 Y185.875 E2.9972
G1 X105.924 Y185.875 E3.03843
G1 X101.825 Y181.776 E3.37604
G1 X101.825 Y181.068 E3.41727
G1 X106.632 Y185.875 E3.8132
G1 X107.339 Y185.875 E3.85438
G1 X101.825 Y180.361 E4.30854
G1 X101.825 Y179.653 E4.34977
G1 X108.047 Y185.875 E4.86224
G1 X108.754 Y185.875 E4.90342
G1 X101.825 Y178.946 E5.47412
G1 X101.825 Y178.238 E5.51535
G1 X109.462 Y185.875 E6.14437
G1 X110.169 Y185.875 E6.18555
G1 X101.825 Y177.531 E6.8728
G1 X101.825 Y176.823 E6.91403
G1 X110.877 Y185.875 E7.65959
G1 X111.584 Y185.875 E7.70077
G1 X101.825 Y176.116 E8.50456
G1 X101.825 Y175.408 E8.54579
G1 X112.292 Y185.875 E9.4079
G1 X112.999 Y185.875 E9.44908
G1 X101.825 Y174.701 E10.36942
G1 X101.825 Y173.993 E10.41065
G1 X113.707 Y185.875 E11.3893
G1 X114.414 Y185.875 E11.43048
G1 X101.825 Y173.286 E12.46736
G1 X101.825 Y172.578 E12.50859
G1 X115.122 Y185.875 E13.60379
G1 X115.829 Y185.875 E13.64497
G1 X101.825 Y171.871 E14.7984
G1 X101.825 Y171.163 E14.83963
G1 X116.537 Y185.875 E16.05137
G1 X117.245 Y185.875 E16.0926
G1 X101.825 Y170.455 E17.36266
G1 X101.825 Y169.748 E17.40384
G1 X117.952 Y185.875 E18.73213
G1 X118.66 Y185.875 E18.77336
G1 X101.825 Y169.04 E20.15996
G1 X101.825 Y168.333 E20.20114
G1 X119.367 Y185.875 E21.64598
G1 X120.075 Y185.875 E21.68721
G1 X101.825 Y167.625 E23.19036
G1 X101.825 Y166.918 E23.23154
G1 X120.782 Y185.875 E24.79292
G1 X121.49 Y185.875 E24.83415
G1 X101.825 Y166.21 E26.45385
G1 X101.825 Y165.503 E26.49503
G1 X122.197 Y185.875 E28.17296
G1 X122.905 Y185.875 E28.21419
G1 X101.825 Y164.795 E29.95043
G1 X101.825 Y164.088 E29.99161
G1 X123.612 Y185.875 E31.78608
G1 X124.32 Y185.875 E31.82731
G1 X101.825 Y163.38 E33.6801
G1 X101.825 Y162.673 E33.72128
G1 X125.027 Y185.875 E35.6323
G1 X125.735 Y185.875 E35.67353
G1 X101.825 Y161.965 E37.64286
G1 X101.825 Y161.258 E37.68404
G1 X126.442 Y185.875 E39.7116
G1 X127.15 Y185.875 E39.75283
G1 X101.825 Y160.55 E41.83871
G1 X101.825 Y159.842 E41.87994
G1 X127.858 Y185.875 E44.02413
G1 X128.175 Y185.875 E44.04259
G1 X128.175 Y185.485 E44.0653
G1 X101.825 Y159.135 E46.2356
G1 X101.825 Y158.427 E46.27683
G1 X128.175 Y184.778 E48.44717
G1 X128.175 Y184.07 E48.4884
G1 X101.825 Y157.72 E50.6587
G1 X101.825 Y157.012 E50.69993
G1 X128.175 Y183.363 E52.87027
G1 X128.175 Y182.655 E52.9115
G1 X101.825 Y156.305 E55.0818
G1 X101.825 Y155.597 E55.12303
G1 X128.175 Y181.948 E57.29337
G1 X128.175 Y181.24 E57.3346
G1 X101.825 Y154.89 E59.5049
G1 X101.825 Y154.182 E59.54613
G1 X128.175 Y180.533 E61.71647
G1 X128.175 Y179.825 E61.7577
G1 X101.825 Y153.475 E63.928
G1 X101.825 Y152.767 E63.96923
G1 X128.175 Y179.118 E66.13957
G1 X128.175 Y178.41 E66.1808
G1 X101.825 Y152.06 E68.3511
G1 X101.825 Y151.352 E68.39233
G1 X128.175 Y177.703 E70.56267
G1 X128.175 Y176.995 E70.6039
G1 X101.825 Y150.645 E72.7742
G1 X101.825 Y149.937 E72.81543
G1 X128.175 Y176.288 E74.98577
G1 X128.175 Y175.58 E75.027
G1 X101.825 Y149.229 E77.19734
G1 X101.825 Y148.522 E77.23852
G1 X128.175 Y174.872 E79.40882
G1 X128.175 Y174.165 E79.45
G1 X101.825 Y147.814 E81.62034
G1 X101.825 Y147.107 E81.66152
G1 X128.175 Y173.457 E83.83182
G1 X128.175 Y172.75 E83.873
G1 X101.825 Y146.399 E86.04334
G1 X101.825 Y145.692 E86.08452
G1 X128.175 Y172.042 E88.25482
G1 X128.175 Y171.335 E88.296
G1 X101.825 Y144.984 E90.46634
G1 X101.825 Y144.277 E90.50752
G1 X128.175 Y170.627 E92.67782
G1 X128.175 Y169.92 E92.719
G1 X101.825 Y143.569 E94.88934
G1 X101.825 Y142.862 E94.93052
G1 X128.175 Y169.212 E97.10082
G1 X128.175 Y168.505 E97.142
G1 X101.825 Y142.154 E99.31234
G1 X101.825 Y141.447 E99.35352
G1 X128.175 Y167.797 E101.52382
G1 X128.175 Y167.09 E101.565
G1 X101.825 Y140.739 E103.73534
G1 X101.825 Y140.032 E103.77652
G1 X128.175 Y166.382 E105.94682
G1 X128.175 Y165.675 E105.988
G1 X101.825 Y139.324 E108.15834
G1 X101.825 Y138.616 E108.19957
G1 X128.175 Y164.967 E110.36991
G1 X128.175 Y164.259 E110.41114
G1 X101.825 Y137.909 E112.58144
G1 X101.825 Y137.201 E112.62267
G1 X128.175 Y163.552 E114.79301
G1 X128.175 Y162.844 E114.83424
G1 X101.825 Y136.494 E117.00454
G1 X101.825 Y135.786 E117.04577
G1 X128.175 Y162.137 E119.21611
G1 X128.175 Y161.429 E119.25734
G1 X101.825 Y135.079 E121.42764
G1 X101.825 Y134.371 E121.46887
G1 X128.175 Y160.722 E123.63921
G1 X128.175 Y160.014 E123.68044
G1 X101.825 Y133.664 E125.85074
G1 X101.825 Y132.956 E125.89197
G1 X128.175 Y159.307 E128.06231
G1 X128.175 Y158.599 E128.10354
G1 X101.825 Y132.249 E130.27384
G1 X101.825 Y131.541 E130.31507
G1 X128.175 Y157.892 E132.48541
G1 X128.175 Y157.184 E132.52664
G1 X101.825 Y130.834 E134.69694
G1 X101.825 Y130.126 E134.73817
G1 X128.175 Y156.477 E136.90851
G1 X128.175 Y155.769 E136.94974
G1 X101.825 Y129.419 E139.12004
G1 X101.825 Y128.711 E139.16127
G1 X128.175 Y155.061 E141.33157
G1 X128.175 Y154.354 E141.37275
G1 X101.825 Y128.003 E143.54309
G1 X101.825 Y127.296 E143.58427
G1 X128.175 Y153.646 E145.75457
G1 X128.175 Y152.939 E145.79575
G1 X101.825 Y126.588 E147.96609
G1 X101.825 Y125.881 E148.00727
G1 X128.175 Y152.231 E150.17757
G1 X128.175 Y151.524 E150.21875
G1 X101.825 Y125.173 E152.38909
G1 X101.825 Y124.466 E152.43027
G1 X128.175 Y150.816 E154.60057
G1 X128.175 Y150.109 E154.64175
G1 X101.825 Y123.758 E156.81209
G1 X101.825 Y123.051 E156.85327
G1 X128.175 Y149.401 E159.02357
G1 X128.175 Y148.694 E159.06475
G1 X101.825 Y122.343 E161.23509
G1 X101.825 Y121.636 E161.27627
G1 X128.175 Y147.986 E163.44657
G1 X128.175 Y147.279 E163.48775
G1 X101.825 Y120.928 E165.65809
G1 X101.825 Y120.221 E165.69927
G1 X128.175 Y146.571 E167.86957
G1 X128.175 Y145.864 E167.91075
G1 X101.825 Y119.513 E170.08109
G1 X101.825 Y118.806 E170.12227
G1 X128.175 Y145.156 E172.29257
G1 X128.175 Y144.448 E172.3338
G1 X101.825 Y118.098 E174.5041
G1 X101.825 Y117.39 E174.54533
G1 X128.175 Y143.741 E176.71567
G1 X128.175 Y143.033 E176.7569
G1 X101.825 Y116.683 E178.9272
G1 X101.825 Y115.975 E178.96843
G1 X128.175 Y142.326 E181.13877
G1 X128.175 Y141.618 E181.18
G1 X101.825 Y115.268 E183.3503
G1 X101.825 Y114.56 E183.39153
G1 X128.175 Y140.911 E185.56187
G1 X128.175 Y140.203 E185.6031
G1 X101.825 Y113.853 E187.7734
G1 X101.825 Y113.145 E187.81463
G1 X128.175 Y139.496 E189.98497
G1 X128.175 Y138.788 E190.0262
G1 X101.825 Y112.438 E192.1965
G1 X101.825 Y111.73 E192.23773
G1 X128.175 Y138.081 E194.40807
G1 X128.175 Y137.373 E194.4493
G1 X101.825 Y111.023 E196.6196
G1 X101.825 Y110.315 E196.66083
G1 X128.175 Y136.666 E198.83117
G1 X128.175 Y135.958 E198.8724
G1 X101.825 Y109.608 E201.0427
G1 X101.825 Y108.9 E201.08393
G1 X128.175 Y135.251 E203.25427
G1 X128.175 Y134.543 E203.2955
G1 X101.825 Y108.193 E205.4658
G1 X101.825 Y107.485 E205.50703
G1 X128.175 Y133.835 E207.67733
G1 X128.175 Y133.128 E207.71851
G1 X101.825 Y106.777 E209.88885
G1 X101.825 Y106.07 E209.93003
G1 X128.175 Y132.42 E212.10033
G1 X128.175 Y131.713 E212.14151
G1 X101.825 Y105.362 E214.31185
G1 X101.825 Y104.655 E214.35303
G1 X128.175 Y131.005 E216.52333
G1 X128.175 Y130.298 E216.56451
G1 X101.825 Y103.947 E218.73485
G1 X101.825 Y103.24 E218.77603
G1 X128.175 Y129.59 E220.94633
G1 X128.175 Y128.883 E220.98751
G1 X101.825 Y102.532 E223.15785
G1 X101.825 Y101.825 E223.19903
G1 X128.175 Y128.175 E225.36933
G1 X128.175 Y127.468 E225.41051
G1 X101.825 Y101.117 E227.58085
G1 X101.825 Y100.41 E227.62203
G1 X128.175 Y126.76 E229.79233
G1 X128.175 Y126.053 E229.83351
G1 X101.825 Y99.702 E232.00385
G1 X101.825 Y98.995 E232.04503
G1 X128.175 Y125.345 E234.21533
G1 X128.175 Y124.638 E234.25651
G1 X101.825 Y98.287 E236.42685
G1 X101.825 Y97.579 E236.46808
G1 X128.175 Y123.93 E238.63842
G1 X128.175 Y123.222 E238.67965
G1 X101.825 Y96.872 E240.84995
G1 X101.825 Y96.164 E240.89118
G1 X128.175 Y122.515 E243.06152
G1 X128.175 Y121.807 E243.10275
G1 X101.825 Y95.457 E245.27305
G1 X101.825 Y94.749 E245.31428
G1 X128.175 Y121.1 E247.48462
G1 X128.175 Y120.392 E247.52585
G1 X101.825 Y94.042 E249.69615
G1 X101.825 Y93.334 E249.73738
G1 X128.175 Y119.685 E251.90772
G1 X128.175 Y118.977 E251.94895
G1 X101.825 Y92.627 E254.11925
G1 X101.825 Y91.919 E254.16048
G1 X128.175 Y118.27 E256.33082
G1 X128.175 Y117.562 E256.37205
