; generated by PrusaSlicer 2.6.0+MacOS-x64 on 2023-07-25 at 13:55:23 UTC

; 

; external perimeters extrusion width = 0.45mm
; perimeters extrusion width = 0.40mm
; infill extrusion width = 0.45mm
; solid infill extrusion width = 0.50mm
; top infill extrusion width = 0.45mm
; first layer extrusion width = 0.56mm

M201 X2500 Y2500 Z800 E2500 ; sets maximum accelerations, mm/sec^2
M203 X300 Y250 Z8 E80 ; sets maximum feedrates, mm / sec
M204 S2500 T2500 ; sets acceleration (S) and retract acceleration (R), mm/sec^2
M205 X15.00 Y10.00 Z2.00 E10.00 ; sets the jerk limits, mm/sec
M205 S0 T0 ; sets the minimum extruding and travel feed rate, mm/sec
;TYPE:Custom
G90 ; use absolute coordinates
M83 ; extruder relative mode
M104 S215 ; set extruder temp
M140 S60 ; set bed temp
M190 S60 ; wait for bed temp
M109 S215 ; wait for extruder temp
G28                                        ; move X/Y/Z to min endstops
G1 Z0.28                                   ; lift nozzle a bit 
G92 E0 
G1 Y3 F1800                                    ; zero the extruded length 
G1 X60  E25 F500                       ; Extrude 25mm of filament in a 5cm line. 
G92 E0                                     ; zero the extruded length again 
G1 E-2 F500                                ; Retract a little 
G1 X70 F4000                              ; Quickly wipe away from the filament line
M117
G21 ; set units to millimeters
G90 ; use absolute coordinates
M82 ; use absolute distances for extrusion
G92 E0
M107
;LAYER_CHANGE
;Z:0.28
;HEIGHT:0.28
; BEFORE_LAYER_CHANGE 0 @ 0.28mm
G1 E-2 F4800
G92 E0
G1 Z.28 F7200
; AFTER_LAYER_CHANGE 0 @ 0.28mm
G1 X62.763 Y56.824
G1 E2 F4800
M204 S2000
;TYPE:External perimeter
;WIDTH:0.56
G1 F3000
G1 X59.027 Y50.354 E2.43479
G1 X73.195 Y50.354 E3.2593
G1 X69.459 Y56.824 E3.69409
G1 X69.679 Y57.204 E3.71964
G1 X86.988 Y57.204 E4.72694
G1 X87.207 Y56.824 E4.75246
G1 X83.472 Y50.354 E5.18722
G1 X97.639 Y50.354 E6.01167
G1 X93.904 Y56.824 E6.44643
G1 X94.123 Y57.204 E6.47195
G1 X111.432 Y57.204 E7.47925
G1 X111.652 Y56.824 E7.5048
G1 X107.916 Y50.354 E7.93959
G1 X122.084 Y50.354 E8.7641
G1 X118.348 Y56.824 E9.19889
G1 X118.568 Y57.204 E9.22444
G1 X135.877 Y57.204 E10.23174
G1 X136.096 Y56.824 E10.25726
G1 X132.361 Y50.354 E10.69202
G1 X146.528 Y50.354 E11.51647
G1 X142.793 Y56.824 E11.95123
G1 X143.012 Y57.204 E11.97675
G1 X160.321 Y57.204 E12.98405
G1 X160.541 Y56.824 E13.0096
G1 X156.805 Y50.354 E13.44439
G1 X170.973 Y50.354 E14.2689
G1 X167.237 Y56.824 E14.70369
G1 X167.457 Y57.204 E14.72924
G1 X184.766 Y57.204 E15.73654
G1 X184.985 Y56.824 E15.76206
G1 X181.25 Y50.354 E16.19682
G1 X195.417 Y50.354 E17.02127
G1 X191.682 Y56.824 E17.45603
G1 X191.901 Y57.204 E17.48155
G1 X209.649 Y57.204 E18.51439
G1 X205.694 Y50.354 E18.9747
G1 X219.862 Y50.354 E19.79921
G1 X216.126 Y56.824 E20.234
G1 X216.346 Y57.204 E20.25955
G1 X224.6 Y57.204 E20.73989
G1 X224.6 Y179.646 E27.86539
G1 X5.4 Y179.646 E40.62172
G1 X5.4 Y57.204 E47.74722
G1 X13.654 Y57.204 E48.22756
G1 X13.874 Y56.824 E48.25311
G1 X10.138 Y50.354 E48.6879
G1 X24.306 Y50.354 E49.51241
G1 X20.351 Y57.204 E49.97272
G1 X38.099 Y57.204 E51.00556
G1 X38.318 Y56.824 E51.03108
G1 X34.583 Y50.354 E51.46584
G1 X48.75 Y50.354 E52.29029
G1 X45.015 Y56.824 E52.72505
G1 X45.234 Y57.204 E52.75057
G1 X62.543 Y57.204 E53.75787
G1 X62.733 Y56.876 E53.77993
M204 S2500
G1 X63.138 Y56.685 F7200
G1 X63.298 Y56.897
M204 S2000
;TYPE:Perimeter
G1 F3000
G1 X63.34 Y56.824 E53.78483
G1 X59.893 Y50.854 E54.18601
G1 X72.329 Y50.854 E54.90972
G1 X68.882 Y56.824 E55.3109
G1 X69.39 Y57.704 E55.37003
G1 X87.276 Y57.704 E56.4109
G1 X87.784 Y56.824 E56.47003
G1 X84.338 Y50.854 E56.87118
G1 X96.773 Y50.854 E57.59483
G1 X93.327 Y56.824 E57.99598
G1 X93.835 Y57.704 E58.05511
G1 X111.721 Y57.704 E59.09598
G1 X112.229 Y56.824 E59.15511
G1 X108.782 Y50.854 E59.55629
G1 X121.218 Y50.854 E60.28
G1 X117.771 Y56.824 E60.68118
G1 X118.279 Y57.704 E60.74031
G1 X136.165 Y57.704 E61.78118
G1 X136.673 Y56.824 E61.84031
G1 X133.227 Y50.854 E62.24146
G1 X145.662 Y50.854 E62.96511
G1 X142.216 Y56.824 E63.36626
G1 X142.724 Y57.704 E63.42539
G1 X160.61 Y57.704 E64.46626
G1 X161.118 Y56.824 E64.52539
G1 X157.671 Y50.854 E64.92657
G1 X170.107 Y50.854 E65.65028
G1 X166.66 Y56.824 E66.05146
G1 X167.168 Y57.704 E66.11059
G1 X185.054 Y57.704 E67.15146
G1 X185.562 Y56.824 E67.21059
G1 X182.115 Y50.854 E67.61177
G1 X194.551 Y50.854 E68.33548
G1 X191.104 Y56.824 E68.73666
G1 X191.612 Y57.704 E68.79579
G1 X210.515 Y57.704 E69.89585
G1 X206.56 Y50.854 E70.35616
G1 X218.996 Y50.854 E71.07987
G1 X215.549 Y56.824 E71.48105
G1 X216.057 Y57.704 E71.54018
G1 X224.1 Y57.704 E72.00824
G1 X224.1 Y179.146 E79.07555
G1 X5.9 Y179.146 E91.77368
G1 X5.9 Y57.704 E98.84099
G1 X13.943 Y57.704 E99.30905
G1 X14.451 Y56.824 E99.36818
G1 X11.004 Y50.854 E99.76936
G1 X23.44 Y50.854 E100.49307
G1 X19.485 Y57.704 E100.95338
G1 X38.388 Y57.704 E102.05344
G1 X38.896 Y56.824 E102.11257
G1 X35.449 Y50.854 E102.51375
G1 X47.885 Y50.854 E103.23746
G1 X44.438 Y56.824 E103.63864
G1 X44.946 Y57.704 E103.69777
G1 X62.832 Y57.704 E104.73864
G1 X63.268 Y56.949 E104.78938
M204 S2500
G1 X63.833 Y56.678 F7200
M204 S2000
G1 F3000
G1 X60.759 Y51.354 E105.14715
G1 X71.463 Y51.354 E105.77007
G1 X68.305 Y56.824 E106.13764
G1 X69.102 Y58.204 E106.23038
G1 X87.565 Y58.204 E107.30483
G1 X88.362 Y56.824 E107.39757
G1 X85.203 Y51.354 E107.76517
G1 X95.908 Y51.354 E108.38815
G1 X92.749 Y56.824 E108.75575
G1 X93.546 Y58.204 E108.84849
G1 X112.01 Y58.204 E109.923
G1 X112.806 Y56.824 E110.01571
G1 X109.648 Y51.354 E110.38328
G1 X120.352 Y51.354 E111.0062
G1 X117.194 Y56.824 E111.37377
G1 X117.99 Y58.204 E111.46648
G1 X136.454 Y58.204 E112.54099
G1 X137.251 Y56.824 E112.63373
G1 X134.092 Y51.354 E113.00133
G1 X144.797 Y51.354 E113.62431
G1 X141.638 Y56.824 E113.99191
G1 X142.435 Y58.204 E114.08465
G1 X160.898 Y58.204 E115.1591
G1 X161.695 Y56.824 E115.25184
G1 X158.537 Y51.354 E115.61941
G1 X169.241 Y51.354 E116.24233
G1 X166.083 Y56.824 E116.6099
G1 X166.879 Y58.204 E116.70261
G1 X185.343 Y58.204 E117.77712
G1 X186.139 Y56.824 E117.86983
G1 X182.981 Y51.354 E118.2374
G1 X193.685 Y51.354 E118.86032
G1 X190.527 Y56.824 E119.22789
G1 X191.324 Y58.204 E119.32063
G1 X211.381 Y58.204 E120.48785
G1 X207.426 Y51.354 E120.94816
G1 X218.13 Y51.354 E121.57108
G1 X214.972 Y56.824 E121.93865
G1 X215.768 Y58.204 E122.03136
G1 X223.6 Y58.204 E122.48714
G1 X223.6 Y178.646 E129.49625
G1 X6.4 Y178.646 E142.13619
G1 X6.4 Y58.204 E149.1453
G1 X14.232 Y58.204 E149.60108
G1 X15.028 Y56.824 E149.69379
G1 X11.87 Y51.354 E150.06136
G1 X22.574 Y51.354 E150.68428
G1 X18.619 Y58.204 E151.14459
G1 X38.676 Y58.204 E152.31181
G1 X39.473 Y56.824 E152.40455
G1 X36.315 Y51.354 E152.77212
G1 X47.019 Y51.354 E153.39504
G1 X43.861 Y56.824 E153.76261
G1 X44.657 Y58.204 E153.85532
G1 X63.121 Y58.204 E154.92983
G1 X63.917 Y56.824 E155.02254
G1 X63.863 Y56.73 E155.02885
M204 S2500
G1 E153.62885 F4800
;WIPE_START
G1 F5760
G1 X63.484 Y56.074 E153.02885
;WIPE_END
G92 E0
G1 X94.39 Y51.554 F7200
G1 E2 F4800
M204 S2000
;TYPE:Solid infill
;WIDTH:0.56038
G1 F3000
G1 X94.968 Y52.132 E2.04761
G1 X94.709 Y52.581 E2.0778
G1 X93.907 Y51.779 E2.14385
G1 X93.2 Y51.779 E2.18503
G1 X94.45 Y53.029 E2.28798
G1 X94.191 Y53.478 E2.31817
G1 X92.492 Y51.779 E2.4581
G1 X91.785 Y51.779 E2.49928
G1 X93.932 Y53.926 E2.67611
G1 X93.673 Y54.375 E2.7063
G1 X91.077 Y51.779 E2.92011
G1 X90.37 Y51.779 E2.96129
G1 X93.414 Y54.823 E3.212
G1 X93.155 Y55.272 E3.24219
G1 X89.662 Y51.779 E3.52988
G1 X88.955 Y51.779 E3.57106
G1 X92.896 Y55.72 E3.89565
G1 X92.637 Y56.169 E3.92584
G1 X88.247 Y51.779 E4.28741
G1 X87.54 Y51.779 E4.32859
G1 X92.543 Y56.782 E4.74065
M204 S2500
G1 E3.34065 F4800
;WIPE_START
G1 F5760
G1 X92.007 Y56.246 E2.74065
;WIPE_END
G92 E0
G1 X119.153 Y51.554 F7200
G1 E2 F4800
M204 S2000
G1 F3000
G1 X119.529 Y51.93 E2.03097
G1 X119.27 Y52.378 E2.06111
G1 X118.67 Y51.779 E2.11049
G1 X117.963 Y51.779 E2.15167
G1 X119.011 Y52.827 E2.23799
G1 X118.752 Y53.276 E2.26818
G1 X117.255 Y51.779 E2.39148
G1 X116.548 Y51.779 E2.43266
G1 X118.493 Y53.724 E2.59286
G1 X118.234 Y54.173 E2.62305
G1 X115.84 Y51.779 E2.82023
G1 X115.133 Y51.779 E2.86141
G1 X117.975 Y54.621 E3.09548
G1 X117.716 Y55.07 E3.12567
G1 X114.425 Y51.779 E3.39673
G1 X113.718 Y51.779 E3.43791
G1 X117.457 Y55.518 E3.74586
G1 X117.198 Y55.967 E3.77605
G1 X113.01 Y51.779 E4.12098
G1 X112.303 Y51.779 E4.16216
G1 X117.104 Y56.58 E4.55758
M204 S2500
G1 E3.15758 F4800
;WIPE_START
G1 F5760
G1 X116.568 Y56.044 E2.55758
;WIPE_END
G92 E0
G1 X143.209 Y51.554 F7200
G1 E2 F4800
M204 S2000
G1 F3000
G1 X143.831 Y52.176 E2.05123
G1 X143.572 Y52.625 E2.08142
G1 X142.726 Y51.779 E2.1511
G1 X142.018 Y51.779 E2.19233
G1 X143.313 Y53.074 E2.29899
G1 X143.054 Y53.522 E2.32913
G1 X141.311 Y51.779 E2.47269
G1 X140.603 Y51.779 E2.51392
G1 X142.795 Y53.971 E2.69446
G1 X142.536 Y54.419 E2.7246
G1 X139.896 Y51.779 E2.94204
G1 X139.188 Y51.779 E2.98327
G1 X142.277 Y54.868 E3.23769
G1 X142.018 Y55.316 E3.26783
G1 X138.481 Y51.779 E3.55915
G1 X137.773 Y51.779 E3.60038
G1 X141.759 Y55.765 E3.92868
G1 X141.5 Y56.213 E3.95882
G1 X137.066 Y51.779 E4.32402
G1 X136.358 Y51.779 E4.36525
G1 X141.413 Y56.833 E4.78155
M204 S2500
G1 E3.38155 F4800
;WIPE_START
G1 F5760
G1 X140.877 Y56.297 E2.78155
;WIPE_END
G92 E0
G1 X167.972 Y51.554 F7200
G1 E2 F4800
M204 S2000
G1 F3000
G1 X168.392 Y51.974 E2.03459
G1 X168.133 Y52.423 E2.06478
G1 X167.489 Y51.779 E2.11782
G1 X166.782 Y51.779 E2.159
G1 X167.874 Y52.871 E2.24894
G1 X167.615 Y53.32 E2.27913
G1 X166.074 Y51.779 E2.40605
G1 X165.367 Y51.779 E2.44723
G1 X167.356 Y53.769 E2.61109
G1 X167.097 Y54.217 E2.64123
G1 X164.659 Y51.779 E2.84203
G1 X163.952 Y51.779 E2.88321
G1 X166.838 Y54.666 E3.12095
G1 X166.579 Y55.114 E3.15109
G1 X163.244 Y51.779 E3.42577
G1 X162.536 Y51.779 E3.467
G1 X166.32 Y55.563 E3.77866
G1 X166.061 Y56.011 E3.8088
G1 X161.829 Y51.779 E4.15736
G1 X161.121 Y51.779 E4.19859
G1 X165.967 Y56.625 E4.59772
M204 S2500
G1 E3.19772 F4800
;WIPE_START
G1 F5760
G1 X165.431 Y56.089 E2.59772
;WIPE_END
G92 E0
G1 X192.027 Y51.554 F7200
G1 E2 F4800
M204 S2000
G1 F3000
G1 X192.694 Y52.221 E2.05494
G1 X192.435 Y52.669 E2.08508
G1 X191.545 Y51.779 E2.15838
G1 X190.837 Y51.779 E2.19961
G1 X192.176 Y53.118 E2.30989
G1 X191.917 Y53.567 E2.34008
G1 X190.13 Y51.779 E2.4873
G1 X189.422 Y51.779 E2.52853
G1 X191.658 Y54.015 E2.71269
G1 X191.399 Y54.464 E2.74288
G1 X188.715 Y51.779 E2.96398
G1 X188.007 Y51.779 E3.00521
G1 X191.14 Y54.912 E3.26325
G1 X190.881 Y55.361 E3.29344
G1 X187.3 Y51.779 E3.58842
G1 X186.592 Y51.779 E3.62965
G1 X190.622 Y55.809 E3.96157
G1 X190.363 Y56.258 E3.99176
G1 X185.885 Y51.779 E4.36062
G1 X185.177 Y51.779 E4.40185
G1 X190.397 Y56.999 E4.83178
M204 S2500
G1 E3.43178 F4800
;WIPE_START
G1 F5760
G1 X189.861 Y56.463 E2.83178
;WIPE_END
G92 E0
G1 X222.933 Y58.404 F7200
G1 E2 F4800
M204 S2000
G1 F3000
G1 X223.175 Y58.646 E2.01993
G1 X223.175 Y59.354 E2.06116
G1 X222.45 Y58.629 E2.12087
G1 X221.743 Y58.629 E2.16205
G1 X223.175 Y60.061 E2.27999
G1 X223.175 Y60.769 E2.32122
G1 X221.035 Y58.629 E2.49748
G1 X220.328 Y58.629 E2.53866
G1 X223.175 Y61.476 E2.77315
G1 X223.175 Y62.184 E2.81438
G1 X219.62 Y58.629 E3.10718
G1 X218.913 Y58.629 E3.14836
G1 X223.175 Y62.891 E3.49939
G1 X223.175 Y63.599 E3.54062
G1 X218.205 Y58.629 E3.94996
G1 X217.498 Y58.629 E3.99114
G1 X223.175 Y64.306 E4.45871
G1 X223.175 Y65.014 E4.49994
G1 X216.565 Y58.404 E5.04436
M204 S2500
G1 E3.64436 F4800
;WIPE_START
G1 F5760
G1 X217.101 Y58.94 E3.04436
;WIPE_END
G92 E0
G1 X217.42 Y52.184 F7200
G1 E2 F4800
M204 S2000
G1 F3000
G1 X217.015 Y51.779 E2.03336
G1 X216.308 Y51.779 E2.07454
G1 X216.996 Y52.467 E2.13121
G1 X216.737 Y52.916 E2.1614
G1 X215.6 Y51.779 E2.25505
G1 X214.893 Y51.779 E2.29623
G1 X216.478 Y53.364 E2.42677
G1 X216.219 Y53.813 E2.45696
G1 X214.185 Y51.779 E2.62449
G1 X213.478 Y51.779 E2.66567
G1 X215.96 Y54.262 E2.87014
G1 X215.702 Y54.71 E2.90025
G1 X212.77 Y51.779 E3.1417
G1 X212.063 Y51.779 E3.18288
G1 X215.443 Y55.159 E3.46127
G1 X215.184 Y55.607 E3.49141
G1 X211.355 Y51.779 E3.80673
G1 X210.648 Y51.779 E3.84791
G1 X214.925 Y56.056 E4.20017
G1 X214.666 Y56.504 E4.23031
G1 X209.94 Y51.779 E4.61951
G1 X209.233 Y51.779 E4.66069
G1 X214.758 Y57.305 E5.11578
G1 X215.523 Y58.629 E5.20483
G1 X216.083 Y58.629 E5.23744
G1 X223.175 Y65.721 E5.82156
G1 X223.175 Y66.429 E5.86279
G1 X208.525 Y51.779 E7.0694
G1 X208.162 Y51.779 E7.09054
G1 X208.632 Y52.593 E7.14528
G1 X223.175 Y67.137 E8.34312
G1 X223.175 Y67.844 E8.3843
G1 X209.598 Y54.267 E9.50254
G1 X210.565 Y55.941 E9.61513
G1 X223.175 Y68.552 E10.65376
G1 X223.175 Y69.259 E10.69494
G1 X211.531 Y57.615 E11.65397
G1 X212.117 Y58.629 E11.72218
G1 X211.838 Y58.629 E11.73843
G1 X223.175 Y69.967 E12.67222
G1 X223.175 Y70.674 E12.7134
G1 X211.13 Y58.629 E13.70546
G1 X210.423 Y58.629 E13.74664
G1 X223.175 Y71.382 E14.79697
G1 X223.175 Y72.089 E14.83815
G1 X209.715 Y58.629 E15.94675
G1 X209.008 Y58.629 E15.98793
G1 X223.175 Y72.797 E17.1548
G1 X223.175 Y73.504 E17.19598
G1 X208.3 Y58.629 E18.42112
G1 X207.592 Y58.629 E18.46235
G1 X223.175 Y74.212 E19.74581
G1 X223.175 Y74.919 E19.78699
G1 X206.885 Y58.629 E21.12868
G1 X206.177 Y58.629 E21.16991
G1 X223.175 Y75.627 E22.56991
G1 X223.175 Y76.334 E22.61109
G1 X205.47 Y58.629 E24.06932
G1 X204.762 Y58.629 E24.11055
G1 X223.175 Y77.042 E25.62709
G1 X223.175 Y77.749 E25.66827
G1 X204.055 Y58.629 E27.24304
G1 X203.347 Y58.629 E27.28427
G1 X223.175 Y78.457 E28.91735
G1 X223.175 Y79.164 E28.95853
G1 X202.64 Y58.629 E30.64984
G1 X201.932 Y58.629 E30.69107
G1 X223.175 Y79.872 E32.4407
G1 X223.175 Y80.579 E32.48188
G1 X201.225 Y58.629 E34.28974
G1 X200.517 Y58.629 E34.33097
G1 X223.175 Y81.287 E36.19714
G1 X223.175 Y81.994 E36.23832
G1 X199.81 Y58.629 E38.16272
G1 X199.102 Y58.629 E38.20395
G1 X223.175 Y82.702 E40.18666
G1 X223.175 Y83.409 E40.22784
G1 X198.395 Y58.629 E42.26878
G1 X197.687 Y58.629 E42.31001
G1 X223.175 Y84.117 E44.40927
G1 X223.175 Y84.824 E44.45045
G1 X196.98 Y58.629 E46.60794
G1 X196.272 Y58.629 E46.64917
G1 X223.175 Y85.532 E48.86497
G1 X223.175 Y86.24 E48.9062
G1 X195.565 Y58.629 E51.18027
G1 X194.857 Y58.629 E51.2215
G1 X223.175 Y86.947 E53.55384
G1 X223.175 Y87.655 E53.59507
G1 X194.15 Y58.629 E55.98568
G1 X193.442 Y58.629 E56.02691
G1 X223.175 Y88.362 E58.4758
G1 X223.175 Y89.07 E58.51703
G1 X192.735 Y58.629 E61.02419
G1 X192.027 Y58.629 E61.06542
G1 X223.175 Y89.777 E63.63085
G1 X223.175 Y90.485 E63.67208
G1 X184.47 Y51.779 E66.85996
G1 X183.762 Y51.779 E66.90119
G1 X223.175 Y91.192 E70.14734
G1 X223.175 Y91.9 E70.18857
G1 X184.623 Y53.347 E73.36385
G1 X185.589 Y55.021 E73.47641
G1 X223.175 Y92.607 E76.57209
G1 X223.175 Y93.315 E76.61332
G1 X186.556 Y56.695 E79.6294
G1 X186.63 Y56.824 E79.63806
G1 X186.391 Y57.238 E79.6659
G1 X223.175 Y94.022 E82.69552
G1 X223.175 Y94.73 E82.73675
G1 X186.132 Y57.687 E85.78771
G1 X185.873 Y58.135 E85.81785
G1 X223.175 Y95.437 E88.89014
G1 X223.175 Y96.145 E88.93137
G1 X185.614 Y58.584 E92.02499
G1 X185.588 Y58.629 E92.02802
G1 X184.952 Y58.629 E92.06506
G1 X223.175 Y96.852 E95.2132
G1 X223.175 Y97.56 E95.25443
G1 X184.244 Y58.629 E98.46089
G1 X183.537 Y58.629 E98.50207
G1 X223.175 Y98.267 E101.76676
G1 X223.175 Y98.975 E101.80799
G1 X182.829 Y58.629 E105.13099
G1 X182.122 Y58.629 E105.17217
G1 X223.175 Y99.682 E108.5534
G1 X223.175 Y100.39 E108.59463
G1 X181.414 Y58.629 E112.03417
G1 X180.707 Y58.629 E112.07535
G1 X223.175 Y101.097 E115.57312
G1 X223.175 Y101.805 E115.61435
G1 X179.999 Y58.629 E119.17044
G1 X179.292 Y58.629 E119.21162
G1 X223.175 Y102.512 E122.82594
G1 X223.175 Y103.22 E122.86717
G1 X178.584 Y58.629 E126.5398
G1 X177.877 Y58.629 E126.58098
G1 X223.175 Y103.927 E130.31184
G1 X223.175 Y104.635 E130.35307
G1 X177.169 Y58.629 E134.14224
G1 X176.462 Y58.629 E134.18342
G1 X223.175 Y105.343 E138.03086
G1 X223.175 Y106.05 E138.07204
G1 X175.754 Y58.629 E141.97775
G1 X175.047 Y58.629 E142.01893
G1 X223.175 Y106.758 E145.98292
G1 X223.175 Y107.465 E146.0241
G1 X174.339 Y58.629 E150.04636
G1 X173.632 Y58.629 E150.08754
G1 X223.175 Y108.173 E154.16807
