; generated by PrusaSlicer 2.6.0+MacOS-x64 on 2023-07-31 at 15:44:31 UTC

; 

; external perimeters extrusion width = 0.45mm
; perimeters extrusion width = 0.40mm
; infill extrusion width = 0.45mm
; solid infill extrusion width = 0.50mm
; top infill extrusion width = 0.45mm
; support material extrusion width = 0.42mm
; first layer extrusion width = 0.56mm

M201 X2500 Y2500 Z800 E2500 ; sets maximum accelerations, mm/sec^2
M203 X300 Y250 Z8 E80 ; sets maximum feedrates, mm / sec
M204 S2500 T2500 ; sets acceleration (S) and retract acceleration (R), mm/sec^2
M205 X15.00 Y10.00 Z2.00 E10.00 ; sets the jerk limits, mm/sec
M205 S0 T0 ; sets the minimum extruding and travel feed rate, mm/sec
;TYPE:Custom
G90 ; use absolute coordinates
M83 ; extruder relative mode
M104 S215 ; set extruder temp
M140 S60 ; set bed temp
M190 S60 ; wait for bed temp
M109 S215 ; wait for extruder temp
G28                                        ; move X/Y/Z to min endstops
G1 Z0.28                                   ; lift nozzle a bit 
G92 E0 
G1 Y3 F1800                                    ; zero the extruded length 
G1 X60  E25 F500                       ; Extrude 25mm of filament in a 5cm line. 
G92 E0                                     ; zero the extruded length again 
G1 E-2 F500                                ; Retract a little 
G1 X70 F4000                              ; Quickly wipe away from the filament line
M117
G21 ; set units to millimeters
G90 ; use absolute coordinates
M82 ; use absolute distances for extrusion
G92 E0
M107
;LAYER_CHANGE
;Z:0.28
;HEIGHT:0.28
; BEFORE_LAYER_CHANGE 0 @ 0.28mm
G1 E-2 F4800
G92 E0
G1 Z.28 F7200
; AFTER_LAYER_CHANGE 0 @ 0.28mm
G1 X7.348 Y43.75
G1 E2 F4800
M204 S2000
;TYPE:Skirt/Brim
;WIDTH:0.56
G1 F3000
G1 X222.708 Y43.755 E14.53286
G1 X223.253 Y43.869 E14.56526
G1 X223.802 Y44.106 E14.60006
G1 X224.192 Y44.379 E14.62776
G1 X224.602 Y44.785 E14.66134
G1 X224.908 Y45.226 E14.69258
G1 X225.125 Y45.722 E14.72409
G1 X225.25 Y46.348 E14.76124
G1 X225.25 Y183.652 E22.75164
G1 X225.118 Y184.295 E22.78984
G1 X224.842 Y184.892 E22.82812
G1 X224.596 Y185.222 E22.85207
G1 X224.222 Y185.596 E22.88285
G1 X223.892 Y185.842 E22.9068
G1 X223.295 Y186.118 E22.94508
G1 X222.652 Y186.25 E22.98328
G1 X7.348 Y186.25 E35.51288
G1 X6.705 Y186.118 E35.55108
G1 X6.108 Y185.842 E35.58936
G1 X5.778 Y185.596 E35.61331
G1 X5.404 Y185.222 E35.64409
G1 X5.158 Y184.892 E35.66804
G1 X4.882 Y184.295 E35.70632
G1 X4.75 Y183.652 E35.74452
G1 X4.75 Y46.348 E43.73492
G1 X4.882 Y45.705 E43.77312
G1 X5.158 Y45.108 E43.8114
G1 X5.404 Y44.778 E43.83535
G1 X5.778 Y44.404 E43.86613
G1 X6.108 Y44.158 E43.89008
G1 X6.705 Y43.882 E43.92836
G1 X7.289 Y43.763 E43.96304
M204 S2500
G1 X7.373 Y44.25 F7200
M204 S2000
G1 F3000
G1 X222.68 Y44.255 E56.49282
G1 X223.121 Y44.351 E56.51909
G1 X223.575 Y44.552 E56.54798
G1 X223.883 Y44.772 E56.57001
G1 X224.231 Y45.12 E56.59865
G1 X224.481 Y45.486 E56.62444
G1 X224.654 Y45.893 E56.65018
G1 X224.75 Y46.373 E56.67867
G1 X224.75 Y183.627 E64.66616
G1 X224.651 Y184.116 E64.69519
G1 X224.423 Y184.618 E64.72728
G1 X224.229 Y184.882 E64.74635
G1 X223.882 Y185.229 E64.77491
G1 X223.618 Y185.423 E64.79398
G1 X223.116 Y185.651 E64.82607
G1 X222.627 Y185.75 E64.8551
G1 X7.373 Y185.75 E77.38179
G1 X6.884 Y185.651 E77.41082
G1 X6.382 Y185.423 E77.44291
G1 X6.118 Y185.229 E77.46198
G1 X5.771 Y184.882 E77.49054
G1 X5.577 Y184.618 E77.50961
G1 X5.349 Y184.116 E77.5417
G1 X5.25 Y183.627 E77.57073
G1 X5.25 Y46.373 E85.55822
G1 X5.349 Y45.884 E85.58725
G1 X5.577 Y45.382 E85.61934
G1 X5.771 Y45.118 E85.63841
G1 X6.118 Y44.771 E85.66697
G1 X6.382 Y44.577 E85.68604
G1 X6.884 Y44.349 E85.71813
G1 X7.314 Y44.262 E85.74366
M204 S2500
G1 X7.397 Y44.75 F7200
M204 S2000
G1 F3000
G1 X222.652 Y44.755 E98.27041
G1 X222.941 Y44.818 E98.28762
G1 X223.348 Y44.998 E98.31352
G1 X223.543 Y45.139 E98.32752
G1 X223.86 Y45.456 E98.35361
G1 X224.05 Y45.741 E98.37354
G1 X224.183 Y46.061 E98.39371
G1 X224.25 Y46.397 E98.41365
G1 X224.25 Y183.603 E106.39834
G1 X224.182 Y183.941 E106.4184
G1 X224.002 Y184.348 E106.4443
G1 X223.861 Y184.543 E106.4583
G1 X223.543 Y184.861 E106.48447
G1 X223.348 Y185.002 E106.49847
G1 X222.941 Y185.182 E106.52437
G1 X222.603 Y185.25 E106.54443
G1 X7.397 Y185.25 E119.06833
G1 X7.059 Y185.182 E119.08839
G1 X6.652 Y185.002 E119.11429
G1 X6.457 Y184.861 E119.12829
G1 X6.139 Y184.543 E119.15446
G1 X5.998 Y184.348 E119.16846
G1 X5.818 Y183.941 E119.19436
G1 X5.75 Y183.603 E119.21442
G1 X5.75 Y46.397 E127.19911
G1 X5.818 Y46.059 E127.21917
G1 X5.998 Y45.652 E127.24507
G1 X6.139 Y45.457 E127.25907
G1 X6.457 Y45.139 E127.28524
G1 X6.652 Y44.998 E127.29924
G1 X7.059 Y44.818 E127.32514
G1 X7.338 Y44.762 E127.3417
M204 S2500
G1 X7.422 Y45.25 F7200
M204 S2000
G1 F3000
G1 X222.624 Y45.255 E139.86537
G1 X222.766 Y45.287 E139.87384
G1 X223.084 Y45.423 E139.89397
G1 X223.206 Y45.509 E139.90266
G1 X223.489 Y45.792 E139.92595
G1 X223.598 Y45.955 E139.93736
G1 X223.712 Y46.229 E139.95463
G1 X223.75 Y46.422 E139.96608
G1 X223.75 Y183.578 E147.94786
G1 X223.712 Y183.769 E147.95919
G1 X223.577 Y184.084 E147.97913
G1 X223.491 Y184.206 E147.98782
G1 X223.206 Y184.491 E148.01128
G1 X223.084 Y184.577 E148.01997
G1 X222.769 Y184.712 E148.03991
G1 X222.578 Y184.75 E148.05124
G1 X7.422 Y184.75 E160.57223
G1 X7.231 Y184.712 E160.58356
G1 X6.916 Y184.577 E160.6035
G1 X6.794 Y184.491 E160.61219
G1 X6.509 Y184.206 E160.63565
G1 X6.423 Y184.084 E160.64434
G1 X6.288 Y183.769 E160.66428
G1 X6.25 Y183.578 E160.67561
G1 X6.25 Y46.422 E168.65739
G1 X6.288 Y46.231 E168.66872
G1 X6.423 Y45.916 E168.68866
G1 X6.509 Y45.794 E168.69735
G1 X6.794 Y45.509 E168.72081
G1 X6.916 Y45.423 E168.7295
G1 X7.231 Y45.288 E168.74944
G1 X7.363 Y45.262 E168.75727
M204 S2500
G1 X7.446 Y45.75 F7200
M204 S2000
G1 F3000
G1 X222.554 Y45.75 E181.27547
G1 X222.831 Y45.855 E181.29271
G1 X223.118 Y46.128 E181.31576
G1 X223.25 Y46.446 E181.3358
G1 X223.25 Y183.554 E189.31479
G1 X223.145 Y183.831 E189.33203
G1 X222.872 Y184.118 E189.35508
G1 X222.554 Y184.25 E189.37512
G1 X7.446 Y184.25 E201.89332
G1 X7.169 Y184.145 E201.91056
G1 X6.882 Y183.872 E201.93361
G1 X6.75 Y183.554 E201.95365
G1 X6.75 Y46.446 E209.93264
G1 X6.882 Y46.128 E209.95268
G1 X7.128 Y45.882 E209.97293
G1 X7.388 Y45.764 E209.98955
M204 S2500
G1 X7.521 Y46.25 F7200
M204 S2000
G1 F3000
G1 X222.479 Y46.25 E222.49902
G1 X222.571 Y46.288 E222.50481
G1 X222.712 Y46.429 E222.51641
G1 X222.75 Y46.521 E222.5222
G1 X222.75 Y183.479 E230.49246
G1 X222.712 Y183.571 E230.49825
G1 X222.571 Y183.712 E230.50985
G1 X222.479 Y183.75 E230.51564
G1 X7.521 Y183.75 E243.02511
G1 X7.429 Y183.712 E243.0309
G1 X7.288 Y183.571 E243.0425
G1 X7.25 Y183.479 E243.04829
G1 X7.25 Y46.521 E251.01855
G1 X7.288 Y46.429 E251.02434
G1 X7.429 Y46.288 E251.03594
G1 X7.465 Y46.273 E251.03821
M204 S2500
G1 E249.63821 F4800
;WIPE_START
G1 F5760
G1 X8.223 Y46.273 E249.03821
;WIPE_END
G92 E0
G1 X117.64 Y177.5 F7200
G1 E2 F4800
M204 S2000
;TYPE:Support material
G1 F3000
G1 X116.32 Y179.786 E2.15362
G1 X113.68 Y179.786 E2.30725
G1 X112.36 Y177.5 E2.46087
G1 X113.68 Y175.214 E2.61449
G1 X116.32 Y175.214 E2.76812
G1 X117.602 Y177.435 E2.91736
M204 S2500
G1 X116.666 Y178.736 F7200
M204 S2000
G1 F3000
G1 X116.666 Y176.714 E3.03503
G1 X116.111 Y175.751 E3.09971
G1 X116.111 Y179.249 E3.30328
G1 X116.06 Y179.336 E3.30915
G1 X115.555 Y179.336 E3.33854
G1 X115.555 Y175.664 E3.55223
G1 X115 Y175.664 E3.58453
G1 X115 Y179.336 E3.79822
G1 X114.445 Y179.336 E3.83052
G1 X114.445 Y175.664 E4.04421
G1 X113.94 Y175.664 E4.0736
G1 X113.889 Y175.751 E4.07947
G1 X113.889 Y179.249 E4.28304
G1 X113.334 Y178.286 E4.34772
G1 X113.334 Y176.264 E4.46539
M204 S2500
G1 E3.06539 F4800
;WIPE_START
G1 F5760
G1 X113.334 Y177.022 E2.46539
;WIPE_END
G92 E0
G1 X222.1 Y183.1 F7200
G1 E2 F4800
M204 S2000
;TYPE:External perimeter
G1 F3000
G1 X7.9 Y183.1 E14.46535
G1 X7.9 Y46.9 E22.3915
G1 X222.1 Y46.9 E34.85685
G1 X222.1 Y183.04 E42.77951
M204 S2500
G1 X221.707 Y183.025 F7200
G1 X221.6 Y182.6
M204 S2000
;TYPE:Perimeter
G1 F3000
G1 X8.4 Y182.6 E55.18667
G1 X8.4 Y47.4 E63.05463
G1 X221.6 Y47.4 E75.46179
G1 X221.6 Y182.54 E83.32625
M204 S2500
G1 X221.1 Y182.1 F7200
M204 S2000
G1 F3000
G1 X8.9 Y182.1 E95.67521
G1 X8.9 Y47.9 E103.48497
G1 X221.1 Y47.9 E115.83393
G1 X221.1 Y182.04 E123.6402
M204 S2500
G1 E122.2402 F4800
;WIPE_START
G1 F5760
G1 X220.342 Y182.04 E121.6402
;WIPE_END
G92 E0
G1 X201.459 Y179.008 F7200
G1 E2 F4800
M204 S2000
;TYPE:External perimeter
G1 F3000
G1 X201.168 Y179.248 E2.02195
G1 X200.804 Y179.442 E2.04595
G1 X200.41 Y179.562 E2.06992
G1 X200 Y179.602 E2.09389
G1 X199.59 Y179.562 E2.11786
G1 X199.196 Y179.442 E2.14183
G1 X198.832 Y179.248 E2.16583
G1 X198.514 Y178.986 E2.18981
G1 X198.252 Y178.668 E2.21379
G1 X198.058 Y178.304 E2.23779
G1 X197.938 Y177.91 E2.26176
G1 X197.898 Y177.5 E2.28573
G1 X197.938 Y177.09 E2.3097
G1 X198.058 Y176.696 E2.33367
G1 X198.252 Y176.332 E2.35767
G1 X198.514 Y176.014 E2.38165
G1 X198.832 Y175.752 E2.40563
G1 X199.196 Y175.558 E2.42963
G1 X199.59 Y175.439 E2.45358
G1 X199.995 Y175.398 E2.47727
G1 X200.41 Y175.438 E2.50153
G1 X200.804 Y175.558 E2.5255
G1 X201.168 Y175.752 E2.5495
G1 X201.486 Y176.014 E2.57348
G1 X201.748 Y176.332 E2.59746
G1 X201.942 Y176.696 E2.62146
G1 X202.062 Y177.09 E2.64543
G1 X202.102 Y177.5 E2.6694
G1 X202.062 Y177.91 E2.69337
G1 X201.942 Y178.304 E2.71734
G1 X201.748 Y178.668 E2.74134
G1 X201.502 Y178.967 E2.76387
M204 S2500
G1 X201.556 Y179.373 F7200
G1 X201.867 Y179.31
M204 S2000
;TYPE:Perimeter
G1 F3000
G1 X201.447 Y179.665 E2.79587
G1 X200.997 Y179.906 E2.82558
G1 X200.508 Y180.054 E2.85531
G1 X200 Y180.104 E2.88502
G1 X199.492 Y180.054 E2.91473
G1 X199.003 Y179.906 E2.94446
G1 X198.553 Y179.665 E2.97417
G1 X198.158 Y179.341 E3.0039
G1 X197.835 Y178.947 E3.03355
G1 X197.594 Y178.497 E3.06326
G1 X197.446 Y178.008 E3.09299
G1 X197.396 Y177.5 E3.1227
G1 X197.446 Y176.992 E3.15241
G1 X197.594 Y176.503 E3.18214
G1 X197.835 Y176.053 E3.21185
G1 X198.158 Y175.659 E3.2415
G1 X198.553 Y175.335 E3.27123
G1 X199.003 Y175.094 E3.30094
G1 X199.492 Y174.946 E3.33067
G1 X199.994 Y174.896 E3.36003
G1 X200.507 Y174.946 E3.39003
G1 X200.997 Y175.094 E3.41982
G1 X201.447 Y175.335 E3.44953
G1 X201.842 Y175.659 E3.47926
G1 X202.165 Y176.053 E3.50891
G1 X202.406 Y176.503 E3.53862
G1 X202.554 Y176.992 E3.56835
G1 X202.604 Y177.5 E3.59806
G1 X202.554 Y178.008 E3.62777
G1 X202.406 Y178.497 E3.6575
G1 X202.165 Y178.947 E3.68721
G1 X201.905 Y179.264 E3.71107
M204 S2500
G1 X202.249 Y179.632 F7200
M204 S2000
G1 F3000
G1 X202.197 Y179.697 E3.71591
G1 X201.726 Y180.083 E3.75135
G1 X201.189 Y180.37 E3.78678
G1 X200.606 Y180.547 E3.82224
G1 X200 Y180.607 E3.85768
G1 X199.394 Y180.547 E3.89312
G1 X198.811 Y180.37 E3.92858
G1 X198.274 Y180.083 E3.96401
G1 X197.803 Y179.697 E3.99945
G1 X197.417 Y179.226 E4.03489
G1 X197.13 Y178.689 E4.07032
G1 X196.953 Y178.106 E4.10578
G1 X196.893 Y177.5 E4.14122
G1 X196.953 Y176.894 E4.17666
G1 X197.13 Y176.311 E4.21212
G1 X197.417 Y175.774 E4.24755
G1 X197.803 Y175.303 E4.28299
G1 X198.274 Y174.917 E4.31843
G1 X198.811 Y174.63 E4.35386
G1 X199.393 Y174.453 E4.38926
G1 X199.994 Y174.394 E4.4244
G1 X200.605 Y174.453 E4.46012
G1 X201.189 Y174.63 E4.49563
G1 X201.726 Y174.917 E4.53106
G1 X202.197 Y175.303 E4.5665
G1 X202.583 Y175.774 E4.60194
G1 X202.87 Y176.311 E4.63737
G1 X203.047 Y176.894 E4.67283
G1 X203.107 Y177.5 E4.70827
G1 X203.047 Y178.106 E4.74371
G1 X202.87 Y178.689 E4.77917
G1 X202.583 Y179.226 E4.8146
G1 X202.288 Y179.586 E4.84169
M204 S2500
G1 E3.44169 F4800
;WIPE_START
G1 F5760
G1 X202.197 Y179.697 E3.32806
G1 X201.726 Y180.083 E2.84596
G1 X201.721 Y180.086 E2.84169
;WIPE_END
G92 E0
G1 X214.623 Y175.435 F7200
G1 E2 F4800
M204 S2000
;TYPE:External perimeter
G1 F3000
G1 X214.995 Y175.398 E2.02176
G1 X215.41 Y175.438 E2.04602
G1 X215.804 Y175.558 E2.06999
G1 X216.168 Y175.752 E2.09399
G1 X216.486 Y176.014 E2.11797
G1 X216.748 Y176.332 E2.14195
G1 X216.942 Y176.696 E2.16595
G1 X217.062 Y177.09 E2.18992
G1 X217.102 Y177.5 E2.21389
G1 X217.062 Y177.91 E2.23786
G1 X216.942 Y178.304 E2.26183
G1 X216.748 Y178.668 E2.28583
G1 X216.486 Y178.986 E2.30981
G1 X216.168 Y179.248 E2.33379
G1 X215.804 Y179.442 E2.35779
G1 X215.41 Y179.562 E2.38176
G1 X215 Y179.602 E2.40573
G1 X214.59 Y179.562 E2.4297
G1 X214.196 Y179.442 E2.45367
G1 X213.832 Y179.248 E2.47767
G1 X213.514 Y178.986 E2.50165
G1 X213.252 Y178.668 E2.52563
G1 X213.058 Y178.304 E2.54963
G1 X212.938 Y177.91 E2.5736
G1 X212.898 Y177.5 E2.59757
G1 X212.938 Y177.09 E2.62154
G1 X213.058 Y176.696 E2.64551
G1 X213.252 Y176.332 E2.66951
G1 X213.514 Y176.014 E2.69349
G1 X213.832 Y175.752 E2.71747
G1 X214.196 Y175.558 E2.74147
G1 X214.564 Y175.446 E2.76386
M204 S2500
G1 X214.744 Y175.081 F7200
G1 X213.956 Y175.119
M204 S2000
;TYPE:Perimeter
G1 F3000
G1 X214.492 Y174.946 E2.79664
G1 X214.994 Y174.896 E2.826
G1 X215.507 Y174.946 E2.856
G1 X215.997 Y175.094 E2.88579
G1 X216.447 Y175.335 E2.9155
G1 X216.842 Y175.659 E2.94523
G1 X217.165 Y176.053 E2.97488
G1 X217.406 Y176.503 E3.00459
G1 X217.554 Y176.992 E3.03432
G1 X217.604 Y177.5 E3.06403
G1 X217.554 Y178.008 E3.09374
G1 X217.406 Y178.497 E3.12347
G1 X217.165 Y178.947 E3.15318
G1 X216.842 Y179.341 E3.18283
G1 X216.447 Y179.665 E3.21256
G1 X215.997 Y179.906 E3.24227
G1 X215.508 Y180.054 E3.272
G1 X215 Y180.104 E3.30171
G1 X214.492 Y180.054 E3.33142
G1 X214.003 Y179.906 E3.36115
G1 X213.553 Y179.665 E3.39086
G1 X213.159 Y179.341 E3.42055
G1 X212.835 Y178.947 E3.45024
G1 X212.594 Y178.497 E3.47995
G1 X212.446 Y178.008 E3.50968
G1 X212.396 Y177.5 E3.53939
G1 X212.446 Y176.992 E3.5691
G1 X212.594 Y176.503 E3.59883
G1 X212.835 Y176.053 E3.62854
G1 X213.159 Y175.659 E3.65823
G1 X213.553 Y175.335 E3.68792
G1 X213.903 Y175.148 E3.71101
M204 S2500
G1 X213.431 Y174.833 F7200
M204 S2000
G1 F3000
G1 X213.811 Y174.63 E3.73608
G1 X214.393 Y174.453 E3.77148
G1 X214.994 Y174.394 E3.80662
G1 X215.605 Y174.453 E3.84234
G1 X216.189 Y174.63 E3.87785
G1 X216.726 Y174.917 E3.91328
G1 X217.197 Y175.303 E3.94872
G1 X217.583 Y175.774 E3.98416
G1 X217.87 Y176.311 E4.01959
G1 X218.047 Y176.894 E4.05505
G1 X218.107 Y177.5 E4.09049
G1 X218.047 Y178.106 E4.12593
G1 X217.87 Y178.689 E4.16139
G1 X217.583 Y179.226 E4.19682
G1 X217.197 Y179.697 E4.23226
G1 X216.726 Y180.083 E4.2677
G1 X216.189 Y180.37 E4.30313
G1 X215.606 Y180.547 E4.33859
G1 X215 Y180.607 E4.37403
G1 X214.394 Y180.547 E4.40947
G1 X213.811 Y180.37 E4.44493
G1 X213.274 Y180.083 E4.48036
G1 X212.803 Y179.697 E4.5158
G1 X212.417 Y179.226 E4.55124
G1 X212.13 Y178.689 E4.58667
G1 X211.953 Y178.106 E4.62213
G1 X211.893 Y177.5 E4.65757
G1 X211.953 Y176.894 E4.69301
G1 X212.13 Y176.311 E4.72847
G1 X212.417 Y175.774 E4.7639
G1 X212.803 Y175.303 E4.79934
G1 X213.274 Y174.917 E4.83478
G1 X213.378 Y174.861 E4.84165
M204 S2500
G1 E3.44165 F4800
;WIPE_START
G1 F5760
G1 X213.811 Y174.63 E3.05313
G1 X214.067 Y174.552 E2.84165
;WIPE_END
G92 E0
G1 X213.228 Y51.378 F7200
G1 E2 F4800
M204 S2000
;TYPE:External perimeter
G1 F3000
G1 X213.514 Y51.014 E2.02694
G1 X213.832 Y50.752 E2.05092
G1 X214.196 Y50.558 E2.07492
G1 X214.59 Y50.438 E2.09889
G1 X214.997 Y50.398 E2.12269
G1 X215.41 Y50.438 E2.14684
G1 X215.804 Y50.558 E2.17081
G1 X216.168 Y50.752 E2.19481
G1 X216.486 Y51.014 E2.21879
G1 X216.748 Y51.332 E2.24277
G1 X216.942 Y51.696 E2.26677
G1 X217.062 Y52.09 E2.29074
G1 X217.102 Y52.5 E2.31471
G1 X217.062 Y52.91 E2.33868
G1 X216.942 Y53.304 E2.36265
G1 X216.748 Y53.668 E2.38665
G1 X216.486 Y53.986 E2.41063
G1 X216.168 Y54.248 E2.43461
G1 X215.804 Y54.442 E2.45861
G1 X215.41 Y54.562 E2.48258
G1 X215 Y54.602 E2.50655
G1 X214.59 Y54.562 E2.53052
G1 X214.196 Y54.442 E2.55449
G1 X213.832 Y54.248 E2.57849
G1 X213.514 Y53.986 E2.60247
G1 X213.252 Y53.668 E2.62645
G1 X213.058 Y53.304 E2.65045
G1 X212.938 Y52.91 E2.67442
G1 X212.898 Y52.5 E2.69839
G1 X212.938 Y52.09 E2.72236
G1 X213.058 Y51.696 E2.74633
G1 X213.2 Y51.431 E2.76383
M204 S2500
G1 X213.045 Y51.022 F7200
G1 X212.817 Y51.086
M204 S2000
;TYPE:Perimeter
G1 F3000
G1 X213.159 Y50.658 E2.79571
G1 X213.553 Y50.335 E2.82536
G1 X214.003 Y50.094 E2.85507
