; generated by PrusaSlicer 2.6.0+MacOS-x64 on 2023-08-06 at 02:01:14 UTC

; 

; external perimeters extrusion width = 0.45mm
; perimeters extrusion width = 0.40mm
; infill extrusion width = 0.45mm
; solid infill extrusion width = 0.50mm
; top infill extrusion width = 0.45mm
; support material extrusion width = 0.42mm
; first layer extrusion width = 0.56mm

M201 X2500 Y2500 Z800 E2500 ; sets maximum accelerations, mm/sec^2
M203 X300 Y250 Z8 E80 ; sets maximum feedrates, mm / sec
M204 S2500 T2500 ; sets acceleration (S) and retract acceleration (R), mm/sec^2
M205 X15.00 Y10.00 Z2.00 E10.00 ; sets the jerk limits, mm/sec
M205 S0 T0 ; sets the minimum extruding and travel feed rate, mm/sec
;TYPE:Custom
G90 ; use absolute coordinates
M83 ; extruder relative mode
M104 S215 ; set extruder temp
M140 S60 ; set bed temp
M190 S60 ; wait for bed temp
M109 S215 ; wait for extruder temp
G28                                        ; move X/Y/Z to min endstops
G1 Z0.28                                   ; lift nozzle a bit 
G92 E0 
G1 Y3 F1800                                    ; zero the extruded length 
G1 X60  E25 F500                       ; Extrude 25mm of filament in a 5cm line. 
G92 E0                                     ; zero the extruded length again 
G1 E-2 F500                                ; Retract a little 
G1 X70 F4000                              ; Quickly wipe away from the filament line
M117
G21 ; set units to millimeters
G90 ; use absolute coordinates
M82 ; use absolute distances for extrusion
G92 E0
M107
;LAYER_CHANGE
;Z:0.28
;HEIGHT:0.28
; BEFORE_LAYER_CHANGE 0 @ 0.28mm
G1 E-2 F4800
G92 E0
G1 Z.28 F7200
; AFTER_LAYER_CHANGE 0 @ 0.28mm
G1 X222.1 Y183.1
G1 E2 F4800
M204 S2000
;TYPE:External perimeter
;WIDTH:0.56
G1 F3000
G1 X7.9 Y183.1 E14.46535
G1 X7.9 Y46.9 E22.3915
G1 X222.1 Y46.9 E34.85685
G1 X222.1 Y183.04 E42.77951
M204 S2500
G1 X221.707 Y183.025 F7200
G1 X221.6 Y182.6
M204 S2000
;TYPE:Perimeter
G1 F3000
G1 X8.4 Y182.6 E55.18667
G1 X8.4 Y47.4 E63.05463
G1 X221.6 Y47.4 E75.46179
G1 X221.6 Y182.54 E83.32625
M204 S2500
G1 E81.92625 F4800
;WIPE_START
G1 F5760
G1 X220.842 Y182.54 E81.32625
;WIPE_END
G92 E0
G1 X30.29 Y175.226 F7200
G1 E2 F4800
M204 S2000
;TYPE:External perimeter
G1 F3000
G1 X30.635 Y175.272 E2.02025
G1 X30.858 Y175.324 E2.03358
G1 X31.259 Y175.46 E2.05822
G1 X31.639 Y175.647 E2.08287
G1 X31.833 Y175.768 E2.09618
G1 X32.168 Y176.025 E2.12075
G1 X32.475 Y176.332 E2.14602
G1 X32.732 Y176.667 E2.17059
G1 X32.853 Y176.861 E2.1839
G1 X33.04 Y177.241 E2.20855
G1 X33.178 Y177.647 E2.2335
G1 X33.264 Y178.083 E2.25936
G1 X33.291 Y178.5 E2.28368
G1 X33.263 Y178.928 E2.30864
G1 X33.178 Y179.354 E2.33392
G1 X33.04 Y179.759 E2.35882
G1 X32.853 Y180.139 E2.38347
G1 X32.732 Y180.333 E2.39678
G1 X32.475 Y180.668 E2.42135
G1 X32.168 Y180.975 E2.44662
G1 X31.833 Y181.232 E2.47119
G1 X31.63 Y181.357 E2.48506
G1 X31.259 Y181.54 E2.50913
G1 X30.854 Y181.678 E2.53403
G1 X30.428 Y181.763 E2.55931
G1 X30 Y181.791 E2.58427
G1 X29.572 Y181.763 E2.60923
G1 X29.146 Y181.678 E2.63451
G1 X28.741 Y181.54 E2.65941
G1 X28.361 Y181.353 E2.68406
G1 X28.167 Y181.232 E2.69737
G1 X27.832 Y180.975 E2.72194
G1 X27.525 Y180.668 E2.74721
G1 X27.268 Y180.333 E2.77178
G1 X27.147 Y180.139 E2.78509
G1 X26.96 Y179.759 E2.80974
G1 X26.822 Y179.353 E2.83469
G1 X26.736 Y178.917 E2.86055
G1 X26.709 Y178.5 E2.88487
G1 X26.737 Y178.072 E2.90983
G1 X26.822 Y177.646 E2.93511
G1 X26.96 Y177.241 E2.96001
G1 X27.147 Y176.861 E2.98466
G1 X27.268 Y176.667 E2.99797
G1 X27.525 Y176.332 E3.02254
G1 X27.832 Y176.025 E3.04781
G1 X28.167 Y175.768 E3.07238
G1 X28.37 Y175.643 E3.08625
G1 X28.741 Y175.46 E3.11032
G1 X29.146 Y175.322 E3.13522
G1 X29.572 Y175.237 E3.1605
G1 X29.983 Y175.21 E3.18447
G1 X30.23 Y175.218 E3.19885
M204 S2500
G1 X30.488 Y174.94 F7200
G1 X30.283 Y174.721
M204 S2000
;TYPE:Perimeter
G1 F3000
G1 X30.725 Y174.779 E3.22479
G1 X30.995 Y174.842 E3.24092
G1 X31.451 Y174.997 E3.26895
G1 X31.883 Y175.21 E3.29698
G1 X32.118 Y175.356 E3.31308
G1 X32.498 Y175.648 E3.34097
G1 X32.852 Y176.002 E3.3701
G1 X33.144 Y176.382 E3.39799
G1 X33.29 Y176.617 E3.41409
G1 X33.503 Y177.049 E3.44212
G1 X33.662 Y177.518 E3.47094
G1 X33.76 Y178.018 E3.50059
G1 X33.792 Y178.5 E3.5287
G1 X33.759 Y178.993 E3.55745
G1 X33.662 Y179.483 E3.58652
G1 X33.503 Y179.951 E3.61528
G1 X33.29 Y180.383 E3.64331
G1 X33.144 Y180.618 E3.65941
G1 X32.852 Y180.998 E3.6873
G1 X32.498 Y181.352 E3.71643
G1 X32.117 Y181.644 E3.74437
G1 X31.873 Y181.795 E3.76107
G1 X31.451 Y182.003 E3.78845
G1 X30.983 Y182.162 E3.81721
G1 X30.493 Y182.259 E3.84628
G1 X30 Y182.292 E3.87503
G1 X29.507 Y182.259 E3.90378
G1 X29.017 Y182.162 E3.93285
G1 X28.549 Y182.003 E3.96161
G1 X28.117 Y181.79 E3.98964
G1 X27.882 Y181.644 E4.00574
G1 X27.502 Y181.352 E4.03363
G1 X27.148 Y180.998 E4.06276
G1 X26.856 Y180.618 E4.09065
G1 X26.71 Y180.383 E4.10675
G1 X26.497 Y179.951 E4.13478
G1 X26.338 Y179.482 E4.1636
G1 X26.24 Y178.982 E4.19325
G1 X26.208 Y178.5 E4.22136
G1 X26.241 Y178.007 E4.25011
G1 X26.338 Y177.517 E4.27918
G1 X26.497 Y177.049 E4.30794
G1 X26.71 Y176.617 E4.33597
G1 X26.856 Y176.382 E4.35207
G1 X27.148 Y176.002 E4.37996
G1 X27.502 Y175.648 E4.40909
G1 X27.883 Y175.356 E4.43703
G1 X28.127 Y175.205 E4.45373
G1 X28.549 Y174.997 E4.48111
G1 X29.017 Y174.838 E4.50987
G1 X29.507 Y174.741 E4.53894
G1 X29.974 Y174.71 E4.56618
G1 X30.223 Y174.717 E4.58068
M204 S2500
G1 E3.18068 F4800
;WIPE_START
G1 F5760
G1 X30.725 Y174.779 E2.78024
G1 X30.97 Y174.836 E2.58068
;WIPE_END
G92 E0
G1 X17.298 Y176.148 F7200
G1 E2 F4800
M204 S2000
;TYPE:External perimeter
G1 F3000
G1 X17.478 Y176.336 E2.01515
G1 X17.736 Y176.672 E2.0398
G1 X17.95 Y177.043 E2.06472
G1 X18.119 Y177.454 E2.09058
G1 X18.226 Y177.852 E2.11456
G1 X18.264 Y178.087 E2.12841
G1 X18.291 Y178.5 E2.1525
G1 X18.263 Y178.923 E2.17717
G1 X18.226 Y179.148 E2.19044
G1 X18.116 Y179.556 E2.21503
G1 X17.95 Y179.957 E2.24029
G1 X17.736 Y180.328 E2.26521
G1 X17.478 Y180.664 E2.28986
G1 X17.322 Y180.831 E2.30316
G1 X17.005 Y181.109 E2.3277
G1 X16.644 Y181.351 E2.35299
G1 X16.259 Y181.54 E2.37795
G1 X15.854 Y181.678 E2.40285
G1 X15.428 Y181.763 E2.42813
G1 X15 Y181.791 E2.45309
G1 X14.572 Y181.763 E2.47805
G1 X14.146 Y181.678 E2.50333
G1 X13.741 Y181.54 E2.52823
G1 X13.356 Y181.35 E2.55321
G1 X12.988 Y181.103 E2.579
G1 X12.678 Y180.831 E2.603
G1 X12.522 Y180.664 E2.6163
G1 X12.264 Y180.328 E2.64095
G1 X12.05 Y179.957 E2.66587
G1 X11.881 Y179.546 E2.69173
G1 X11.774 Y179.148 E2.71571
G1 X11.736 Y178.913 E2.72956
G1 X11.709 Y178.5 E2.75365
G1 X11.737 Y178.077 E2.77832
G1 X11.774 Y177.852 E2.79159
G1 X11.884 Y177.444 E2.81618
G1 X12.05 Y177.043 E2.84144
G1 X12.264 Y176.672 E2.86636
G1 X12.522 Y176.336 E2.89101
G1 X12.678 Y176.169 E2.90431
G1 X12.995 Y175.891 E2.92885
G1 X13.356 Y175.649 E2.95414
G1 X13.741 Y175.46 E2.9791
G1 X14.146 Y175.322 E3.004
G1 X14.572 Y175.237 E3.02928
G1 X14.983 Y175.21 E3.05325
G1 X15.221 Y175.217 E3.06711
G1 X15.635 Y175.272 E3.09141
G1 X15.858 Y175.324 E3.10474
G1 X16.259 Y175.46 E3.12938
G1 X16.644 Y175.65 E3.15436
G1 X17.012 Y175.897 E3.18015
G1 X17.253 Y176.108 E3.19879
M204 S2500
G1 X17.547 Y176.073 F7200
G1 X17.685 Y175.825
M204 S2000
;TYPE:Perimeter
G1 F3000
G1 X17.86 Y176.012 E3.21369
G1 X18.153 Y176.394 E3.24171
G1 X18.4 Y176.822 E3.27047
G1 X18.594 Y177.294 E3.30017
G1 X18.715 Y177.748 E3.32751
G1 X18.761 Y178.031 E3.3442
G1 X18.792 Y178.5 E3.37155
G1 X18.76 Y178.98 E3.39955
G1 X18.715 Y179.254 E3.41571
G1 X18.591 Y179.717 E3.4436
G1 X18.4 Y180.179 E3.47269
G1 X18.153 Y180.606 E3.5014
G1 X17.86 Y180.988 E3.52942
G1 X17.67 Y181.191 E3.5456
G1 X17.31 Y181.507 E3.57348
G1 X16.894 Y181.784 E3.60256
G1 X16.451 Y182.003 E3.63132
G1 X15.983 Y182.162 E3.66008
G1 X15.493 Y182.259 E3.68915
G1 X15 Y182.292 E3.7179
G1 X14.507 Y182.259 E3.74665
G1 X14.017 Y182.162 E3.77572
G1 X13.549 Y182.003 E3.80448
G1 X13.105 Y181.784 E3.83329
G1 X12.682 Y181.5 E3.86294
G1 X12.33 Y181.19 E3.89024
G1 X12.14 Y180.988 E3.90638
G1 X11.847 Y180.606 E3.9344
G1 X11.6 Y180.178 E3.96316
G1 X11.406 Y179.706 E3.99286
G1 X11.285 Y179.252 E4.0202
G1 X11.239 Y178.969 E4.03689
G1 X11.208 Y178.5 E4.06424
G1 X11.24 Y178.02 E4.09224
G1 X11.285 Y177.746 E4.1084
G1 X11.409 Y177.283 E4.13629
G1 X11.6 Y176.821 E4.16538
G1 X11.847 Y176.394 E4.19409
G1 X12.14 Y176.012 E4.22211
G1 X12.33 Y175.809 E4.23829
G1 X12.69 Y175.493 E4.26617
G1 X13.106 Y175.216 E4.29525
G1 X13.549 Y174.997 E4.32401
G1 X14.017 Y174.838 E4.35277
G1 X14.507 Y174.741 E4.38184
G1 X14.974 Y174.71 E4.40908
G1 X15.261 Y174.718 E4.42579
G1 X15.725 Y174.779 E4.45302
G1 X15.995 Y174.842 E4.46915
G1 X16.451 Y174.997 E4.49718
G1 X16.895 Y175.216 E4.52599
G1 X17.318 Y175.5 E4.55564
G1 X17.641 Y175.784 E4.58067
M204 S2500
G1 E3.18067 F4800
;WIPE_START
G1 F5760
G1 X17.86 Y176.012 E2.93039
G1 X18.129 Y176.363 E2.58067
;WIPE_END
G92 E0
G1 X18.856 Y53.379 F7200
G1 E2 F4800
M204 S2000
G1 F3000
G1 X18.973 Y53.121 E2.01649
G1 X19.146 Y52.613 E2.04772
G1 X19.256 Y52.058 E2.08065
G1 X19.292 Y51.501 E2.11313
G1 X19.257 Y50.953 E2.14509
G1 X19.146 Y50.389 E2.17854
G1 X18.973 Y49.879 E2.20988
G1 X18.838 Y49.582 E2.22887
G1 X18.579 Y49.133 E2.25904
G1 X18.383 Y48.86 E2.2786
G1 X18.035 Y48.465 E2.30924
G1 X17.392 Y47.9 E2.35905
G1 X27.609 Y47.9 E2.95363
G1 X26.965 Y48.464 E3.00345
G1 X26.617 Y48.86 E3.03413
G1 X26.42 Y49.133 E3.05372
G1 X26.162 Y49.582 E3.08386
G1 X26.027 Y49.879 E3.10285
G1 X25.854 Y50.387 E3.13408
G1 X25.744 Y50.942 E3.16701
G1 X25.708 Y51.499 E3.19949
G1 X25.743 Y52.047 E3.23145
G1 X25.854 Y52.611 E3.2649
G1 X26.027 Y53.121 E3.29624
G1 X26.162 Y53.418 E3.31523
G1 X26.431 Y53.885 E3.34659
G1 X26.772 Y54.329 E3.37917
G1 X27.171 Y54.728 E3.41201
G1 X27.597 Y55.055 E3.44326
G1 X27.874 Y55.228 E3.46227
G1 X28.339 Y55.457 E3.49243
G1 X28.654 Y55.574 E3.51199
G1 X29.143 Y55.705 E3.54145
G1 X29.475 Y55.758 E3.56102
G1 X30 Y55.792 E3.59164
G1 X30.525 Y55.758 E3.62226
G1 X30.857 Y55.705 E3.64183
G1 X31.346 Y55.574 E3.67129
G1 X31.661 Y55.457 E3.69085
G1 X32.115 Y55.233 E3.72031
G1 X32.401 Y55.056 E3.73988
G1 X32.829 Y54.728 E3.77126
G1 X33.228 Y54.329 E3.8041
G1 X33.569 Y53.885 E3.83668
G1 X33.838 Y53.418 E3.86804
G1 X33.973 Y53.121 E3.88703
G1 X34.146 Y52.613 E3.91826
G1 X34.256 Y52.058 E3.95119
G1 X34.292 Y51.501 E3.98367
G1 X34.257 Y50.953 E4.01563
G1 X34.146 Y50.389 E4.04908
G1 X33.973 Y49.879 E4.08042
G1 X33.838 Y49.582 E4.09941
G1 X33.58 Y49.133 E4.12955
G1 X33.383 Y48.86 E4.14914
G1 X33.035 Y48.465 E4.17978
G1 X32.392 Y47.9 E4.22959
G1 X197.321 Y47.9 E13.82762
G1 X197.39 Y48.103 E13.8401
G1 X197.188 Y48.259 E13.85495
G1 X196.95 Y48.482 E13.87393
G1 X196.602 Y48.877 E13.90457
G1 X196.277 Y49.364 E13.93864
G1 X196.034 Y49.858 E13.97068
G1 X195.854 Y50.389 E14.00331
G1 X195.743 Y50.953 E14.03676
G1 X195.708 Y51.5 E14.06866
G1 X195.743 Y52.047 E14.10056
G1 X195.854 Y52.611 E14.13401
G1 X196.034 Y53.142 E14.16664
G1 X196.276 Y53.634 E14.19855
G1 X196.595 Y54.113 E14.23204
G1 X196.95 Y54.518 E14.26338
G1 X197.188 Y54.741 E14.28236
G1 X197.597 Y55.055 E14.31237
G1 X197.874 Y55.228 E14.33138
G1 X198.339 Y55.457 E14.36154
G1 X198.654 Y55.574 E14.3811
G1 X199.143 Y55.705 E14.41056
G1 X199.475 Y55.758 E14.43013
G1 X200 Y55.792 E14.46075
G1 X200.525 Y55.758 E14.49137
G1 X200.857 Y55.705 E14.51094
G1 X201.346 Y55.574 E14.5404
G1 X201.661 Y55.457 E14.55996
G1 X202.126 Y55.228 E14.59012
G1 X202.403 Y55.055 E14.60913
G1 X202.812 Y54.741 E14.63914
G1 X203.05 Y54.518 E14.65812
G1 X203.398 Y54.123 E14.68876
G1 X203.723 Y53.636 E14.72283
G1 X203.966 Y53.142 E14.75487
G1 X204.146 Y52.611 E14.7875
G1 X204.257 Y52.047 E14.82095
G1 X204.292 Y51.5 E14.85285
G1 X204.257 Y50.953 E14.88475
G1 X204.146 Y50.389 E14.9182
G1 X203.966 Y49.858 E14.95083
G1 X203.723 Y49.364 E14.98287
G1 X203.398 Y48.877 E15.01694
G1 X203.05 Y48.482 E15.04758
G1 X202.812 Y48.259 E15.06656
G1 X202.61 Y48.103 E15.08141
G1 X202.679 Y47.9 E15.09389
G1 X212.321 Y47.9 E15.65501
G1 X212.39 Y48.103 E15.66749
G1 X212.188 Y48.259 E15.68234
G1 X211.95 Y48.482 E15.70132
G1 X211.602 Y48.877 E15.73196
G1 X211.277 Y49.364 E15.76603
G1 X211.034 Y49.858 E15.79807
G1 X210.854 Y50.389 E15.8307
G1 X210.743 Y50.953 E15.86415
G1 X210.708 Y51.5 E15.89605
G1 X210.743 Y52.047 E15.92795
G1 X210.854 Y52.611 E15.9614
G1 X211.034 Y53.142 E15.99403
G1 X211.276 Y53.634 E16.02594
G1 X211.595 Y54.113 E16.05943
G1 X211.95 Y54.518 E16.09077
G1 X212.188 Y54.741 E16.10975
G1 X212.597 Y55.055 E16.13976
G1 X212.874 Y55.228 E16.15877
G1 X213.339 Y55.457 E16.18893
G1 X213.654 Y55.574 E16.20849
G1 X214.143 Y55.705 E16.23795
G1 X214.475 Y55.758 E16.25752
G1 X215 Y55.792 E16.28814
G1 X215.525 Y55.758 E16.31876
G1 X215.857 Y55.705 E16.33833
G1 X216.346 Y55.574 E16.36779
G1 X216.661 Y55.457 E16.38735
G1 X217.126 Y55.228 E16.41751
G1 X217.403 Y55.055 E16.43652
G1 X217.812 Y54.741 E16.46653
G1 X218.05 Y54.518 E16.48551
G1 X218.398 Y54.123 E16.51615
G1 X218.723 Y53.636 E16.55022
G1 X218.966 Y53.142 E16.58226
G1 X219.146 Y52.611 E16.61489
G1 X219.257 Y52.047 E16.64834
G1 X219.292 Y51.5 E16.68024
G1 X219.257 Y50.953 E16.71214
G1 X219.146 Y50.389 E16.74559
G1 X218.966 Y49.858 E16.77822
G1 X218.723 Y49.364 E16.81026
G1 X218.398 Y48.877 E16.84433
G1 X218.05 Y48.482 E16.87497
G1 X217.812 Y48.259 E16.89395
G1 X217.61 Y48.103 E16.9088
G1 X217.679 Y47.9 E16.92128
G1 X221.1 Y47.9 E17.12036
G1 X221.1 Y182.1 E24.93012
G1 X217.679 Y182.1 E25.1292
G1 X217.61 Y181.897 E25.14168
G1 X217.829 Y181.728 E25.15778
G1 X218.228 Y181.329 E25.19062
G1 X218.555 Y180.903 E25.22187
G1 X218.728 Y180.626 E25.24088
G1 X218.966 Y180.143 E25.27222
G1 X219.146 Y179.611 E25.3049
G1 X219.257 Y179.047 E25.33835
G1 X219.292 Y178.5 E25.37025
G1 X219.257 Y177.953 E25.40215
G1 X219.146 Y177.389 E25.4356
G1 X218.966 Y176.857 E25.46828
G1 X218.728 Y176.374 E25.49962
G1 X218.555 Y176.097 E25.51863
G1 X218.228 Y175.671 E25.54988
G1 X217.829 Y175.272 E25.58272
G1 X217.403 Y174.945 E25.61397
G1 X217.126 Y174.772 E25.63298
G1 X216.643 Y174.534 E25.66432
G1 X216.133 Y174.361 E25.69566
G1 X215.815 Y174.287 E25.71466
G1 X215.301 Y174.219 E25.74483
G1 X214.965 Y174.209 E25.76439
G1 X214.441 Y174.244 E25.79495
G1 X213.887 Y174.354 E25.82782
G1 X213.357 Y174.534 E25.86039
G1 X212.874 Y174.772 E25.89173
G1 X212.597 Y174.945 E25.91074
G1 X212.171 Y175.272 E25.94199
G1 X211.772 Y175.671 E25.97483
G1 X211.445 Y176.097 E26.00608
G1 X211.272 Y176.374 E26.02509
G1 X211.034 Y176.857 E26.05643
G1 X210.854 Y177.389 E26.08911
G1 X210.743 Y177.953 E26.12256
G1 X210.708 Y178.5 E26.15446
G1 X210.743 Y179.047 E26.18636
G1 X210.854 Y179.611 E26.21981
G1 X211.034 Y180.142 E26.25244
G1 X211.267 Y180.615 E26.28312
G1 X211.444 Y180.901 E26.30269
G1 X211.772 Y181.329 E26.33407
G1 X212.171 Y181.728 E26.36691
G1 X212.39 Y181.897 E26.38301
G1 X212.321 Y182.1 E26.39549
G1 X202.679 Y182.1 E26.95661
G1 X202.61 Y181.897 E26.96909
G1 X202.829 Y181.728 E26.98519
G1 X203.228 Y181.329 E27.01803
G1 X203.555 Y180.903 E27.04928
G1 X203.728 Y180.626 E27.06829
G1 X203.966 Y180.143 E27.09963
G1 X204.146 Y179.611 E27.13231
G1 X204.257 Y179.047 E27.16576
G1 X204.292 Y178.5 E27.19766
G1 X204.257 Y177.953 E27.22956
G1 X204.146 Y177.389 E27.26301
G1 X203.966 Y176.857 E27.29569
G1 X203.728 Y176.374 E27.32703
G1 X203.555 Y176.097 E27.34604
G1 X203.228 Y175.671 E27.37729
G1 X202.829 Y175.272 E27.41013
G1 X202.403 Y174.945 E27.44138
G1 X202.126 Y174.772 E27.46039
G1 X201.643 Y174.534 E27.49173
G1 X201.133 Y174.361 E27.52307
G1 X200.815 Y174.287 E27.54207
G1 X200.301 Y174.219 E27.57224
G1 X199.965 Y174.209 E27.5918
G1 X199.441 Y174.244 E27.62236
G1 X198.887 Y174.354 E27.65523
G1 X198.357 Y174.534 E27.6878
G1 X197.874 Y174.772 E27.71914
G1 X197.597 Y174.945 E27.73815
G1 X197.171 Y175.272 E27.7694
G1 X196.772 Y175.671 E27.80224
G1 X196.445 Y176.097 E27.83349
G1 X196.272 Y176.374 E27.8525
G1 X196.034 Y176.857 E27.88384
G1 X195.854 Y177.389 E27.91652
G1 X195.743 Y177.953 E27.94997
G1 X195.708 Y178.5 E27.98187
G1 X195.743 Y179.047 E28.01377
G1 X195.854 Y179.611 E28.04722
G1 X196.034 Y180.142 E28.07985
G1 X196.267 Y180.615 E28.11053
G1 X196.444 Y180.901 E28.1301
G1 X196.772 Y181.329 E28.16148
