; generated by PrusaSlicer 2.6.0+MacOS-x64 on 2023-08-06 at 15:04:14 UTC

; 

; external perimeters extrusion width = 0.45mm
; perimeters extrusion width = 0.40mm
; infill extrusion width = 0.45mm
; solid infill extrusion width = 0.50mm
; top infill extrusion width = 0.45mm
; support material extrusion width = 0.42mm
; first layer extrusion width = 0.56mm

M201 X2500 Y2500 Z800 E2500 ; sets maximum accelerations, mm/sec^2
M203 X300 Y250 Z8 E80 ; sets maximum feedrates, mm / sec
M204 S2500 T2500 ; sets acceleration (S) and retract acceleration (R), mm/sec^2
M205 X15.00 Y10.00 Z2.00 E10.00 ; sets the jerk limits, mm/sec
M205 S0 T0 ; sets the minimum extruding and travel feed rate, mm/sec
;TYPE:Custom
G90 ; use absolute coordinates
M83 ; extruder relative mode
M104 S215 ; set extruder temp
M140 S60 ; set bed temp
M190 S60 ; wait for bed temp
M109 S215 ; wait for extruder temp
G28                                        ; move X/Y/Z to min endstops
G1 Z0.28                                   ; lift nozzle a bit 
G92 E0 
G1 Y3 F1800                                    ; zero the extruded length 
G1 X60  E25 F500                       ; Extrude 25mm of filament in a 5cm line. 
G92 E0                                     ; zero the extruded length again 
G1 E-2 F500                                ; Retract a little 
G1 X70 F4000                              ; Quickly wipe away from the filament line
M117
G21 ; set units to millimeters
G90 ; use absolute coordinates
M82 ; use absolute distances for extrusion
G92 E0
M107
;LAYER_CHANGE
;Z:0.28
;HEIGHT:0.28
; BEFORE_LAYER_CHANGE 0 @ 0.28mm
G1 E-2 F4800
G92 E0
G1 Z.28 F7200
; AFTER_LAYER_CHANGE 0 @ 0.28mm
G1 X222.1 Y46.9
G1 E2 F4800
M204 S2000
;TYPE:External perimeter
;WIDTH:0.56
G1 F3000
G1 X222.1 Y183.1 E9.92615
G1 X7.9 Y183.1 E22.3915
G1 X7.9 Y46.9 E30.31765
G1 X222.04 Y46.9 E42.77951
M204 S2500
G1 X221.969 Y47.278 F7200
G1 X221.6 Y47.4
M204 S2000
;TYPE:Perimeter
G1 F3000
G1 X221.6 Y182.6 E50.64747
G1 X8.4 Y182.6 E63.05463
G1 X8.4 Y47.4 E70.92259
G1 X221.54 Y47.4 E83.32626
M204 S2500
G1 E81.92626 F4800
;WIPE_START
G1 F5760
G1 X221.54 Y48.158 E81.32626
;WIPE_END
G92 E0
G1 X30.29 Y175.226 F7200
G1 E2 F4800
M204 S2000
;TYPE:External perimeter
G1 F3000
G1 X30.635 Y175.272 E2.02025
G1 X30.858 Y175.324 E2.03358
G1 X31.259 Y175.46 E2.05822
G1 X31.639 Y175.647 E2.08287
G1 X31.833 Y175.768 E2.09618
G1 X32.168 Y176.025 E2.12075
G1 X32.475 Y176.332 E2.14602
G1 X32.732 Y176.667 E2.17059
G1 X32.853 Y176.861 E2.1839
G1 X33.04 Y177.241 E2.20855
G1 X33.178 Y177.647 E2.2335
G1 X33.264 Y178.083 E2.25936
G1 X33.291 Y178.5 E2.28368
G1 X33.263 Y178.928 E2.30864
G1 X33.178 Y179.354 E2.33392
G1 X33.04 Y179.759 E2.35882
G1 X32.853 Y180.139 E2.38347
G1 X32.732 Y180.333 E2.39678
G1 X32.475 Y180.668 E2.42135
G1 X32.168 Y180.975 E2.44662
G1 X31.833 Y181.232 E2.47119
G1 X31.63 Y181.357 E2.48506
G1 X31.259 Y181.54 E2.50913
G1 X30.854 Y181.678 E2.53403
G1 X30.428 Y181.763 E2.55931
G1 X30 Y181.791 E2.58427
G1 X29.572 Y181.763 E2.60923
G1 X29.146 Y181.678 E2.63451
G1 X28.741 Y181.54 E2.65941
G1 X28.361 Y181.353 E2.68406
G1 X28.167 Y181.232 E2.69737
G1 X27.832 Y180.975 E2.72194
G1 X27.525 Y180.668 E2.74721
G1 X27.268 Y180.333 E2.77178
G1 X27.147 Y180.139 E2.78509
G1 X26.96 Y179.759 E2.80974
G1 X26.822 Y179.353 E2.83469
G1 X26.736 Y178.917 E2.86055
G1 X26.709 Y178.5 E2.88487
G1 X26.737 Y178.072 E2.90983
G1 X26.822 Y177.646 E2.93511
G1 X26.96 Y177.241 E2.96001
G1 X27.147 Y176.861 E2.98466
G1 X27.268 Y176.667 E2.99797
G1 X27.525 Y176.332 E3.02254
G1 X27.832 Y176.025 E3.04781
G1 X28.167 Y175.768 E3.07238
G1 X28.37 Y175.643 E3.08625
G1 X28.741 Y175.46 E3.11032
G1 X29.146 Y175.322 E3.13522
G1 X29.572 Y175.237 E3.1605
G1 X29.983 Y175.21 E3.18447
G1 X30.23 Y175.218 E3.19885
M204 S2500
G1 X30.488 Y174.94 F7200
G1 X30.283 Y174.721
M204 S2000
;TYPE:Perimeter
G1 F3000
G1 X30.725 Y174.779 E3.22479
G1 X30.995 Y174.842 E3.24092
G1 X31.451 Y174.997 E3.26895
G1 X31.883 Y175.21 E3.29698
G1 X32.118 Y175.356 E3.31308
G1 X32.498 Y175.648 E3.34097
G1 X32.852 Y176.002 E3.3701
G1 X33.144 Y176.382 E3.39799
G1 X33.29 Y176.617 E3.41409
G1 X33.503 Y177.049 E3.44212
G1 X33.662 Y177.518 E3.47094
G1 X33.76 Y178.018 E3.50059
G1 X33.792 Y178.5 E3.5287
G1 X33.759 Y178.993 E3.55745
G1 X33.662 Y179.483 E3.58652
G1 X33.503 Y179.951 E3.61528
G1 X33.29 Y180.383 E3.64331
G1 X33.144 Y180.618 E3.65941
G1 X32.852 Y180.998 E3.6873
G1 X32.498 Y181.352 E3.71643
G1 X32.117 Y181.644 E3.74437
G1 X31.873 Y181.795 E3.76107
G1 X31.451 Y182.003 E3.78845
G1 X30.983 Y182.162 E3.81721
G1 X30.493 Y182.259 E3.84628
G1 X30 Y182.292 E3.87503
G1 X29.507 Y182.259 E3.90378
G1 X29.017 Y182.162 E3.93285
G1 X28.549 Y182.003 E3.96161
G1 X28.117 Y181.79 E3.98964
G1 X27.882 Y181.644 E4.00574
G1 X27.502 Y181.352 E4.03363
G1 X27.148 Y180.998 E4.06276
G1 X26.856 Y180.618 E4.09065
G1 X26.71 Y180.383 E4.10675
G1 X26.497 Y179.951 E4.13478
G1 X26.338 Y179.482 E4.1636
G1 X26.24 Y178.982 E4.19325
G1 X26.208 Y178.5 E4.22136
G1 X26.241 Y178.007 E4.25011
G1 X26.338 Y177.517 E4.27918
G1 X26.497 Y177.049 E4.30794
G1 X26.71 Y176.617 E4.33597
G1 X26.856 Y176.382 E4.35207
G1 X27.148 Y176.002 E4.37996
G1 X27.502 Y175.648 E4.40909
G1 X27.883 Y175.356 E4.43703
G1 X28.127 Y175.205 E4.45373
G1 X28.549 Y174.997 E4.48111
G1 X29.017 Y174.838 E4.50987
G1 X29.507 Y174.741 E4.53894
G1 X29.974 Y174.71 E4.56618
G1 X30.223 Y174.717 E4.58068
M204 S2500
G1 E3.18068 F4800
;WIPE_START
G1 F5760
G1 X30.725 Y174.779 E2.78024
G1 X30.97 Y174.836 E2.58068
;WIPE_END
G92 E0
G1 X17.34 Y180.812 F7200
G1 E2 F4800
M204 S2000
;TYPE:External perimeter
G1 F3000
G1 X17.005 Y181.109 E2.02605
G1 X16.644 Y181.351 E2.05134
G1 X16.259 Y181.54 E2.0763
G1 X15.854 Y181.678 E2.1012
G1 X15.428 Y181.763 E2.12648
G1 X15 Y181.791 E2.15144
G1 X14.572 Y181.763 E2.1764
G1 X14.146 Y181.678 E2.20168
G1 X13.741 Y181.54 E2.22658
G1 X13.356 Y181.35 E2.25156
G1 X12.988 Y181.103 E2.27735
G1 X12.678 Y180.831 E2.30135
G1 X12.522 Y180.664 E2.31465
G1 X12.264 Y180.328 E2.3393
G1 X12.05 Y179.957 E2.36422
G1 X11.881 Y179.546 E2.39008
G1 X11.774 Y179.148 E2.41406
G1 X11.736 Y178.913 E2.42791
G1 X11.709 Y178.5 E2.452
G1 X11.737 Y178.077 E2.47667
G1 X11.774 Y177.852 E2.48994
G1 X11.884 Y177.444 E2.51453
G1 X12.05 Y177.043 E2.53979
G1 X12.264 Y176.672 E2.56471
G1 X12.522 Y176.336 E2.58936
G1 X12.678 Y176.169 E2.60266
G1 X12.995 Y175.891 E2.6272
G1 X13.356 Y175.649 E2.65249
G1 X13.741 Y175.46 E2.67745
G1 X14.146 Y175.322 E2.70235
G1 X14.572 Y175.237 E2.72763
G1 X14.983 Y175.21 E2.7516
G1 X15.221 Y175.217 E2.76546
G1 X15.635 Y175.272 E2.78976
G1 X15.858 Y175.324 E2.80309
G1 X16.259 Y175.46 E2.82773
G1 X16.644 Y175.65 E2.85271
G1 X17.012 Y175.897 E2.8785
G1 X17.322 Y176.169 E2.9025
G1 X17.478 Y176.336 E2.9158
G1 X17.736 Y176.672 E2.94045
G1 X17.95 Y177.043 E2.96537
G1 X18.119 Y177.454 E2.99123
G1 X18.226 Y177.852 E3.01521
G1 X18.264 Y178.087 E3.02906
G1 X18.291 Y178.5 E3.05315
G1 X18.263 Y178.923 E3.07782
G1 X18.226 Y179.148 E3.09109
G1 X18.116 Y179.556 E3.11568
G1 X17.95 Y179.957 E3.14094
G1 X17.736 Y180.328 E3.16586
G1 X17.381 Y180.768 E3.19876
M204 S2500
G1 X17.449 Y181.197 F7200
G1 X17.654 Y181.205
M204 S2000
;TYPE:Perimeter
G1 F3000
G1 X17.31 Y181.507 E3.2254
G1 X16.894 Y181.784 E3.25448
G1 X16.451 Y182.003 E3.28324
G1 X15.983 Y182.162 E3.312
G1 X15.493 Y182.259 E3.34107
G1 X15 Y182.292 E3.36982
G1 X14.507 Y182.259 E3.39857
G1 X14.017 Y182.162 E3.42764
G1 X13.549 Y182.003 E3.4564
G1 X13.105 Y181.784 E3.48521
G1 X12.682 Y181.5 E3.51486
G1 X12.33 Y181.19 E3.54216
G1 X12.14 Y180.988 E3.5583
G1 X11.847 Y180.606 E3.58632
G1 X11.6 Y180.178 E3.61508
G1 X11.406 Y179.706 E3.64478
G1 X11.285 Y179.252 E3.67212
G1 X11.239 Y178.969 E3.68881
G1 X11.208 Y178.5 E3.71616
G1 X11.24 Y178.02 E3.74416
G1 X11.285 Y177.746 E3.76032
G1 X11.409 Y177.283 E3.78821
G1 X11.6 Y176.821 E3.8173
G1 X11.847 Y176.394 E3.84601
G1 X12.14 Y176.012 E3.87403
G1 X12.33 Y175.809 E3.89021
G1 X12.69 Y175.493 E3.91809
G1 X13.106 Y175.216 E3.94717
G1 X13.549 Y174.997 E3.97593
G1 X14.017 Y174.838 E4.00469
G1 X14.507 Y174.741 E4.03376
G1 X14.974 Y174.71 E4.061
G1 X15.261 Y174.718 E4.07771
G1 X15.725 Y174.779 E4.10494
G1 X15.995 Y174.842 E4.12107
G1 X16.451 Y174.997 E4.1491
G1 X16.895 Y175.216 E4.17791
G1 X17.318 Y175.5 E4.20756
G1 X17.67 Y175.81 E4.23486
G1 X17.86 Y176.012 E4.251
G1 X18.153 Y176.394 E4.27902
G1 X18.4 Y176.822 E4.30778
G1 X18.594 Y177.294 E4.33748
G1 X18.715 Y177.748 E4.36482
G1 X18.761 Y178.031 E4.38151
G1 X18.792 Y178.5 E4.40886
G1 X18.76 Y178.98 E4.43686
G1 X18.715 Y179.254 E4.45302
G1 X18.591 Y179.717 E4.48091
G1 X18.4 Y180.179 E4.51
G1 X18.153 Y180.606 E4.53871
G1 X17.86 Y180.988 E4.56673
G1 X17.697 Y181.162 E4.5806
M204 S2500
G1 E3.1806 F4800
;WIPE_START
G1 F5760
G1 X17.31 Y181.507 E2.77016
G1 X17.111 Y181.64 E2.5806
;WIPE_END
G92 E0
G1 X18.048 Y54.518 F7200
G1 E2 F4800
M204 S2000
G1 F3000
G1 X18.241 Y54.312 E2.01643
G1 X18.569 Y53.885 E2.04776
G1 X18.838 Y53.418 E2.07912
G1 X18.973 Y53.121 E2.09811
G1 X19.146 Y52.613 E2.12934
G1 X19.256 Y52.058 E2.16227
G1 X19.292 Y51.501 E2.19475
G1 X19.257 Y50.953 E2.22671
G1 X19.146 Y50.389 E2.26016
G1 X18.973 Y49.879 E2.2915
G1 X18.838 Y49.582 E2.31049
G1 X18.579 Y49.133 E2.34066
G1 X18.383 Y48.86 E2.36022
G1 X18.035 Y48.465 E2.39086
G1 X17.392 Y47.9 E2.44067
G1 X27.609 Y47.9 E3.03525
G1 X26.965 Y48.464 E3.08507
G1 X26.617 Y48.86 E3.11575
G1 X26.42 Y49.133 E3.13534
G1 X26.162 Y49.582 E3.16548
G1 X26.027 Y49.879 E3.18447
G1 X25.854 Y50.387 E3.2157
G1 X25.744 Y50.942 E3.24863
G1 X25.708 Y51.499 E3.28111
G1 X25.743 Y52.047 E3.31307
G1 X25.854 Y52.611 E3.34652
G1 X26.027 Y53.121 E3.37786
G1 X26.162 Y53.418 E3.39685
G1 X26.431 Y53.885 E3.42821
G1 X26.772 Y54.329 E3.46079
G1 X27.171 Y54.728 E3.49363
G1 X27.597 Y55.055 E3.52488
G1 X27.874 Y55.228 E3.54389
G1 X28.339 Y55.457 E3.57405
G1 X28.654 Y55.574 E3.59361
G1 X29.143 Y55.705 E3.62307
G1 X29.475 Y55.758 E3.64264
G1 X30 Y55.792 E3.67326
G1 X30.525 Y55.758 E3.70388
G1 X30.857 Y55.705 E3.72345
G1 X31.346 Y55.574 E3.75291
G1 X31.661 Y55.457 E3.77247
G1 X32.115 Y55.233 E3.80193
G1 X32.401 Y55.056 E3.8215
G1 X32.829 Y54.728 E3.85288
G1 X33.228 Y54.329 E3.88572
G1 X33.569 Y53.885 E3.9183
G1 X33.838 Y53.418 E3.94966
G1 X33.973 Y53.121 E3.96865
G1 X34.146 Y52.613 E3.99988
G1 X34.256 Y52.058 E4.03281
G1 X34.292 Y51.501 E4.06529
G1 X34.257 Y50.953 E4.09725
G1 X34.146 Y50.389 E4.1307
G1 X33.973 Y49.879 E4.16204
G1 X33.838 Y49.582 E4.18103
G1 X33.58 Y49.133 E4.21117
G1 X33.383 Y48.86 E4.23076
G1 X33.035 Y48.465 E4.2614
G1 X32.392 Y47.9 E4.31121
G1 X197.321 Y47.9 E13.90924
G1 X197.39 Y48.103 E13.92172
G1 X197.188 Y48.259 E13.93657
G1 X196.95 Y48.482 E13.95555
G1 X196.602 Y48.877 E13.98619
G1 X196.277 Y49.364 E14.02026
G1 X196.034 Y49.858 E14.0523
G1 X195.854 Y50.389 E14.08493
G1 X195.743 Y50.953 E14.11838
G1 X195.708 Y51.5 E14.15028
G1 X195.743 Y52.047 E14.18218
G1 X195.854 Y52.611 E14.21563
G1 X196.034 Y53.142 E14.24826
G1 X196.276 Y53.634 E14.28017
G1 X196.595 Y54.113 E14.31366
G1 X196.95 Y54.518 E14.345
G1 X197.188 Y54.741 E14.36398
G1 X197.597 Y55.055 E14.39399
G1 X197.874 Y55.228 E14.413
G1 X198.339 Y55.457 E14.44316
G1 X198.654 Y55.574 E14.46272
G1 X199.143 Y55.705 E14.49218
G1 X199.475 Y55.758 E14.51175
G1 X200 Y55.792 E14.54237
G1 X200.525 Y55.758 E14.57299
G1 X200.857 Y55.705 E14.59256
G1 X201.346 Y55.574 E14.62202
G1 X201.661 Y55.457 E14.64158
G1 X202.126 Y55.228 E14.67174
G1 X202.403 Y55.055 E14.69075
G1 X202.812 Y54.741 E14.72076
G1 X203.05 Y54.518 E14.73974
G1 X203.398 Y54.123 E14.77038
G1 X203.723 Y53.636 E14.80445
G1 X203.966 Y53.142 E14.83649
G1 X204.146 Y52.611 E14.86912
G1 X204.257 Y52.047 E14.90257
G1 X204.292 Y51.5 E14.93447
G1 X204.257 Y50.953 E14.96637
G1 X204.146 Y50.389 E14.99982
G1 X203.966 Y49.858 E15.03245
G1 X203.723 Y49.364 E15.06449
G1 X203.398 Y48.877 E15.09856
G1 X203.05 Y48.482 E15.1292
G1 X202.812 Y48.259 E15.14818
G1 X202.61 Y48.103 E15.16303
G1 X202.679 Y47.9 E15.17551
G1 X212.321 Y47.9 E15.73663
G1 X212.39 Y48.103 E15.74911
G1 X212.188 Y48.259 E15.76396
G1 X211.95 Y48.482 E15.78294
G1 X211.602 Y48.877 E15.81358
G1 X211.277 Y49.364 E15.84765
G1 X211.034 Y49.858 E15.87969
G1 X210.854 Y50.389 E15.91232
G1 X210.743 Y50.953 E15.94577
G1 X210.708 Y51.5 E15.97767
G1 X210.743 Y52.047 E16.00957
G1 X210.854 Y52.611 E16.04302
G1 X211.034 Y53.142 E16.07565
G1 X211.276 Y53.634 E16.10756
G1 X211.595 Y54.113 E16.14105
G1 X211.95 Y54.518 E16.17239
G1 X212.188 Y54.741 E16.19137
G1 X212.597 Y55.055 E16.22138
G1 X212.874 Y55.228 E16.24039
G1 X213.339 Y55.457 E16.27055
G1 X213.654 Y55.574 E16.29011
G1 X214.143 Y55.705 E16.31957
G1 X214.475 Y55.758 E16.33914
G1 X215 Y55.792 E16.36976
G1 X215.525 Y55.758 E16.40038
G1 X215.857 Y55.705 E16.41995
G1 X216.346 Y55.574 E16.44941
G1 X216.661 Y55.457 E16.46897
G1 X217.126 Y55.228 E16.49913
G1 X217.403 Y55.055 E16.51814
G1 X217.812 Y54.741 E16.54815
G1 X218.05 Y54.518 E16.56713
G1 X218.398 Y54.123 E16.59777
G1 X218.723 Y53.636 E16.63184
G1 X218.966 Y53.142 E16.66388
G1 X219.146 Y52.611 E16.69651
G1 X219.257 Y52.047 E16.72996
G1 X219.292 Y51.5 E16.76186
G1 X219.257 Y50.953 E16.79376
G1 X219.146 Y50.389 E16.82721
G1 X218.966 Y49.858 E16.85984
G1 X218.723 Y49.364 E16.89188
G1 X218.398 Y48.877 E16.92595
G1 X218.05 Y48.482 E16.95659
G1 X217.812 Y48.259 E16.97557
G1 X217.61 Y48.103 E16.99042
G1 X217.679 Y47.9 E17.0029
G1 X221.1 Y47.9 E17.20198
G1 X221.1 Y182.1 E25.01174
G1 X217.679 Y182.1 E25.21082
G1 X217.61 Y181.897 E25.2233
G1 X217.829 Y181.728 E25.2394
G1 X218.228 Y181.329 E25.27224
G1 X218.555 Y180.903 E25.30349
G1 X218.728 Y180.626 E25.3225
G1 X218.966 Y180.143 E25.35384
G1 X219.146 Y179.611 E25.38652
G1 X219.257 Y179.047 E25.41997
G1 X219.292 Y178.5 E25.45187
G1 X219.257 Y177.953 E25.48377
G1 X219.146 Y177.389 E25.51722
G1 X218.966 Y176.857 E25.5499
G1 X218.728 Y176.374 E25.58124
G1 X218.555 Y176.097 E25.60025
G1 X218.228 Y175.671 E25.6315
G1 X217.829 Y175.272 E25.66434
G1 X217.403 Y174.945 E25.69559
G1 X217.126 Y174.772 E25.7146
G1 X216.643 Y174.534 E25.74594
G1 X216.133 Y174.361 E25.77728
G1 X215.815 Y174.287 E25.79628
G1 X215.301 Y174.219 E25.82645
G1 X214.965 Y174.209 E25.84601
G1 X214.441 Y174.244 E25.87657
G1 X213.887 Y174.354 E25.90944
G1 X213.357 Y174.534 E25.94201
G1 X212.874 Y174.772 E25.97335
G1 X212.597 Y174.945 E25.99236
G1 X212.171 Y175.272 E26.02361
G1 X211.772 Y175.671 E26.05645
G1 X211.445 Y176.097 E26.0877
G1 X211.272 Y176.374 E26.10671
G1 X211.034 Y176.857 E26.13805
G1 X210.854 Y177.389 E26.17073
G1 X210.743 Y177.953 E26.20418
G1 X210.708 Y178.5 E26.23608
G1 X210.743 Y179.047 E26.26798
G1 X210.854 Y179.611 E26.30143
G1 X211.034 Y180.142 E26.33406
G1 X211.267 Y180.615 E26.36474
G1 X211.444 Y180.901 E26.38431
G1 X211.772 Y181.329 E26.41569
G1 X212.171 Y181.728 E26.44853
G1 X212.39 Y181.897 E26.46463
G1 X212.321 Y182.1 E26.47711
G1 X202.679 Y182.1 E27.03823
G1 X202.61 Y181.897 E27.05071
G1 X202.829 Y181.728 E27.06681
G1 X203.228 Y181.329 E27.09965
G1 X203.555 Y180.903 E27.1309
G1 X203.728 Y180.626 E27.14991
G1 X203.966 Y180.143 E27.18125
G1 X204.146 Y179.611 E27.21393
G1 X204.257 Y179.047 E27.24738
G1 X204.292 Y178.5 E27.27928
G1 X204.257 Y177.953 E27.31118
G1 X204.146 Y177.389 E27.34463
G1 X203.966 Y176.857 E27.37731
G1 X203.728 Y176.374 E27.40865
G1 X203.555 Y176.097 E27.42766
G1 X203.228 Y175.671 E27.45891
G1 X202.829 Y175.272 E27.49175
G1 X202.403 Y174.945 E27.523
G1 X202.126 Y174.772 E27.54201
G1 X201.643 Y174.534 E27.57335
G1 X201.133 Y174.361 E27.60469
G1 X200.815 Y174.287 E27.62369
G1 X200.301 Y174.219 E27.65386
G1 X199.965 Y174.209 E27.67342
G1 X199.441 Y174.244 E27.70398
G1 X198.887 Y174.354 E27.73685
G1 X198.357 Y174.534 E27.76942
G1 X197.874 Y174.772 E27.80076
G1 X197.597 Y174.945 E27.81977
G1 X197.171 Y175.272 E27.85102
G1 X196.772 Y175.671 E27.88386
G1 X196.445 Y176.097 E27.91511
G1 X196.272 Y176.374 E27.93412
G1 X196.034 Y176.857 E27.96546
G1 X195.854 Y177.389 E27.99814
G1 X195.743 Y177.953 E28.03159
G1 X195.708 Y178.5 E28.06349
G1 X195.743 Y179.047 E28.09539
G1 X195.854 Y179.611 E28.12884
G1 X196.034 Y180.142 E28.16147
G1 X196.267 Y180.615 E28.19215
G1 X196.444 Y180.901 E28.21172
